/* XPM */
static char * enemy3_xpm[] = {
"33 32 11 1",
" 	c None",
".	c #141B1B",
"+	c #9CDB43",
"@	c #14A02E",
"#	c #D6F264",
"$	c #3D2936",
"%	c #A3A7C2",
"&	c #2C354D",
"*	c #F5FFE8",
"=	c #404973",
"-	c #59C135",
"                                 ",
"                                 ",
"                                 ",
"                                 ",
"                                 ",
"                                 ",
"                                 ",
"                                 ",
"         ...        ...          ",
"         .++........++.          ",
"         .@++######++@.          ",
"          .+++####+++.           ",
"          .++++++++++.           ",
"          .++++++++++.           ",
"          .+$$++++$$+.           ",
"         .++%&$++$&%++.          ",
"         .++*==++==*++.          ",
"          .++++@@++++.           ",
"          ..@++++++@.+.          ",
"         .+@-@@@@@@-@+.          ",
"         .+@--------..           ",
"         .++---..---.            ",
"          .+++-...@@.            ",
"           .+++.                 ",
"            .++.                 ",
"             ..                  ",
"                                 ",
"                                 ",
"                                 ",
"                                 ",
"                                 ",
"                                 "};
