/* XPM */
static char * wall12_xpm[] = {
"64 64 2 1",
" 	c #F8F0B7",
".	c #E8E192",
"          ........        ............        ........          ",
"          ........        ............        ........          ",
"        ........        ................        ........        ",
"        ........        ................        ........        ",
"      ........        ....................        ........      ",
"      ........        ....................        ........      ",
"    ........        ..........    ..........        ........    ",
"    ........        ..........    ..........        ........    ",
"  ........        ..........        ..........        ........  ",
"  ........        ..........        ..........        ........  ",
"........        ..........            ..........        ........",
"........        ..........            ..........        ........",
"......        ..........                ..........        ......",
"......        ..........                ..........        ......",
"....        ..........        ....        ..........        ....",
"....        ..........        ....        ..........        ....",
"..        ..........        ........        ..........        ..",
"..        ..........        ........        ..........        ..",
"        ..........        ............        ..........        ",
"        ..........        ............        ..........        ",
"      ..........        ................        ..........      ",
"      ..........        ................        ..........      ",
"    ..........        ........    ........        ..........    ",
"    ..........        ........    ........        ..........    ",
"  ..........        ........        ........        ..........  ",
"  ..........        ........        ........        ..........  ",
"..........        ........            ........        ..........",
"..........        ........            ........        ..........",
"........        ........                ........        ........",
"........        ........                ........        ........",
"......        ........                    ........        ......",
"......        ........                    ........        ......",
"......        ........                    ........        ......",
"......        ........                    ........        ......",
"........        ........                ........        ........",
"........        ........                ........        ........",
"..........        ........            ........        ..........",
"..........        ........            ........        ..........",
"  ..........        ........        ........        ..........  ",
"  ..........        ........        ........        ..........  ",
"    ..........        ........    ........        ..........    ",
"    ..........        ........    ........        ..........    ",
"      ..........        ................        ..........      ",
"      ..........        ................        ..........      ",
"        ..........        ............        ..........        ",
"        ..........        ............        ..........        ",
"..        ..........        ........        ..........        ..",
"..        ..........        ........        ..........        ..",
"....        ..........        ....        ..........        ....",
"....        ..........        ....        ..........        ....",
"......        ..........                ..........        ......",
"......        ..........                ..........        ......",
"........        ..........            ..........        ........",
"........        ..........            ..........        ........",
"  ........        ..........        ..........        ........  ",
"  ........        ..........        ..........        ........  ",
"    ........        ..........    ..........        ........    ",
"    ........        ..........    ..........        ........    ",
"      ........        ....................        ........      ",
"      ........        ....................        ........      ",
"        ........        ................        ........        ",
"        ........        ................        ........        ",
"          ........        ............        ........          ",
"          ........        ............        ........          "};
