/* XPM */
static char * wall16_xpm[] = {
"64 64 2 1",
" 	c #EFA38D",
".	c #F6B798",
"                                                                ",
"                                                                ",
"                                                                ",
"                                                                ",
"                                              ....              ",
"                                              ....              ",
"                                            ........            ",
"                                            ........            ",
"              ....                        ............          ",
"              ....                        ............          ",
"            ........                    ................        ",
"            ........                    ................        ",
"          ............                ....................      ",
"          ............                ....................      ",
"        ................            ........................    ",
"        ................            ........................    ",
"        ................            ........................    ",
"        ................            ........................    ",
"          ............                ....................      ",
"          ............                ....................      ",
"            ........                    ................        ",
"            ........                    ................        ",
"              ....                        ............          ",
"              ....                        ............          ",
"                                            ........            ",
"                                            ........            ",
"                                              ....              ",
"                                              ....              ",
"                                                                ",
"                                                                ",
"                                                                ",
"                                                                ",
"                                                                ",
"                                                                ",
"              ....                                              ",
"              ....                                              ",
"            ........                                            ",
"            ........                                            ",
"          ............                        ....              ",
"          ............                        ....              ",
"        ................                    ........            ",
"        ................                    ........            ",
"      ....................                ............          ",
"      ....................                ............          ",
"    ........................            ................        ",
"    ........................            ................        ",
"  ............................        ....................      ",
"  ............................        ....................      ",
"  ............................        ....................      ",
"  ............................        ....................      ",
"    ........................            ................        ",
"    ........................            ................        ",
"      ....................                ............          ",
"      ....................                ............          ",
"        ................                    ........            ",
"        ................                    ........            ",
"          ............                        ....              ",
"          ............                        ....              ",
"            ........                                            ",
"            ........                                            ",
"              ....                                              ",
"              ....                                              ",
"                                                                ",
"                                                                "};
