/* XPM */
static char * wall17_xpm[] = {
"64 64 2 1",
" 	c #C7C7C7",
".	c #DEDEDE",
"  ..........................................................    ",
"  ..........................................................    ",
"..............................................................  ",
"..............................................................  ",
"..............................................................  ",
"..............................................................  ",
"........    ......................................    ........  ",
"........    ......................................    ........  ",
"......        ..................................        ......  ",
"......        ..................................        ......  ",
"......        ..................................        ......  ",
"......        ..................................        ......  ",
"........    ......................................    ........  ",
"........    ......................................    ........  ",
"..............................................................  ",
"..............................................................  ",
"..............................................................  ",
"..............................................................  ",
"..............................................................  ",
"..............................................................  ",
"..............................................................  ",
"..............................................................  ",
"..............................................................  ",
"..............................................................  ",
"..............................................................  ",
"..............................................................  ",
"..............................................................  ",
"..............................................................  ",
"..............................................................  ",
"..............................................................  ",
"..............................................................  ",
"..............................................................  ",
"..............................................................  ",
"..............................................................  ",
"..............................................................  ",
"..............................................................  ",
"..............................................................  ",
"..............................................................  ",
"..............................................................  ",
"..............................................................  ",
"..............................................................  ",
"..............................................................  ",
"..............................................................  ",
"..............................................................  ",
"..............................................................  ",
"..............................................................  ",
"..............................................................  ",
"..............................................................  ",
"........    ......................................    ........  ",
"........    ......................................    ........  ",
"......        ..................................        ......  ",
"......        ..................................        ......  ",
"......        ..................................        ......  ",
"......        ..................................        ......  ",
"........    ......................................    ........  ",
"........    ......................................    ........  ",
"..............................................................  ",
"..............................................................  ",
"..............................................................  ",
"..............................................................  ",
"  ..........................................................    ",
"  ..........................................................    ",
"                                                                ",
"                                                                "};
