/* XPM */
static char * wall14_xpm[] = {
"64 64 2 1",
" 	c #758CEA",
".	c #8694EF",
"              ....                            ....              ",
"              ....                            ....              ",
"            ........                        ........            ",
"            ........                        ........            ",
"          ............                    ............          ",
"          ............                    ............          ",
"        ................                ................        ",
"        ................                ................        ",
"      ....................            ....................      ",
"      ....................            ....................      ",
"    ........................        ........................    ",
"    ........................        ........................    ",
"  ............................    ............................  ",
"  ............................    ............................  ",
"................................................................",
"................................................................",
"................................................................",
"................................................................",
"  ............................    ............................  ",
"  ............................    ............................  ",
"    ........................        ........................    ",
"    ........................        ........................    ",
"      ....................            ....................      ",
"      ....................            ....................      ",
"        ................                ................        ",
"        ................                ................        ",
"          ............                    ............          ",
"          ............                    ............          ",
"            ........                        ........            ",
"            ........                        ........            ",
"              ....                            ....              ",
"              ....                            ....              ",
"              ....                            ....              ",
"              ....                            ....              ",
"            ........                        ........            ",
"            ........                        ........            ",
"          ............                    ............          ",
"          ............                    ............          ",
"        ................                ................        ",
"        ................                ................        ",
"      ....................            ....................      ",
"      ....................            ....................      ",
"    ........................        ........................    ",
"    ........................        ........................    ",
"  ............................    ............................  ",
"  ............................    ............................  ",
"................................................................",
"................................................................",
"................................................................",
"................................................................",
"  ............................    ............................  ",
"  ............................    ............................  ",
"    ........................        ........................    ",
"    ........................        ........................    ",
"      ....................            ....................      ",
"      ....................            ....................      ",
"        ................                ................        ",
"        ................                ................        ",
"          ............                    ............          ",
"          ............                    ............          ",
"            ........                        ........            ",
"            ........                        ........            ",
"              ....                            ....              ",
"              ....                            ....              "};
