/* XPM */
static char * wall8_xpm[] = {
"256 256 13434 3",
"   	c #8182FF",
".  	c #8B83FD",
"+  	c #8983FF",
"@  	c #8887FE",
"#  	c #8878FF",
"$  	c #8078FF",
"%  	c #817CFD",
"&  	c #8274FF",
"*  	c #827CFF",
"=  	c #888BFE",
"-  	c #8C8BFF",
";  	c #7680FC",
">  	c #7F8AFF",
",  	c #8583FF",
"'  	c #8087FC",
")  	c #7C6FFD",
"!  	c #927CFB",
"~  	c #9A7CFE",
"{  	c #6A7CFA",
"]  	c #787FFF",
"^  	c #8B7CFD",
"/  	c #7078FD",
"(  	c #7E6CFC",
"_  	c #9374FE",
":  	c #8278FF",
"<  	c #7689FF",
"[  	c #857BFE",
"}  	c #8D81FF",
"|  	c #708EFC",
"1  	c #5C8FFA",
"2  	c #737CFB",
"3  	c #7F7CFF",
"4  	c #7F83FF",
"5  	c #7E82FF",
"6  	c #8074FE",
"7  	c #8187FF",
"8  	c #807DFF",
"9  	c #787CFF",
"0  	c #7B8FFF",
"a  	c #7D89FF",
"b  	c #747DFE",
"c  	c #7A78FF",
"d  	c #8274FD",
"e  	c #8878FD",
"f  	c #867FFF",
"g  	c #8180FF",
"h  	c #837CFF",
"i  	c #7E7DFD",
"j  	c #827DFE",
"k  	c #8882FE",
"l  	c #8988FD",
"m  	c #8593FE",
"n  	c #6B79FE",
"o  	c #7B80FE",
"p  	c #8280FD",
"q  	c #7B6FFF",
"r  	c #8278FD",
"s  	c #857CFD",
"t  	c #8381FF",
"u  	c #7C7CFE",
"v  	c #7983FF",
"w  	c #7C81FF",
"x  	c #7B77FF",
"y  	c #7D81FE",
"z  	c #8580FE",
"A  	c #8F84FE",
"B  	c #7F88FF",
"C  	c #7684FF",
"D  	c #8788FE",
"E  	c #8482FD",
"F  	c #7A7FFF",
"G  	c #7B87FD",
"H  	c #7882FE",
"I  	c #7878FE",
"J  	c #8383FF",
"K  	c #7B80FF",
"L  	c #8175FF",
"M  	c #816FFF",
"N  	c #8770FC",
"O  	c #8270FF",
"P  	c #7977FF",
"Q  	c #7788FE",
"R  	c #8381FC",
"S  	c #8688FF",
"T  	c #8383FD",
"U  	c #7D82FF",
"V  	c #7C82FE",
"W  	c #7C7BFD",
"X  	c #7978FF",
"Y  	c #797CFF",
"Z  	c #8C78FE",
"`  	c #8C71FE",
" . 	c #8375FF",
".. 	c #7F80FF",
"+. 	c #7D81FF",
"@. 	c #7F80FE",
"#. 	c #8579FF",
"$. 	c #8277FF",
"%. 	c #8580FF",
"&. 	c #8F8BFA",
"*. 	c #848BFF",
"=. 	c #7C86FF",
"-. 	c #7781FD",
";. 	c #827BFD",
">. 	c #827FFF",
",. 	c #7A84FF",
"'. 	c #7E83FF",
"). 	c #8486FF",
"!. 	c #8484FC",
"~. 	c #828CFD",
"{. 	c #848BFD",
"]. 	c #7B6EFC",
"^. 	c #856CFE",
"/. 	c #7082FE",
"(. 	c #7780FF",
"_. 	c #7B83FF",
":. 	c #8079FD",
"<. 	c #7D7BFF",
"[. 	c #7B74FF",
"}. 	c #8570FD",
"|. 	c #807DFE",
"1. 	c #8473FF",
"2. 	c #8280FF",
"3. 	c #8B82FF",
"4. 	c #8884FF",
"5. 	c #6F7EFF",
"6. 	c #7079FC",
"7. 	c #8482FF",
"8. 	c #817BFF",
"9. 	c #7C7FFF",
"0. 	c #7E7AFF",
"a. 	c #8770FE",
"b. 	c #8F75FC",
"c. 	c #7769FE",
"d. 	c #7F74FF",
"e. 	c #778BFC",
"f. 	c #807FFE",
"g. 	c #9577FB",
"h. 	c #827BFF",
"i. 	c #7C70FF",
"j. 	c #8A80FD",
"k. 	c #7478FE",
"l. 	c #7979FD",
"m. 	c #7E78FF",
"n. 	c #7874FF",
"o. 	c #777CFE",
"p. 	c #8478FF",
"q. 	c #7F70FF",
"r. 	c #8173FC",
"s. 	c #8379FF",
"t. 	c #8081FF",
"u. 	c #7F84FC",
"v. 	c #857EFF",
"w. 	c #8085FD",
"x. 	c #8086FE",
"y. 	c #7F8BFB",
"z. 	c #8388FF",
"A. 	c #7C79FE",
"B. 	c #8183FE",
"C. 	c #8082FD",
"D. 	c #7C74FE",
"E. 	c #837CFE",
"F. 	c #7D87FF",
"G. 	c #7779FF",
"H. 	c #8281FF",
"I. 	c #7887FE",
"J. 	c #808CFC",
"K. 	c #8980FF",
"L. 	c #857BFF",
"M. 	c #7F7EFE",
"N. 	c #797CFD",
"O. 	c #8084FF",
"P. 	c #7D77FF",
"Q. 	c #7D65FB",
"R. 	c #8074FA",
"S. 	c #8F6CFE",
"T. 	c #9380FE",
"U. 	c #6E90FC",
"V. 	c #8667FF",
"W. 	c #7F74FE",
"X. 	c #7B79FF",
"Y. 	c #7D7CFE",
"Z. 	c #807FFF",
"`. 	c #887FFE",
" + 	c #7884FE",
".+ 	c #778BFE",
"++ 	c #879BFA",
"@+ 	c #808BFE",
"#+ 	c #6F79FD",
"$+ 	c #867CFF",
"%+ 	c #7874FC",
"&+ 	c #7775FD",
"*+ 	c #796BFC",
"=+ 	c #8662FA",
"-+ 	c #8F78FC",
";+ 	c #8478FE",
">+ 	c #7E84FF",
",+ 	c #8287FD",
"'+ 	c #7F83FE",
")+ 	c #7F70FD",
"!+ 	c #7174FF",
"~+ 	c #7C74FD",
"{+ 	c #7178FC",
"]+ 	c #7490FE",
"^+ 	c #7574FC",
"/+ 	c #785DFA",
"(+ 	c #7A4CF7",
"_+ 	c #8041EA",
":+ 	c #853CEB",
"<+ 	c #7A3BEA",
"[+ 	c #7A3EEC",
"}+ 	c #893FEC",
"|+ 	c #8642ED",
"1+ 	c #8537EB",
"2+ 	c #843EEE",
"3+ 	c #8444F0",
"4+ 	c #8A3DED",
"5+ 	c #7E3DEF",
"6+ 	c #7939E8",
"7+ 	c #7F3CEE",
"8+ 	c #7E35E6",
"9+ 	c #8743F2",
"0+ 	c #8448F5",
"a+ 	c #7646F0",
"b+ 	c #7541EE",
"c+ 	c #873AEC",
"d+ 	c #9039E8",
"e+ 	c #8143F0",
"f+ 	c #7B41EE",
"g+ 	c #823DEE",
"h+ 	c #733AEB",
"i+ 	c #6A3CE7",
"j+ 	c #763BEB",
"k+ 	c #843BEA",
"l+ 	c #8141F0",
"m+ 	c #7D3DEB",
"n+ 	c #7F3CEC",
"o+ 	c #7C3DEE",
"p+ 	c #7E3BEB",
"q+ 	c #8D41EC",
"r+ 	c #7F48EE",
"s+ 	c #6D48F0",
"t+ 	c #6E3CE9",
"u+ 	c #793DED",
"v+ 	c #873EEF",
"w+ 	c #8A3DEB",
"x+ 	c #823CEA",
"y+ 	c #883BEB",
"z+ 	c #8644EE",
"A+ 	c #8340EF",
"B+ 	c #8646F2",
"C+ 	c #8E44EF",
"D+ 	c #8E50F3",
"E+ 	c #834AF1",
"F+ 	c #6A48F4",
"G+ 	c #6B47F1",
"H+ 	c #814AF0",
"I+ 	c #7943EF",
"J+ 	c #7645EF",
"K+ 	c #813DEC",
"L+ 	c #803BEC",
"M+ 	c #7D3FEC",
"N+ 	c #7C3CEA",
"O+ 	c #733DEB",
"P+ 	c #8538E8",
"Q+ 	c #8743F0",
"R+ 	c #8741F1",
"S+ 	c #7E44EE",
"T+ 	c #7D45F1",
"U+ 	c #7B3FEF",
"V+ 	c #823FEE",
"W+ 	c #7C40EE",
"X+ 	c #7B3CEB",
"Y+ 	c #7D40F3",
"Z+ 	c #773EED",
"`+ 	c #7B3DE8",
" @ 	c #8343F2",
".@ 	c #8042EF",
"+@ 	c #803CEB",
"@@ 	c #8A3CE8",
"#@ 	c #7F41EC",
"$@ 	c #7C41F1",
"%@ 	c #8541EE",
"&@ 	c #783CEC",
"*@ 	c #7C3DEC",
"=@ 	c #7F40EF",
"-@ 	c #7C3CEB",
";@ 	c #753CEB",
">@ 	c #7C37EA",
",@ 	c #803DED",
"'@ 	c #7D41EE",
")@ 	c #8541F0",
"!@ 	c #813DE8",
"~@ 	c #8D3AEA",
"{@ 	c #8B41EC",
"]@ 	c #7940EF",
"^@ 	c #823EEB",
"/@ 	c #8943F1",
"(@ 	c #853FED",
"_@ 	c #8141ED",
":@ 	c #7C40ED",
"<@ 	c #7B3CED",
"[@ 	c #7B4CF4",
"}@ 	c #7E4DF6",
"|@ 	c #824DF3",
"1@ 	c #7C47EF",
"2@ 	c #8142F1",
"3@ 	c #863EEA",
"4@ 	c #8145F2",
"5@ 	c #8046F0",
"6@ 	c #8744F3",
"7@ 	c #8440ED",
"8@ 	c #7D44F3",
"9@ 	c #8146F0",
"0@ 	c #8349F3",
"a@ 	c #7941ED",
"b@ 	c #714BF0",
"c@ 	c #7D3EEF",
"d@ 	c #793AEB",
"e@ 	c #7F3CEB",
"f@ 	c #803DEC",
"g@ 	c #7C37E8",
"h@ 	c #7C3EEB",
"i@ 	c #8738EB",
"j@ 	c #8B3BEA",
"k@ 	c #823EED",
"l@ 	c #7A37E7",
"m@ 	c #7A2FE4",
"n@ 	c #7D38ED",
"o@ 	c #7741EF",
"p@ 	c #713DE8",
"q@ 	c #7C36E7",
"r@ 	c #8343EF",
"s@ 	c #7B43EE",
"t@ 	c #7F43F0",
"u@ 	c #813EED",
"v@ 	c #833DEB",
"w@ 	c #843CE8",
"x@ 	c #7C38EF",
"y@ 	c #7E2DE1",
"z@ 	c #832FE5",
"A@ 	c #9943EC",
"B@ 	c #9345F0",
"C@ 	c #743EEC",
"D@ 	c #753EF1",
"E@ 	c #7F3AEB",
"F@ 	c #8247F1",
"G@ 	c #913FEC",
"H@ 	c #8B3EEC",
"I@ 	c #7244EF",
"J@ 	c #863DEC",
"K@ 	c #7F47F3",
"L@ 	c #7435E8",
"M@ 	c #7A3AE9",
"N@ 	c #7A44F0",
"O@ 	c #8044F2",
"P@ 	c #873EED",
"Q@ 	c #7E3EEC",
"R@ 	c #833DED",
"S@ 	c #833DEE",
"T@ 	c #813EEE",
"U@ 	c #833FEC",
"V@ 	c #7F3FEE",
"W@ 	c #843EEC",
"X@ 	c #863DEE",
"Y@ 	c #783CEA",
"Z@ 	c #783CE9",
"`@ 	c #8536E9",
" # 	c #873CEF",
".# 	c #7A3CE9",
"+# 	c #803DEF",
"@# 	c #793DEA",
"## 	c #8239EB",
"$# 	c #8340F2",
"%# 	c #803AEB",
"&# 	c #8136E9",
"*# 	c #8235E5",
"=# 	c #7F41EE",
"-# 	c #7E39EA",
";# 	c #7F3FEB",
"># 	c #7A3EEE",
",# 	c #8041F2",
"'# 	c #8141EF",
")# 	c #8849F2",
"!# 	c #8B3BE8",
"~# 	c #8632EA",
"{# 	c #7443ED",
"]# 	c #8338EB",
"^# 	c #8939EA",
"/# 	c #8543EF",
"(# 	c #7C39EB",
"_# 	c #823CEC",
":# 	c #843BEC",
"<# 	c #803AEA",
"[# 	c #7B3BEA",
"}# 	c #7736EA",
"|# 	c #8442EE",
"1# 	c #783BEE",
"2# 	c #8344ED",
"3# 	c #8545F1",
"4# 	c #7B34EA",
"5# 	c #7D3EED",
"6# 	c #7543F2",
"7# 	c #8844F1",
"8# 	c #9141F0",
"9# 	c #833FEE",
"0# 	c #7F3DE9",
"a# 	c #8946EE",
"b# 	c #8546EF",
"c# 	c #7B60FD",
"d# 	c #8E68F9",
"e# 	c #8A86FF",
"f# 	c #6C8AFA",
"g# 	c #5879FA",
"h# 	c #5E5DF6",
"i# 	c #6B3FEC",
"j# 	c #742FE4",
"k# 	c #7928DD",
"l# 	c #8128DC",
"m# 	c #882AE0",
"n# 	c #802BDE",
"o# 	c #822BDC",
"p# 	c #8528D9",
"q# 	c #8026DD",
"r# 	c #7C22D2",
"s# 	c #7A1FD6",
"t# 	c #8227DC",
"u# 	c #9429DB",
"v# 	c #8425DB",
"w# 	c #7930E1",
"x# 	c #8F27D6",
"y# 	c #6B2CDB",
"z# 	c #6F2ADD",
"A# 	c #8628DE",
"B# 	c #8D2FE5",
"C# 	c #8328DB",
"D# 	c #7C2DE1",
"E# 	c #832BE1",
"F# 	c #732ADB",
"G# 	c #672BD9",
"H# 	c #762BDE",
"I# 	c #7E29DE",
"J# 	c #852ADD",
"K# 	c #812CE1",
"L# 	c #7A2CE2",
"M# 	c #7D26D7",
"N# 	c #8123D9",
"O# 	c #862BDE",
"P# 	c #8725DA",
"Q# 	c #8324DA",
"R# 	c #702DDF",
"S# 	c #6B2CDD",
"T# 	c #8027D9",
"U# 	c #8622DA",
"V# 	c #8320D5",
"W# 	c #8028DE",
"X# 	c #8B28DA",
"Y# 	c #8927DC",
"Z# 	c #8227DA",
"`# 	c #822ADE",
" $ 	c #9029DC",
".$ 	c #8C25D8",
"+$ 	c #7F28D9",
"@$ 	c #7623D7",
"#$ 	c #7029DD",
"$$ 	c #7B27DD",
"%$ 	c #7D33E2",
"&$ 	c #7839EA",
"*$ 	c #7527DD",
"=$ 	c #7D28DB",
"-$ 	c #8229DB",
";$ 	c #8429DE",
">$ 	c #7C29DB",
",$ 	c #7C27DC",
"'$ 	c #7829DD",
")$ 	c #842CE0",
"!$ 	c #822DE0",
"~$ 	c #872DDD",
"{$ 	c #852ADF",
"]$ 	c #792CDE",
"^$ 	c #7A2BDE",
"/$ 	c #7B28DA",
"($ 	c #7A2AD9",
"_$ 	c #7A2BDC",
":$ 	c #7F26DA",
"<$ 	c #862DE1",
"[$ 	c #862BE0",
"}$ 	c #7D2CE0",
"|$ 	c #792ADB",
"1$ 	c #822AE0",
"2$ 	c #7F2EE3",
"3$ 	c #8431E5",
"4$ 	c #7E2BDD",
"5$ 	c #8126DB",
"6$ 	c #7F2ADF",
"7$ 	c #8027DB",
"8$ 	c #802BE0",
"9$ 	c #842BDD",
"0$ 	c #7524D8",
"a$ 	c #7928DC",
"b$ 	c #7828D9",
"c$ 	c #8627DB",
"d$ 	c #8129E0",
"e$ 	c #8826DB",
"f$ 	c #7E25D7",
"g$ 	c #8129DD",
"h$ 	c #862CDC",
"i$ 	c #8825DA",
"j$ 	c #882BDE",
"k$ 	c #782ADE",
"l$ 	c #8732E7",
"m$ 	c #8E3BEB",
"n$ 	c #773BEB",
"o$ 	c #7431E1",
"p$ 	c #732EE1",
"q$ 	c #852CDE",
"r$ 	c #8B2CE0",
"s$ 	c #8031E5",
"t$ 	c #7F2EE2",
"u$ 	c #8427DA",
"v$ 	c #832BDF",
"w$ 	c #7F31E5",
"x$ 	c #8233E6",
"y$ 	c #7138E7",
"z$ 	c #672CDE",
"A$ 	c #7B23D7",
"B$ 	c #7C27DA",
"C$ 	c #7824DA",
"D$ 	c #8229DD",
"E$ 	c #8124D7",
"F$ 	c #8127DE",
"G$ 	c #8B2CDE",
"H$ 	c #8326D7",
"I$ 	c #7227DA",
"J$ 	c #7825D7",
"K$ 	c #8B27D9",
"L$ 	c #712CDD",
"M$ 	c #802FE6",
"N$ 	c #8E34E4",
"O$ 	c #802DDF",
"P$ 	c #812EE2",
"Q$ 	c #732CE0",
"R$ 	c #7E25D9",
"S$ 	c #8224DA",
"T$ 	c #772CDF",
"U$ 	c #7B26DB",
"V$ 	c #942BDD",
"W$ 	c #992BD8",
"X$ 	c #7227D9",
"Y$ 	c #7F27DD",
"Z$ 	c #842CE2",
"`$ 	c #8729E1",
" % 	c #8825D8",
".% 	c #762DDF",
"+% 	c #8122D8",
"@% 	c #7328DB",
"#% 	c #7C24DA",
"$% 	c #7A27DB",
"%% 	c #7A30DF",
"&% 	c #832ADE",
"*% 	c #812CE2",
"=% 	c #792EE1",
"-% 	c #7729DD",
";% 	c #7F2BDB",
">% 	c #7B2ADE",
",% 	c #812ADB",
"'% 	c #8328DF",
")% 	c #8126D9",
"!% 	c #7E26DA",
"~% 	c #7B26D9",
"{% 	c #7E24DB",
"]% 	c #8528DB",
"^% 	c #8227DE",
"/% 	c #7F2AE0",
"(% 	c #7827DB",
"_% 	c #8129DF",
":% 	c #7829DA",
"<% 	c #8329D9",
"[% 	c #8C29DE",
"}% 	c #7926D6",
"|% 	c #7D27E0",
"1% 	c #8526DA",
"2% 	c #802DE1",
"3% 	c #872FE3",
"4% 	c #7726DB",
"5% 	c #8126DD",
"6% 	c #8429DC",
"7% 	c #782FE0",
"8% 	c #8627DD",
"9% 	c #7E23D6",
"0% 	c #7F26D6",
"a% 	c #8623D6",
"b% 	c #8326D9",
"c% 	c #752BE2",
"d% 	c #8629DC",
"e% 	c #852CE0",
"f% 	c #6E23D8",
"g% 	c #7926D8",
"h% 	c #8C29DC",
"i% 	c #802BE1",
"j% 	c #822FDF",
"k% 	c #7F2ADD",
"l% 	c #8426DC",
"m% 	c #8128D8",
"n% 	c #7D25DB",
"o% 	c #7924D9",
"p% 	c #8829DF",
"q% 	c #9D39E7",
"r% 	c #9B5CF5",
"s% 	c #A476FA",
"t% 	c #9687FE",
"u% 	c #628CFC",
"v% 	c #4A77F4",
"w% 	c #4166EB",
"x% 	c #4245DE",
"y% 	c #6021D0",
"z% 	c #7A1DCE",
"A% 	c #811ED0",
"B% 	c #821FD2",
"C% 	c #871ED2",
"D% 	c #8120D2",
"E% 	c #7C1FD2",
"F% 	c #7D1ACF",
"G% 	c #881BCE",
"H% 	c #8B1ECF",
"I% 	c #821BCE",
"J% 	c #8A17CA",
"K% 	c #801CCE",
"L% 	c #7F1CCF",
"M% 	c #8815C8",
"N% 	c #7918CA",
"O% 	c #761FD0",
"P% 	c #8F1ED0",
"Q% 	c #8B22D4",
"R% 	c #7A21D5",
"S% 	c #8422D9",
"T% 	c #801ED3",
"U% 	c #7020D1",
"V% 	c #6D22D5",
"W% 	c #741CD2",
"X% 	c #811FCE",
"Y% 	c #8B1FD4",
"Z% 	c #841CD1",
"`% 	c #6F20D4",
" & 	c #731ACA",
".& 	c #861AD0",
"+& 	c #8322D4",
"@& 	c #791ACC",
"#& 	c #8817C9",
"$& 	c #8219CB",
"%& 	c #6C21D4",
"&& 	c #6923D3",
"*& 	c #7625D9",
"=& 	c #8B1DCE",
"-& 	c #911BCF",
";& 	c #881CD1",
">& 	c #881BCC",
",& 	c #831ACF",
"'& 	c #801DD2",
")& 	c #8917CE",
"!& 	c #7F17C6",
"~& 	c #7517C7",
"{& 	c #8B20D2",
"]& 	c #932ADE",
"^& 	c #6A24D5",
"/& 	c #6920D1",
"(& 	c #811CD0",
"_& 	c #821FD1",
":& 	c #7F1ECF",
"<& 	c #7C1DCF",
"[& 	c #7D1ED4",
"}& 	c #831BD0",
"|& 	c #8625D7",
"1& 	c #8520D6",
"2& 	c #8625D6",
"3& 	c #791FCF",
"4& 	c #7B1DD3",
"5& 	c #7C1ACF",
"6& 	c #7F1BD3",
"7& 	c #7B1DCD",
"8& 	c #7F1BCD",
"9& 	c #841DD0",
"0& 	c #811ED1",
"a& 	c #7E19CD",
"b& 	c #821DD3",
"c& 	c #8521D3",
"d& 	c #7720D1",
"e& 	c #811DCF",
"f& 	c #781FD1",
"g& 	c #761CCC",
"h& 	c #7819CB",
"i& 	c #7D1CCE",
"j& 	c #7D1FD5",
"k& 	c #8A1ED3",
"l& 	c #801DD0",
"m& 	c #7E1DCF",
"n& 	c #7E21D4",
"o& 	c #841DCE",
"p& 	c #861AC8",
"q& 	c #811CD2",
"r& 	c #7D24D8",
"s& 	c #922BDA",
"t& 	c #8C27DB",
"u& 	c #7F22D5",
"v& 	c #7021D5",
"w& 	c #7920D4",
"x& 	c #8324D8",
"y& 	c #8A1DD0",
"z& 	c #8328DD",
"A& 	c #793DEB",
"B& 	c #7820D6",
"C& 	c #7D19C9",
"D& 	c #881AC9",
"E& 	c #901ECE",
"F& 	c #681FD0",
"G& 	c #621FCE",
"H& 	c #6F20D3",
"I& 	c #8219CD",
"J& 	c #831CCF",
"K& 	c #7F1ED0",
"L& 	c #7D20D1",
"M& 	c #771ECE",
"N& 	c #921FD4",
"O& 	c #881FD4",
"P& 	c #7A1BCF",
"Q& 	c #7C1DD1",
"R& 	c #7621D4",
"S& 	c #851DD2",
"T& 	c #7B1CD0",
"U& 	c #8824D6",
"V& 	c #7C21D4",
"W& 	c #7D19CB",
"X& 	c #761DD1",
"Y& 	c #731ED3",
"Z& 	c #891DD2",
"`& 	c #7D1CCD",
" * 	c #8524D6",
".* 	c #8D1CD0",
"+* 	c #8619CC",
"@* 	c #7D1BD0",
"#* 	c #7D1FCF",
"$* 	c #881DCF",
"%* 	c #861DCF",
"&* 	c #7B22D4",
"** 	c #7D1ED2",
"=* 	c #781AD0",
"-* 	c #781BCE",
";* 	c #7F18C9",
">* 	c #7819CD",
",* 	c #791BCB",
"'* 	c #8F1DCD",
")* 	c #791ED3",
"!* 	c #841CD3",
"~* 	c #7C19CB",
"{* 	c #801DCF",
"]* 	c #821AD1",
"^* 	c #801BD1",
"/* 	c #821BCC",
"(* 	c #7D1ACC",
"_* 	c #7D18CE",
":* 	c #7916C9",
"<* 	c #7719C9",
"[* 	c #871BD1",
"}* 	c #811ACB",
"|* 	c #7D23DA",
"1* 	c #771CD1",
"2* 	c #861ED3",
"3* 	c #7E1BCD",
"4* 	c #7D1BCA",
"5* 	c #861DD1",
"6* 	c #801CCC",
"7* 	c #7E1FD1",
"8* 	c #831FD1",
"9* 	c #821FD4",
"0* 	c #7F1CD1",
"a* 	c #811ED3",
"b* 	c #8423D4",
"c* 	c #741DCC",
"d* 	c #751CD0",
"e* 	c #801FD1",
"f* 	c #811BD4",
"g* 	c #7F1CCE",
"h* 	c #841BCF",
"i* 	c #7E1ACA",
"j* 	c #841BD0",
"k* 	c #7F20D2",
"l* 	c #721ECE",
"m* 	c #7E15C9",
"n* 	c #8A15C4",
"o* 	c #831DC9",
"p* 	c #721DD0",
"q* 	c #7A1DD0",
"r* 	c #7A1BCD",
"s* 	c #8623D8",
"t* 	c #8119CE",
"u* 	c #7D1BD2",
"v* 	c #7C1FD0",
"w* 	c #831BCA",
"x* 	c #9922D2",
"y* 	c #BA41DC",
"z* 	c #BC60E7",
"A* 	c #B775F0",
"B* 	c #9C87FC",
"C* 	c #5E81F9",
"D* 	c #3978EC",
"E* 	c #3072E3",
"F* 	c #2464D2",
"G* 	c #3C3FD8",
"H* 	c #7437EC",
"I* 	c #8433E7",
"J* 	c #8633E5",
"K* 	c #8936E6",
"L* 	c #8132E3",
"M* 	c #7934E9",
"N* 	c #922BDE",
"O* 	c #6242ED",
"P* 	c #8235E7",
"Q* 	c #8737E8",
"R* 	c #782CE4",
"S* 	c #862DDF",
"T* 	c #872CE1",
"U* 	c #7531E6",
"V* 	c #832EE1",
"W* 	c #872EDE",
"X* 	c #9629DC",
"Y* 	c #8631E4",
"Z* 	c #7728DB",
"`* 	c #7233E4",
" = 	c #613DE9",
".= 	c #6939E7",
"+= 	c #892EE3",
"@= 	c #6F2EE0",
"#= 	c #7033E6",
"$= 	c #9A36E6",
"%= 	c #673BEA",
"&= 	c #8639E9",
"*= 	c #882DE4",
"== 	c #8037E9",
"-= 	c #9053F6",
";= 	c #6E68FC",
">= 	c #6B44ED",
",= 	c #8434E3",
"'= 	c #8431E1",
")= 	c #8536E7",
"!= 	c #842FE2",
"~= 	c #882DE0",
"{= 	c #8932E1",
"]= 	c #7636E5",
"^= 	c #7429DC",
"/= 	c #882FE1",
"(= 	c #9336E7",
"_= 	c #9A3CE8",
":= 	c #612CDC",
"<= 	c #663EEC",
"[= 	c #7F39E9",
"}= 	c #7B35E6",
"|= 	c #7D38E9",
"1= 	c #8638E6",
"2= 	c #9137E7",
"3= 	c #8A2FE6",
"4= 	c #882FDF",
"5= 	c #8535E6",
"6= 	c #7439EB",
"7= 	c #6A33E6",
"8= 	c #7136E6",
"9= 	c #7C32E7",
"0= 	c #792EE0",
"a= 	c #7535E4",
"b= 	c #8138E9",
"c= 	c #8033E3",
"d= 	c #7630E0",
"e= 	c #802FE3",
"f= 	c #892CDF",
"g= 	c #8B2EDE",
"h= 	c #7D38EB",
"i= 	c #6D3BEA",
"j= 	c #7A31E2",
"k= 	c #8831E2",
"l= 	c #8730E1",
"m= 	c #7B30E2",
"n= 	c #6535E3",
"o= 	c #8838E7",
"p= 	c #8242F0",
"q= 	c #7F34E7",
"r= 	c #8C38E8",
"s= 	c #8238E7",
"t= 	c #733CEF",
"u= 	c #9635E4",
"v= 	c #813CED",
"w= 	c #7438E8",
"x= 	c #9532E4",
"y= 	c #9037E9",
"z= 	c #6F3EEF",
"A= 	c #9C3EEA",
"B= 	c #A438E4",
"C= 	c #7031E0",
"D= 	c #7345F0",
"E= 	c #7738E7",
"F= 	c #962EE3",
"G= 	c #B83BDD",
"H= 	c #4436D4",
"I= 	c #6B3EF0",
"J= 	c #933FED",
"K= 	c #A12FDC",
"L= 	c #5B2BD9",
"M= 	c #6B2FDC",
"N= 	c #6F34E8",
"O= 	c #7C33E4",
"P= 	c #872EE2",
"Q= 	c #7B2FE7",
"R= 	c #8132E5",
"S= 	c #8440EB",
"T= 	c #7F3FED",
"U= 	c #893FEE",
"V= 	c #8330E2",
"W= 	c #7D34E6",
"X= 	c #7832E3",
"Y= 	c #7D33E8",
"Z= 	c #833AEC",
"`= 	c #7D32E4",
" - 	c #8035E7",
".- 	c #8D38EB",
"+- 	c #8631E6",
"@- 	c #8033E5",
"#- 	c #7530E1",
"$- 	c #8437E7",
"%- 	c #8133E9",
"&- 	c #7536E9",
"*- 	c #8E35E7",
"=- 	c #8637EA",
"-- 	c #8031E4",
";- 	c #7B30E3",
">- 	c #8332E7",
",- 	c #8334E7",
"'- 	c #8F2EDF",
")- 	c #753FEB",
"!- 	c #782DE0",
"~- 	c #7132E1",
"{- 	c #7930E2",
"]- 	c #7D2ADC",
"^- 	c #8333E4",
"/- 	c #9234E4",
"(- 	c #7733E2",
"_- 	c #7737E6",
":- 	c #7334E5",
"<- 	c #7A2BDF",
"[- 	c #8132E6",
"}- 	c #802FE4",
"|- 	c #862EE2",
"1- 	c #8C39E9",
"2- 	c #6F36E7",
"3- 	c #7E2FE2",
"4- 	c #7835E7",
"5- 	c #7D30E2",
"6- 	c #6D2EDF",
"7- 	c #7334E3",
"8- 	c #902FE0",
"9- 	c #912EE0",
"0- 	c #882DE2",
"a- 	c #8B32E6",
"b- 	c #6C3BEC",
"c- 	c #7D3AE9",
"d- 	c #7E29DC",
"e- 	c #7B2ADF",
"f- 	c #8233E4",
"g- 	c #8E2FE5",
"h- 	c #843EEF",
"i- 	c #8237E9",
"j- 	c #8633E3",
"k- 	c #7F36E8",
"l- 	c #8A36E6",
"m- 	c #8637E8",
"n- 	c #7332E6",
"o- 	c #732ADC",
"p- 	c #8231E5",
"q- 	c #8632E8",
"r- 	c #8137E6",
"s- 	c #7A37E9",
"t- 	c #772DE2",
"u- 	c #8C34E2",
"v- 	c #6036E2",
"w- 	c #662FE2",
"x- 	c #9730E1",
"y- 	c #AB2DD9",
"z- 	c #7F2FE0",
"A- 	c #6629DC",
"B- 	c #822DE2",
"C- 	c #8732E5",
"D- 	c #8531E7",
"E- 	c #7935E4",
"F- 	c #762CE1",
"G- 	c #7A2DDF",
"H- 	c #8231E6",
"I- 	c #862FE0",
"J- 	c #7631E6",
"K- 	c #BF3ED6",
"L- 	c #DB5ED3",
"M- 	c #D170E3",
"N- 	c #C384ED",
"O- 	c #AD7BF8",
"P- 	c #617DFB",
"Q- 	c #3E87EE",
"R- 	c #2A88E0",
"S- 	c #1C7DCE",
"T- 	c #367AE9",
"U- 	c #747FFB",
"V- 	c #7A73FD",
"W- 	c #8980FD",
"X- 	c #8684FF",
"Y- 	c #6D8FFD",
"Z- 	c #7C80FE",
"`- 	c #9A52F4",
" ; 	c #7977FE",
".; 	c #7F8AFE",
"+; 	c #6A79FA",
"@; 	c #9273FD",
"#; 	c #8F75FD",
"$; 	c #887BFF",
"%; 	c #8375FE",
"&; 	c #814CF6",
"*; 	c #7741ED",
"=; 	c #784AF3",
"-; 	c #935AF7",
";; 	c #9074FD",
">; 	c #6B77FD",
",; 	c #5A81FA",
"'; 	c #677CFB",
"); 	c #7C63FC",
"!; 	c #9068FC",
"~; 	c #8671FE",
"{; 	c #987FFE",
"]; 	c #8B67FB",
"^; 	c #7A8BFD",
"/; 	c #7487FF",
"(; 	c #9D8AFD",
"_; 	c #9C8BFB",
":; 	c #5F88FA",
"<; 	c #4F7BF8",
"[; 	c #7D52F7",
"}; 	c #9071FB",
"|; 	c #7B81FD",
"1; 	c #8F72FF",
"2; 	c #8B69FC",
"3; 	c #7A67FE",
"4; 	c #7877FF",
"5; 	c #9268FC",
"6; 	c #7865FD",
"7; 	c #7B46F0",
"8; 	c #8B5DF4",
"9; 	c #7681FF",
"0; 	c #7179FE",
"a; 	c #8577FE",
"b; 	c #847DFF",
"c; 	c #767DFF",
"d; 	c #7D83FD",
"e; 	c #7D70FC",
"f; 	c #7B57F7",
"g; 	c #9664FB",
"h; 	c #9261F9",
"i; 	c #8A5DF8",
"j; 	c #7868FC",
"k; 	c #758AFF",
"l; 	c #757CFE",
"m; 	c #7086FD",
"n; 	c #7276FE",
"o; 	c #8271FE",
"p; 	c #8B8BFD",
"q; 	c #8293FF",
"r; 	c #7A6EFE",
"s; 	c #7A74FC",
"t; 	c #886CFD",
"u; 	c #926DF9",
"v; 	c #8C74FF",
"w; 	c #7383FD",
"x; 	c #6F8FFF",
"y; 	c #7F77FF",
"z; 	c #8675FF",
"A; 	c #846BFA",
"B; 	c #786CFE",
"C; 	c #7A82FF",
"D; 	c #6683FB",
"E; 	c #8881FF",
"F; 	c #9878FD",
"G; 	c #8360FC",
"H; 	c #7476FD",
"I; 	c #9C78FC",
"J; 	c #886BFB",
"K; 	c #7074FA",
"L; 	c #8276FE",
"M; 	c #9352F4",
"N; 	c #8E6DFC",
"O; 	c #8B8BFB",
"P; 	c #858FFE",
"Q; 	c #945DF7",
"R; 	c #8858F9",
"S; 	c #7F87FF",
"T; 	c #8897FC",
"U; 	c #6A94F8",
"V; 	c #6A7CFC",
"W; 	c #8C93FD",
"X; 	c #8C65FE",
"Y; 	c #6A36E3",
"Z; 	c #8461FB",
"`; 	c #9E97F7",
" > 	c #7079FA",
".> 	c #727CFF",
"+> 	c #7DA2FB",
"@> 	c #72DDD7",
"#> 	c #73EBC5",
"$> 	c #7AEAC4",
"%> 	c #7BE6CA",
"&> 	c #7BCBE6",
"*> 	c #8C82FF",
"=> 	c #9880FA",
"-> 	c #8A74FB",
";> 	c #8269FB",
">> 	c #7A62FE",
",> 	c #7782FE",
"'> 	c #7F7EFF",
")> 	c #8381FE",
"!> 	c #8479FC",
"~> 	c #8577FF",
"{> 	c #8371FB",
"]> 	c #7E71FF",
"^> 	c #7570FF",
"/> 	c #7764FC",
"(> 	c #9778FA",
"_> 	c #7C7CFF",
":> 	c #5D7DF8",
"<> 	c #8473FD",
"[> 	c #8066FB",
"}> 	c #7A6FFC",
"|> 	c #8A6DFD",
"1> 	c #8063FB",
"2> 	c #8C74FE",
"3> 	c #8575FC",
"4> 	c #7F79FF",
"5> 	c #7D70FE",
"6> 	c #9760F9",
"7> 	c #966FFC",
"8> 	c #6C8BFF",
"9> 	c #667BFB",
"0> 	c #746CFD",
"a> 	c #7170FC",
"b> 	c #766CFF",
"c> 	c #9370FE",
"d> 	c #8265FD",
"e> 	c #7C68FD",
"f> 	c #836BFD",
"g> 	c #7074FC",
"h> 	c #7578FD",
"i> 	c #8871FF",
"j> 	c #7D66FE",
"k> 	c #968EFB",
"l> 	c #9382FF",
"m> 	c #7972FC",
"n> 	c #6E80FC",
"o> 	c #7988FF",
"p> 	c #8C82FD",
"q> 	c #7C88FF",
"r> 	c #6E84FE",
"s> 	c #8B7FFF",
"t> 	c #739EFC",
"u> 	c #6A8AF9",
"v> 	c #8A78FE",
"w> 	c #8F80FD",
"x> 	c #8370FE",
"y> 	c #8B69FE",
"z> 	c #7B5EF8",
"A> 	c #7263FA",
"B> 	c #9C6CFC",
"C> 	c #9967FC",
"D> 	c #6E74FC",
"E> 	c #6383FC",
"F> 	c #6879FB",
"G> 	c #7F68FE",
"H> 	c #7B69FD",
"I> 	c #7D5FFB",
"J> 	c #866FFE",
"K> 	c #8C78FD",
"L> 	c #9B73FA",
"M> 	c #8A6AFB",
"N> 	c #8172FF",
"O> 	c #8B74FF",
"P> 	c #9480FD",
"Q> 	c #6F6DFE",
"R> 	c #8377FF",
"S> 	c #7264F9",
"T> 	c #6D70FF",
"U> 	c #806DFB",
"V> 	c #8C6CFD",
"W> 	c #8878FC",
"X> 	c #7073FE",
"Y> 	c #6D6BFC",
"Z> 	c #8F8AFF",
"`> 	c #947EFD",
" , 	c #686FFE",
"., 	c #7591FC",
"+, 	c #8890FB",
"@, 	c #7D6BFB",
"#, 	c #8352F9",
"$, 	c #877BFF",
"%, 	c #8278FB",
"&, 	c #7E87FE",
"*, 	c #816BFC",
"=, 	c #8970FF",
"-, 	c #6F70FC",
";, 	c #6F6BFE",
">, 	c #8771FF",
",, 	c #887BFE",
"', 	c #8075FF",
"), 	c #806FFC",
"!, 	c #7F6EFB",
"~, 	c #8170FD",
"{, 	c #8167FC",
"], 	c #7E6FFE",
"^, 	c #7F6CFA",
"/, 	c #8B7AFE",
"(, 	c #CE6FE3",
"_, 	c #E174D1",
":, 	c #DB76DC",
"<, 	c #C28CEC",
"[, 	c #9B7CFD",
"}, 	c #6986FB",
"|, 	c #4480F0",
"1, 	c #297DDF",
"2, 	c #217DD0",
"3, 	c #347FE5",
"4, 	c #857FFD",
"5, 	c #9687FC",
"6, 	c #8E8FFB",
"7, 	c #8ACAE6",
"8, 	c #78E3CF",
"9, 	c #69EDBC",
"0, 	c #7CEDBF",
"a, 	c #91DFD2",
"b, 	c #86D1E4",
"c, 	c #7279FE",
"d, 	c #6B80FD",
"e, 	c #877AFE",
"f, 	c #8977FD",
"g, 	c #6175FA",
"h, 	c #6778FC",
"i, 	c #865EFC",
"j, 	c #9573FD",
"k, 	c #A475F7",
"l, 	c #8D77FF",
"m, 	c #6565F9",
"n, 	c #6882FD",
"o, 	c #7187FE",
"p, 	c #6D91FF",
"q, 	c #8A86FE",
"r, 	c #9080FD",
"s, 	c #7D8EFF",
"t, 	c #7B85FE",
"u, 	c #8B81FE",
"v, 	c #7981FF",
"w, 	c #8D83FE",
"x, 	c #907DFD",
"y, 	c #8A73FF",
"z, 	c #606BF9",
"A, 	c #3C83EB",
"B, 	c #AA7CF8",
"C, 	c #9680FE",
"D, 	c #778CFF",
"E, 	c #7F77FE",
"F, 	c #7D80FF",
"G, 	c #7B7FFD",
"H, 	c #8F7AFB",
"I, 	c #6F88FE",
"J, 	c #6780FF",
"K, 	c #9782FB",
"L, 	c #8670FF",
"M, 	c #8F72FE",
"N, 	c #9E81F7",
"O, 	c #6D83FD",
"P, 	c #6D8EFF",
"Q, 	c #637CFA",
"R, 	c #8F88FA",
"S, 	c #9790FA",
"T, 	c #7086FE",
"U, 	c #6F85FF",
"V, 	c #7982FF",
"W, 	c #868CFE",
"X, 	c #9570FE",
"Y, 	c #8777FE",
"Z, 	c #6D87FE",
"`, 	c #708FFB",
" ' 	c #7F8FFF",
".' 	c #7687FD",
"+' 	c #7577FE",
"@' 	c #907FFF",
"#' 	c #789BFF",
"$' 	c #698AFB",
"%' 	c #8F6BFF",
"&' 	c #8284FF",
"*' 	c #7980FF",
"=' 	c #A76FF8",
"-' 	c #9A69F9",
";' 	c #7570FE",
">' 	c #7468FA",
",' 	c #A261F9",
"'' 	c #A697F4",
")' 	c #6D8FFB",
"!' 	c #659CF7",
"~' 	c #8390FF",
"{' 	c #829BF8",
"]' 	c #5D7FFA",
"^' 	c #9788FF",
"/' 	c #8073FF",
"(' 	c #786CFC",
"_' 	c #BCC8D4",
":' 	c #C5D9BE",
"<' 	c #C6CACD",
"[' 	c #A2C5E1",
"}' 	c #59C7E2",
"|' 	c #40D7C4",
"1' 	c #3EE1B4",
"2' 	c #46D3CB",
"3' 	c #798FFF",
"4' 	c #7886FF",
"5' 	c #706CFE",
"6' 	c #7C65FB",
"7' 	c #9D69F9",
"8' 	c #957AFD",
"9' 	c #7389FF",
"0' 	c #788CFF",
"a' 	c #7783FD",
"b' 	c #867BFE",
"c' 	c #8781FF",
"d' 	c #737CFD",
"e' 	c #8775FD",
"f' 	c #8061FC",
"g' 	c #6682FD",
"h' 	c #8690FF",
"i' 	c #857FFB",
"j' 	c #9B7CFE",
"k' 	c #8083FF",
"l' 	c #8A79FB",
"m' 	c #9E69F9",
"n' 	c #5A90FA",
"o' 	c #6582FA",
"p' 	c #7D8FFD",
"q' 	c #8680FC",
"r' 	c #8282FC",
"s' 	c #7280FB",
"t' 	c #8A75FE",
"u' 	c #A78BFA",
"v' 	c #8E9FF7",
"w' 	c #8283FF",
"x' 	c #828EFE",
"y' 	c #828CFF",
"z' 	c #7482FF",
"A' 	c #7193FF",
"B' 	c #8894FF",
"C' 	c #818CFF",
"D' 	c #7682FA",
"E' 	c #8883FF",
"F' 	c #898BFC",
"G' 	c #846DF9",
"H' 	c #6787FE",
"I' 	c #789CFC",
"J' 	c #6A78FF",
"K' 	c #8880FA",
"L' 	c #8F80FF",
"M' 	c #867DFE",
"N' 	c #8681FF",
"O' 	c #886DFC",
"P' 	c #897DFD",
"Q' 	c #8B75FE",
"R' 	c #7077FC",
"S' 	c #6377FA",
"T' 	c #7A97FD",
"U' 	c #9377FF",
"V' 	c #877EFF",
"W' 	c #6E78FC",
"X' 	c #8E97FC",
"Y' 	c #6C7BFC",
"Z' 	c #746CFF",
"`' 	c #7F8FFE",
" ) 	c #7183FF",
".) 	c #8F88FC",
"+) 	c #8E8BFE",
"@) 	c #7B8AFF",
"#) 	c #6A8EFE",
"$) 	c #847FFF",
"%) 	c #7882FD",
"&) 	c #7497FB",
"*) 	c #86A5F8",
"=) 	c #86D2E0",
"-) 	c #7DE8CC",
";) 	c #7DEFBE",
">) 	c #81ECC0",
",) 	c #7EE6CF",
"') 	c #83D2DF",
")) 	c #8183FC",
"!) 	c #8587FF",
"~) 	c #C47AE9",
"{) 	c #E17ED1",
"]) 	c #DF7BD3",
"^) 	c #CA81EA",
"/) 	c #9A81F9",
"() 	c #6080FB",
"_) 	c #387CE9",
":) 	c #2A7EE1",
"<) 	c #207AD2",
"[) 	c #3772E6",
"}) 	c #737CFF",
"|) 	c #8787FF",
"1) 	c #C1C1D9",
"2) 	c #C7D7BC",
"3) 	c #CABDD1",
"4) 	c #A5B9EC",
"5) 	c #58C5E2",
"6) 	c #3CCFC9",
"7) 	c #3AD5B6",
"8) 	c #3DC1D6",
"9) 	c #8A82FC",
"0) 	c #7E71FD",
"a) 	c #8074FC",
"b) 	c #8A71FF",
"c) 	c #7E73FE",
"d) 	c #6B6CFA",
"e) 	c #907AFF",
"f) 	c #9C68F8",
"g) 	c #7767FD",
"h) 	c #7C88FE",
"i) 	c #8574FE",
"j) 	c #8C6FFD",
"k) 	c #7A86FF",
"l) 	c #7E7FFE",
"m) 	c #8A74FD",
"n) 	c #9068FD",
"o) 	c #725DFA",
"p) 	c #5B95F8",
"q) 	c #76AEF8",
"r) 	c #938FFD",
"s) 	c #8F7CFC",
"t) 	c #8770FF",
"u) 	c #7F90FC",
"v) 	c #7A8BFF",
"w) 	c #818EFF",
"x) 	c #838AFE",
"y) 	c #8783FE",
"z) 	c #8372FE",
"A) 	c #7580FC",
"B) 	c #818BFE",
"C) 	c #8379FC",
"D) 	c #8F74FF",
"E) 	c #7960FA",
"F) 	c #6780FE",
"G) 	c #6D8BFD",
"H) 	c #9290FE",
"I) 	c #737AFF",
"J) 	c #748EFD",
"K) 	c #7890FE",
"L) 	c #8188FD",
"M) 	c #897EFE",
"N) 	c #7975FD",
"O) 	c #8665FC",
"P) 	c #8974FD",
"Q) 	c #6A89FE",
"R) 	c #6E93FE",
"S) 	c #8D7EFD",
"T) 	c #7F78FC",
"U) 	c #7584FF",
"V) 	c #6482FA",
"W) 	c #947FFE",
"X) 	c #8A7EFE",
"Y) 	c #8678FF",
"Z) 	c #7D76FF",
"`) 	c #8492FB",
" ! 	c #8B6BFA",
".! 	c #876BFE",
"+! 	c #B18AF4",
"@! 	c #AE70F5",
"#! 	c #7C73FF",
"$! 	c #5F82FA",
"%! 	c #6786FB",
"&! 	c #698FFE",
"*! 	c #6C97FD",
"=! 	c #C8B7DB",
"-! 	c #D6CBB7",
";! 	c #8B64FD",
">! 	c #491AB6",
",! 	c #6E09AD",
"'! 	c #940CAE",
")! 	c #B81DB7",
"!! 	c #6868FC",
"~! 	c #28CFB3",
"{! 	c #2CB6D0",
"]! 	c #7A68FC",
"^! 	c #6878FF",
"/! 	c #8B9EFA",
"(! 	c #9A5FF7",
"_! 	c #9380FD",
":! 	c #7B8AFD",
"<! 	c #7583FF",
"[! 	c #8686FF",
"}! 	c #8687FD",
"|! 	c #7B84FD",
"1! 	c #7083FC",
"2! 	c #6E8CFE",
"3! 	c #886FFE",
"4! 	c #8177FE",
"5! 	c #7271FB",
"6! 	c #8F70FC",
"7! 	c #7D7CFC",
"8! 	c #7686FF",
"9! 	c #8D7CFF",
"0! 	c #9567FB",
"a! 	c #787DFF",
"b! 	c #6E80FF",
"c! 	c #7D8FFB",
"d! 	c #7287FE",
"e! 	c #7A82FE",
"f! 	c #808BFF",
"g! 	c #8C83FF",
"h! 	c #8889FD",
"i! 	c #6887FC",
"j! 	c #83A2FD",
"k! 	c #889BFA",
"l! 	c #A57BF7",
"m! 	c #8B70FD",
"n! 	c #7478FD",
"o! 	c #707FFF",
"p! 	c #887DFF",
"q! 	c #8288FF",
"r! 	c #8276FC",
"s! 	c #7483FF",
"t! 	c #8887FF",
"u! 	c #7868FE",
"v! 	c #8467FD",
"w! 	c #7C87FD",
"x! 	c #6082FD",
"y! 	c #7797FE",
"z! 	c #8394FC",
"A! 	c #846FFC",
"B! 	c #8E7DFF",
"C! 	c #9677FF",
"D! 	c #8A8BFF",
"E! 	c #7684FE",
"F! 	c #8E6CFE",
"G! 	c #7497FD",
"H! 	c #8C93FE",
"I! 	c #7394FF",
"J! 	c #658FFB",
"K! 	c #8C8EFD",
"L! 	c #6A7FFF",
"M! 	c #8290FD",
"N! 	c #8A8AFC",
"O! 	c #897CFF",
"P! 	c #8B86FE",
"Q! 	c #8273FF",
"R! 	c #9397FB",
"S! 	c #B9D3D0",
"T! 	c #BFDDB7",
"U! 	c #C4CFC7",
"V! 	c #A2C7E4",
"W! 	c #58C8E0",
"X! 	c #42D7C4",
"Y! 	c #3EE0B1",
"Z! 	c #42D0D2",
"`! 	c #738FFD",
" ~ 	c #8282FE",
".~ 	c #C87CE8",
"+~ 	c #E284D0",
"@~ 	c #DA86D4",
"#~ 	c #C67CEB",
"$~ 	c #A084FD",
"%~ 	c #607CFA",
"&~ 	c #3C83ED",
"*~ 	c #2A86DD",
"=~ 	c #1A7FCD",
"-~ 	c #377BE8",
";~ 	c #8590FA",
">~ 	c #8893FD",
",~ 	c #CBB6D5",
"'~ 	c #D7CAB9",
")~ 	c #8B65F9",
"!~ 	c #4A18B9",
"~~ 	c #6B0BAD",
"{~ 	c #960BAC",
"]~ 	c #BA1CB7",
"^~ 	c #6A68FA",
"/~ 	c #2BCFB4",
"(~ 	c #31B7D4",
"_~ 	c #7979FF",
":~ 	c #7C68FF",
"<~ 	c #6C79FC",
"[~ 	c #7880FF",
"}~ 	c #819BFA",
"|~ 	c #7F98FD",
"1~ 	c #978BFB",
"2~ 	c #7B6BFF",
"3~ 	c #6383FA",
"4~ 	c #6775FC",
"5~ 	c #8293FB",
"6~ 	c #976CF9",
"7~ 	c #8971FD",
"8~ 	c #877CFF",
"9~ 	c #9481FE",
"0~ 	c #718AFE",
"a~ 	c #7C8BFE",
"b~ 	c #7883FF",
"c~ 	c #7363FA",
"d~ 	c #8D79FE",
"e~ 	c #878FFC",
"f~ 	c #788CFD",
"g~ 	c #9473FE",
"h~ 	c #718FFD",
"i~ 	c #8893FF",
"j~ 	c #8890FF",
"k~ 	c #88A2F9",
"l~ 	c #73A7FA",
"m~ 	c #7681FD",
"n~ 	c #766DFC",
"o~ 	c #7D6BFD",
"p~ 	c #8B80FF",
"q~ 	c #7B6CFB",
"r~ 	c #737EFE",
"s~ 	c #8A80FA",
"t~ 	c #7493FF",
"u~ 	c #8693FB",
"v~ 	c #7C8CFD",
"w~ 	c #8786FE",
"x~ 	c #7D8FFF",
"y~ 	c #708EFE",
"z~ 	c #6B8BFA",
"A~ 	c #7D88FE",
"B~ 	c #7E77FF",
"C~ 	c #8080FC",
"D~ 	c #846CFE",
"E~ 	c #7370FD",
"F~ 	c #6E8CFA",
"G~ 	c #8AA2F8",
"H~ 	c #8F87FF",
"I~ 	c #7B8DFD",
"J~ 	c #9279F9",
"K~ 	c #928EFC",
"L~ 	c #7893FE",
"M~ 	c #8388FE",
"N~ 	c #948DFD",
"O~ 	c #989FFA",
"P~ 	c #936CF9",
"Q~ 	c #8360FA",
"R~ 	c #7464FB",
"S~ 	c #687DFC",
"T~ 	c #8C7BFF",
"U~ 	c #8B8DFE",
"V~ 	c #6392FA",
"W~ 	c #7E95FD",
"X~ 	c #BA8EED",
"Y~ 	c #D3C9BF",
"Z~ 	c #718BFC",
"`~ 	c #2C2AA9",
" { 	c #3F1DAF",
".{ 	c #6911BD",
"+{ 	c #9311BB",
"@{ 	c #C11BAD",
"#{ 	c #D227AB",
"${ 	c #1CBCB4",
"%{ 	c #327BE4",
"&{ 	c #8974FF",
"*{ 	c #A28AF8",
"={ 	c #7493FD",
"-{ 	c #9E8BF7",
";{ 	c #6D83FB",
">{ 	c #898AFE",
",{ 	c #8382FF",
"'{ 	c #837EFF",
"){ 	c #7663FA",
"!{ 	c #749AFB",
"~{ 	c #6083FB",
"{{ 	c #8E84FF",
"]{ 	c #8A7DFF",
"^{ 	c #AA72F9",
"/{ 	c #666DFC",
"({ 	c #8E68FB",
"_{ 	c #8C6BFF",
":{ 	c #8679FD",
"<{ 	c #828EFC",
"[{ 	c #8287FF",
"}{ 	c #6E80FE",
"|{ 	c #788FFF",
"1{ 	c #7692FD",
"2{ 	c #8A97FD",
"3{ 	c #8FA8F8",
"4{ 	c #87A7FA",
"5{ 	c #66A5F5",
"6{ 	c #8776FF",
"7{ 	c #7D83FF",
"8{ 	c #7B7BFD",
"9{ 	c #7F7FFF",
"0{ 	c #8092FE",
"a{ 	c #7E84FE",
"b{ 	c #7B87FF",
"c{ 	c #7A76FE",
"d{ 	c #7B8BFC",
"e{ 	c #8194FD",
"f{ 	c #7E8EFF",
"g{ 	c #818EFE",
"h{ 	c #7377FC",
"i{ 	c #888FFF",
"j{ 	c #778AFF",
"k{ 	c #6384F8",
"l{ 	c #8F83FF",
"m{ 	c #907BFE",
"n{ 	c #878FFE",
"o{ 	c #928BFD",
"p{ 	c #6C80FB",
"q{ 	c #7162FD",
"r{ 	c #977CFD",
"s{ 	c #9E71FF",
"t{ 	c #8C90FC",
"u{ 	c #7583FE",
"v{ 	c #729AF9",
"w{ 	c #7C84FF",
"x{ 	c #7F71FC",
"y{ 	c #747BFF",
"z{ 	c #758FFE",
"A{ 	c #7C9AFA",
"B{ 	c #9287FD",
"C{ 	c #817EFF",
"D{ 	c #798FFE",
"E{ 	c #D4B2D3",
"F{ 	c #2EB6D0",
"G{ 	c #728CFB",
"H{ 	c #C686E6",
"I{ 	c #E487CE",
"J{ 	c #DA85DA",
"K{ 	c #A081F9",
"L{ 	c #637CFB",
"M{ 	c #3D78EE",
"N{ 	c #2882DA",
"O{ 	c #1D99CD",
"P{ 	c #3E97EB",
"Q{ 	c #8B87FF",
"R{ 	c #BE8AEF",
"S{ 	c #D5C7BE",
"T{ 	c #708CFA",
"U{ 	c #2A28AD",
"V{ 	c #3E1EAF",
"W{ 	c #6B0FBC",
"X{ 	c #9410BC",
"Y{ 	c #BD1BAE",
"Z{ 	c #D627A8",
"`{ 	c #20C1BB",
" ] 	c #3F7FE9",
".] 	c #7E81FF",
"+] 	c #7E7DFF",
"@] 	c #817CFC",
"#] 	c #8B7BFF",
"$] 	c #9092FF",
"%] 	c #5A77F9",
"&] 	c #746DFB",
"*] 	c #8988FF",
"=] 	c #7B9CFB",
"-] 	c #6884FF",
";] 	c #9681FA",
">] 	c #9076FE",
",] 	c #6370FC",
"'] 	c #9A91FA",
")] 	c #7179FF",
"!] 	c #6764F9",
"~] 	c #796DFF",
"{] 	c #9997FC",
"]] 	c #9C73FF",
"^] 	c #8E77FB",
"/] 	c #8399FE",
"(] 	c #788EFE",
"_] 	c #9699FA",
":] 	c #9BA1F9",
"<] 	c #609DF6",
"[] 	c #5D9DF7",
"}] 	c #709BFA",
"|] 	c #9386FC",
"1] 	c #7C98FB",
"2] 	c #6F8FFC",
"3] 	c #9582FF",
"4] 	c #756CFB",
"5] 	c #718AFF",
"6] 	c #877DFF",
"7] 	c #A381FC",
"8] 	c #8B8AFF",
"9] 	c #938FFE",
"0] 	c #7E8EFD",
"a] 	c #5F8AFB",
"b] 	c #9678FE",
"c] 	c #858BFD",
"d] 	c #6A90FD",
"e] 	c #7888FF",
"f] 	c #7E93FC",
"g] 	c #7290FF",
"h] 	c #7DA1F9",
"i] 	c #7A90FD",
"j] 	c #748AFF",
"k] 	c #7579FF",
"l] 	c #8A87FC",
"m] 	c #847DFE",
"n] 	c #8286FF",
"o] 	c #8F8AFE",
"p] 	c #7FA3F9",
"q] 	c #7D96FA",
"r] 	c #8886FF",
"s] 	c #7685FF",
"t] 	c #8686FE",
"u] 	c #947BFB",
"v] 	c #7881FF",
"w] 	c #8F8BFC",
"x] 	c #8A9DF9",
"y] 	c #9D98FC",
"z] 	c #8E79FC",
"A] 	c #708BFF",
"B] 	c #7869FA",
"C] 	c #8674FE",
"D] 	c #8B9BFB",
"E] 	c #DA7CDA",
"F] 	c #C0CBD1",
"G] 	c #1E47BD",
"H] 	c #1D3DAE",
"I] 	c #403CD9",
"J] 	c #6C42EE",
"K] 	c #8B41F0",
"L] 	c #BC40DC",
"M] 	c #E039AD",
"N] 	c #E042B9",
"O] 	c #30BFCD",
"P] 	c #1D88D0",
"Q] 	c #976CFA",
"R] 	c #91A5FB",
"S] 	c #6077F9",
"T] 	c #8179FF",
"U] 	c #A88CFB",
"V] 	c #6C7FFF",
"W] 	c #778FFD",
"X] 	c #8EAFF4",
"Y] 	c #799EF9",
"Z] 	c #6893F9",
"`] 	c #9180FF",
" ^ 	c #7F60F9",
".^ 	c #6880FC",
"+^ 	c #806CFF",
"@^ 	c #9468FD",
"#^ 	c #8C78FB",
"$^ 	c #8483FF",
"%^ 	c #888AFF",
"&^ 	c #877EFD",
"*^ 	c #7CA2F7",
"=^ 	c #7F8CFE",
"-^ 	c #7A95FC",
";^ 	c #738AFE",
">^ 	c #8E84FE",
",^ 	c #969BF9",
"'^ 	c #6388FD",
")^ 	c #6388FB",
"!^ 	c #7F8CFF",
"~^ 	c #7D7AFD",
"{^ 	c #8F85FF",
"]^ 	c #7D94FE",
"^^ 	c #7996FA",
"/^ 	c #838EFF",
"(^ 	c #7588FF",
"_^ 	c #6B97FA",
":^ 	c #829FFB",
"<^ 	c #938AFF",
"[^ 	c #727FFF",
"}^ 	c #6B7DFD",
"|^ 	c #81A3FC",
"1^ 	c #8289FD",
"2^ 	c #9282FC",
"3^ 	c #766DFA",
"4^ 	c #8774FF",
"5^ 	c #7B81FB",
"6^ 	c #A280F9",
"7^ 	c #9370FF",
"8^ 	c #8175FD",
"9^ 	c #7B6CFD",
"0^ 	c #8B79FF",
"a^ 	c #6287FC",
"b^ 	c #5E82FA",
"c^ 	c #7D74FF",
"d^ 	c #7C7DFC",
"e^ 	c #9893FA",
"f^ 	c #7597F9",
"g^ 	c #6792FA",
"h^ 	c #838FFF",
"i^ 	c #8A7FFF",
"j^ 	c #7B78FD",
"k^ 	c #8E7EFA",
"l^ 	c #BE8AEE",
"m^ 	c #DAC4B9",
"n^ 	c #22C1BC",
"o^ 	c #378AE8",
"p^ 	c #7D8AFD",
"q^ 	c #CD8FE5",
"r^ 	c #D689DB",
"s^ 	c #C282F2",
"t^ 	c #5980F9",
"u^ 	c #4487F0",
"v^ 	c #4181ED",
"w^ 	c #2092D1",
"x^ 	c #298EDC",
"y^ 	c #DF84D1",
"z^ 	c #C5C8CD",
"A^ 	c #1C47B7",
"B^ 	c #1F3DAF",
"C^ 	c #6943EE",
"D^ 	c #8A40EF",
"E^ 	c #E038AF",
"F^ 	c #DF41B8",
"G^ 	c #36C2CF",
"H^ 	c #1F7BD2",
"I^ 	c #846BFD",
"J^ 	c #8978FF",
"K^ 	c #6B83FF",
"L^ 	c #7970FF",
"M^ 	c #7560FB",
"N^ 	c #826CFF",
"O^ 	c #848EFD",
"P^ 	c #7E7BFC",
"Q^ 	c #7C94FF",
"R^ 	c #829AFA",
"S^ 	c #817AFE",
"T^ 	c #6B84FB",
"U^ 	c #9797F7",
"V^ 	c #597BF9",
"W^ 	c #6A7DFD",
"X^ 	c #A184FB",
"Y^ 	c #A296F8",
"Z^ 	c #76A9F8",
"`^ 	c #7187FF",
" / 	c #9374FD",
"./ 	c #9A87FD",
"+/ 	c #728DFE",
"@/ 	c #72AAF5",
"#/ 	c #6496F9",
"$/ 	c #6C9DF9",
"%/ 	c #78A6FB",
"&/ 	c #8B96FF",
"*/ 	c #938FFF",
"=/ 	c #69B3F4",
"-/ 	c #6A97FC",
";/ 	c #6F77FC",
">/ 	c #8487FC",
",/ 	c #8F78FE",
"'/ 	c #6E6DF9",
")/ 	c #7698FA",
"!/ 	c #8990FA",
"~/ 	c #9979FE",
"{/ 	c #7E8BFD",
"]/ 	c #6C87FA",
"^/ 	c #8597FD",
"// 	c #81ABF5",
"(/ 	c #6994FC",
"_/ 	c #6B7DFB",
":/ 	c #738AFC",
"</ 	c #8B93FE",
"[/ 	c #8783FB",
"}/ 	c #7B7BFF",
"|/ 	c #858CFF",
"1/ 	c #7F81FC",
"2/ 	c #7281FF",
"3/ 	c #806DFD",
"4/ 	c #8674FA",
"5/ 	c #9574FF",
"6/ 	c #76A6F8",
"7/ 	c #6B81FB",
"8/ 	c #7983FE",
"9/ 	c #8DA2FD",
"0/ 	c #AC87F8",
"a/ 	c #9098FB",
"b/ 	c #6B97F8",
"c/ 	c #8E7FFE",
"d/ 	c #6C89FE",
"e/ 	c #828FFF",
"f/ 	c #6783FE",
"g/ 	c #5A7CF8",
"h/ 	c #EB7CC1",
"i/ 	c #ABACEF",
"j/ 	c #0B6DAE",
"k/ 	c #1562BE",
"l/ 	c #4565EE",
"m/ 	c #6E63FD",
"n/ 	c #966DF9",
"o/ 	c #B46EF3",
"p/ 	c #EA63BF",
"q/ 	c #F466B0",
"r/ 	c #40A7E9",
"s/ 	c #1481C4",
"t/ 	c #8490FF",
"u/ 	c #847AFF",
"v/ 	c #9E74FE",
"w/ 	c #697CFD",
"x/ 	c #717CFC",
"y/ 	c #7975FE",
"z/ 	c #817FFE",
"A/ 	c #879EFC",
"B/ 	c #6F88FF",
"C/ 	c #8164FC",
"D/ 	c #9485FC",
"E/ 	c #6C96F8",
"F/ 	c #77A7F9",
"G/ 	c #7798FF",
"H/ 	c #7285FE",
"I/ 	c #9284FF",
"J/ 	c #9F7CFC",
"K/ 	c #9480FB",
"L/ 	c #7C80FD",
"M/ 	c #786CFF",
"N/ 	c #7574FE",
"O/ 	c #7773FB",
"P/ 	c #8374FF",
"Q/ 	c #788CFC",
"R/ 	c #9585FF",
"S/ 	c #8573FB",
"T/ 	c #7565FC",
"U/ 	c #6F6BFF",
"V/ 	c #8682FD",
"W/ 	c #748FFA",
"X/ 	c #6C87FC",
"Y/ 	c #7F7CFD",
"Z/ 	c #8680FE",
"`/ 	c #7991FF",
" ( 	c #8284FD",
".( 	c #8E76FE",
"+( 	c #748BFD",
"@( 	c #767EFD",
"#( 	c #888EFC",
"$( 	c #8C8FFF",
"%( 	c #7287FC",
"&( 	c #73ADF6",
"*( 	c #906FFC",
"=( 	c #8867FC",
"-( 	c #7E82FD",
";( 	c #9886FE",
">( 	c #8583FE",
",( 	c #647BFB",
"'( 	c #689AF9",
")( 	c #888EFF",
"!( 	c #7E89FF",
"~( 	c #9081FE",
"{( 	c #8B6BFD",
"]( 	c #6E76FD",
"^( 	c #8763F9",
"/( 	c #E481D1",
"(( 	c #C8C6C9",
"_( 	c #35C3D1",
":( 	c #2472D7",
"<( 	c #C785E9",
"[( 	c #E381CC",
"}( 	c #D97BD9",
"|( 	c #BD7AEE",
"1( 	c #9783FE",
"2( 	c #6784FC",
"3( 	c #3F8BED",
"4( 	c #3181E4",
"5( 	c #2372D7",
"6( 	c #2C7FDF",
"7( 	c #EA81C6",
"8( 	c #A6AAF3",
"9( 	c #086FB1",
"0( 	c #1360BA",
"a( 	c #4764F0",
"b( 	c #6D64FB",
"c( 	c #B56EF0",
"d( 	c #EA63C1",
"e( 	c #48A7EB",
"f( 	c #1579C5",
"g( 	c #6B83FD",
"h( 	c #9678FC",
"i( 	c #7C79FC",
"j( 	c #9682FD",
"k( 	c #8C7FFF",
"l( 	c #7289FD",
"m( 	c #687FFF",
"n( 	c #868BFF",
"o( 	c #728CFD",
"p( 	c #8497FE",
"q( 	c #8786FD",
"r( 	c #789AFC",
"s( 	c #92A2F7",
"t( 	c #A668F9",
"u( 	c #865FF8",
"v( 	c #656EF9",
"w( 	c #9676FD",
"x( 	c #938AFD",
"y( 	c #887CFF",
"z( 	c #A078FC",
"A( 	c #9779FD",
"B( 	c #6293FC",
"C( 	c #638FFC",
"D( 	c #81A5F9",
"E( 	c #6AA0F8",
"F( 	c #9C8BFD",
"G( 	c #767EFB",
"H( 	c #578BF8",
"I( 	c #6C82FC",
"J( 	c #8B94FD",
"K( 	c #7673FF",
"L( 	c #9373FA",
"M( 	c #7A66FD",
"N( 	c #9063FA",
"O( 	c #888BFF",
"P( 	c #99A1F6",
"Q( 	c #7A9CFE",
"R( 	c #5992F9",
"S( 	c #5E8EFA",
"T( 	c #8D8FFC",
"U( 	c #7282FC",
"V( 	c #8673FF",
"W( 	c #7E6FFC",
"X( 	c #687BFB",
"Y( 	c #9684FE",
"Z( 	c #B073F4",
"`( 	c #5F87F9",
" _ 	c #927BFF",
"._ 	c #A688FA",
"+_ 	c #80A6F7",
"@_ 	c #996CFB",
"#_ 	c #8197FC",
"$_ 	c #8A97FF",
"%_ 	c #8193FF",
"&_ 	c #669DFA",
"*_ 	c #7388FD",
"=_ 	c #9170FF",
"-_ 	c #7E68FB",
";_ 	c #6673FD",
">_ 	c #E877C7",
",_ 	c #B152EE",
"'_ 	c #0A98AC",
")_ 	c #1195BC",
"!_ 	c #4B8AF1",
"~_ 	c #7192FD",
"{_ 	c #9290FD",
"]_ 	c #AD95F7",
"^_ 	c #ED98BF",
"/_ 	c #F390AD",
"(_ 	c #4A4FE9",
"__ 	c #1187C7",
":_ 	c #9C74FB",
"<_ 	c #9D6EF8",
"[_ 	c #7C7BFB",
"}_ 	c #7579FE",
"|_ 	c #7A7DFE",
"1_ 	c #847FFD",
"2_ 	c #9177FC",
"3_ 	c #5486F5",
"4_ 	c #8091FD",
"5_ 	c #9093FA",
"6_ 	c #9284FD",
"7_ 	c #8AA2FA",
"8_ 	c #8EA2F9",
"9_ 	c #63A8F3",
"0_ 	c #4A8BF3",
"a_ 	c #9E93FB",
"b_ 	c #899EFB",
"c_ 	c #8884FD",
"d_ 	c #7678FF",
"e_ 	c #7880FD",
"f_ 	c #8F6CFC",
"g_ 	c #8159FA",
"h_ 	c #7A6CFD",
"i_ 	c #8A81FF",
"j_ 	c #7565FB",
"k_ 	c #7571FC",
"l_ 	c #A083FA",
"m_ 	c #9069FA",
"n_ 	c #788DFF",
"o_ 	c #7E97FB",
"p_ 	c #7D9BFD",
"q_ 	c #868CFC",
"r_ 	c #8781FD",
"s_ 	c #787BFF",
"t_ 	c #846EFD",
"u_ 	c #6C82FA",
"v_ 	c #6D7CFB",
"w_ 	c #8086FF",
"x_ 	c #7D75FE",
"y_ 	c #8C80FC",
"z_ 	c #7690FF",
"A_ 	c #6394FA",
"B_ 	c #7987FF",
"C_ 	c #947BFD",
"D_ 	c #9293FF",
"E_ 	c #7E7EFF",
"F_ 	c #7494FB",
"G_ 	c #7A85FF",
"H_ 	c #7A90FF",
"I_ 	c #757CFF",
"J_ 	c #7D75FF",
"K_ 	c #9283FA",
"L_ 	c #8C9FFB",
"M_ 	c #7388FF",
"N_ 	c #7A86FC",
"O_ 	c #8780FF",
"P_ 	c #ED7ABF",
"Q_ 	c #B7A8E9",
"R_ 	c #40A6E6",
"S_ 	c #1574C4",
"T_ 	c #9770FD",
"U_ 	c #CA75EA",
"V_ 	c #E072D5",
"W_ 	c #D373E1",
"X_ 	c #C77BE7",
"Y_ 	c #A677F9",
"Z_ 	c #6C80FD",
"`_ 	c #4282EC",
" : 	c #3194E5",
".: 	c #1E81D4",
"+: 	c #3692E7",
"@: 	c #EA79C9",
"#: 	c #B454EB",
"$: 	c #0C96B2",
"%: 	c #1297BA",
"&: 	c #4C89F3",
"*: 	c #9091FB",
"=: 	c #AC97F6",
"-: 	c #EA98BE",
";: 	c #F292AE",
">: 	c #484FE6",
",: 	c #1374C5",
"': 	c #8569FA",
"): 	c #8F7FFC",
"!: 	c #7A9AFD",
"~: 	c #7690FE",
"{: 	c #818BFC",
"]: 	c #956FFF",
"^: 	c #6F83FC",
"/: 	c #6E89FE",
"(: 	c #8F87FE",
"_: 	c #918FFC",
":: 	c #839BFF",
"<: 	c #9682FF",
"[: 	c #7580FE",
"}: 	c #668AFC",
"|: 	c #86A7F8",
"1: 	c #7C98FC",
"2: 	c #5C77F8",
"3: 	c #7F55F5",
"4: 	c #976DFD",
"5: 	c #978AFC",
"6: 	c #9B86FB",
"7: 	c #927DFE",
"8: 	c #887FFF",
"9: 	c #877CFE",
"0: 	c #8B67FD",
"a: 	c #8764FC",
"b: 	c #7C8BFF",
"c: 	c #7396FA",
"d: 	c #799BFC",
"e: 	c #6986FE",
"f: 	c #6B9CFB",
"g: 	c #78ACF7",
"h: 	c #7A9BFC",
"i: 	c #7984FF",
"j: 	c #829CFB",
"k: 	c #7B79FE",
"l: 	c #8D97F9",
"m: 	c #9A73FF",
"n: 	c #576DF7",
"o: 	c #6981FB",
"p: 	c #8D75FD",
"q: 	c #8365FB",
"r: 	c #9170FD",
"s: 	c #997FFC",
"t: 	c #9490FE",
"u: 	c #9985FF",
"v: 	c #6E7DFC",
"w: 	c #5E96F5",
"x: 	c #69A8F7",
"y: 	c #6CA2F8",
"z: 	c #668FFB",
"A: 	c #757FFF",
"B: 	c #7F8AFD",
"C: 	c #8F7EFE",
"D: 	c #9588FC",
"E: 	c #7680FF",
"F: 	c #7381FC",
"G: 	c #6A84FF",
"H: 	c #7E9AFB",
"I: 	c #969AFB",
"J: 	c #9196FA",
"K: 	c #8659FA",
"L: 	c #7186FD",
"M: 	c #958BFB",
"N: 	c #A47CF7",
"O: 	c #886FFF",
"P: 	c #A280FB",
"Q: 	c #9693FC",
"R: 	c #9688FA",
"S: 	c #5E9BF6",
"T: 	c #6980FF",
"U: 	c #6B67FC",
"V: 	c #DF6FD5",
"W: 	c #CC3AC9",
"X: 	c #1BB4BA",
"Y: 	c #1AC2AB",
"Z: 	c #3BBADB",
"`: 	c #74AEF7",
" < 	c #9DAAF8",
".< 	c #C4BBD6",
"+< 	c #DAC8B0",
"@< 	c #E2B7C1",
"#< 	c #4030CE",
"$< 	c #2080D7",
"%< 	c #7672FD",
"&< 	c #7C71FC",
"*< 	c #8F79FF",
"=< 	c #9369FD",
"-< 	c #7770FC",
";< 	c #7E83FB",
">< 	c #7C87FB",
",< 	c #8FA5FA",
"'< 	c #87A2FB",
")< 	c #85A0FB",
"!< 	c #9080FC",
"~< 	c #8697FF",
"{< 	c #6178FA",
"]< 	c #5898F9",
"^< 	c #85A6F7",
"/< 	c #9690FA",
"(< 	c #8573FD",
"_< 	c #767FFF",
":< 	c #6C8EFA",
"<< 	c #7180FF",
"[< 	c #8176FF",
"}< 	c #9484FE",
"|< 	c #817FFC",
"1< 	c #8D79FF",
"2< 	c #8D6DFE",
"3< 	c #7E76FD",
"4< 	c #6774FE",
"5< 	c #7460FD",
"6< 	c #8377FD",
"7< 	c #848FFB",
"8< 	c #8A9FFA",
"9< 	c #8698FE",
"0< 	c #7C6BF8",
"a< 	c #A375FB",
"b< 	c #6E8EFD",
"c< 	c #6DA6F7",
"d< 	c #758CFE",
"e< 	c #8289FE",
"f< 	c #9A9AFC",
"g< 	c #92ACF7",
"h< 	c #6BA9F4",
"i< 	c #658EFA",
"j< 	c #7574FF",
"k< 	c #7E73FD",
"l< 	c #726DFB",
"m< 	c #8977FF",
"n< 	c #7381FE",
"o< 	c #9078FF",
"p< 	c #9783FC",
"q< 	c #8C80FE",
"r< 	c #78A9F6",
"s< 	c #8F73FB",
"t< 	c #7380FF",
"u< 	c #758DFB",
"v< 	c #5E80FB",
"w< 	c #6183FE",
"x< 	c #8D7CFC",
"y< 	c #8794FC",
"z< 	c #7A8FFA",
"A< 	c #9C97FE",
"B< 	c #7F96FC",
"C< 	c #6887FB",
"D< 	c #7A92FC",
"E< 	c #8082FB",
"F< 	c #EE7AC1",
"G< 	c #C554E4",
"H< 	c #434EE4",
"I< 	c #1488C3",
"J< 	c #8C6CFE",
"K< 	c #C274EB",
"L< 	c #E180CF",
"M< 	c #DD85D9",
"N< 	c #C283EC",
"O< 	c #A47DFC",
"P< 	c #5284F7",
"Q< 	c #3293E4",
"R< 	c #1F92D1",
"S< 	c #338BE4",
"T< 	c #607BFC",
"U< 	c #D87ED8",
"V< 	c #CA3BC9",
"W< 	c #1BB2BB",
"X< 	c #1AC0AA",
"Y< 	c #3ABBDB",
"Z< 	c #73AFF7",
"`< 	c #9CAAF3",
" [ 	c #C5BADA",
".[ 	c #DDC7B2",
"+[ 	c #E1B6BF",
"@[ 	c #3434C6",
"#[ 	c #1F7BCE",
"$[ 	c #966FFE",
"%[ 	c #9371FC",
"&[ 	c #738DFE",
"*[ 	c #8D75FF",
"=[ 	c #8090FF",
"-[ 	c #7482FD",
";[ 	c #6982FF",
">[ 	c #7A61FB",
",[ 	c #8560FD",
"'[ 	c #7F60FB",
")[ 	c #7C76FE",
"![ 	c #8D7BFF",
"~[ 	c #7A8EFE",
"{[ 	c #656BFD",
"][ 	c #669FF9",
"^[ 	c #7C92FF",
"/[ 	c #998FFF",
"([ 	c #9183FE",
"_[ 	c #8871FD",
":[ 	c #8656F7",
"<[ 	c #8C6FFB",
"[[ 	c #7981FE",
"}[ 	c #737DFF",
"|[ 	c #8590FC",
"1[ 	c #87A2FD",
"2[ 	c #6CAFF6",
"3[ 	c #62A2F9",
"4[ 	c #74ADF4",
"5[ 	c #7CA7F6",
"6[ 	c #A9A6F5",
"7[ 	c #6BA6F6",
"8[ 	c #7C75FF",
"9[ 	c #7268FD",
"0[ 	c #7F8CFC",
"a[ 	c #748BFF",
"b[ 	c #787DFD",
"c[ 	c #9B8FFB",
"d[ 	c #9D8BFB",
"e[ 	c #6992FB",
"f[ 	c #63A1F8",
"g[ 	c #6BA5F7",
"h[ 	c #6F9CF9",
"i[ 	c #8AA6F9",
"j[ 	c #849CFE",
"k[ 	c #6E87FB",
"l[ 	c #9369FB",
"m[ 	c #B47FF3",
"n[ 	c #6A84FB",
"o[ 	c #5E83F8",
"p[ 	c #7280FD",
"q[ 	c #747CFB",
"r[ 	c #C38AE9",
"s[ 	c #DB42BE",
"t[ 	c #676FFE",
"u[ 	c #25CFA8",
"v[ 	c #3BE1AF",
"w[ 	c #68EDC0",
"x[ 	c #99EBBD",
"y[ 	c #C3DEB1",
"z[ 	c #D3D5AD",
"A[ 	c #293CBF",
"B[ 	c #3785E9",
"C[ 	c #787BFE",
"D[ 	c #8E86FF",
"E[ 	c #9261FB",
"F[ 	c #8568FE",
"G[ 	c #8274FB",
"H[ 	c #7782FF",
"I[ 	c #9987FF",
"J[ 	c #866DFD",
"K[ 	c #707DFD",
"L[ 	c #74A4F9",
"M[ 	c #7693FB",
"N[ 	c #967DFF",
"O[ 	c #777AFD",
"P[ 	c #768CFC",
"Q[ 	c #799DFB",
"R[ 	c #83A0FC",
"S[ 	c #826CFB",
"T[ 	c #8564FD",
"U[ 	c #6373FA",
"V[ 	c #A582FA",
"W[ 	c #9E74FC",
"X[ 	c #837DFF",
"Y[ 	c #786FFC",
"Z[ 	c #7561FE",
"`[ 	c #7484FD",
" } 	c #8E89FF",
".} 	c #8181FD",
"+} 	c #6B90FB",
"@} 	c #8F9BFD",
"#} 	c #AAA7F4",
"$} 	c #8F86FB",
"%} 	c #5288F5",
"&} 	c #6E76FF",
"*} 	c #9587FF",
"=} 	c #7F85FF",
"-} 	c #7382FF",
";} 	c #8C87FB",
">} 	c #937AFC",
",} 	c #7679FE",
"'} 	c #866FFD",
")} 	c #8484FF",
"!} 	c #9990F9",
"~} 	c #6D81FE",
"{} 	c #947FFF",
"]} 	c #6D81FC",
"^} 	c #84B0F9",
"/} 	c #79AFF5",
"(} 	c #658BFA",
"_} 	c #859EFB",
":} 	c #7D85FF",
"<} 	c #9A87FB",
"[} 	c #6B8AFE",
"}} 	c #E180CD",
"|} 	c #D240C7",
"1} 	c #2084CF",
"2} 	c #D484DD",
"3} 	c #E596CF",
"4} 	c #D784E0",
"5} 	c #C184EC",
"6} 	c #7172FE",
"7} 	c #5974F7",
"8} 	c #3E60E8",
"9} 	c #2171D2",
"0} 	c #296BD9",
"a} 	c #648DFF",
"b} 	c #C190EB",
"c} 	c #DA3FBF",
"d} 	c #6570FD",
"e} 	c #22D1A6",
"f} 	c #67ECBD",
"g} 	c #C5DEB4",
"h} 	c #D3D4AA",
"i} 	c #253EBD",
"j} 	c #3987EC",
"k} 	c #8866FF",
"l} 	c #7793FE",
"m} 	c #9DA3F7",
"n} 	c #6362FB",
"o} 	c #6D5FFA",
"p} 	c #7177FF",
"q} 	c #9F60F9",
"r} 	c #9957F5",
"s} 	c #786DFA",
"t} 	c #6D7FFB",
"u} 	c #7078FF",
"v} 	c #7279FD",
"w} 	c #8071FE",
"x} 	c #7860FC",
"y} 	c #7E66FA",
"z} 	c #977DFC",
"A} 	c #7D59F7",
"B} 	c #7969FF",
"C} 	c #70A2F9",
"D} 	c #888FFA",
"E} 	c #8775FF",
"F} 	c #A082FC",
"G} 	c #6F7CFC",
"H} 	c #A474FB",
"I} 	c #9193FF",
"J} 	c #7375FC",
"K} 	c #83A8F8",
"L} 	c #76A6FA",
"M} 	c #7BB9F2",
"N} 	c #75A3F8",
"O} 	c #8C84FE",
"P} 	c #6997F9",
"Q} 	c #5990F7",
"R} 	c #6F8FFE",
"S} 	c #8B81FC",
"T} 	c #7F95FB",
"U} 	c #8996FF",
"V} 	c #A2A3F5",
"W} 	c #8C8CFE",
"X} 	c #707BFB",
"Y} 	c #725AF8",
"Z} 	c #8966FE",
"`} 	c #608FF7",
" | 	c #5C91F7",
".| 	c #7084FF",
"+| 	c #7E8AFF",
"@| 	c #858FFF",
"#| 	c #737BFF",
"$| 	c #6865FC",
"%| 	c #AC75F7",
"&| 	c #9975FD",
"*| 	c #8477FF",
"=| 	c #7E7BFE",
"-| 	c #7278FF",
";| 	c #5E82FC",
">| 	c #6986FC",
",| 	c #7B93FD",
"'| 	c #889AFC",
")| 	c #91A2FA",
"!| 	c #CE51DD",
"~| 	c #CD2BBE",
"{| 	c #49E1BB",
"]| 	c #68F6AC",
"^| 	c #93F3AC",
"/| 	c #B9E2BA",
"(| 	c #6E93FD",
"_| 	c #2C33B8",
":| 	c #3A4ADE",
"<| 	c #7893FA",
"[| 	c #997BFD",
"}| 	c #7293FE",
"|| 	c #8C7DFE",
"1| 	c #917CFF",
"2| 	c #6E69F9",
"3| 	c #9765F8",
"4| 	c #786FFE",
"5| 	c #9577FD",
"6| 	c #8157F7",
"7| 	c #8E90FF",
"8| 	c #8098FC",
"9| 	c #708BFC",
"0| 	c #6A82FC",
"a| 	c #8766FF",
"b| 	c #8097FD",
"c| 	c #8760FB",
"d| 	c #6C5AFA",
"e| 	c #854AF2",
"f| 	c #A66EF7",
"g| 	c #9087FE",
"h| 	c #8264FA",
"i| 	c #834EF8",
"j| 	c #7D64FD",
"k| 	c #8F90FA",
"l| 	c #92A5F4",
"m| 	c #6C74FD",
"n| 	c #676CFB",
"o| 	c #547EF7",
"p| 	c #6377FC",
"q| 	c #9874FC",
"r| 	c #9694F9",
"s| 	c #8387FF",
"t| 	c #7A86FE",
"u| 	c #908EFC",
"v| 	c #7D86FD",
"w| 	c #8763FB",
"x| 	c #A280F8",
"y| 	c #6D73FD",
"z| 	c #9383FD",
"A| 	c #7184FD",
"B| 	c #5D8BFA",
"C| 	c #7E87FF",
"D| 	c #598CF9",
"E| 	c #976BFC",
"F| 	c #8764FE",
"G| 	c #777BFF",
"H| 	c #7478FF",
"I| 	c #CD82E7",
"J| 	c #DD44B9",
"K| 	c #293BC1",
"L| 	c #3C7BEC",
"M| 	c #8794FD",
"N| 	c #D981D8",
"O| 	c #DF80D1",
"P| 	c #D383E4",
"Q| 	c #BE80ED",
"R| 	c #987AFC",
"S| 	c #6881FF",
"T| 	c #3D74EB",
"U| 	c #3064DC",
"V| 	c #2463D5",
"W| 	c #466BF0",
"X| 	c #7288FF",
"Y| 	c #C44EE0",
"Z| 	c #7A89FE",
"`| 	c #46E2BB",
" 1 	c #6BF4AC",
".1 	c #91F4B1",
"+1 	c #B8E1B7",
"@1 	c #7193FE",
"#1 	c #2C34B9",
"$1 	c #314FD5",
"%1 	c #6D82FF",
"&1 	c #8067FF",
"*1 	c #9069F6",
"=1 	c #7F4EF5",
"-1 	c #9961F6",
";1 	c #8E56F7",
">1 	c #9974FF",
",1 	c #5483F7",
"'1 	c #616CFA",
")1 	c #8D81FD",
"!1 	c #9F63F9",
"~1 	c #9458F6",
"{1 	c #7569FD",
"]1 	c #766DFE",
"^1 	c #8B83FC",
"/1 	c #645FF9",
"(1 	c #8F6FFE",
"_1 	c #9B5EF9",
":1 	c #6B8CFF",
"<1 	c #9B83FD",
"[1 	c #827DFD",
"}1 	c #8965FB",
"|1 	c #7E73FF",
"11 	c #A48FF8",
"21 	c #9388FE",
"31 	c #6E77FF",
"41 	c #68A2F6",
"51 	c #83B3F1",
"61 	c #8897FE",
"71 	c #8A8CFD",
"81 	c #8E8EFE",
"91 	c #7962FA",
"01 	c #585FF5",
"a1 	c #7269FA",
"b1 	c #9F6BFB",
"c1 	c #6A82FE",
"d1 	c #648EFC",
"e1 	c #6B8FFD",
"f1 	c #7C9FFB",
"g1 	c #5A6DF7",
"h1 	c #92A4FA",
"i1 	c #7A7FFD",
"j1 	c #916BFC",
"k1 	c #6F61FE",
"l1 	c #A489FA",
"m1 	c #A97DF9",
"n1 	c #9175FE",
"o1 	c #7775FC",
"p1 	c #8693FC",
"q1 	c #7181FB",
"r1 	c #7F91FD",
"s1 	c #839DFA",
"t1 	c #9F32DD",
"u1 	c #BD28C0",
"v1 	c #CC3CCF",
"w1 	c #A74CEF",
"x1 	c #5252EE",
"y1 	c #3A39D2",
"z1 	c #3B28C0",
"A1 	c #423ED9",
"B1 	c #6A87FD",
"C1 	c #8877FF",
"D1 	c #9398FC",
"E1 	c #8E91FC",
"F1 	c #7082FF",
"G1 	c #8E78FE",
"H1 	c #8E7DFD",
"I1 	c #787AFF",
"J1 	c #7675FF",
"K1 	c #8D69FD",
"L1 	c #946AFC",
"M1 	c #7F88FD",
"N1 	c #7B74FE",
"O1 	c #5E70F8",
"P1 	c #6269F8",
"Q1 	c #A674F9",
"R1 	c #AC8BF6",
"S1 	c #8D8AFF",
"T1 	c #6F7CFF",
"U1 	c #7787FF",
"V1 	c #6380FE",
"W1 	c #688EFD",
"X1 	c #949AF8",
"Y1 	c #858BFB",
"Z1 	c #7194FC",
"`1 	c #618BFB",
" 2 	c #AF83F4",
".2 	c #8574FF",
"+2 	c #587BFB",
"@2 	c #8458F7",
"#2 	c #9581FE",
"$2 	c #8F77FF",
"%2 	c #7B6DFE",
"&2 	c #6D7CFD",
"*2 	c #5E91FA",
"=2 	c #6797F9",
"-2 	c #919FF8",
";2 	c #6678FF",
">2 	c #7188FC",
",2 	c #838FFD",
"'2 	c #7884FC",
")2 	c #9D8BF9",
"!2 	c #9B86FD",
"~2 	c #5C90F6",
"{2 	c #9877FC",
"]2 	c #8D6AFC",
"^2 	c #9189F9",
"/2 	c #9196FC",
"(2 	c #8186FC",
"_2 	c #6F75FF",
":2 	c #637FFC",
"<2 	c #738FFC",
"[2 	c #8F61F8",
"}2 	c #759BFE",
"|2 	c #6A93FD",
"12 	c #9367FA",
"22 	c #676AF9",
"32 	c #776FFF",
"42 	c #837CFD",
"52 	c #A77FF9",
"62 	c #D655D6",
"72 	c #344ED9",
"82 	c #C986E7",
"92 	c #E67ECD",
"02 	c #D585DE",
"a2 	c #BC78F1",
"b2 	c #5C83FA",
"c2 	c #3B7CF0",
"d2 	c #2D85DF",
"e2 	c #2189D2",
"f2 	c #3A8AE9",
"g2 	c #8468FB",
"h2 	c #8A68FB",
"i2 	c #9E2CDC",
"j2 	c #BA20BE",
"k2 	c #CA36CA",
"l2 	c #A245EB",
"m2 	c #5341E3",
"n2 	c #422ECB",
"o2 	c #3D24BD",
"p2 	c #4535D6",
"q2 	c #678BFD",
"r2 	c #7F7EFD",
"s2 	c #917AFC",
"t2 	c #7A67FF",
"u2 	c #8B5DFB",
"v2 	c #8B5EF9",
"w2 	c #A978F6",
"x2 	c #AC74FB",
"y2 	c #6F9DFB",
"z2 	c #538EF6",
"A2 	c #809FFA",
"B2 	c #7E93FE",
"C2 	c #78A1FB",
"D2 	c #7097FE",
"E2 	c #8476FD",
"F2 	c #7173FC",
"G2 	c #9089FB",
"H2 	c #9F70FC",
"I2 	c #9F7FFA",
"J2 	c #5C93F8",
"K2 	c #9D90FA",
"L2 	c #9680FC",
"M2 	c #7581FB",
"N2 	c #8B7FFD",
"O2 	c #9898FA",
"P2 	c #7FBDF0",
"Q2 	c #5BB6EB",
"R2 	c #7FB1F6",
"S2 	c #8C99FF",
"T2 	c #7994FD",
"U2 	c #747FFD",
"V2 	c #83A1F9",
"W2 	c #8994FE",
"X2 	c #9186FE",
"Y2 	c #83A3FA",
"Z2 	c #5BA4F3",
"`2 	c #819BFC",
" 3 	c #929CFD",
".3 	c #819EFA",
"+3 	c #838FFB",
"@3 	c #958FFD",
"#3 	c #AB8FF5",
"$3 	c #547CF8",
"%3 	c #B191F4",
"&3 	c #5F93F8",
"*3 	c #6898FE",
"=3 	c #7592FA",
"-3 	c #7E97FE",
";3 	c #8C82FC",
">3 	c #929DF9",
",3 	c #8F93FE",
"'3 	c #9170FB",
")3 	c #5C6BF8",
"!3 	c #7865FC",
"~3 	c #742FE2",
"{3 	c #8118CC",
"]3 	c #8015C3",
"^3 	c #739EFA",
"/3 	c #8AA9F9",
"(3 	c #8E9AFC",
"_3 	c #778EFF",
":3 	c #6D8FFA",
"<3 	c #76A2F9",
"[3 	c #8C89FE",
"}3 	c #8A9FFC",
"|3 	c #8991FC",
"13 	c #959BF9",
"23 	c #8490FC",
"33 	c #937EFD",
"43 	c #966DFA",
"53 	c #8370FF",
"63 	c #687CFF",
"73 	c #A4ABF1",
"83 	c #9CA7F6",
"93 	c #8CA6FB",
"03 	c #7370FB",
"a3 	c #7E9DFA",
"b3 	c #6893FC",
"c3 	c #8E9EFD",
"d3 	c #85AAF8",
"e3 	c #6DA5F8",
"f3 	c #9B81FC",
"g3 	c #7392FC",
"h3 	c #6EA9F7",
"i3 	c #80BEEF",
"j3 	c #6794FB",
"k3 	c #7EB0F9",
"l3 	c #8B73FF",
"m3 	c #82A4FB",
"n3 	c #65AEF3",
"o3 	c #6CB9EF",
"p3 	c #82B5F4",
"q3 	c #789AFB",
"r3 	c #7093FB",
"s3 	c #8E83FD",
"t3 	c #7B90FD",
"u3 	c #838DFF",
"v3 	c #759BFC",
"w3 	c #87A6F9",
"x3 	c #5CA5F4",
"y3 	c #95A1F5",
"z3 	c #9990FD",
"A3 	c #6F9BFC",
"B3 	c #8A98FB",
"C3 	c #A6A1F5",
"D3 	c #6DA6F5",
"E3 	c #79A6F9",
"F3 	c #68A5F8",
"G3 	c #77A4F9",
"H3 	c #89B6F1",
"I3 	c #7DB4F5",
"J3 	c #6393F9",
"K3 	c #8E7FFC",
"L3 	c #6A64FC",
"M3 	c #6F5AF7",
"N3 	c #7F6CFC",
"O3 	c #9666FA",
"P3 	c #A12CDB",
"Q3 	c #BA20C0",
"R3 	c #C32CC5",
"S3 	c #A43CE7",
"T3 	c #5344E5",
"U3 	c #3C36CE",
"V3 	c #3B27BE",
"W3 	c #4539D9",
"X3 	c #757EFD",
"Y3 	c #CD8DE1",
"Z3 	c #E282CC",
"`3 	c #CD81E5",
" 4 	c #BB80EE",
".4 	c #9F83FA",
"+4 	c #6088F9",
"@4 	c #4382EC",
"#4 	c #3583E8",
"$4 	c #237ED9",
"%4 	c #3675E7",
"&4 	c #7774FF",
"*4 	c #686FFB",
"=4 	c #7742EC",
"-4 	c #7D22D7",
";4 	c #7816C5",
">4 	c #7613C5",
",4 	c #861ACF",
"'4 	c #7874FD",
")4 	c #8378FF",
"!4 	c #6C9CFF",
"~4 	c #7C8EFC",
"{4 	c #76ABF7",
"]4 	c #A4BCEC",
"^4 	c #A8BFE8",
"/4 	c #9EC1E7",
"(4 	c #6EAEF5",
"_4 	c #64C7E6",
":4 	c #85C7E7",
"<4 	c #84D1E1",
"[4 	c #79CAE5",
"}4 	c #7BD1E0",
"|4 	c #79D3DE",
"14 	c #6ED2E2",
"24 	c #7EC9E6",
"34 	c #89CDE4",
"44 	c #83CEE1",
"54 	c #7ACCE2",
"64 	c #7DC7EC",
"74 	c #81C8E8",
"84 	c #82D0E4",
"94 	c #7DCDE6",
"04 	c #7ECEE5",
"a4 	c #83C3E9",
"b4 	c #82C3E9",
"c4 	c #87D3E1",
"d4 	c #8DC5E8",
"e4 	c #83C7EA",
"f4 	c #82CDE2",
"g4 	c #84C5ED",
"h4 	c #92BBEF",
"i4 	c #79C8E6",
"j4 	c #79CEE3",
"k4 	c #8DC8E6",
"l4 	c #95B8F2",
"m4 	c #97C0EC",
"n4 	c #81C1ED",
"o4 	c #78C3EA",
"p4 	c #72C4EA",
"q4 	c #78C1EC",
"r4 	c #87C9EC",
"s4 	c #88BDEF",
"t4 	c #77B3F2",
"u4 	c #99BAEF",
"v4 	c #80BFEA",
"w4 	c #72C9E7",
"x4 	c #7BD5DE",
"y4 	c #77CFE5",
"z4 	c #75BEEB",
"A4 	c #8AC4EA",
"B4 	c #A6C8E3",
"C4 	c #A1CCDF",
"D4 	c #7CD6DF",
"E4 	c #6EDCD3",
"F4 	c #72D4DD",
"G4 	c #67C9E6",
"H4 	c #7CD2E1",
"I4 	c #83D8DF",
"J4 	c #79CEE2",
"K4 	c #7ED7DF",
"L4 	c #83D6DE",
"M4 	c #93CDE3",
"N4 	c #87C8E8",
"O4 	c #6DCDE3",
"P4 	c #6FD6DB",
"Q4 	c #7AE1CC",
"R4 	c #85D5E0",
"S4 	c #77D9DC",
"T4 	c #74CBE6",
"U4 	c #7CC4EA",
"V4 	c #78C9E7",
"W4 	c #82D4DF",
"X4 	c #8BBDEE",
"Y4 	c #72B9F1",
"Z4 	c #74D1E2",
"`4 	c #8FC3EB",
" 5 	c #92AEF7",
".5 	c #79C5E7",
"+5 	c #7AD0DF",
"@5 	c #8DD2E2",
"#5 	c #80DCD9",
"$5 	c #78D8D7",
"%5 	c #86D2DF",
"&5 	c #89C8E7",
"*5 	c #85CDE6",
"=5 	c #82C8EC",
"-5 	c #7CC0ED",
";5 	c #90C8E9",
">5 	c #82ACF6",
",5 	c #71B8F0",
"'5 	c #90C4E9",
")5 	c #7CC9E7",
"!5 	c #6BC3E7",
"~5 	c #7BC3EB",
"{5 	c #8DC4ED",
"]5 	c #83C8E9",
"^5 	c #6FCEE2",
"/5 	c #81D3E1",
"(5 	c #8CCCE7",
"_5 	c #70CCE5",
":5 	c #61DAD5",
"<5 	c #68CAE7",
"[5 	c #98CFE4",
"}5 	c #8EC9E7",
"|5 	c #7FC8EB",
"15 	c #8CCEE4",
"25 	c #83D5E1",
"35 	c #7BC7E7",
"45 	c #7EBCED",
"55 	c #71C9ED",
"65 	c #76CEE4",
"75 	c #78D5DD",
"85 	c #74D2DE",
"95 	c #8FD1E1",
"05 	c #83D0E4",
"a5 	c #7CCEE3",
"b5 	c #88D1E2",
"c5 	c #81CBE8",
"d5 	c #80C6E8",
"e5 	c #7BCDE3",
"f5 	c #75C8E6",
"g5 	c #80C9E9",
"h5 	c #82D1E2",
"i5 	c #7DC2E9",
"j5 	c #82BEF0",
"k5 	c #80CEE2",
"l5 	c #75CDE3",
"m5 	c #76C9E9",
"n5 	c #83C8E7",
"o5 	c #93C0E9",
"p5 	c #89C5EA",
"q5 	c #83CAE6",
"r5 	c #76CEE2",
"s5 	c #75D6DD",
"t5 	c #8EDADA",
"u5 	c #A8CCDC",
"v5 	c #9DCCE0",
"w5 	c #5AC0E6",
"x5 	c #56B5EB",
"y5 	c #97C8E6",
"z5 	c #8ACEE5",
"A5 	c #72CCE6",
"B5 	c #71D3DE",
"C5 	c #74C8EA",
"D5 	c #79C3E8",
"E5 	c #93CBE4",
"F5 	c #99C8E6",
"G5 	c #72CCE4",
"H5 	c #67C9E4",
"I5 	c #74D1E3",
"J5 	c #89BDEC",
"K5 	c #98C2EC",
"L5 	c #8BD3DF",
"M5 	c #7AD2DE",
"N5 	c #6FCAE5",
"O5 	c #85D9D9",
"P5 	c #69CBE4",
"Q5 	c #79CAE7",
"R5 	c #9CC3EA",
"S5 	c #88CAEA",
"T5 	c #88D2DF",
"U5 	c #9ACDE2",
"V5 	c #93BEEB",
"W5 	c #77C7E8",
"X5 	c #73D3E1",
"Y5 	c #72DAD9",
"Z5 	c #6FD9D9",
"`5 	c #6ED3DF",
" 6 	c #80CCE4",
".6 	c #96D1E3",
"+6 	c #77CDE4",
"@6 	c #6AC7E6",
"#6 	c #85C7E9",
"$6 	c #84CFE2",
"%6 	c #82CEE5",
"&6 	c #89CAE8",
"*6 	c #80D2E0",
"=6 	c #83D6DC",
"-6 	c #77D0E2",
";6 	c #87B5F3",
">6 	c #7CC7EE",
",6 	c #7CD7DC",
"'6 	c #8AD4E1",
")6 	c #83D2E1",
"!6 	c #84CEE7",
"~6 	c #8BBEED",
"{6 	c #83CEE5",
"]6 	c #9DC3E7",
"^6 	c #92BEED",
"/6 	c #76C9E7",
"(6 	c #84CFE4",
"_6 	c #88CFE3",
":6 	c #72D2DE",
"<6 	c #7AD7DC",
"[6 	c #84D7DB",
"}6 	c #68CEDD",
"|6 	c #5FC7E2",
"16 	c #7BCAE8",
"26 	c #8BB8F1",
"36 	c #7ABEED",
"46 	c #6FB5F3",
"56 	c #6A87FF",
"66 	c #6480FB",
"76 	c #6F85FD",
"86 	c #938BFB",
"96 	c #8D59F9",
"06 	c #5F3EE5",
"a6 	c #741FD2",
"b6 	c #8913C1",
"c6 	c #8518C3",
"d6 	c #8A1ED6",
"e6 	c #CC78E7",
"f6 	c #E47DD6",
"g6 	c #D37FDD",
"h6 	c #9981FB",
"i6 	c #6088FA",
"j6 	c #3D86EC",
"k6 	c #277EDF",
"l6 	c #1F63CE",
"m6 	c #486AF0",
"n6 	c #9A82FC",
"o6 	c #808AFD",
"p6 	c #857AFD",
"q6 	c #7E9CFC",
"r6 	c #96B1F4",
"s6 	c #93D3DC",
"t6 	c #99DCD3",
"u6 	c #A3DBD2",
"v6 	c #A3D7D5",
"w6 	c #89D9D8",
"x6 	c #7AD8DA",
"y6 	c #85E2CF",
"z6 	c #81E2D1",
"A6 	c #84E0D5",
"B6 	c #7FE2D0",
"C6 	c #7BE1D3",
"D6 	c #80E3CF",
"E6 	c #80E3D1",
"F6 	c #75E5CC",
"G6 	c #7BE6CC",
"H6 	c #86E5CD",
"I6 	c #7FE2CE",
"J6 	c #77E2CE",
"K6 	c #7BE2D1",
"L6 	c #84E3CD",
"M6 	c #7DE4D1",
"N6 	c #7BE2CD",
"O6 	c #82E6CE",
"P6 	c #84E1CF",
"Q6 	c #8EE3CE",
"R6 	c #87E3CE",
"S6 	c #85E2D0",
"T6 	c #85E2CD",
"U6 	c #7FE4D2",
"V6 	c #82E0CE",
"W6 	c #86E1D2",
"X6 	c #7CDAD9",
"Y6 	c #7DE5CE",
"Z6 	c #85DFD6",
"`6 	c #84E0D3",
" 7 	c #88DED3",
".7 	c #7EDAD9",
"+7 	c #86D6DF",
"@7 	c #87DCD9",
"#7 	c #78E1D2",
"$7 	c #83E0CE",
"%7 	c #77DFD4",
"&7 	c #73DCD7",
"*7 	c #84DAD7",
"=7 	c #89E1D1",
"-7 	c #80DDD5",
";7 	c #80D8DC",
">7 	c #8BE4D0",
",7 	c #84D7DD",
"'7 	c #6CE1D1",
")7 	c #74E4CE",
"!7 	c #8FE5CC",
"~7 	c #9EDCCD",
"{7 	c #8FDAD5",
"]7 	c #7ED7DB",
"^7 	c #79DFD4",
"/7 	c #67DDD1",
"(7 	c #7CDDD4",
"_7 	c #8BE5C9",
":7 	c #76E3CE",
"<7 	c #74E0D3",
"[7 	c #8CDDD7",
"}7 	c #81DED3",
"|7 	c #78E1D3",
"17 	c #81D7D8",
"27 	c #88DFD9",
"37 	c #88E3D1",
"47 	c #7AE5CB",
"57 	c #77E5CC",
"67 	c #72DCD8",
"77 	c #64DBD5",
"87 	c #7EE0D1",
"97 	c #8FE2CE",
"07 	c #83E6C9",
"a7 	c #7CE3D0",
"b7 	c #77E4CF",
"c7 	c #75E5CD",
"d7 	c #7DDFD2",
"e7 	c #90DBD7",
"f7 	c #83DFD2",
"g7 	c #89DBD9",
"h7 	c #85DBDA",
"i7 	c #77E1D3",
"j7 	c #7AE1CE",
"k7 	c #8BDED4",
"l7 	c #80E0D5",
"m7 	c #82DECF",
"n7 	c #74D7DC",
"o7 	c #7FDFD3",
"p7 	c #8BDED6",
"q7 	c #7BDCD5",
"r7 	c #7ADFD9",
"s7 	c #7DDED3",
"t7 	c #8ADBD4",
"u7 	c #81DED6",
"v7 	c #85DFD5",
"w7 	c #80E0D4",
"x7 	c #70E9C8",
"y7 	c #73DED8",
"z7 	c #8FE0D1",
"A7 	c #7CE1D3",
"B7 	c #70EBBF",
"C7 	c #80E8C7",
"D7 	c #78E1D0",
"E7 	c #82E3CF",
"F7 	c #88E0D0",
"G7 	c #80E0D2",
"H7 	c #6DE2D0",
"I7 	c #83E5CE",
"J7 	c #83E1D3",
"K7 	c #7EE6CB",
"L7 	c #81E5CD",
"M7 	c #84DED2",
"N7 	c #7FE5CF",
"O7 	c #82E0D2",
"P7 	c #81E2CF",
"Q7 	c #7AE4CE",
"R7 	c #7FE1D2",
"S7 	c #78E3D1",
"T7 	c #86E4CC",
"U7 	c #86E1D0",
"V7 	c #78DED0",
"W7 	c #7CE4CD",
"X7 	c #85E4CC",
"Y7 	c #86E3D1",
"Z7 	c #81E4CF",
"`7 	c #81E4D0",
" 8 	c #7EE4CC",
".8 	c #87DED5",
"+8 	c #86D3E3",
"@8 	c #6ACDE2",
"#8 	c #8FE2D0",
"$8 	c #79DFD2",
"%8 	c #73E2CF",
"&8 	c #8DE5CF",
"*8 	c #80DBD6",
"=8 	c #74DCD5",
"-8 	c #79E2D3",
";8 	c #7BE2CF",
">8 	c #85E4CE",
",8 	c #90E2CC",
"'8 	c #85E0D1",
")8 	c #73DDD9",
"!8 	c #80E1CE",
"~8 	c #87E2D1",
"{8 	c #7DE3CE",
"]8 	c #81E9C6",
"^8 	c #83E5CC",
"/8 	c #94E1CF",
"(8 	c #8EE3D0",
"_8 	c #6CE3CD",
":8 	c #77DCD6",
"<8 	c #89D8DC",
"[8 	c #8DE0D0",
"}8 	c #88E0D4",
"|8 	c #71E3CC",
"18 	c #67E5CD",
"28 	c #78E5C6",
"38 	c #8CDFD7",
"48 	c #78E3D3",
"58 	c #83E1D1",
"68 	c #85E1D4",
"78 	c #85E4D0",
"88 	c #63E0D0",
"98 	c #76E0D2",
"08 	c #95DCD4",
"a8 	c #8CE4CE",
"b8 	c #81E1D3",
"c8 	c #7CE2CD",
"d8 	c #7BE0D2",
"e8 	c #7BDFD3",
"f8 	c #87D6DB",
"g8 	c #94D4DE",
"h8 	c #88DED5",
"i8 	c #86E0D4",
"j8 	c #80DCD7",
"k8 	c #7DDCD8",
"l8 	c #7EDFD6",
"m8 	c #6BDFD4",
"n8 	c #63E1CC",
"o8 	c #77E2D0",
"p8 	c #7DDBDB",
"q8 	c #68D2DF",
"r8 	c #52C5E0",
"s8 	c #59B9E9",
"t8 	c #6AA7F7",
"u8 	c #689FFA",
"v8 	c #709FF9",
"w8 	c #87ADF8",
"x8 	c #8E9BFB",
"y8 	c #7374FF",
"z8 	c #8364FD",
"A8 	c #7E90FF",
"B8 	c #8876FE",
"C8 	c #7C85FE",
"D8 	c #D376E1",
"E8 	c #E47BCD",
"F8 	c #D47FDD",
"G8 	c #BA8AF0",
"H8 	c #9C83FB",
"I8 	c #6583FD",
"J8 	c #3A7EE9",
"K8 	c #2078D2",
"L8 	c #1D82D4",
"M8 	c #4D82F4",
"N8 	c #9463FB",
"O8 	c #7970FD",
"P8 	c #6678FE",
"Q8 	c #7E78FC",
"R8 	c #718CFD",
"S8 	c #A9A0EF",
"T8 	c #BCC4DB",
"U8 	c #AED4D7",
"V8 	c #96DCD4",
"W8 	c #9ED6D5",
"X8 	c #96D5DA",
"Y8 	c #8FCBE7",
"Z8 	c #8CD5DE",
"`8 	c #81D5DF",
" 9 	c #7AD4DF",
".9 	c #86D4E1",
"+9 	c #7AD4DD",
"@9 	c #83D1E5",
"#9 	c #7FD8DC",
"$9 	c #80DAD8",
"%9 	c #7FD6E0",
"&9 	c #7FD9DA",
"*9 	c #82DBD7",
"=9 	c #7FDBD8",
"-9 	c #83DCDA",
";9 	c #8AD8DC",
">9 	c #85D5DC",
",9 	c #7ED5DE",
"'9 	c #80D4DE",
")9 	c #7FD2E0",
"!9 	c #7FD6DD",
"~9 	c #82D4E2",
"{9 	c #82D4E0",
"]9 	c #85D3DD",
"^9 	c #8BCDE7",
"/9 	c #7CCCE3",
"(9 	c #86D7DB",
"_9 	c #80D3E1",
":9 	c #7FD1DF",
"<9 	c #8FD5E1",
"[9 	c #73D0E1",
"}9 	c #73CAE6",
"|9 	c #93C8E7",
"19 	c #7FD5E2",
"29 	c #8CD1E0",
"39 	c #90CCE6",
"49 	c #79D1E5",
"59 	c #6FD0E0",
"69 	c #7DDED7",
"79 	c #89D6DC",
"89 	c #71CDE2",
"99 	c #6AD7DA",
"09 	c #8BD4DB",
"a9 	c #82D5DD",
"b9 	c #89D3E0",
"c9 	c #7ED1DF",
"d9 	c #83CAE8",
"e9 	c #6DD1E0",
"f9 	c #5AC6E2",
"g9 	c #7FD0E1",
"h9 	c #8FDCD4",
"i9 	c #89D9DA",
"j9 	c #83CEE3",
"k9 	c #80DADA",
"l9 	c #7BD9D9",
"m9 	c #68D5D8",
"n9 	c #70D6DB",
"o9 	c #85CBE5",
"p9 	c #7DC9E9",
"q9 	c #80D4DF",
"r9 	c #95C8E3",
"s9 	c #89CCE7",
"t9 	c #81CFE3",
"u9 	c #83D8DD",
"v9 	c #89D2E1",
"w9 	c #7ED5DF",
"x9 	c #70D1E1",
"y9 	c #87CDE6",
"z9 	c #7DD0E2",
"A9 	c #75D0E2",
"B9 	c #7DD5E1",
"C9 	c #84D4DF",
"D9 	c #88C9E5",
"E9 	c #87D0DF",
"F9 	c #8DC2EC",
"G9 	c #81D6DD",
"H9 	c #75D2E1",
"I9 	c #74D5DB",
"J9 	c #82C8EA",
"K9 	c #85D8DC",
"L9 	c #79D8DC",
"M9 	c #81DAD6",
"N9 	c #85D2E4",
"O9 	c #76D2DD",
"P9 	c #7AD9DB",
"Q9 	c #81D9DB",
"R9 	c #7ADAD9",
"S9 	c #80D7DE",
"T9 	c #7DD7D8",
"U9 	c #82D7DA",
"V9 	c #7FD7DB",
"W9 	c #7FD6DF",
"X9 	c #82D7DC",
"Y9 	c #7CD6DE",
"Z9 	c #7FDBDA",
"`9 	c #78D7DD",
" 0 	c #87D4DE",
".0 	c #82D7DE",
"+0 	c #7FD8DE",
"@0 	c #7BD3DF",
"#0 	c #82CCE5",
"$0 	c #83D0E2",
"%0 	c #89D7DB",
"&0 	c #81D2E3",
"*0 	c #7BD1E2",
"=0 	c #77CFE3",
"-0 	c #7CD5DD",
";0 	c #7DD6DA",
">0 	c #7BDBD9",
",0 	c #78D1E1",
"'0 	c #81D4E2",
")0 	c #7ED8D9",
"!0 	c #88D7DC",
"~0 	c #79C8E9",
"{0 	c #78CDE2",
"]0 	c #89D0E6",
"^0 	c #86D2E2",
"/0 	c #79D6DE",
"(0 	c #88D7DE",
"_0 	c #80D8DA",
":0 	c #82D3E4",
"<0 	c #94C6E7",
"[0 	c #88CFE1",
"}0 	c #71D9DA",
"|0 	c #7FC8E9",
"10 	c #84CCE5",
"20 	c #82C9E7",
"30 	c #7FCAE9",
"40 	c #72D2E2",
"50 	c #71DFD2",
"60 	c #7AD4DC",
"70 	c #81D3DE",
"80 	c #7ADAD8",
"90 	c #86D6DD",
"00 	c #7CD7DA",
"a0 	c #7DD8DD",
"b0 	c #87D5DF",
"c0 	c #8DD0E0",
"d0 	c #7ECEE7",
"e0 	c #6DD1E1",
"f0 	c #7DDED5",
"g0 	c #86D4E0",
"h0 	c #7AD2E0",
"i0 	c #84D4DD",
"j0 	c #84D7DF",
"k0 	c #99D4DC",
"l0 	c #8DCDE6",
"m0 	c #82CCE7",
"n0 	c #83D2E3",
"o0 	c #7FCBE3",
"p0 	c #7DD0DE",
"q0 	c #71D0E2",
"r0 	c #6CD5D9",
"s0 	c #6CDAD9",
"t0 	c #66D0E0",
"u0 	c #59C9DF",
"v0 	c #55CDDE",
"w0 	c #52C9DF",
"x0 	c #4AB1EB",
"y0 	c #5EA0F4",
"z0 	c #6C93FC",
"A0 	c #5F95F9",
"B0 	c #668CF7",
"C0 	c #7F7DFC",
"D0 	c #8C84FD",
"E0 	c #828DFF",
"F0 	c #E47CD1",
"G0 	c #DA7BD9",
"H0 	c #C081EA",
"I0 	c #3579E6",
"J0 	c #2192D6",
"K0 	c #8567FB",
"L0 	c #6A73FE",
"M0 	c #8D77FD",
"N0 	c #7583FD",
"O0 	c #8484FE",
"P0 	c #917AFE",
"Q0 	c #A990F8",
"R0 	c #C5B2E0",
"S0 	c #C5C0D4",
"T0 	c #B2C8D6",
"U0 	c #99D1E0",
"V0 	c #9DC9E2",
"W0 	c #96C4E8",
"X0 	c #87C6E7",
"Y0 	c #8AC0EE",
"Z0 	c #83BAF2",
"`0 	c #81BAEF",
" a 	c #7EC7E8",
".a 	c #7BBEEB",
"+a 	c #83B3F5",
"@a 	c #83C2EB",
"#a 	c #86C8EA",
"$a 	c #86C1EB",
"%a 	c #7BC2EE",
"&a 	c #7DC0ED",
"*a 	c #7FC4EB",
"=a 	c #82C3EB",
"-a 	c #7CC0EF",
";a 	c #84C1EE",
">a 	c #86C8E8",
",a 	c #85C3E8",
"'a 	c #8FB7F2",
")a 	c #86BEEF",
"!a 	c #84C1F0",
"~a 	c #7DC0EB",
"{a 	c #80C1EB",
"]a 	c #84C2F1",
"^a 	c #81C2EA",
"/a 	c #7EBEEE",
"(a 	c #7ABBF1",
"_a 	c #80BCF0",
":a 	c #8FBFEF",
"<a 	c #79B2F7",
"[a 	c #78B3F5",
"}a 	c #85B0F5",
"|a 	c #89BFEE",
"1a 	c #7DBCEF",
"2a 	c #81BDF1",
"3a 	c #84B8F2",
"4a 	c #80B1F6",
"5a 	c #7AC6EA",
"6a 	c #7FBEF1",
"7a 	c #88B1F3",
"8a 	c #8EBBF2",
"9a 	c #97C3E6",
"0a 	c #91BBED",
"aa 	c #83BDEB",
"ba 	c #77BAEF",
"ca 	c #7FC9E6",
"da 	c #70BCEE",
"ea 	c #7AB6F5",
"fa 	c #81C5EA",
"ga 	c #85CAE7",
"ha 	c #7AC1ED",
"ia 	c #78BEEF",
"ja 	c #84BEEE",
"ka 	c #7CB7F3",
"la 	c #7BBFF0",
"ma 	c #73C2E9",
"na 	c #6DCAEB",
"oa 	c #8BC8E7",
"pa 	c #8EC4E8",
"qa 	c #73C2EB",
"ra 	c #85B7F4",
"sa 	c #91C0EE",
"ta 	c #72BBEE",
"ua 	c #68C1E9",
"va 	c #79C8E7",
"wa 	c #81C1EF",
"xa 	c #90BFED",
"ya 	c #8CC7E7",
"za 	c #80B3F4",
"Aa 	c #8DBDEE",
"Ba 	c #84C4EA",
"Ca 	c #81C0EC",
"Da 	c #82BBF2",
"Ea 	c #72B8F3",
"Fa 	c #7BBDF1",
"Ga 	c #82B9F1",
"Ha 	c #85B9F2",
"Ia 	c #79BCF0",
"Ja 	c #7CBEEE",
"Ka 	c #7BBAEF",
"La 	c #90BBF2",
"Ma 	c #88B5F6",
"Na 	c #6EBCEC",
"Oa 	c #7EBEEC",
"Pa 	c #7CB3F4",
"Qa 	c #7CBBF1",
"Ra 	c #86C4ED",
"Sa 	c #7BC5EC",
"Ta 	c #7AC4EB",
"Ua 	c #83BAF3",
"Va 	c #83C0EC",
"Wa 	c #7BBDED",
"Xa 	c #7CBFEC",
"Ya 	c #81BBED",
"Za 	c #82C1EA",
"`a 	c #7FC2ED",
" b 	c #7FC2EC",
".b 	c #82C1EC",
"+b 	c #81C1F1",
"@b 	c #7DC2EC",
"#b 	c #7FBBF1",
"$b 	c #85BEEB",
"%b 	c #81C2EC",
"&b 	c #79C0EC",
"*b 	c #79C2ED",
"=b 	c #7CC1EB",
"-b 	c #81BEED",
";b 	c #89BDED",
">b 	c #85C2EE",
",b 	c #8CBFEE",
"'b 	c #76C0ED",
")b 	c #77BEEC",
"!b 	c #80C3ED",
"~b 	c #84B8F1",
"{b 	c #85B7F2",
"]b 	c #7FBDEC",
"^b 	c #7FBFED",
"/b 	c #84C3EE",
"(b 	c #72BFEB",
"_b 	c #80BEED",
":b 	c #82C7E8",
"<b 	c #74C2E6",
"[b 	c #74B6F2",
"}b 	c #8FB7F4",
"|b 	c #83B3F3",
"1b 	c #89B8F0",
"2b 	c #86B9F0",
"3b 	c #79B3F2",
"4b 	c #81B4F3",
"5b 	c #8EB6F3",
"6b 	c #82ABFA",
"7b 	c #65B0F3",
"8b 	c #72B7F2",
"9b 	c #92B6F2",
"0b 	c #85BDEC",
"ab 	c #8CBCED",
"bb 	c #79C3EA",
"cb 	c #6BCBE4",
"db 	c #82C6EB",
"eb 	c #80C6EA",
"fb 	c #7EC1EE",
"gb 	c #77C5EC",
"hb 	c #7EC3EC",
"ib 	c #83B5F0",
"jb 	c #7CBBF0",
"kb 	c #86C7E7",
"lb 	c #86C8EB",
"mb 	c #80B6F2",
"nb 	c #85C3EA",
"ob 	c #82C6E9",
"pb 	c #83C4EA",
"qb 	c #8DCAE6",
"rb 	c #82B9EF",
"sb 	c #7EA9F7",
"tb 	c #8DB5F3",
"ub 	c #80B1F4",
"vb 	c #7BB5F4",
"wb 	c #89B2F4",
"xb 	c #7BAFF8",
"yb 	c #75B2F3",
"zb 	c #6EBCED",
"Ab 	c #66BFEB",
"Bb 	c #5BBCE9",
"Cb 	c #68C5E4",
"Db 	c #55CADC",
"Eb 	c #3ABCDC",
"Fb 	c #3EB5E0",
"Gb 	c #4BADEC",
"Hb 	c #6394FD",
"Ib 	c #8D65FC",
"Jb 	c #8B70FF",
"Kb 	c #698FFA",
"Lb 	c #5792F6",
"Mb 	c #747BFD",
"Nb 	c #7386FF",
"Ob 	c #CC82E3",
"Pb 	c #E382D1",
"Qb 	c #D878DA",
"Rb 	c #C57BEC",
"Sb 	c #9E8CFC",
"Tb 	c #527CF5",
"Ub 	c #3681E7",
"Vb 	c #2E8FDE",
"Wb 	c #2485D4",
"Xb 	c #3781EA",
"Yb 	c #7A6DFB",
"Zb 	c #7B70FD",
"`b 	c #7090FF",
" c 	c #7785FF",
".c 	c #9575FE",
"+c 	c #C593E8",
"@c 	c #D3B2D1",
"#c 	c #CCB8D1",
"$c 	c #BCB4E5",
"%c 	c #8B09AB",
"&c 	c #8505A0",
"*c 	c #83039E",
"=c 	c #82039B",
"-c 	c #7F029E",
";c 	c #7E0497",
">c 	c #84039E",
",c 	c #7F029A",
"'c 	c #7D049F",
")c 	c #7F049B",
"!c 	c #85029C",
"~c 	c #80049A",
"{c 	c #7B0399",
"]c 	c #82039A",
"^c 	c #7F049A",
"/c 	c #7F049D",
"(c 	c #80039D",
"_c 	c #7E0399",
":c 	c #7F0399",
"<c 	c #81029A",
"[c 	c #82019A",
"}c 	c #7D049D",
"|c 	c #7F029C",
"1c 	c #7C049A",
"2c 	c #7F0598",
"3c 	c #810299",
"4c 	c #7C0499",
"5c 	c #7E0199",
"6c 	c #810297",
"7c 	c #86039D",
"8c 	c #7E039C",
"9c 	c #83029B",
"0c 	c #820398",
"ac 	c #80039B",
"bc 	c #870397",
"cc 	c #840298",
"dc 	c #7D0598",
"ec 	c #7A0499",
"fc 	c #7A019C",
"gc 	c #81059B",
"hc 	c #7C039C",
"ic 	c #7E039A",
"jc 	c #82029D",
"kc 	c #850399",
"lc 	c #81049C",
"mc 	c #81019C",
"nc 	c #7F0397",
"oc 	c #80039F",
"pc 	c #83029A",
"qc 	c #7D059B",
"rc 	c #7E019B",
"sc 	c #83049B",
"tc 	c #80059B",
"uc 	c #830398",
"vc 	c #800198",
"wc 	c #84019B",
"xc 	c #800498",
"yc 	c #7D029B",
"zc 	c #7B059A",
"Ac 	c #840499",
"Bc 	c #82019C",
"Cc 	c #7D0299",
"Dc 	c #820297",
"Ec 	c #7B029B",
"Fc 	c #84039C",
"Gc 	c #7D0298",
"Hc 	c #7C0497",
"Ic 	c #83049C",
"Jc 	c #84039B",
"Kc 	c #790398",
"Lc 	c #7C03A0",
"Mc 	c #7904A0",
"Nc 	c #6C0AAD",
"Oc 	c #3FBCDA",
"Pc 	c #45C9D6",
"Qc 	c #3DB9DB",
"Rc 	c #3BA9E4",
"Sc 	c #627BF9",
"Tc 	c #965DF8",
"Uc 	c #5882FA",
"Vc 	c #D085E4",
"Wc 	c #E07CD2",
"Xc 	c #D680DB",
"Yc 	c #CE87E3",
"Zc 	c #9C82FD",
"`c 	c #5679F9",
" d 	c #4186EE",
".d 	c #2E85E2",
"+d 	c #1D7ECF",
"@d 	c #3478E3",
"#d 	c #6A7DFE",
"$d 	c #6B70FF",
"%d 	c #6C78FF",
"&d 	c #826FFD",
"*d 	c #A778F8",
"=d 	c #D89DD3",
"-d 	c #DE9FCE",
";d 	c #CBA5E2",
">d 	c #088DAC",
",d 	c #0D4C99",
"'d 	c #4D11A5",
")d 	c #6F049F",
"!d 	c #7E0298",
"~d 	c #800199",
"{d 	c #830199",
"]d 	c #820496",
"^d 	c #7E0296",
"/d 	c #7D059A",
"(d 	c #820199",
"_d 	c #800196",
":d 	c #7B0398",
"<d 	c #7E0495",
"[d 	c #800496",
"}d 	c #810395",
"|d 	c #91049E",
"1d 	c #B310A1",
"2d 	c #EF4D99",
"3d 	c #F796AA",
"4d 	c #3CB3DD",
"5d 	c #29A3D4",
"6d 	c #2D95DE",
"7d 	c #3D86ED",
"8d 	c #716FFE",
"9d 	c #905DF8",
"0d 	c #749CFC",
"ad 	c #CE89E2",
"bd 	c #E288D0",
"cd 	c #DD8AD8",
"dd 	c #C587EA",
"ed 	c #936CFB",
"fd 	c #2779DC",
"gd 	c #3684E6",
"hd 	c #7482FC",
"id 	c #867AFF",
"jd 	c #785DF8",
"kd 	c #C59DE4",
"ld 	c #D9A3D4",
"md 	c #DC96D4",
"nd 	c #CF97DE",
"od 	c #138FC2",
"pd 	c #16BDA3",
"qd 	c #2AD6A4",
"rd 	c #32D5B8",
"sd 	c #46BCE0",
"td 	c #6E8EFB",
"ud 	c #7A73FF",
"vd 	c #7B7EFF",
"wd 	c #8080FF",
"xd 	c #8181FB",
"yd 	c #887DFD",
"zd 	c #7887FC",
"Ad 	c #7E8BFE",
"Bd 	c #797EFE",
"Cd 	c #817FFA",
"Dd 	c #8882FF",
"Ed 	c #7E7CFF",
"Fd 	c #8080FA",
"Gd 	c #7A7DFF",
"Hd 	c #867BFD",
"Id 	c #8A81FE",
"Jd 	c #7D8AFC",
"Kd 	c #6A84FD",
"Ld 	c #7E85FA",
"Md 	c #8587FE",
"Nd 	c #818AFF",
"Od 	c #8385FE",
"Pd 	c #B8BEE0",
"Qd 	c #D0D3B6",
"Rd 	c #D0DAA8",
"Sd 	c #E8C1A0",
"Td 	c #EB94C1",
"Ud 	c #3394E3",
"Vd 	c #27A0D5",
"Wd 	c #2890D9",
"Xd 	c #3F6FEF",
"Yd 	c #6B78FA",
"Zd 	c #9673FF",
"`d 	c #9487FD",
" e 	c #CF8EE2",
".e 	c #E489CF",
"+e 	c #D586DF",
"@e 	c #B977F2",
"#e 	c #8D70FF",
"$e 	c #6680FB",
"%e 	c #4279F0",
"&e 	c #2E86E0",
"*e 	c #1F82D3",
"=e 	c #3382E7",
"-e 	c #6D7BFE",
";e 	c #677CFC",
">e 	c #907CFF",
",e 	c #8873FE",
"'e 	c #5E89FA",
")e 	c #A59BF4",
"!e 	c #C697E8",
"~e 	c #D99FD1",
"{e 	c #D89DD7",
"]e 	c #CB96E4",
"^e 	c #208DD0",
"/e 	c #16B1B6",
"(e 	c #32D7AF",
"_e 	c #2CD3A8",
":e 	c #27CFB5",
"<e 	c #41B6E1",
"[e 	c #8380FF",
"}e 	c #8379FE",
"|e 	c #7C7AFF",
"1e 	c #907DFB",
"2e 	c #848FFF",
"3e 	c #768BFE",
"4e 	c #8085FB",
"5e 	c #958EFE",
"6e 	c #7383FC",
"7e 	c #777EFF",
"8e 	c #8C87FF",
"9e 	c #8E7AFF",
"0e 	c #8B77FC",
"ae 	c #7C8EFE",
"be 	c #9187FF",
"ce 	c #837BFF",
"de 	c #908CFD",
"ee 	c #B8BAE0",
"fe 	c #D6CFB5",
"ge 	c #D9D2A8",
"he 	c #D6D2AF",
"ie 	c #EBAEB3",
"je 	c #DB8AD6",
"ke 	c #3EA6E5",
"le 	c #299DD6",
"me 	c #1896C8",
"ne 	c #2E80E3",
"oe 	c #D27CE1",
"pe 	c #E177D1",
"qe 	c #CF76E0",
"re 	c #B975F0",
"se 	c #6084FC",
"te 	c #4480F2",
"ue 	c #2D86E2",
"ve 	c #1D80D1",
"we 	c #3179E5",
"xe 	c #606CF6",
"ye 	c #8E96F9",
"ze 	c #8496FC",
"Ae 	c #CF82E2",
"Be 	c #E28DD0",
"Ce 	c #D490DD",
"De 	c #C685E9",
"Ee 	c #2D8BE2",
"Fe 	c #189BC7",
"Ge 	c #33C3CE",
"He 	c #27D1AD",
"Ie 	c #27D2A8",
"Je 	c #2ED0BB",
"Ke 	c #47B8E0",
"Le 	c #6B94FE",
"Me 	c #837EFE",
"Ne 	c #757DFC",
"Oe 	c #9379FE",
"Pe 	c #808EFB",
"Qe 	c #8192FE",
"Re 	c #7E8FFB",
"Se 	c #7793FF",
"Te 	c #8B92FC",
"Ue 	c #928BFF",
"Ve 	c #6C8CFD",
"We 	c #6696F8",
"Xe 	c #85A3FD",
"Ye 	c #7C8EFA",
"Ze 	c #7898FD",
"`e 	c #878AFF",
" f 	c #829AFE",
".f 	c #849CFC",
"+f 	c #7B97FA",
"@f 	c #8293FD",
"#f 	c #897EFF",
"$f 	c #7E79FA",
"%f 	c #7E88FF",
"&f 	c #7B75FB",
"*f 	c #7E7DFC",
"=f 	c #798DFE",
"-f 	c #8873FF",
";f 	c #8E82FF",
">f 	c #7F79FD",
",f 	c #7A79FF",
"'f 	c #7D7EFD",
")f 	c #8F8FFF",
"!f 	c #B9BBE2",
"~f 	c #D1CFB8",
"{f 	c #D2D7AE",
"]f 	c #D5D2B1",
"^f 	c #CFBDCB",
"/f 	c #E98FC5",
"(f 	c #E17FD4",
"_f 	c #4085ED",
":f 	c #218BD7",
"<f 	c #1B86CA",
"[f 	c #2F90E1",
"}f 	c #6297F7",
"|f 	c #777CFC",
"1f 	c #927FFD",
"2f 	c #897FFC",
"3f 	c #8186FE",
"4f 	c #CA74E3",
"5f 	c #DF78D4",
"6f 	c #D57BDD",
"7f 	c #C280EC",
"8f 	c #997FFE",
"9f 	c #647DFE",
"0f 	c #4781ED",
"af 	c #2D7BE0",
"bf 	c #1B80CE",
"cf 	c #2B80DD",
"df 	c #737EFC",
"ef 	c #8F8FFD",
"ff 	c #7999FC",
"gf 	c #9085FF",
"hf 	c #CF85E4",
"if 	c #E482CF",
"jf 	c #D884DC",
"kf 	c #2C83E2",
"lf 	c #1C84CD",
"mf 	c #52A0F3",
"nf 	c #35C1D2",
"of 	c #2BD5AE",
"pf 	c #2DD4A6",
"qf 	c #30D2BB",
"rf 	c #42B5E1",
"sf 	c #7D7DFF",
"tf 	c #807EFD",
"uf 	c #8383FB",
"vf 	c #8B7FFB",
"wf 	c #8076FD",
"xf 	c #7A7AFE",
"yf 	c #8089FE",
"zf 	c #917BFA",
"Af 	c #7985FF",
"Bf 	c #7F96FF",
"Cf 	c #7396FC",
"Df 	c #8A99F8",
"Ef 	c #849AFF",
"Ff 	c #6B9EF9",
"Gf 	c #729DF9",
"Hf 	c #779FFE",
"If 	c #809AF9",
"Jf 	c #7C94FE",
"Kf 	c #869DFB",
"Lf 	c #789BF9",
"Mf 	c #7892FF",
"Nf 	c #8F96FE",
"Of 	c #A19EF7",
"Pf 	c #959FF8",
"Qf 	c #7FA1FA",
"Rf 	c #719CFA",
"Sf 	c #7196FE",
"Tf 	c #798AFC",
"Uf 	c #7489FF",
"Vf 	c #7E86FF",
"Wf 	c #777FFE",
"Xf 	c #7D81FC",
"Yf 	c #8276FF",
"Zf 	c #8476FF",
"`f 	c #7281FE",
" g 	c #867DFC",
".g 	c #777AFF",
"+g 	c #7D77FD",
"@g 	c #7E7FFD",
"#g 	c #8989FB",
"$g 	c #8E73FF",
"%g 	c #9293FD",
"&g 	c #BAB2E1",
"*g 	c #D1CFBA",
"=g 	c #D4D6A7",
"-g 	c #D0D5AD",
";g 	c #C4CFCB",
">g 	c #E484CC",
",g 	c #D782DD",
"'g 	c #4572F1",
")g 	c #287BD9",
"!g 	c #1883C7",
"~g 	c #3087E6",
"{g 	c #627AFE",
"]g 	c #758CFF",
"^g 	c #9E8AFB",
"/g 	c #6F6BFD",
"(g 	c #7F7DFF",
"_g 	c #CF79E4",
":g 	c #E280D3",
"<g 	c #D879DD",
"[g 	c #BF78EE",
"}g 	c #9279FB",
"|g 	c #6A7BFF",
"1g 	c #4577F0",
"2g 	c #2F79E2",
"3g 	c #2F88E2",
"4g 	c #7097FC",
"5g 	c #6E7CFF",
"6g 	c #6687FB",
"7g 	c #9066F8",
"8g 	c #8C73FF",
"9g 	c #988FFA",
"0g 	c #D282E3",
"ag 	c #E382CF",
"bg 	c #D382DE",
"cg 	c #C37FEC",
"dg 	c #2E78E1",
"eg 	c #1D7DD1",
"fg 	c #5FA9F4",
"gg 	c #3BCCC9",
"hg 	c #2ED4AE",
"ig 	c #2BD5A8",
"jg 	c #31D4B5",
"kg 	c #51D6D1",
"lg 	c #6ECFE2",
"mg 	c #80CBE8",
"ng 	c #84C9E8",
"og 	c #80CAE5",
"pg 	c #7DC8E7",
"qg 	c #7FCAE7",
"rg 	c #83CBE4",
"sg 	c #7CCCE7",
"tg 	c #82C9E5",
"ug 	c #84CBE7",
"vg 	c #81CBE6",
"wg 	c #7FCCE6",
"xg 	c #7FCBE5",
"yg 	c #7DCAE8",
"zg 	c #85CAE9",
"Ag 	c #80CEE4",
"Bg 	c #80CEE5",
"Cg 	c #7FCDE4",
"Dg 	c #7FCDE1",
"Eg 	c #7EC7E7",
"Fg 	c #86D4DE",
"Gg 	c #7DD6DE",
"Hg 	c #7CD5DB",
"Ig 	c #85D6D9",
"Jg 	c #8CD5DC",
"Kg 	c #8FD6DC",
"Lg 	c #8BD3E1",
"Mg 	c #79D6DB",
"Ng 	c #82DADB",
"Og 	c #73D3DF",
"Pg 	c #89D6DE",
"Qg 	c #81D3DF",
"Rg 	c #7DD6DC",
"Sg 	c #80D7E0",
"Tg 	c #81DBD9",
"Ug 	c #78E0D5",
"Vg 	c #7FDFD4",
"Wg 	c #82E4CD",
"Xg 	c #87E3CC",
"Yg 	c #8CE0D3",
"Zg 	c #83D6DA",
"`g 	c #75D8DE",
" h 	c #78D4DF",
".h 	c #85D5DE",
"+h 	c #79D6DD",
"@h 	c #74D1E0",
"#h 	c #78CCE4",
"$h 	c #78D1DF",
"%h 	c #80CCE6",
"&h 	c #83C8E5",
"*h 	c #85D2E2",
"=h 	c #7CD2E3",
"-h 	c #80CAE3",
";h 	c #83CFE6",
">h 	c #81CCE3",
",h 	c #7AD1E4",
"'h 	c #79D0E3",
")h 	c #7ACCE4",
"!h 	c #81CDE4",
"~h 	c #85CDE5",
"{h 	c #81CBE4",
"]h 	c #83CFE7",
"^h 	c #7FCDE3",
"/h 	c #7BCAE9",
"(h 	c #7DC5EB",
"_h 	c #84C6E8",
":h 	c #8EC6E9",
"<h 	c #74C9E6",
"[h 	c #84C9E6",
"}h 	c #80CCE3",
"|h 	c #81C8E6",
"1h 	c #77C7EA",
"2h 	c #84CCE4",
"3h 	c #7AC3EC",
"4h 	c #7AC3EE",
"5h 	c #84C5EB",
"6h 	c #7ECFE2",
"7h 	c #81C5E8",
"8h 	c #8BCBE6",
"9h 	c #85C6EC",
"0h 	c #82C4E7",
"ah 	c #82CDE4",
"bh 	c #7BCDE5",
"ch 	c #78C9E6",
"dh 	c #7FC8E8",
"eh 	c #78CEE7",
"fh 	c #7ACBE6",
"gh 	c #78CCE6",
"hh 	c #84C6E9",
"ih 	c #7ECBE7",
"jh 	c #81CDE5",
"kh 	c #81CAEA",
"lh 	c #86C9E6",
"mh 	c #85D1DE",
"nh 	c #8FD3E0",
"oh 	c #A7D4D7",
"ph 	c #CDD4B5",
"qh 	c #D6D5A7",
"rh 	c #D6D2AC",
"sh 	c #C8C9CE",
"th 	c #ABA5EF",
"uh 	c #8593FC",
"vh 	c #D97AD8",
"wh 	c #D47ADE",
"xh 	c #3D82E9",
"yh 	c #2987DE",
"zh 	c #1A89D0",
"Ah 	c #2C8DDC",
"Bh 	c #9E83F8",
"Ch 	c #6E6FFB",
"Dh 	c #6971FA",
"Eh 	c #8D83FF",
"Fh 	c #847CFF",
"Gh 	c #CF7CE4",
"Hh 	c #DF7DD2",
"Ih 	c #D181E0",
"Jh 	c #C27DEA",
"Kh 	c #9B83FB",
"Lh 	c #5888F7",
"Mh 	c #438BED",
"Nh 	c #1E7CD3",
"Oh 	c #347DE6",
"Ph 	c #6F83FE",
"Qh 	c #6C92FD",
"Rh 	c #6394FB",
"Sh 	c #9E7EFB",
"Th 	c #8E80FB",
"Uh 	c #8795FE",
"Vh 	c #CC81E8",
"Wh 	c #E280CD",
"Xh 	c #D581DF",
"Yh 	c #C07CED",
"Zh 	c #2D79DB",
"`h 	c #2079D7",
" i 	c #7C99FD",
".i 	c #62A3F7",
"+i 	c #3BCBCB",
"@i 	c #30DAAD",
"#i 	c #41E8A3",
"$i 	c #5DF6A4",
"%i 	c #73F8A5",
"&i 	c #7BF9A5",
"*i 	c #7DF8A7",
"=i 	c #83FAA8",
"-i 	c #7FF9A4",
";i 	c #7FFAA9",
">i 	c #7FF8A8",
",i 	c #80F9AA",
"'i 	c #7FFBA5",
")i 	c #81F8A8",
"!i 	c #7BF9A8",
"~i 	c #7EF7A7",
"{i 	c #82F9A9",
"]i 	c #82F9A7",
"^i 	c #83F7A6",
"/i 	c #7BFBA8",
"(i 	c #80FAA7",
"_i 	c #7BF8AA",
":i 	c #81F7A9",
"<i 	c #7EF9A8",
"[i 	c #7FF9A6",
"}i 	c #83F8A7",
"|i 	c #83F9A5",
"1i 	c #82F9A5",
"2i 	c #80F7A5",
"3i 	c #80FCA6",
"4i 	c #80FAA5",
"5i 	c #84F8A7",
"6i 	c #84FAA4",
"7i 	c #7EFBA0",
"8i 	c #83F9A1",
"9i 	c #81FCA1",
"0i 	c #81F99F",
"ai 	c #88FBA0",
"bi 	c #80FC9E",
"ci 	c #7EFAA2",
"di 	c #83FBA1",
"ei 	c #83FBA4",
"fi 	c #81FD9F",
"gi 	c #82FAA1",
"hi 	c #7CFBA2",
"ii 	c #7CFBA0",
"ji 	c #80FBA0",
"ki 	c #82FB9E",
"li 	c #81FCA2",
"mi 	c #7FFAA0",
"ni 	c #7CFC9F",
"oi 	c #82FAA3",
"pi 	c #82FAA0",
"qi 	c #81FA9D",
"ri 	c #7EFB9D",
"si 	c #80FAA3",
"ti 	c #7BFB9E",
"ui 	c #83FBA2",
"vi 	c #80FC9C",
"wi 	c #7EFB9F",
"xi 	c #7DFDA0",
"yi 	c #7AFBA1",
"zi 	c #79FC9F",
"Ai 	c #7FFCA1",
"Bi 	c #7DF9A1",
"Ci 	c #77F9A3",
"Di 	c #7CFBA4",
"Ei 	c #83FAA0",
"Fi 	c #7BFAA1",
"Gi 	c #79F9A2",
"Hi 	c #85FBA3",
"Ii 	c #84F8A5",
"Ji 	c #80FBA1",
"Ki 	c #7EFAA4",
"Li 	c #79FAA7",
"Mi 	c #87F8A6",
"Ni 	c #7DF9A3",
"Oi 	c #7FF9A2",
"Pi 	c #7BFAA3",
"Qi 	c #7AFAA7",
"Ri 	c #81F8A4",
"Si 	c #7CFAA6",
"Ti 	c #7DF9A5",
"Ui 	c #81F8A6",
"Vi 	c #79F8A7",
"Wi 	c #85F9A8",
"Xi 	c #7EFAA6",
"Yi 	c #7BF9A7",
"Zi 	c #81F7AD",
"`i 	c #7FF8A9",
" j 	c #7DF8A8",
".j 	c #80F9A9",
"+j 	c #82F8AA",
"@j 	c #81F7AB",
"#j 	c #7FFBA7",
"$j 	c #7CF7A7",
"%j 	c #84FAA6",
"&j 	c #7FFAAA",
"*j 	c #84F9A1",
"=j 	c #89F9A7",
"-j 	c #9EF7A5",
";j 	c #C2E6A6",
">j 	c #CEDBAD",
",j 	c #C2C9CF",
"'j 	c #A29DF7",
")j 	c #DC76DA",
"!j 	c #DB7ED7",
"~j 	c #5387F7",
"{j 	c #2A8DDE",
"]j 	c #1A84D0",
"^j 	c #2F8EDE",
"/j 	c #5C8CFA",
"(j 	c #728BFF",
"_j 	c #716BFF",
":j 	c #758AFD",
"<j 	c #7D92FD",
"[j 	c #CB81E2",
"}j 	c #E679D2",
"|j 	c #D888DF",
"1j 	c #C096EC",
"2j 	c #918DFE",
"3j 	c #3E99EA",
"4j 	c #2585D9",
"5j 	c #3574E5",
"6j 	c #668FF9",
"7j 	c #9698FC",
"8j 	c #8385FF",
"9j 	c #CB88E7",
"0j 	c #E183CF",
"aj 	c #D57EDF",
"bj 	c #BE80EF",
"cj 	c #2A83DD",
"dj 	c #2388DA",
"ej 	c #8D90FB",
"fj 	c #748FFF",
"gj 	c #7597FB",
"hj 	c #74B9F0",
"ij 	c #68EBC1",
"jj 	c #78F9A9",
"kj 	c #77FA9D",
"lj 	c #7AFC9A",
"mj 	c #7EFC9B",
"nj 	c #80FC9A",
"oj 	c #7FFB99",
"pj 	c #7FFD9C",
"qj 	c #7FFC9E",
"rj 	c #81FD9B",
"sj 	c #7BFC97",
"tj 	c #7FFB9B",
"uj 	c #7AFB9E",
"vj 	c #7DFD9E",
"wj 	c #84FC9B",
"xj 	c #83FC9B",
"yj 	c #83FC9D",
"zj 	c #7CFE9A",
"Aj 	c #82FB9A",
"Bj 	c #82FB9C",
"Cj 	c #7DFD9C",
"Dj 	c #7CFC9B",
"Ej 	c #7EFC99",
"Fj 	c #7FFD9A",
"Gj 	c #82FE9E",
"Hj 	c #81FA99",
"Ij 	c #80FD99",
"Jj 	c #88FB9C",
"Kj 	c #83FC9F",
"Lj 	c #88FA9A",
"Mj 	c #89FB99",
"Nj 	c #84FC9A",
"Oj 	c #7EFC98",
"Pj 	c #7DFA9C",
"Qj 	c #85FB9D",
"Rj 	c #79FD9A",
"Sj 	c #7CFC9D",
"Tj 	c #7BFD9D",
"Uj 	c #83FD9A",
"Vj 	c #7BFB9A",
"Wj 	c #81FD9D",
"Xj 	c #84FDA0",
"Yj 	c #80FE9D",
"Zj 	c #79FC9C",
"`j 	c #84FB9D",
" k 	c #7EFE9D",
".k 	c #7AFC9C",
"+k 	c #72F99B",
"@k 	c #72FC9C",
"#k 	c #85FB9A",
"$k 	c #8EFB9E",
"%k 	c #70FD97",
"&k 	c #85FD9B",
"*k 	c #76FC9D",
"=k 	c #77FB98",
"-k 	c #86FC9E",
";k 	c #83FB9A",
">k 	c #7CFE9E",
",k 	c #85FC9E",
"'k 	c #7BFD9B",
")k 	c #7FFE97",
"!k 	c #83FB99",
"~k 	c #7EFF9B",
"{k 	c #86FC9B",
"]k 	c #79FD98",
"^k 	c #87FD9C",
"/k 	c #7FFB9D",
"(k 	c #83FA9C",
"_k 	c #78FB9B",
":k 	c #75FB98",
"<k 	c #87FD9D",
"[k 	c #86FC9C",
"}k 	c #84FD9C",
"|k 	c #77FA9C",
"1k 	c #85FA9F",
"2k 	c #85FAA2",
"3k 	c #98E7C7",
"4k 	c #8DAFF7",
"5k 	c #9482FC",
"6k 	c #DB87DC",
"7k 	c #DC89D7",
"8k 	c #4C81F5",
"9k 	c #1C7CD0",
"0k 	c #2C88DF",
"ak 	c #5D86F8",
"bk 	c #6D85FF",
"ck 	c #8A7AFF",
"dk 	c #7C9FF9",
"ek 	c #8584FC",
"fk 	c #CA84E7",
"gk 	c #E37BD0",
"hk 	c #DD82D2",
"ik 	c #C187EB",
"jk 	c #7692FF",
"kk 	c #3789EC",
"lk 	c #2285D8",
"mk 	c #3279E1",
"nk 	c #929CFB",
"ok 	c #937DFB",
"pk 	c #CC79E3",
"qk 	c #E081D2",
"rk 	c #D580DE",
"sk 	c #C482EC",
"tk 	c #3082E5",
"uk 	c #2181D7",
"vk 	c #8668FE",
"wk 	c #8E9DFC",
"xk 	c #AFC2E3",
"yk 	c #BADCC4",
"zk 	c #A4EEB1",
"Ak 	c #8EF5B0",
"Bk 	c #80F9AC",
"Ck 	c #82F8AE",
"Dk 	c #7DF7AA",
"Ek 	c #80F7A7",
"Fk 	c #7EF7AA",
"Gk 	c #7FF8AB",
"Hk 	c #7EF7A8",
"Ik 	c #7FF7AD",
"Jk 	c #7EF9A9",
"Kk 	c #83F9AF",
"Lk 	c #7FF5AB",
"Mk 	c #7EF8AF",
"Nk 	c #83F7AE",
"Ok 	c #80F6AC",
"Pk 	c #82F7B0",
"Qk 	c #7AF6AD",
"Rk 	c #86F5B0",
"Sk 	c #8BF6AE",
"Tk 	c #82F6AD",
"Uk 	c #82F4AE",
"Vk 	c #83F5B0",
"Wk 	c #82F5B2",
"Xk 	c #81F2B4",
"Yk 	c #87F2BC",
"Zk 	c #85F0BC",
"`k 	c #7DF3B9",
" l 	c #7DF2BB",
".l 	c #7BF3B6",
"+l 	c #7DF3B6",
"@l 	c #7EF1BA",
"#l 	c #7DF3B7",
"$l 	c #84F1B8",
"%l 	c #82F1BE",
"&l 	c #80F1B9",
"*l 	c #7DF0B5",
"=l 	c #81F3B7",
"-l 	c #85F3B4",
";l 	c #83F3BB",
">l 	c #78F1BC",
",l 	c #85F3B6",
"'l 	c #83EFBB",
")l 	c #7AEFBB",
"!l 	c #80F3B8",
"~l 	c #82EFB8",
"{l 	c #7EF0BD",
"]l 	c #7EF0BC",
"^l 	c #81F2BA",
"/l 	c #7BF2B8",
"(l 	c #7AF1B7",
"_l 	c #80F0BE",
":l 	c #84EEBD",
"<l 	c #84EFB9",
"[l 	c #80F1BB",
"}l 	c #81F0BB",
"|l 	c #7FF0BA",
"1l 	c #7FEFBF",
"2l 	c #81F1B9",
"3l 	c #7EF2B5",
"4l 	c #7FF3B6",
"5l 	c #7BF1B4",
"6l 	c #7DF4B4",
"7l 	c #81F5B4",
"8l 	c #7CF2B6",
"9l 	c #75F3B4",
"0l 	c #7AF6AE",
"al 	c #7FF7AF",
"bl 	c #81F4B3",
"cl 	c #7EF7B0",
"dl 	c #7DF6B1",
"el 	c #7FF4B0",
"fl 	c #7BF4B1",
"gl 	c #78F7B0",
"hl 	c #85F8AB",
"il 	c #82F6AF",
"jl 	c #7DF6AF",
"kl 	c #7EF5B3",
"ll 	c #81F4AF",
"ml 	c #7EF6AF",
"nl 	c #7EF6AE",
"ol 	c #7EF6AC",
"pl 	c #81F6AF",
"ql 	c #7DF7AC",
"rl 	c #7EF8AD",
"sl 	c #81F5AA",
"tl 	c #81F6B0",
"ul 	c #82F6AB",
"vl 	c #80F5AF",
"wl 	c #7DF5AB",
"xl 	c #7CF6AB",
"yl 	c #80F6AA",
"zl 	c #83F8A9",
"Al 	c #7EF8AB",
"Bl 	c #82F8AC",
"Cl 	c #82F7A9",
"Dl 	c #83F6AB",
"El 	c #85F8AD",
"Fl 	c #7AF6B0",
"Gl 	c #78F8AD",
"Hl 	c #7FF9B0",
"Il 	c #80F5AE",
"Jl 	c #7AF7AB",
"Kl 	c #86F6AA",
"Ll 	c #83F6A9",
"Ml 	c #7AF5B2",
"Nl 	c #77F4B0",
"Ol 	c #84F6AE",
"Pl 	c #83F7AC",
"Ql 	c #72F5B1",
"Rl 	c #52ECAE",
"Sl 	c #3FD7BE",
"Tl 	c #4DBAE3",
"Ul 	c #758FFD",
"Vl 	c #8E74FB",
"Wl 	c #DD89D6",
"Xl 	c #D87DDA",
"Yl 	c #2D6BDA",
"Zl 	c #2471D9",
"`l 	c #3579E4",
" m 	c #6F82FB",
".m 	c #7289FB",
"+m 	c #8588FD",
"@m 	c #A371F8",
"#m 	c #936EFC",
"$m 	c #8882FC",
"%m 	c #C983E6",
"&m 	c #E286D3",
"*m 	c #DB81D8",
"=m 	c #C072E9",
"-m 	c #A485FA",
";m 	c #397CE7",
">m 	c #2080D6",
",m 	c #337EE4",
"'m 	c #8F81FC",
")m 	c #7676FC",
"!m 	c #7A83FF",
"~m 	c #CF6CE1",
"{m 	c #E67BCB",
"]m 	c #D480E0",
"^m 	c #2B7BDE",
"/m 	c #1E73D0",
"(m 	c #A78CF7",
"_m 	c #C6B0DE",
":m 	c #CAC9C5",
"<m 	c #CACEBF",
"[m 	c #C0CFCC",
"}m 	c #9DCDE1",
"|m 	c #7ECBE5",
"1m 	c #7ACAE5",
"2m 	c #7AC9EA",
"3m 	c #7DCEE3",
"4m 	c #7AD1E2",
"5m 	c #86CCE6",
"6m 	c #7FCCE8",
"7m 	c #7AC9E7",
"8m 	c #7FCFE6",
"9m 	c #80CAE7",
"0m 	c #7BC5EA",
"am 	c #82C3ED",
"bm 	c #87BAF1",
"cm 	c #8BB4F4",
"dm 	c #7EB9F1",
"em 	c #7CBBEE",
"fm 	c #83C2EE",
"gm 	c #82BFEC",
"hm 	c #85BAF0",
"im 	c #79BAF0",
"jm 	c #78BBEF",
"km 	c #82B9F2",
"lm 	c #86BAF3",
"mm 	c #7FB2F3",
"nm 	c #85BAEE",
"om 	c #7BB1F7",
"pm 	c #87B8F0",
"qm 	c #7BB7F5",
"rm 	c #81B2F5",
"sm 	c #7CB9F0",
"tm 	c #6FBFF0",
"um 	c #80C0EC",
"vm 	c #82B6F2",
"wm 	c #89B5F4",
"xm 	c #84BEEC",
"ym 	c #7ABEEF",
"zm 	c #81BAF1",
"Am 	c #78C8E9",
"Bm 	c #7EC1EC",
"Cm 	c #7CC4EC",
"Dm 	c #7BC7EB",
"Em 	c #7FC5E9",
"Fm 	c #82C7E6",
"Gm 	c #77CEE2",
"Hm 	c #79C7EB",
"Im 	c #7BCBE4",
"Jm 	c #81C7E9",
"Km 	c #7CC7E7",
"Lm 	c #83CAEA",
"Mm 	c #7DC8E8",
"Nm 	c #84C3EC",
"Om 	c #7ECBE9",
"Pm 	c #82CCE9",
"Qm 	c #7BCBE2",
"Rm 	c #81CFE5",
"Sm 	c #85CEE1",
"Tm 	c #7DCDE8",
"Um 	c #7CCEE6",
"Vm 	c #7DD0E0",
"Wm 	c #85D0E5",
"Xm 	c #7EC9E8",
"Ym 	c #82C9E9",
"Zm 	c #7DCDE4",
"`m 	c #8ACCE6",
" n 	c #89C9E5",
".n 	c #7CC6EB",
"+n 	c #66C4E8",
"@n 	c #40CBD2",
"#n 	c #32CEC0",
"$n 	c #35CDC1",
"%n 	c #40B5E0",
"&n 	c #DD7DD6",
"*n 	c #D277E0",
"=n 	c #3B76EC",
"-n 	c #217AD6",
";n 	c #3F72EF",
">n 	c #6480FD",
",n 	c #7489FC",
"'n 	c #7F75FC",
")n 	c #7364FF",
"!n 	c #796CFA",
"~n 	c #905AFA",
"{n 	c #8F7BFE",
"]n 	c #CC86E8",
"^n 	c #E28BCF",
"/n 	c #D785DA",
"(n 	c #C57DEB",
"_n 	c #A88FF7",
":n 	c #6181FC",
"<n 	c #2488D6",
"[n 	c #1A85CD",
"}n 	c #328AE4",
"|n 	c #8979FE",
"1n 	c #CF7DE3",
"2n 	c #E47CCB",
"3n 	c #BE7BEF",
"4n 	c #2981DB",
"5n 	c #1E81D2",
"6n 	c #9D9FF6",
"7n 	c #BDC4D7",
"8n 	c #CACDC6",
"9n 	c #CFCAC4",
"0n 	c #C4C2D0",
"an 	c #A49EF6",
"bn 	c #897FFF",
"cn 	c #807AFF",
"dn 	c #927FFF",
"en 	c #8981FB",
"fn 	c #7D86FF",
"gn 	c #7A7EFC",
"hn 	c #7E7BFF",
"in 	c #7A84FD",
"jn 	c #8185FF",
"kn 	c #7B84FB",
"ln 	c #5999FA",
"mn 	c #40C6D1",
"nn 	c #31CFC1",
"on 	c #2FC8C6",
"pn 	c #43BBDD",
"qn 	c #708BFE",
"rn 	c #E082D0",
"sn 	c #D381E3",
"tn 	c #437CF0",
"un 	c #2D80DE",
"vn 	c #1A84D2",
"wn 	c #3779E7",
"xn 	c #6E84FB",
"yn 	c #927EFB",
"zn 	c #D483DF",
"An 	c #D488E3",
"Bn 	c #C786EA",
"Cn 	c #AA83F8",
"Dn 	c #657CFC",
"En 	c #3E82EF",
"Fn 	c #268BDB",
"Gn 	c #1A93CC",
"Hn 	c #3198E5",
"In 	c #6880FE",
"Jn 	c #7C82FC",
"Kn 	c #CD86E4",
"Ln 	c #E37CCD",
"Mn 	c #D777DB",
"Nn 	c #C57DE9",
"On 	c #2F82E0",
"Pn 	c #2794D9",
"Qn 	c #BFB9DD",
"Rn 	c #CEC9C5",
"Sn 	c #C8CEC0",
"Tn 	c #C2C5D6",
"Un 	c #9FA1F4",
"Vn 	c #8486FD",
"Wn 	c #8C7CFF",
"Xn 	c #858AFF",
"Yn 	c #7588FE",
"Zn 	c #7E78FE",
"`n 	c #8481FF",
" o 	c #7D8DFE",
".o 	c #7D88FC",
"+o 	c #807EFF",
"@o 	c #8782FF",
"#o 	c #7484FE",
"$o 	c #60A0F7",
"%o 	c #32C0CE",
"&o 	c #2ECABF",
"*o 	c #36CDC4",
"=o 	c #51C2E2",
"-o 	c #D990D7",
";o 	c #CD7CE3",
">o 	c #3C7CEA",
",o 	c #2779DD",
"'o 	c #2270D2",
")o 	c #3C74EB",
"!o 	c #7569FB",
"~o 	c #6B80FF",
"{o 	c #748BFB",
"]o 	c #898CFD",
"^o 	c #CE78E3",
"/o 	c #E675CF",
"(o 	c #D882DD",
"_o 	c #A182FA",
":o 	c #6381FD",
"<o 	c #317BE4",
"[o 	c #1D8DCF",
"}o 	c #2682D9",
"|o 	c #5A83F9",
"1o 	c #8F8DFB",
"2o 	c #C891EE",
"3o 	c #E17BD1",
"4o 	c #D87ADB",
"5o 	c #C77FEB",
"6o 	c #377BEA",
"7o 	c #4BC2E0",
"8o 	c #CBCEC5",
"9o 	c #D4C7BF",
"0o 	c #C7C0D2",
"ao 	c #A0A0F6",
"bo 	c #7983FC",
"co 	c #767FFE",
"do 	c #8489FE",
"eo 	c #7B84FF",
"fo 	c #7C78FF",
"go 	c #7A85FB",
"ho 	c #7786FF",
"io 	c #807AFE",
"jo 	c #7B85FF",
"ko 	c #549EF5",
"lo 	c #3BC8D1",
"mo 	c #3AD2C5",
"no 	c #35CFC5",
"oo 	c #AEB9E7",
"po 	c #C57CE8",
"qo 	c #3E7CE9",
"ro 	c #2580D9",
"so 	c #1B80D0",
"to 	c #427BEC",
"uo 	c #7C6AFE",
"vo 	c #7674FC",
"wo 	c #5C74FC",
"xo 	c #796BFE",
"yo 	c #9781FD",
"zo 	c #CE6EE9",
"Ao 	c #E47BD0",
"Bo 	c #DA75D5",
"Co 	c #C57BEA",
"Do 	c #9D7DFA",
"Eo 	c #3A81E9",
"Fo 	c #2B78E0",
"Go 	c #2065CD",
"Ho 	c #2C64DB",
"Io 	c #737AFC",
"Jo 	c #8C7BFB",
"Ko 	c #836CFB",
"Lo 	c #9B87FA",
"Mo 	c #BF85EB",
"No 	c #DD79D9",
"Oo 	c #D882D9",
"Po 	c #CA7CEA",
"Qo 	c #6E7DFE",
"Ro 	c #8EE3CC",
"So 	c #C6D3C2",
"To 	c #BEC4D4",
"Uo 	c #A89AF9",
"Vo 	c #7982FB",
"Wo 	c #8772FF",
"Xo 	c #7C80FB",
"Yo 	c #847AFD",
"Zo 	c #758BFB",
"`o 	c #8089FF",
" p 	c #8A89FE",
".p 	c #6D80FF",
"+p 	c #5DAAF0",
"@p 	c #3EC6D6",
"#p 	c #34CBC2",
"$p 	c #6CDFD0",
"%p 	c #3F83EE",
"&p 	c #2980DD",
"*p 	c #1F89D3",
"=p 	c #3087E4",
"-p 	c #6E7BFB",
";p 	c #7770FE",
">p 	c #6A73FC",
",p 	c #8984FA",
"'p 	c #8D76FA",
")p 	c #CD80DE",
"!p 	c #E781CD",
"~p 	c #C884EB",
"{p 	c #A786F7",
"]p 	c #5D73FA",
"^p 	c #3A77EC",
"/p 	c #1A65CB",
"(p 	c #3A71E8",
"_p 	c #8B7AFA",
":p 	c #917EFC",
"<p 	c #BF7CEF",
"[p 	c #DE86D2",
"}p 	c #D889DC",
"|p 	c #C381EB",
"1p 	c #C47CEA",
"2p 	c #9F0BA9",
"3p 	c #900499",
"4p 	c #830197",
"5p 	c #810196",
"6p 	c #7D0193",
"7p 	c #800294",
"8p 	c #810194",
"9p 	c #800292",
"0p 	c #7E0294",
"ap 	c #7F0395",
"bp 	c #830195",
"cp 	c #830293",
"dp 	c #820293",
"ep 	c #820295",
"fp 	c #7D0195",
"gp 	c #800093",
"hp 	c #820392",
"ip 	c #7F0493",
"jp 	c #810393",
"kp 	c #810192",
"lp 	c #7F0193",
"mp 	c #810291",
"np 	c #7E0391",
"op 	c #7D0396",
"pp 	c #7E0392",
"qp 	c #7F0095",
"rp 	c #7D0394",
"sp 	c #820096",
"tp 	c #7C0293",
"up 	c #820094",
"vp 	c #820192",
"wp 	c #780297",
"xp 	c #6A069A",
"yp 	c #620AAA",
"zp 	c #4A7DF2",
"Ap 	c #3F87ED",
"Bp 	c #297DDD",
"Cp 	c #1D7DD3",
"Dp 	c #377BE6",
"Ep 	c #6B73FC",
"Fp 	c #CC8BE5",
"Gp 	c #CF85E6",
"Hp 	c #A074FD",
"Ip 	c #6A6BFB",
"Jp 	c #3A6EE6",
"Kp 	c #2072D5",
"Lp 	c #1A8DD0",
"Mp 	c #428AEE",
"Np 	c #816EFB",
"Op 	c #717BFE",
"Pp 	c #8B73FD",
"Qp 	c #C787E7",
"Rp 	c #E28AD4",
"Sp 	c #D784DC",
"Tp 	c #BF86ED",
"Up 	c #0680A9",
"Vp 	c #124199",
"Wp 	c #540C9E",
"Xp 	c #740295",
"Yp 	c #7E0493",
"Zp 	c #810091",
"`p 	c #7B0492",
" q 	c #800095",
".q 	c #7D0291",
"+q 	c #7C0197",
"@q 	c #810098",
"#q 	c #830396",
"$q 	c #7C0295",
"%q 	c #900296",
"&q 	c #A80B9A",
"*q 	c #EC449C",
"=q 	c #F97CA8",
"-q 	c #3E74F0",
";q 	c #2679D7",
">q 	c #1C7FD2",
",q 	c #3772EA",
"'q 	c #7572FF",
")q 	c #7794FA",
"!q 	c #798FFC",
"~q 	c #878DFD",
"{q 	c #7E9CFE",
"]q 	c #CA7DE7",
"^q 	c #DE80D4",
"/q 	c #DB7CD6",
"(q 	c #C679E9",
"_q 	c #9169FD",
":q 	c #617AFB",
"<q 	c #377FED",
"[q 	c #2C83E0",
"}q 	c #218ED3",
"|q 	c #2881DD",
"1q 	c #6D6BFD",
"2q 	c #886CFF",
"3q 	c #8578FC",
"4q 	c #937CFE",
"5q 	c #CD7BE7",
"6q 	c #D681DF",
"7q 	c #BB81EF",
"8q 	c #0F82BB",
"9q 	c #16BAA1",
"0q 	c #29D7A6",
"aq 	c #47BBE0",
"bq 	c #7D7AFF",
"cq 	c #8C77FF",
"dq 	c #757EFF",
"eq 	c #8973FC",
"fq 	c #7890FC",
"gq 	c #7C89FB",
"hq 	c #8A84FE",
"iq 	c #8492FF",
"jq 	c #827AFF",
"kq 	c #7B7AFC",
"lq 	c #827BFC",
"mq 	c #7B8CFF",
"nq 	c #8585FF",
"oq 	c #838AFF",
"pq 	c #B4BFDF",
"qq 	c #D2D2B8",
"rq 	c #D4D8A5",
"sq 	c #E6C2A2",
"tq 	c #EF83BF",
"uq 	c #4276F0",
"vq 	c #2B85DD",
"wq 	c #776BFF",
"xq 	c #8E8CFA",
"yq 	c #CE7FE8",
"zq 	c #E185CE",
"Aq 	c #DA89D8",
"Bq 	c #C179E7",
"Cq 	c #9484FF",
"Dq 	c #2686DA",
"Eq 	c #1D77CF",
"Fq 	c #2D7DE0",
"Gq 	c #6C84FF",
"Hq 	c #8E73FE",
"Iq 	c #7A6CFF",
"Jq 	c #9378F9",
"Kq 	c #CD80E6",
"Lq 	c #E187D1",
"Mq 	c #BE79EE",
"Nq 	c #1D82D2",
"Oq 	c #15B0B4",
"Pq 	c #30D6AE",
"Qq 	c #29D4A8",
"Rq 	c #28CEB6",
"Sq 	c #848AFF",
"Tq 	c #8689FC",
"Uq 	c #888BFC",
"Vq 	c #7E90FE",
"Wq 	c #668EFD",
"Xq 	c #8788FC",
"Yq 	c #7393FA",
"Zq 	c #958DFD",
"`q 	c #8388FD",
" r 	c #777FFC",
".r 	c #7F7FFB",
"+r 	c #8C8CFC",
"@r 	c #707FFE",
"#r 	c #8A89FF",
"$r 	c #8079FB",
"%r 	c #8E78FF",
"&r 	c #8D77FE",
"*r 	c #8D7DFA",
"=r 	c #7B91FE",
"-r 	c #8E8BFC",
";r 	c #BDB8E1",
">r 	c #D4CFB9",
",r 	c #D7D3A6",
"'r 	c #D6D0B0",
")r 	c #E8B0B3",
"!r 	c #D88FD8",
"~r 	c #2B83DD",
"{r 	c #1C83CE",
"]r 	c #2C8CE2",
"^r 	c #8B97FD",
"/r 	c #8A93FC",
"(r 	c #CD93DF",
"_r 	c #E48AD4",
":r 	c #D88BDB",
"<r 	c #C187ED",
"[r 	c #948AFB",
"}r 	c #5F86FB",
"|r 	c #3980EA",
"1r 	c #1F7ED0",
"2r 	c #3583E7",
"3r 	c #7393FF",
"4r 	c #7878FC",
"5r 	c #7274FD",
"6r 	c #917CFD",
"7r 	c #7E97FC",
"8r 	c #9A80FB",
"9r 	c #E286CF",
"0r 	c #D08CE1",
"ar 	c #BC84F3",
"br 	c #179AC6",
"cr 	c #34C2CE",
"dr 	c #27CFAE",
"er 	c #26D3A6",
"fr 	c #2DCFBA",
"gr 	c #46BAE3",
"hr 	c #7893FC",
"ir 	c #8A92FD",
"jr 	c #84A2FA",
"kr 	c #7898FB",
"lr 	c #7C9FFD",
"mr 	c #7596FD",
"nr 	c #7F91FF",
"or 	c #809AFB",
"pr 	c #849EFB",
"qr 	c #879EFB",
"rr 	c #8792FC",
"sr 	c #838AFC",
"tr 	c #7D96FD",
"ur 	c #8394FE",
"vr 	c #7A83FC",
"wr 	c #7F73FD",
"xr 	c #8676FD",
"yr 	c #8173FE",
"zr 	c #7A79FB",
"Ar 	c #BABADE",
"Br 	c #D1D0BB",
"Cr 	c #D1D7AB",
"Dr 	c #D3D3AD",
"Er 	c #D1BCCD",
"Fr 	c #D474E0",
"Gr 	c #3281E6",
"Hr 	c #988AFC",
"Ir 	c #5D65F8",
"Jr 	c #8D88FC",
"Kr 	c #8A6CFF",
"Lr 	c #A1A9F2",
"Mr 	c #CE9DDE",
"Nr 	c #E186D5",
"Or 	c #5C80FA",
"Pr 	c #3B80E8",
"Qr 	c #267FDB",
"Rr 	c #1C80CE",
"Sr 	c #337DE6",
"Tr 	c #6F7CFE",
"Ur 	c #D377E2",
"Vr 	c #E67ECB",
"Wr 	c #B587F4",
"Xr 	c #307BE1",
"Yr 	c #1F85CF",
"Zr 	c #519FF1",
"`r 	c #35C1D0",
" s 	c #2BD4AB",
".s 	c #2AD6A6",
"+s 	c #32D2B8",
"@s 	c #43B7DE",
"#s 	c #8384FF",
"$s 	c #8E7FFF",
"%s 	c #7B96FD",
"&s 	c #7295FB",
"*s 	c #719CFB",
"=s 	c #779EFB",
"-s 	c #7C93FD",
";s 	c #7C93F9",
">s 	c #869FFB",
",s 	c #8F97FC",
"'s 	c #A19CF6",
")s 	c #80A3F7",
"!s 	c #719BFD",
"~s 	c #7197FC",
"{s 	c #7D8AFA",
"]s 	c #837DFB",
"^s 	c #7580FF",
"/s 	c #8372FF",
"(s 	c #9294F9",
"_s 	c #BAB2E3",
":s 	c #D0D0B8",
"<s 	c #D2D5A8",
"[s 	c #A7B9EB",
"}s 	c #DD84D4",
"|s 	c #CF71E3",
"1s 	c #4870F3",
"2s 	c #2A7CDF",
"3s 	c #1D7FCA",
"4s 	c #317AE3",
"5s 	c #7E64FB",
"6s 	c #6650F3",
"7s 	c #9C87FF",
"8s 	c #5983FB",
"9s 	c #A781F8",
"0s 	c #BC93EF",
"as 	c #B98AF0",
"bs 	c #D77EDA",
"cs 	c #D782DF",
"ds 	c #C17BED",
"es 	c #9581FC",
"fs 	c #368EE8",
"gs 	c #267FD9",
"hs 	c #1D81CF",
"is 	c #3579E8",
"js 	c #698AFD",
"ks 	c #6777FE",
"ls 	c #7E6CFE",
"ms 	c #9598F9",
"ns 	c #8D8FFE",
"os 	c #C880E6",
"ps 	c #E478CD",
"qs 	c #D275E0",
"rs 	c #B681F3",
"ss 	c #3080E3",
"ts 	c #207BD4",
"us 	c #5FA6F4",
"vs 	c #3BCBCC",
"ws 	c #2DD6AD",
"xs 	c #30D5B5",
"ys 	c #6BCEE1",
"zs 	c #7CC8E8",
"As 	c #7BCCE7",
"Bs 	c #7AC9E8",
"Cs 	c #84CAE4",
"Ds 	c #7ECEE9",
"Es 	c #7DC8E5",
"Fs 	c #7FC5E7",
"Gs 	c #80CDE7",
"Hs 	c #7DD5DF",
"Is 	c #87D7D8",
"Js 	c #87D8DB",
"Ks 	c #80D1E4",
"Ls 	c #7CD4DE",
"Ms 	c #81DAD8",
"Ns 	c #79D9D8",
"Os 	c #83D5E0",
"Ps 	c #83D8DB",
"Qs 	c #81DCD7",
"Rs 	c #84DAD9",
"Ss 	c #7AE0D5",
"Ts 	c #7DE2D0",
"Us 	c #7FE0D5",
"Vs 	c #84E3CF",
"Ws 	c #82E3D2",
"Xs 	c #8AE3D1",
"Ys 	c #7ED7DD",
"Zs 	c #79D8DA",
"`s 	c #79D2E2",
" t 	c #7DD8D9",
".t 	c #7DCFE4",
"+t 	c #7AD2DC",
"@t 	c #7ACFE3",
"#t 	c #81CDE7",
"$t 	c #7DCEDF",
"%t 	c #7FC3EA",
"&t 	c #7DCAE6",
"*t 	c #71CDE4",
"=t 	c #78C7E8",
"-t 	c #7ECCE2",
";t 	c #79C2EB",
">t 	c #85C3EC",
",t 	c #78CFE3",
"'t 	c #83CDE6",
")t 	c #77CDE6",
"!t 	c #80CBEB",
"~t 	c #7BD2E3",
"{t 	c #92D1E0",
"]t 	c #A8D6D6",
"^t 	c #CCD5B8",
"/t 	c #D3D5A4",
"(t 	c #D5D1AC",
"_t 	c #C9C8CD",
":t 	c #ACA5F2",
"<t 	c #CF7AE1",
"[t 	c #C87FE8",
"}t 	c #447DF1",
"|t 	c #2F75E5",
"1t 	c #1E78CE",
"2t 	c #337CE5",
"3t 	c #7284FF",
"4t 	c #6874FE",
"5t 	c #7D72FD",
"6t 	c #9F8FFA",
"7t 	c #A867F7",
"8t 	c #BF6FEA",
"9t 	c #DD85D3",
"0t 	c #D489DE",
"at 	c #C08AEC",
"bt 	c #6586FA",
"ct 	c #348CE5",
"dt 	c #238AD7",
"et 	c #1D83CB",
"ft 	c #2F82E2",
"gt 	c #6572FE",
"ht 	c #899EF9",
"it 	c #8C80FF",
"jt 	c #9583FD",
"kt 	c #C483EB",
"lt 	c #E07DCF",
"mt 	c #D67ADD",
"nt 	c #C285EC",
"ot 	c #2B82DF",
"pt 	c #1E7CD4",
"qt 	c #7B9CFD",
"rt 	c #61A2F6",
"st 	c #3CCCCC",
"tt 	c #33DAAF",
"ut 	c #3DE8A2",
"vt 	c #60F4A6",
"wt 	c #74F8A5",
"xt 	c #82F7A6",
"yt 	c #83F6A8",
"zt 	c #7CFAA8",
"At 	c #87FA9F",
"Bt 	c #7FFCA0",
"Ct 	c #7BFA9F",
"Dt 	c #84FBA1",
"Et 	c #83F9A3",
"Ft 	c #7BFC9F",
"Gt 	c #7FFA9F",
"Ht 	c #7BFB9C",
"It 	c #7CFDA0",
"Jt 	c #80FD9F",
"Kt 	c #7BFCA0",
"Lt 	c #7EF8A1",
"Mt 	c #80FDA1",
"Nt 	c #76FAA6",
"Ot 	c #79FBA1",
"Pt 	c #85FBA5",
"Qt 	c #84F8A3",
"Rt 	c #79F9A6",
"St 	c #7AF8A4",
"Tt 	c #7AFAA5",
"Ut 	c #7DFCA5",
"Vt 	c #82F7A8",
"Wt 	c #84F9AA",
"Xt 	c #7AF9A8",
"Yt 	c #79F8AB",
"Zt 	c #7EF8A5",
"`t 	c #88F7A8",
" u 	c #9EF5A6",
".u 	c #C3E6A4",
"+u 	c #CFDCB0",
"@u 	c #C1CBCD",
"#u 	c #A09DF6",
"$u 	c #D677DB",
"%u 	c #D485E1",
"&u 	c #4084EF",
"*u 	c #277EDD",
"=u 	c #1D74D1",
"-u 	c #387CEB",
";u 	c #8183FA",
">u 	c #7E9AFD",
",u 	c #7386FE",
"'u 	c #8A79FD",
")u 	c #A075FA",
"!u 	c #D175E4",
"~u 	c #D77DDF",
"{u 	c #C082ED",
"]u 	c #3D8BED",
"^u 	c #238FD7",
"/u 	c #1981CA",
"(u 	c #318DE4",
"_u 	c #949DFA",
":u 	c #6A82FF",
"<u 	c #938CFF",
"[u 	c #E182D4",
"}u 	c #D781D8",
"|u 	c #C082EF",
"1u 	c #257ED8",
"2u 	c #2387D5",
"3u 	c #8E8EFC",
"4u 	c #76B6F3",
"5u 	c #6AEBC4",
"6u 	c #74F8A4",
"7u 	c #75FA9D",
"8u 	c #79FC9E",
"9u 	c #7DFB98",
"0u 	c #7CFE9C",
"au 	c #7CFD99",
"bu 	c #80FE9B",
"cu 	c #88FC9B",
"du 	c #7AFD9F",
"eu 	c #81FA9B",
"fu 	c #74FB9C",
"gu 	c #77FA9A",
"hu 	c #87FB9A",
"iu 	c #8DFB9C",
"ju 	c #79FB99",
"ku 	c #84FD9E",
"lu 	c #7AFD9D",
"mu 	c #7BFE98",
"nu 	c #84FB9F",
"ou 	c #77FD9C",
"pu 	c #85FB9B",
"qu 	c #82FE9C",
"ru 	c #7FFD99",
"su 	c #78FB9D",
"tu 	c #97E6C7",
"uu 	c #91AEF4",
"vu 	c #D389DE",
"wu 	c #D48AE3",
"xu 	c #3B83E9",
"yu 	c #2881DB",
"zu 	c #888EFE",
"Au 	c #8389FF",
"Bu 	c #9882FE",
"Cu 	c #CD77E6",
"Du 	c #E079D4",
"Eu 	c #D275DD",
"Fu 	c #C176EC",
"Gu 	c #9C7BFD",
"Hu 	c #4192EE",
"Iu 	c #187EC9",
"Ju 	c #2F83E5",
"Ku 	c #717EFF",
"Lu 	c #736BFE",
"Mu 	c #6F79FC",
"Nu 	c #9498FC",
"Ou 	c #CB79E5",
"Pu 	c #D480DE",
"Qu 	c #BD75F2",
"Ru 	c #2E7CE1",
"Su 	c #8066FD",
"Tu 	c #909FFC",
"Uu 	c #AEC1E1",
"Vu 	c #B7DEC1",
"Wu 	c #A1EFB3",
"Xu 	c #8EF5AE",
"Yu 	c #80F6A8",
"Zu 	c #7AF7A9",
"`u 	c #83F7B0",
" v 	c #7DF5AE",
".v 	c #87F5AC",
"+v 	c #83F6B1",
"@v 	c #82F5B0",
"#v 	c #80F5B1",
"$v 	c #83F3B8",
"%v 	c #89F0BB",
"&v 	c #85F0BA",
"*v 	c #7EF1B6",
"=v 	c #7EF0B5",
"-v 	c #7BF1B7",
";v 	c #85F2B9",
">v 	c #87EFBA",
",v 	c #7EF1B8",
"'v 	c #84F2B5",
")v 	c #84F0BC",
"!v 	c #7DEFBB",
"~v 	c #82F2BA",
"{v 	c #81F2BC",
"]v 	c #80EFBA",
"^v 	c #7BF2BC",
"/v 	c #7BF1B5",
"(v 	c #77F3B5",
"_v 	c #7DEFBC",
":v 	c #84F1BA",
"<v 	c #80EEBD",
"[v 	c #81EFBE",
"}v 	c #7BF1BF",
"|v 	c #7FF0B8",
"1v 	c #81F1B7",
"2v 	c #7CF4B7",
"3v 	c #7BF3B3",
"4v 	c #82F4B6",
"5v 	c #7BF3B5",
"6v 	c #76F5B2",
"7v 	c #79F7B0",
"8v 	c #80F4B5",
"9v 	c #77F6AF",
"0v 	c #80F8AE",
"av 	c #84F7AC",
"bv 	c #7DF4B0",
"cv 	c #81F5AC",
"dv 	c #7EF7B2",
"ev 	c #83F5AF",
"fv 	c #84F8AD",
"gv 	c #78F6AF",
"hv 	c #84F7AA",
"iv 	c #73F5AF",
"jv 	c #52ECB0",
"kv 	c #3CD9BE",
"lv 	c #4CBCE4",
"mv 	c #7190FA",
"nv 	c #9372FF",
"ov 	c #D58ADC",
"pv 	c #CC85E3",
"qv 	c #3987E9",
"rv 	c #2686DC",
"sv 	c #1F85D0",
"tv 	c #806EFE",
"uv 	c #9278FD",
"vv 	c #D370E5",
"wv 	c #D57DE1",
"xv 	c #C77EEA",
"yv 	c #A080FD",
"zv 	c #397DEC",
"Av 	c #1E82CD",
"Bv 	c #1B83CA",
"Cv 	c #307FE4",
"Dv 	c #7863FC",
"Ev 	c #CB73E4",
"Fv 	c #E478CE",
"Gv 	c #D67CE0",
"Hv 	c #BA79F1",
"Iv 	c #2A85DE",
"Jv 	c #786AFD",
"Kv 	c #A78BF9",
"Lv 	c #C9AFDE",
"Mv 	c #CCC8C7",
"Nv 	c #CBCDC0",
"Ov 	c #BECECE",
"Pv 	c #9ACEDC",
"Qv 	c #7CCCE5",
"Rv 	c #7CCEE4",
"Sv 	c #7FD3DD",
"Tv 	c #83CDE8",
"Uv 	c #7FCCEA",
"Vv 	c #79C5E9",
"Wv 	c #83C4EE",
"Xv 	c #8ECAE6",
"Yv 	c #8DC5E6",
"Zv 	c #82C0EF",
"`v 	c #89BBF0",
" w 	c #7EC7EA",
".w 	c #82C1ED",
"+w 	c #86B7F2",
"@w 	c #7ABCF0",
"#w 	c #82BEF2",
"$w 	c #82BFEE",
"%w 	c #78BCED",
"&w 	c #88BBF2",
"*w 	c #7CB4F1",
"=w 	c #7AB4F4",
"-w 	c #83BDEF",
";w 	c #7DAFF4",
">w 	c #81B8F1",
",w 	c #85B8F1",
"'w 	c #81B3F2",
")w 	c #7EB9F3",
"!w 	c #72BEF0",
"~w 	c #7DC1F0",
"{w 	c #7AB9EF",
"]w 	c #83B7F1",
"^w 	c #89B7F3",
"/w 	c #82B4EF",
"(w 	c #80BEF1",
"_w 	c #7DC2EB",
":w 	c #7BC8E6",
"<w 	c #7BC2EC",
"[w 	c #7AC6E8",
"}w 	c #7EC2E5",
"|w 	c #75CAE7",
"1w 	c #7AC5ED",
"2w 	c #84CBE9",
"3w 	c #7EC4E8",
"4w 	c #84C9EA",
"5w 	c #7CC7E4",
"6w 	c #86CEE4",
"7w 	c #79CDE7",
"8w 	c #87D0E3",
"9w 	c #88C9E7",
"0w 	c #80D1E2",
"aw 	c #7EC9E9",
"bw 	c #85C8E5",
"cw 	c #7DCAE4",
"dw 	c #7ACFE4",
"ew 	c #84D0E0",
"fw 	c #7DC9E3",
"gw 	c #81C6E7",
"hw 	c #88CBE6",
"iw 	c #8BC7E9",
"jw 	c #7DC6E9",
"kw 	c #66C4E6",
"lw 	c #40CBD0",
"mw 	c #31D0BE",
"nw 	c #33CAC3",
"ow 	c #41B6E2",
"pw 	c #DC7BDA",
"qw 	c #3E89EE",
"rw 	c #2386DB",
"sw 	c #1F87D0",
"tw 	c #3984EA",
"uw 	c #6A7BFD",
"vw 	c #877CFC",
"ww 	c #8197FD",
"xw 	c #CA72E2",
"yw 	c #E37ACF",
"zw 	c #DA7CDC",
"Aw 	c #C67CED",
"Bw 	c #A881F6",
"Cw 	c #6F78FF",
"Dw 	c #4871F1",
"Ew 	c #2188D5",
"Fw 	c #188AC9",
"Gw 	c #358FE7",
"Hw 	c #698FFC",
"Iw 	c #6381FB",
"Jw 	c #A37FFB",
"Kw 	c #6169FA",
"Lw 	c #5A69F8",
"Mw 	c #966CFC",
"Nw 	c #E383CD",
"Ow 	c #C182ED",
"Pw 	c #2A82DC",
"Qw 	c #1E82D0",
"Rw 	c #9E9DFA",
"Sw 	c #BCC5D6",
"Tw 	c #C7CCC5",
"Uw 	c #CECCBF",
"Vw 	c #C5C2D5",
"Ww 	c #A79DF6",
"Xw 	c #8F7EFF",
"Yw 	c #8D82FC",
"Zw 	c #828BFF",
"`w 	c #5A9AFB",
" x 	c #3DC5D1",
".x 	c #32CFBE",
"+x 	c #2FC8C5",
"@x 	c #45BBDF",
"#x 	c #DE82D5",
"$x 	c #D47DDE",
"%x 	c #4280F1",
"&x 	c #1D81CD",
"*x 	c #337CE3",
"=x 	c #8D7CFE",
"-x 	c #817AFC",
";x 	c #9079FF",
">x 	c #6790FC",
",x 	c #E37ECE",
"'x 	c #D57CDA",
")x 	c #C875E7",
"!x 	c #A37CFB",
"~x 	c #717BFF",
"{x 	c #4875F2",
"]x 	c #257DD7",
"^x 	c #1A8DCE",
"/x 	c #3181E2",
"(x 	c #607FFC",
"_x 	c #8668FC",
":x 	c #7064F8",
"<x 	c #9474FD",
"[x 	c #C982E8",
"}x 	c #DE8BD3",
"|x 	c #D381E5",
"1x 	c #BE83ED",
"2x 	c #2A79E0",
"3x 	c #2895DA",
"4x 	c #BEBADB",
"5x 	c #CEC9C3",
"6x 	c #CBCEC3",
"7x 	c #BFC4D7",
"8x 	c #A3A1F4",
"9x 	c #7984FA",
"0x 	c #7E87FC",
"ax 	c #847EFF",
"bx 	c #5EA0F6",
"cx 	c #33C0D2",
"dx 	c #50C3E2",
"ex 	c #CC7FE5",
"fx 	c #457CF1",
"gx 	c #287FDE",
"hx 	c #1A79CD",
"ix 	c #3276E5",
"jx 	c #8581FC",
"kx 	c #C886E7",
"lx 	c #E583D0",
"mx 	c #C87DE6",
"nx 	c #A980F6",
"ox 	c #4579EF",
"px 	c #2F79E4",
"qx 	c #1C89CC",
"rx 	c #2C70DF",
"sx 	c #93A8F7",
"tx 	c #809FFC",
"ux 	c #5E7BF9",
"vx 	c #7B88FB",
"wx 	c #865DF7",
"xx 	c #D573E0",
"yx 	c #D17FE1",
"zx 	c #BE87ED",
"Ax 	c #3583E5",
"Bx 	c #4CC1E2",
"Cx 	c #CCCDC7",
"Dx 	c #D2C8BF",
"Ex 	c #C6BED6",
"Fx 	c #A0A1F4",
"Gx 	c #7E80FB",
"Hx 	c #8177FC",
"Ix 	c #7282FB",
"Jx 	c #7788FC",
"Kx 	c #7F84FA",
"Lx 	c #8983FD",
"Mx 	c #53A0F0",
"Nx 	c #3CC6D0",
"Ox 	c #3AD3C1",
"Px 	c #39CFC3",
"Qx 	c #ACBAEB",
"Rx 	c #427BEE",
"Sx 	c #177FC6",
"Tx 	c #3281E8",
"Ux 	c #746BFA",
"Vx 	c #A197F8",
"Wx 	c #7473FF",
"Xx 	c #7071FD",
"Yx 	c #CD8DE3",
"Zx 	c #D68DDF",
"`x 	c #C682E9",
" y 	c #437FF1",
".y 	c #2F86E3",
"+y 	c #1885C8",
"@y 	c #2792DA",
"#y 	c #9E8BFE",
"$y 	c #4E64EE",
"%y 	c #5578F6",
"&y 	c #D07FDE",
"*y 	c #E573CB",
"=y 	c #C285ED",
"-y 	c #8BE5CC",
";y 	c #C6D3C1",
">y 	c #C0C2D7",
",y 	c #A69BF7",
"'y 	c #8779FF",
")y 	c #837EFC",
"!y 	c #61ABF4",
"~y 	c #3DC7D4",
"{y 	c #34CCC0",
"]y 	c #6DE0D3",
"^y 	c #3E87ED",
"/y 	c #2C7CDF",
"(y 	c #1C87CB",
"_y 	c #2A8DE2",
":y 	c #8979FF",
"<y 	c #988BFF",
"[y 	c #7560F9",
"}y 	c #D488E2",
"|y 	c #D189DF",
"1y 	c #BE85F0",
"2y 	c #4780F1",
"3y 	c #3088E2",
"4y 	c #2081D0",
"5y 	c #2A8DE0",
"6y 	c #5984F7",
"7y 	c #6B57F7",
"8y 	c #8593FF",
"9y 	c #8A90FE",
"0y 	c #CE84E7",
"ay 	c #E578CB",
"by 	c #DE85D9",
"cy 	c #C385F0",
"dy 	c #B588F1",
"ey 	c #9C0AA9",
"fy 	c #840497",
"gy 	c #7F0191",
"hy 	c #800091",
"iy 	c #810095",
"jy 	c #800291",
"ky 	c #810093",
"ly 	c #790197",
"my 	c #6C069A",
"ny 	c #600BA6",
"oy 	c #5182F8",
"py 	c #3A8DED",
"qy 	c #237ADB",
"ry 	c #3088E1",
"sy 	c #8A84FF",
"ty 	c #7D8DFC",
"uy 	c #7D64FE",
"vy 	c #9E80FA",
"wy 	c #D184E2",
"xy 	c #E48BCF",
"yy 	c #D578E0",
"zy 	c #BE77ED",
"Ay 	c #A57DF7",
"By 	c #6A76FC",
"Cy 	c #4B78F5",
"Dy 	c #3173E4",
"Ey 	c #1972CC",
"Fy 	c #287FDC",
"Gy 	c #5F7BF9",
"Hy 	c #808DFD",
"Iy 	c #6D68FA",
"Jy 	c #C488E8",
"Ky 	c #E783CC",
"Ly 	c #DC79D3",
"My 	c #C07AEE",
"Ny 	c #097DA4",
"Oy 	c #104299",
"Py 	c #560AA0",
"Qy 	c #700295",
"Ry 	c #7F0097",
"Sy 	c #7A0393",
"Ty 	c #810392",
"Uy 	c #7B0494",
"Vy 	c #7B0396",
"Wy 	c #840296",
"Xy 	c #8E0297",
"Yy 	c #AA0A9E",
"Zy 	c #EC469C",
"`y 	c #F97EAA",
" z 	c #3780E9",
".z 	c #2382D6",
"+z 	c #1F82D5",
"@z 	c #367FE6",
"#z 	c #6D88FD",
"$z 	c #8C8EFB",
"%z 	c #5E80FC",
"&z 	c #AC79F8",
"*z 	c #DB73D6",
"=z 	c #DF84D4",
"-z 	c #C676E7",
";z 	c #C37AF0",
">z 	c #AA77FA",
",z 	c #6874FA",
"'z 	c #4377ED",
")z 	c #2C73DB",
"!z 	c #2276D6",
"~z 	c #2F81E7",
"{z 	c #5E77F8",
"]z 	c #7A89FF",
"^z 	c #928BFB",
"/z 	c #8C87FD",
"(z 	c #CD8AE7",
"_z 	c #DF80D2",
":z 	c #D772D8",
"<z 	c #C16FEB",
"[z 	c #0F7ABE",
"}z 	c #14BB9F",
"|z 	c #2AD5A8",
"1z 	c #32D5B6",
"2z 	c #797DFB",
"3z 	c #887FFC",
"4z 	c #8A78FF",
"5z 	c #867BFB",
"6z 	c #8685FD",
"7z 	c #8378FB",
"8z 	c #8375FC",
"9z 	c #8A7BFC",
"0z 	c #8B76FF",
"az 	c #6C84FE",
"bz 	c #B8BEDE",
"cz 	c #CED2BB",
"dz 	c #D2D9A6",
"ez 	c #E8BF9F",
"fz 	c #F17DBA",
"gz 	c #2787DD",
"hz 	c #1E85D0",
"iz 	c #3482E4",
"jz 	c #7B86FF",
"kz 	c #6B8DFB",
"lz 	c #D877E0",
"mz 	c #E572D1",
"nz 	c #CF81E4",
"oz 	c #C087E8",
"pz 	c #A573FA",
"qz 	c #4A83F4",
"rz 	c #2C81DE",
"sz 	c #1E7DD1",
"tz 	c #2D71E0",
"uz 	c #6B7EFF",
"vz 	c #8199FD",
"wz 	c #719DFE",
"xz 	c #6495FB",
"yz 	c #8A76FC",
"zz 	c #CE76E7",
"Az 	c #D880D7",
"Bz 	c #C580EA",
"Cz 	c #15AFB1",
"Dz 	c #31D6AE",
"Ez 	c #29D5A5",
"Fz 	c #2ACEB6",
"Gz 	c #42B8E0",
"Hz 	c #6C90FE",
"Iz 	c #797EFC",
"Jz 	c #778DFD",
"Kz 	c #8E9CFF",
"Lz 	c #729DFB",
"Mz 	c #788DFA",
"Nz 	c #8192FC",
"Oz 	c #7394FD",
"Pz 	c #908BFF",
"Qz 	c #7180FD",
"Rz 	c #8B88FD",
"Sz 	c #8979FD",
"Tz 	c #BEB9E2",
"Uz 	c #D2CEB3",
"Vz 	c #DAD3A7",
"Wz 	c #E7B0B5",
"Xz 	c #DF89D4",
"Yz 	c #417FEE",
"Zz 	c #2B82E1",
"`z 	c #1B82CF",
" A 	c #7481FF",
".A 	c #CB88E5",
"+A 	c #E17ED0",
"@A 	c #D67FE0",
"#A 	c #B978EE",
"$A 	c #9770FF",
"%A 	c #4A7DF3",
"&A 	c #2780DC",
"*A 	c #3478E5",
"=A 	c #6F8BF9",
"-A 	c #8B75FC",
";A 	c #7B99FB",
">A 	c #6293FA",
",A 	c #D677DF",
"'A 	c #E289CB",
")A 	c #D88ADE",
"!A 	c #C589ED",
"~A 	c #2A81DE",
"{A 	c #1A9AC7",
"]A 	c #28D2AB",
"^A 	c #2ECDB9",
"/A 	c #46B9E5",
"(A 	c #6D92FC",
"_A 	c #7882FB",
":A 	c #898AFF",
"<A 	c #9479FE",
"[A 	c #8D91FC",
"}A 	c #7D9FF9",
"|A 	c #8099FD",
"1A 	c #81A0FA",
"2A 	c #8A9DFB",
"3A 	c #8692FE",
"4A 	c #7B97FB",
"5A 	c #7285FD",
"6A 	c #7E75FF",
"7A 	c #BBBBE1",
"8A 	c #CDCFB9",
"9A 	c #D4D5A9",
"0A 	c #D4D1AE",
"aA 	c #D2BDCE",
"bA 	c #EA8DC6",
"cA 	c #D781DA",
"dA 	c #3C84EA",
"eA 	c #1F7AD3",
"fA 	c #3280E5",
"gA 	c #6D86FC",
"hA 	c #927BFD",
"iA 	c #CE83E0",
"jA 	c #E081D3",
"kA 	c #CB83E6",
"lA 	c #B579F3",
"mA 	c #9F7CFA",
"nA 	c #2D7FE2",
"oA 	c #1D89D1",
"pA 	c #317FE1",
"qA 	c #71A9F6",
"rA 	c #CB95E0",
"sA 	c #E77BD0",
"tA 	c #D585DA",
"uA 	c #C07DF0",
"vA 	c #2A73DC",
"wA 	c #1D84CF",
"xA 	c #52A1F0",
"yA 	c #35C3CF",
"zA 	c #2DD3AF",
"AA 	c #2BD7A7",
"BA 	c #31D1B9",
"CA 	c #41B8E0",
"DA 	c #6D93FE",
"EA 	c #8E7EFF",
"FA 	c #9378FB",
"GA 	c #7F8EFF",
"HA 	c #7399FC",
"IA 	c #7392FE",
"JA 	c #8B97FB",
"KA 	c #829AFC",
"LA 	c #699FF9",
"MA 	c #6D9FF8",
"NA 	c #789DF8",
"OA 	c #819AFF",
"PA 	c #7C93FB",
"QA 	c #7594FE",
"RA 	c #A39DF5",
"SA 	c #989DF9",
"TA 	c #80A2F9",
"UA 	c #6F96FB",
"VA 	c #7C8CFB",
"WA 	c #798AFF",
"XA 	c #8B86FC",
"YA 	c #747FFF",
"ZA 	c #8175FB",
"`A 	c #9492FD",
" B 	c #BBB1E3",
".B 	c #D1D6AD",
"+B 	c #C4CDCC",
"@B 	c #A5B9EB",
"#B 	c #E185D0",
"$B 	c #D87CDF",
"%B 	c #3E7CED",
"&B 	c #2781D9",
"*B 	c #1B7ECF",
"=B 	c #3779EA",
"-B 	c #8F7FFF",
";B 	c #CC79E5",
">B 	c #E678CF",
",B 	c #D08AE2",
"'B 	c #B28EF2",
")B 	c #9A8CFD",
"!B 	c #6F94FF",
"~B 	c #468AED",
"{B 	c #2E80E4",
"]B 	c #1B7CCD",
"^B 	c #2984DF",
"/B 	c #8268FD",
"(B 	c #7889FF",
"_B 	c #7286FF",
":B 	c #8E85FC",
"<B 	c #B887F0",
"[B 	c #DF7CD7",
"}B 	c #D87EDE",
"|B 	c #B577F2",
"1B 	c #2F7AE0",
"2B 	c #247DD7",
"3B 	c #5DAAF2",
"4B 	c #3BCACE",
"5B 	c #2BD5A6",
"6B 	c #34D5B4",
"7B 	c #50D6CF",
"8B 	c #6CD0E0",
"9B 	c #85C8E3",
"0B 	c #81CCE9",
"aB 	c #81C7EB",
"bB 	c #7DC6E6",
"cB 	c #87CEE4",
"dB 	c #85D3DF",
"eB 	c #7AD7DF",
"fB 	c #85D9DB",
"gB 	c #8AD5DA",
"hB 	c #8FD6DA",
"iB 	c #88D7DB",
"jB 	c #7DD3E0",
"kB 	c #82DBD9",
"lB 	c #77D9DA",
"mB 	c #72D3E3",
"nB 	c #82D6E0",
"oB 	c #83DBDC",
"pB 	c #79D9D7",
"qB 	c #7DE2D4",
"rB 	c #79E2D1",
"sB 	c #7CE1CF",
"tB 	c #8BE2D2",
"uB 	c #72D3DC",
"vB 	c #78D3E5",
"wB 	c #85D3E0",
"xB 	c #80D3E3",
"yB 	c #80D5DC",
"zB 	c #7BD0E4",
"AB 	c #7FD0E5",
"BB 	c #78D1E3",
"CB 	c #7FCBE2",
"DB 	c #7ECCE3",
"EB 	c #8FC7EA",
"FB 	c #77CBE7",
"GB 	c #7ACBE8",
"HB 	c #83C5E8",
"IB 	c #89CCE6",
"JB 	c #85C7EA",
"KB 	c #78CCE8",
"LB 	c #80CBEA",
"MB 	c #84CBEB",
"NB 	c #8FD1DF",
"OB 	c #A7D5D3",
"PB 	c #CCD5B6",
"QB 	c #D6D3A6",
"RB 	c #D6D3AA",
"SB 	c #C8C9CD",
"TB 	c #ACA6F0",
"UB 	c #D67CDC",
"VB 	c #4173F0",
"WB 	c #2B69DA",
"XB 	c #3184E4",
"YB 	c #7471FC",
"ZB 	c #8777FC",
"`B 	c #D484DB",
" C 	c #B88BF4",
".C 	c #9A8EFA",
"+C 	c #6D8AFF",
"@C 	c #3D84EC",
"#C 	c #297BDE",
"$C 	c #1D78D1",
"%C 	c #3B98E5",
"&C 	c #8192FA",
"*C 	c #7582FF",
"=C 	c #7673FE",
"-C 	c #9182FF",
";C 	c #6F8AFD",
">C 	c #6A78FD",
",C 	c #CA76E8",
"'C 	c #BA8CEF",
")C 	c #2D94DF",
"!C 	c #217AD4",
"~C 	c #7C9DFE",
"{C 	c #61A1F8",
"]C 	c #3ACCCB",
"^C 	c #31DBAC",
"/C 	c #3EE7A4",
"(C 	c #5BF7A4",
"_C 	c #72F7A6",
":C 	c #83FAA6",
"<C 	c #84FAA2",
"[C 	c #83FA9E",
"}C 	c #7DFCA1",
"|C 	c #7AFB9F",
"1C 	c #81F9A0",
"2C 	c #7AFDA0",
"3C 	c #79F9A4",
"4C 	c #86FAA5",
"5C 	c #81FBA6",
"6C 	c #85F9A4",
"7C 	c #7EF8A3",
"8C 	c #7AFAA3",
"9C 	c #7BFBA6",
"0C 	c #78F9A7",
"aC 	c #C2E7A4",
"bC 	c #CDDAAC",
"cC 	c #C1CACF",
"dC 	c #DC77D7",
"eC 	c #D681DE",
"fC 	c #2D80DC",
"gC 	c #2D65DC",
"hC 	c #2A6EDB",
"iC 	c #3178E2",
"jC 	c #727BFE",
"kC 	c #7E9BF9",
"lC 	c #7871FD",
"mC 	c #D382DF",
"nC 	c #E48AD0",
"oC 	c #D485DE",
"pC 	c #BE87EF",
"qC 	c #A392F8",
"rC 	c #6181FA",
"sC 	c #3982E9",
"tC 	c #2782DB",
"uC 	c #258ADC",
"vC 	c #428CEB",
"wC 	c #688CFE",
"xC 	c #9994FB",
"yC 	c #7E67FF",
"zC 	c #767AFF",
"AC 	c #6074FB",
"BC 	c #C980E9",
"CC 	c #D886DB",
"DC 	c #C684EE",
"EC 	c #2088D1",
"FC 	c #708FF9",
"GC 	c #7598FE",
"HC 	c #77B7F5",
"IC 	c #6AEBC5",
"JC 	c #76F7A5",
"KC 	c #78FAA0",
"LC 	c #81FE9A",
"MC 	c #8BF99A",
"NC 	c #84F99E",
"OC 	c #7AFE9B",
"PC 	c #70FC9B",
"QC 	c #85FD9C",
"RC 	c #8CFA99",
"SC 	c #74FC9A",
"TC 	c #88FB9E",
"UC 	c #7DFE99",
"VC 	c #79FA9D",
"WC 	c #76FB9E",
"XC 	c #89FA9E",
"YC 	c #85F9A6",
"ZC 	c #9BE6C8",
"`C 	c #8EAFF6",
" D 	c #9282FE",
".D 	c #768BFF",
"+D 	c #D787DC",
"@D 	c #2F96E1",
"#D 	c #2396D5",
"$D 	c #2388D8",
"%D 	c #3E74EE",
"&D 	c #7876FE",
"*D 	c #897BFF",
"=D 	c #D17AE2",
"-D 	c #E388CB",
";D 	c #D885DF",
">D 	c #BC8FEE",
",D 	c #9F86FB",
"'D 	c #6679FC",
")D 	c #4280EF",
"!D 	c #2079D5",
"~D 	c #3A60E5",
"{D 	c #6B67FA",
"]D 	c #7362FF",
"^D 	c #666BFD",
"/D 	c #8261F8",
"(D 	c #8068FE",
"_D 	c #7B70FB",
":D 	c #CC81E6",
"<D 	c #D47DDB",
"[D 	c #BB82ED",
"}D 	c #2D7CE1",
"|D 	c #217FD7",
"1D 	c #909FFA",
"2D 	c #AEC2E5",
"3D 	c #B8DCC0",
"4D 	c #A7EEB6",
"5D 	c #8BF5AB",
"6D 	c #83F8AA",
"7D 	c #7FF7B0",
"8D 	c #86F6AC",
"9D 	c #88F6AF",
"0D 	c #81F4B1",
"aD 	c #80F4B7",
"bD 	c #8CEFB9",
"cD 	c #7EF4BA",
"dD 	c #7EF4B7",
"eD 	c #7BF0BB",
"fD 	c #85F2B8",
"gD 	c #87EFBC",
"hD 	c #7FF2B9",
"iD 	c #83F4B6",
"jD 	c #7AF0BC",
"kD 	c #7DF0B9",
"lD 	c #82F2B8",
"mD 	c #80F1BD",
"nD 	c #7AF1BB",
"oD 	c #77F2B9",
"pD 	c #84EFBB",
"qD 	c #85EFBE",
"rD 	c #7FF2BB",
"sD 	c #7DEEC0",
"tD 	c #80F3BA",
"uD 	c #83F0B7",
"vD 	c #79F3B6",
"wD 	c #7FF2B7",
"xD 	c #82F5B4",
"yD 	c #82F2B7",
"zD 	c #7CF5B0",
"AD 	c #81F3B5",
"BD 	c #7FF3B4",
"CD 	c #79F5AF",
"DD 	c #78F6AD",
"ED 	c #78F6AC",
"FD 	c #7CF5AE",
"GD 	c #7DF7AE",
"HD 	c #81F5AE",
"ID 	c #7DF6A9",
"JD 	c #7AF8A6",
"KD 	c #7FF4AD",
"LD 	c #7AF5B4",
"MD 	c #76F5B0",
"ND 	c #83F5AD",
"OD 	c #74F5B4",
"PD 	c #54ECB1",
"QD 	c #3DD7BD",
"RD 	c #4DBDE5",
"SD 	c #DB8BD4",
"TD 	c #3C88E8",
"UD 	c #259ED5",
"VD 	c #1A8CCB",
"WD 	c #358AE7",
"XD 	c #6871FA",
"YD 	c #685CFA",
"ZD 	c #9A80FF",
"`D 	c #8E87FB",
" E 	c #E878CC",
".E 	c #D26EDE",
"+E 	c #BB77EE",
"@E 	c #3D78EC",
"#E 	c #2674D8",
"$E 	c #1E78D0",
"%E 	c #356CE3",
"&E 	c #7261FB",
"*E 	c #7F67FD",
"=E 	c #CE7CE2",
"-E 	c #E179CE",
";E 	c #2678DB",
">E 	c #1C74CE",
",E 	c #A78BFC",
"'E 	c #C5AFDD",
")E 	c #CDC9C6",
"!E 	c #CCCEC1",
"~E 	c #BECECB",
"{E 	c #9ACEE3",
"]E 	c #7ECAE4",
"^E 	c #7ED1E1",
"/E 	c #7BC5E8",
"(E 	c #83C4EC",
"_E 	c #8EC3EB",
":E 	c #86C6E9",
"<E 	c #7DC4EE",
"[E 	c #88B6F4",
"}E 	c #7EBBF1",
"|E 	c #7EBBF2",
"1E 	c #7FBDEE",
"2E 	c #7FBFEF",
"3E 	c #78BBF0",
"4E 	c #87BCF0",
"5E 	c #7DB3F1",
"6E 	c #7CB2F8",
"7E 	c #7CB1F5",
"8E 	c #80B8F3",
"9E 	c #7BB6F2",
"0E 	c #83BAF0",
"aE 	c #7BBAF0",
"bE 	c #72BEEF",
"cE 	c #78B9F3",
"dE 	c #83B7F3",
"eE 	c #87B5F1",
"fE 	c #81B7F5",
"gE 	c #79C2EF",
"hE 	c #7FBBEF",
"iE 	c #74C9E8",
"jE 	c #7CC7E6",
"kE 	c #87C2EA",
"lE 	c #7CCBE9",
"mE 	c #87C9E9",
"nE 	c #7FD2E4",
"oE 	c #7FC4ED",
"pE 	c #88CFE5",
"qE 	c #87C6E5",
"rE 	c #7BCCE9",
"sE 	c #8AC9E8",
"tE 	c #7DC6E7",
"uE 	c #63C4E5",
"vE 	c #3ECBD2",
"wE 	c #31D0BA",
"xE 	c #32CCC2",
"yE 	c #42B5E2",
"zE 	c #738DFC",
"AE 	c #8E67FF",
"BE 	c #E37DD3",
"CE 	c #D582DC",
"DE 	c #3D7DEB",
"EE 	c #2485D6",
"FE 	c #187BCE",
"GE 	c #3C8AEC",
"HE 	c #6D64FD",
"IE 	c #675EF7",
"JE 	c #9278FF",
"KE 	c #769AF8",
"LE 	c #9188FD",
"ME 	c #CD83E4",
"NE 	c #DE69D1",
"OE 	c #D563DC",
"PE 	c #C56FEC",
"QE 	c #5C79FB",
"RE 	c #3A76E8",
"SE 	c #277BDD",
"TE 	c #207FD3",
"UE 	c #2D84E1",
"VE 	c #9973FA",
"WE 	c #6F81FD",
"XE 	c #E57FD2",
"YE 	c #D87ADA",
"ZE 	c #BD7AED",
"`E 	c #237AD9",
" F 	c #2182D3",
".F 	c #9D9FF4",
"+F 	c #BEC4DA",
"@F 	c #CCCBC6",
"#F 	c #A39CF9",
"$F 	c #8E82FE",
"%F 	c #7B8CFE",
"&F 	c #7889FD",
"*F 	c #5A9BF7",
"=F 	c #3FC4D3",
"-F 	c #33CEBE",
";F 	c #2FC7C8",
">F 	c #718BFA",
",F 	c #E482CB",
"'F 	c #D981D7",
")F 	c #3D7BEC",
"!F 	c #1F82D7",
"~F 	c #367DE9",
"{F 	c #646BFA",
"]F 	c #666CFF",
"^F 	c #9A70FA",
"/F 	c #899BFD",
"(F 	c #9E8EFB",
"_F 	c #7988FD",
":F 	c #5E87F9",
"<F 	c #7C6DFC",
"[F 	c #9181FD",
"}F 	c #C28AED",
"|F 	c #626FF9",
"1F 	c #3C78EA",
"2F 	c #297BDF",
"3F 	c #3481E9",
"4F 	c #8968FD",
"5F 	c #6E8BFF",
"6F 	c #CB84E2",
"7F 	c #DE86D4",
"8F 	c #D57FE0",
"9F 	c #C475EC",
"0F 	c #2D80E0",
"aF 	c #C0BADC",
"bF 	c #D1C7C5",
"cF 	c #C9CFC1",
"dF 	c #C0C6D6",
"eF 	c #8585FD",
"fF 	c #8C7BFD",
"gF 	c #7880FC",
"hF 	c #7981FD",
"iF 	c #33BFD0",
"jF 	c #2BCBBF",
"kF 	c #39CCC4",
"lF 	c #52C3E3",
"mF 	c #DE8ED3",
"nF 	c #D479E0",
"oF 	c #3C73EA",
"pF 	c #2980DF",
"qF 	c #1B88CD",
"rF 	c #2A8BDC",
"sF 	c #A483F8",
"tF 	c #6F8AFB",
"uF 	c #8466FC",
"vF 	c #6480FE",
"wF 	c #6F94FE",
"xF 	c #9D74FE",
"yF 	c #CE7CE0",
"zF 	c #DC87D8",
"AF 	c #D390DF",
"BF 	c #9968F8",
"CF 	c #4079EC",
"DF 	c #8170FC",
"EF 	c #7B68FF",
"FF 	c #896BFF",
"GF 	c #6F65FC",
"HF 	c #9E6DFD",
"IF 	c #D776DD",
"JF 	c #E380D0",
"KF 	c #CF84E3",
"LF 	c #BD7EF0",
"MF 	c #387CE7",
"NF 	c #4AC3E0",
"OF 	c #CBCDC2",
"PF 	c #D2C7C1",
"QF 	c #C7BDD8",
"RF 	c #A1A2F5",
"SF 	c #8883FB",
"TF 	c #818DFD",
"UF 	c #7B78FB",
"VF 	c #7687FB",
"WF 	c #7F81FA",
"XF 	c #54A0F4",
"YF 	c #3EC7CF",
"ZF 	c #38D3C3",
"`F 	c #37CFC2",
" G 	c #B6B8E1",
".G 	c #C970E8",
"+G 	c #2E81E1",
"@G 	c #3096DE",
"#G 	c #61A9F5",
"$G 	c #6279FB",
"%G 	c #AE78F2",
"&G 	c #917DFF",
"*G 	c #6F81FF",
"=G 	c #CD6BE6",
"-G 	c #E07AD0",
";G 	c #BA76F1",
">G 	c #9674FC",
",G 	c #637CFD",
"'G 	c #396FEB",
")G 	c #2C81DC",
"!G 	c #2181D5",
"~G 	c #3684E8",
"{G 	c #7E60FE",
"]G 	c #725AFA",
"^G 	c #A18BFA",
"/G 	c #D87DDD",
"(G 	c #DF7CCE",
"_G 	c #90E1CE",
":G 	c #C7D3BF",
"<G 	c #C2C5D8",
"[G 	c #A49BF8",
"}G 	c #8177FA",
"|G 	c #748CFA",
"1G 	c #8480FB",
"2G 	c #5EABF1",
"3G 	c #3EC5D8",
"4G 	c #6AE0D4",
"5G 	c #A47CF9",
"6G 	c #2780DE",
"7G 	c #237CD6",
"8G 	c #4579F3",
"9G 	c #4583F0",
"0G 	c #4E71F3",
"aG 	c #A572FB",
"bG 	c #A06AF6",
"cG 	c #7871FB",
"dG 	c #CA7BE6",
"eG 	c #E47DD0",
"fG 	c #BC7EED",
"gG 	c #A37FF9",
"hG 	c #5B78F6",
"iG 	c #2079D3",
"jG 	c #357FE8",
"kG 	c #79A1F9",
"lG 	c #7199FB",
"mG 	c #6B74FD",
"nG 	c #7471FE",
"oG 	c #A27EF8",
"pG 	c #A88BF9",
"qG 	c #E17BCF",
"rG 	c #BC80F1",
"sG 	c #BA7EF0",
"tG 	c #9D0CA9",
"uG 	c #91059C",
"vG 	c #7D0392",
"wG 	c #7A0298",
"xG 	c #620BA7",
"yG 	c #2681DC",
"zG 	c #1E84CF",
"AG 	c #3661E1",
"BG 	c #5B57F2",
"CG 	c #6A9BFA",
"DG 	c #8DA3F9",
"EG 	c #7283F9",
"FG 	c #8B81FB",
"GG 	c #C183EE",
"HG 	c #3E89EF",
"IG 	c #217CD5",
"JG 	c #3B74E7",
"KG 	c #7377FD",
"LG 	c #9C78FE",
"MG 	c #6197FB",
"NG 	c #6689FF",
"OG 	c #8596FE",
"PG 	c #9F65F8",
"QG 	c #CD73E4",
"RG 	c #E580CE",
"SG 	c #BA79EF",
"TG 	c #0980A8",
"UG 	c #134197",
"VG 	c #730395",
"WG 	c #7D0491",
"XG 	c #850097",
"YG 	c #8D0299",
"ZG 	c #A70B9D",
"`G 	c #ED459C",
" H 	c #F880A6",
".H 	c #4880F1",
"+H 	c #1A87C8",
"@H 	c #2A84DC",
"#H 	c #9B8AFD",
"$H 	c #967DFC",
"%H 	c #CB80E7",
"&H 	c #BA82F1",
"*H 	c #967BFC",
"=H 	c #6886FE",
"-H 	c #4186ED",
";H 	c #1C7FD0",
">H 	c #3274E4",
",H 	c #696BFC",
"'H 	c #7B67FC",
")H 	c #946DFE",
"!H 	c #8378FA",
"~H 	c #8C5DF9",
"{H 	c #6386FA",
"]H 	c #6E8CFC",
"^H 	c #D97EDD",
"/H 	c #D36BDC",
"(H 	c #C77BE8",
"_H 	c #1082BE",
":H 	c #13BAA0",
"<H 	c #29D4A7",
"[H 	c #45BDE0",
"}H 	c #857CFB",
"|H 	c #8689FE",
"1H 	c #8287FC",
"2H 	c #778EFE",
"3H 	c #8489FF",
"4H 	c #7776FE",
"5H 	c #897DFF",
"6H 	c #B7BDE1",
"7H 	c #D0D3B4",
"8H 	c #D5D7A6",
"9H 	c #EABF9F",
"0H 	c #F186BC",
"aH 	c #447DF0",
"bH 	c #2D78DE",
"cH 	c #1D7FD6",
"dH 	c #288FDE",
"eH 	c #6196F6",
"fH 	c #699BFA",
"gH 	c #8B94FB",
"hH 	c #9454F3",
"iH 	c #9C90FC",
"jH 	c #C987E9",
"kH 	c #E27FCF",
"lH 	c #D57EDC",
"mH 	c #BA85EF",
"nH 	c #9C80FB",
"oH 	c #6484FD",
"pH 	c #3079E2",
"qH 	c #D788DB",
"rH 	c #DD68D1",
"sH 	c #D371DE",
"tH 	c #CA83E3",
"uH 	c #16B0B0",
"vH 	c #31D8AD",
"wH 	c #29CDB5",
"xH 	c #7B75FD",
"yH 	c #8674FC",
"zH 	c #8785FF",
"AH 	c #8888FF",
"BH 	c #739FFE",
"CH 	c #7F92FB",
"DH 	c #8C88FF",
"EH 	c #9177FF",
"FH 	c #8D88FF",
"GH 	c #BBB9E0",
"HH 	c #D4CEB6",
"IH 	c #D9D2A6",
"JH 	c #D5D1AE",
"KH 	c #ECAFB6",
"LH 	c #DE83D3",
"MH 	c #3A83EA",
"NH 	c #1E7ED4",
"OH 	c #6A8BFE",
"PH 	c #70A4F8",
"QH 	c #8D61FC",
"RH 	c #AD7DF7",
"SH 	c #9075FF",
"TH 	c #747EFA",
"UH 	c #CC86E9",
"VH 	c #DE85D5",
"WH 	c #978AFE",
"XH 	c #5D80F8",
"YH 	c #3D81EC",
"ZH 	c #2484D8",
"`H 	c #1983CF",
" I 	c #3282E3",
".I 	c #868DFF",
"+I 	c #6478FD",
"@I 	c #C97BEB",
"#I 	c #E08FD2",
"$I 	c #D184E4",
"%I 	c #2982DE",
"&I 	c #1A9AC9",
"*I 	c #34C2D0",
"=I 	c #2ACDB0",
"-I 	c #28D3A7",
";I 	c #30CDB8",
">I 	c #47BBE4",
",I 	c #6A94FA",
"'I 	c #9177FE",
")I 	c #8A93FA",
"!I 	c #8F8CFD",
"~I 	c #6996FB",
"{I 	c #83A2FC",
"]I 	c #7495FC",
"^I 	c #7E91FA",
"/I 	c #829BFF",
"(I 	c #849FFA",
"_I 	c #899DFC",
":I 	c #838DFE",
"<I 	c #8D80FF",
"[I 	c #907BFC",
"}I 	c #7A78FD",
"|I 	c #BABAE0",
"1I 	c #CED0BA",
"2I 	c #D1D7A7",
"3I 	c #CFBDCD",
"4I 	c #E98CC5",
"5I 	c #DC7DD9",
"6I 	c #4184ED",
"7I 	c #3287E2",
"8I 	c #918AFE",
"9I 	c #6D75FC",
"0I 	c #4A76F1",
"aI 	c #808DFF",
"bI 	c #8F67FC",
"cI 	c #7F65FE",
"dI 	c #8B70FB",
"eI 	c #CB8AE8",
"fI 	c #DF82D3",
"gI 	c #D782E0",
"hI 	c #C283EB",
"iI 	c #567CF9",
"jI 	c #3E83EB",
"kI 	c #2B87DC",
"lI 	c #338AE7",
"mI 	c #706DFC",
"nI 	c #7B73FA",
"oI 	c #9288FB",
"pI 	c #E392CC",
"qI 	c #DA93D9",
"rI 	c #C27AEA",
"sI 	c #2F7EE3",
"tI 	c #1E86CF",
"uI 	c #4FA2F2",
"vI 	c #2BD4AD",
"wI 	c #43B7E0",
"xI 	c #8A96FA",
"yI 	c #709DFA",
"zI 	c #77A0FC",
"AI 	c #7F9BFE",
"BI 	c #7D92FB",
"CI 	c #A19EF9",
"DI 	c #949EF5",
"EI 	c #798AFE",
"FI 	c #D3CEBA",
"GI 	c #D6D5A9",
"HI 	c #CFD6AC",
"II 	c #C3CECA",
"JI 	c #A7B8EC",
"KI 	c #E383CB",
"LI 	c #3D7CEE",
"MI 	c #2A79DE",
"NI 	c #2080D4",
"OI 	c #3386E4",
"PI 	c #8CA6FA",
"QI 	c #816BFA",
"RI 	c #787BFC",
"SI 	c #CC7BE4",
"TI 	c #DD7AD7",
"UI 	c #9381FB",
"VI 	c #5D84F9",
"WI 	c #458AF1",
"XI 	c #2987E1",
"YI 	c #1A81CC",
"ZI 	c #707EFF",
"`I 	c #7488FB",
" J 	c #E882CB",
".J 	c #D47DDC",
"+J 	c #327FE7",
"@J 	c #1F7DD5",
"#J 	c #5EA8F3",
"$J 	c #3CCCCD",
"%J 	c #2BD6AA",
"&J 	c #50D7D0",
"*J 	c #86CDE3",
"=J 	c #8BD6DB",
"-J 	c #87D6DA",
";J 	c #8AD2E0",
">J 	c #85D4E1",
",J 	c #73D4DD",
"'J 	c #7BDAD4",
")J 	c #7ADAD6",
"!J 	c #79DED6",
"~J 	c #7EE1CF",
"{J 	c #8BE2D1",
"]J 	c #8CE0D1",
"^J 	c #81D9DA",
"/J 	c #76D8D9",
"(J 	c #76D7DD",
"_J 	c #7DD4DE",
":J 	c #7DD7DF",
"<J 	c #7DD8DB",
"[J 	c #7AD0E1",
"}J 	c #81D0E1",
"|J 	c #79D0E1",
"1J 	c #84CFE6",
"2J 	c #74CAE5",
"3J 	c #77C5E9",
"4J 	c #85C5EB",
"5J 	c #82D0E7",
"6J 	c #86C6EA",
"7J 	c #82C6ED",
"8J 	c #82CAE3",
"9J 	c #A8D3D9",
"0J 	c #D6D6A4",
"aJ 	c #D3D4AC",
"bJ 	c #AEA6F1",
"cJ 	c #8493FA",
"dJ 	c #D683DF",
"eJ 	c #3C7FE8",
"fJ 	c #227ED5",
"gJ 	c #3372E3",
"hJ 	c #828CFB",
"iJ 	c #7BACF8",
"jJ 	c #7EA0FA",
"kJ 	c #6A8EFC",
"lJ 	c #8E6CFF",
"mJ 	c #C862E2",
"nJ 	c #E07ACE",
"oJ 	c #D67BDB",
"pJ 	c #C375ED",
"qJ 	c #6E87FE",
"rJ 	c #4285F0",
"sJ 	c #257DD4",
"tJ 	c #1C83D0",
"uJ 	c #3686E9",
"vJ 	c #6E7BFD",
"wJ 	c #9886FC",
"xJ 	c #D186E1",
"yJ 	c #E27FD1",
"zJ 	c #C185E9",
"AJ 	c #2B7FDF",
"BJ 	c #1D7BD2",
"CJ 	c #63A0F9",
"DJ 	c #30DCAA",
"EJ 	c #3FE9A2",
"FJ 	c #60F5A4",
"GJ 	c #70F8A6",
"HJ 	c #7FFBA3",
"IJ 	c #84FCA2",
"JJ 	c #81FBA4",
"KJ 	c #7DFA9F",
"LJ 	c #7DFCA3",
"MJ 	c #7AF8A7",
"NJ 	c #80FBAA",
"OJ 	c #87F9A4",
"PJ 	c #84F9A8",
"QJ 	c #81FAAA",
"RJ 	c #7CFCA9",
"SJ 	c #84F7A9",
"TJ 	c #81FBA8",
"UJ 	c #86FAA7",
"VJ 	c #9CF5A3",
"WJ 	c #C3E6A6",
"XJ 	c #CED9AE",
"YJ 	c #BECCCD",
"ZJ 	c #A49BF6",
"`J 	c #E17AD5",
" K 	c #DA7DD8",
".K 	c #3D7CED",
"+K 	c #2785DD",
"@K 	c #1D88CE",
"#K 	c #356DE6",
"$K 	c #6C98F9",
"%K 	c #8477FB",
"&K 	c #D27AE2",
"*K 	c #A178F8",
"=K 	c #4175ED",
"-K 	c #287BDB",
";K 	c #1C81CF",
">K 	c #307AE3",
",K 	c #978FFC",
"'K 	c #8B8EFF",
")K 	c #D779DA",
"!K 	c #C575E8",
"~K 	c #2C7BE2",
"{K 	c #7797FC",
"]K 	c #75B7F3",
"^K 	c #6CEAC5",
"/K 	c #85FC98",
"(K 	c #82FC99",
"_K 	c #71FA9E",
":K 	c #75FB9C",
"<K 	c #88FC99",
"[K 	c #8BFA9C",
"}K 	c #73FA9B",
"|K 	c #76FC9B",
"1K 	c #84FA9A",
"2K 	c #7BFD99",
"3K 	c #78FC99",
"4K 	c #7DFE9A",
"5K 	c #87FA9B",
"6K 	c #79F99A",
"7K 	c #DC87DC",
"8K 	c #447CED",
"9K 	c #3894E9",
"0K 	c #198CCD",
"aK 	c #2884D9",
"bK 	c #7773FC",
"cK 	c #846CFF",
"dK 	c #CE83E8",
"eK 	c #DA81DB",
"fK 	c #BC81ED",
"gK 	c #A47BFB",
"hK 	c #6578FB",
"iK 	c #4175EF",
"jK 	c #2A77DF",
"kK 	c #1F74D1",
"lK 	c #3577E8",
"mK 	c #7386FC",
"nK 	c #9192FE",
"oK 	c #9087FA",
"pK 	c #9384FB",
"qK 	c #C486E9",
"rK 	c #D77DE1",
"sK 	c #C584E8",
"tK 	c #357CE4",
"uK 	c #826AFC",
"vK 	c #8169FD",
"wK 	c #8F9EF9",
"xK 	c #AEC0E4",
"yK 	c #B9DEBF",
"zK 	c #A6EDB5",
"AK 	c #79F7AD",
"BK 	c #7CF9AB",
"CK 	c #85F5AD",
"DK 	c #88F6AD",
"EK 	c #86F3BA",
"FK 	c #7AF1B9",
"GK 	c #83EFBD",
"HK 	c #7CF3BD",
"IK 	c #78F2B7",
"JK 	c #79F3B8",
"KK 	c #7FEDBC",
"LK 	c #82F1BC",
"MK 	c #80F0B8",
"NK 	c #80F2B7",
"OK 	c #7CF2B8",
"PK 	c #7CF4B6",
"QK 	c #7CF2B5",
"RK 	c #78F3B0",
"SK 	c #7EF3AF",
"TK 	c #7BF4AF",
"UK 	c #79F5AD",
"VK 	c #86F6AE",
"WK 	c #7CF5B2",
"XK 	c #81F6B2",
"YK 	c #7CF7A6",
"ZK 	c #7AF8B1",
"`K 	c #7CFAA9",
" L 	c #85F5A9",
".L 	c #7FF9AC",
"+L 	c #77F6B1",
"@L 	c #3DDABF",
"#L 	c #4EBBE6",
"$L 	c #7490FB",
"%L 	c #D58CDB",
"&L 	c #D582DE",
"*L 	c #5683F8",
"=L 	c #166DCA",
"-L 	c #2C86DE",
";L 	c #7473FB",
">L 	c #7F69FA",
",L 	c #5B81FC",
"'L 	c #D17FE3",
")L 	c #E183CD",
"!L 	c #C17FED",
"~L 	c #5D86FA",
"{L 	c #3E80EE",
"]L 	c #2880DA",
"^L 	c #3190E4",
"/L 	c #8271FD",
"(L 	c #7273FF",
"_L 	c #CC80E4",
":L 	c #E285D5",
"<L 	c #D688DC",
"[L 	c #C386ED",
"}L 	c #1E72D2",
"|L 	c #C7AFDF",
"1L 	c #CCC8C5",
"2L 	c #C0CECF",
"3L 	c #9ACDE0",
"4L 	c #7FC9E4",
"5L 	c #7CC8EA",
"6L 	c #8CC9E6",
"7L 	c #87BCF2",
"8L 	c #7CBCEC",
"9L 	c #77BDF1",
"0L 	c #88BBF0",
"aL 	c #7CB3F3",
"bL 	c #7BB2F5",
"cL 	c #7FB7F2",
"dL 	c #89BAF4",
"eL 	c #7BB6F0",
"fL 	c #81B2F4",
"gL 	c #82B8F4",
"hL 	c #7CB9F2",
"iL 	c #71BEEC",
"jL 	c #7FC2EF",
"kL 	c #85BDF0",
"lL 	c #77BAF1",
"mL 	c #83B6F5",
"nL 	c #85B5F5",
"oL 	c #83B6F7",
"pL 	c #85BDEE",
"qL 	c #7EBDF0",
"rL 	c #7DC1EE",
"sL 	c #83C2ED",
"tL 	c #7EBCEF",
"uL 	c #7BC4E5",
"vL 	c #82C2EE",
"wL 	c #7BC7E9",
"xL 	c #7CCBEA",
"yL 	c #88C9E9",
"zL 	c #64C4EA",
"AL 	c #40C9CF",
"BL 	c #2FD1BC",
"CL 	c #33CBBF",
"DL 	c #40B7DF",
"EL 	c #E17DD5",
"FL 	c #256CD8",
"GL 	c #1F6DD1",
"HL 	c #3A75ED",
"IL 	c #6868FA",
"JL 	c #6D70FD",
"KL 	c #8B72FF",
"LL 	c #9568F9",
"ML 	c #7298FB",
"NL 	c #8E8AFB",
"OL 	c #C887EB",
"PL 	c #9987FD",
"QL 	c #5C85F9",
"RL 	c #3B7FEC",
"SL 	c #2388D6",
"TL 	c #2E94DF",
"UL 	c #6B8BFC",
"VL 	c #E287CD",
"WL 	c #D987DC",
"XL 	c #2081CE",
"YL 	c #9D9EFA",
"ZL 	c #BAC5D7",
"`L 	c #C6CDC5",
" M 	c #C3C2D2",
".M 	c #7F7AFB",
"+M 	c #8280FB",
"@M 	c #5B9AF9",
"#M 	c #3AC6D3",
"$M 	c #33CFC1",
"%M 	c #43BBE0",
"&M 	c #E183D1",
"*M 	c #2A6EDD",
"=M 	c #1A80CB",
"-M 	c #2C7EE2",
";M 	c #6885FB",
">M 	c #9B7AFF",
",M 	c #8D83FD",
"'M 	c #BE85EC",
")M 	c #3D7AED",
"!M 	c #2984DD",
"~M 	c #328CE4",
"{M 	c #63A6F7",
"]M 	c #8367FA",
"^M 	c #7C6DFE",
"/M 	c #7D60FA",
"(M 	c #D387E2",
"_M 	c #BA87EE",
":M 	c #2880E1",
"<M 	c #2994DC",
"[M 	c #C0B9DB",
"}M 	c #D1C8C3",
"|M 	c #C0C5D8",
"1M 	c #A4A0F5",
"2M 	c #7E84FC",
"3M 	c #5FA1F7",
"4M 	c #2CC9C0",
"5M 	c #37CEC7",
"6M 	c #50C3DE",
"7M 	c #D891D7",
"8M 	c #3577E7",
"9M 	c #287CDE",
"0M 	c #4192ED",
"aM 	c #8F9CFC",
"bM 	c #7C71FE",
"cM 	c #8A92FF",
"dM 	c #6279FD",
"eM 	c #D47FE4",
"fM 	c #E381CE",
"gM 	c #D77EDC",
"hM 	c #5683FA",
"iM 	c #4478F0",
"jM 	c #2685D7",
"kM 	c #3D6FEA",
"lM 	c #659DFA",
"mM 	c #A593F9",
"nM 	c #CD7FE2",
"oM 	c #E186D3",
"pM 	c #BE83EF",
"qM 	c #3285E3",
"rM 	c #4AC1DF",
"sM 	c #CBCCC4",
"tM 	c #D0C7C0",
"uM 	c #539FF3",
"vM 	c #3FC8D2",
"wM 	c #37D2C2",
"xM 	c #38D0C1",
"yM 	c #B1B9E8",
"zM 	c #3E85ED",
"AM 	c #288BDC",
"BM 	c #268CD7",
"CM 	c #419CED",
"DM 	c #6070F9",
"EM 	c #677AFB",
"FM 	c #626AF9",
"GM 	c #CD77E4",
"HM 	c #E67ACF",
"IM 	c #D579DC",
"JM 	c #C080EE",
"KM 	c #5787F6",
"LM 	c #3D8CEB",
"MM 	c #4267EC",
"NM 	c #6983FC",
"OM 	c #8EA9F8",
"PM 	c #9B90F9",
"QM 	c #CB91E5",
"RM 	c #E18CCF",
"SM 	c #D27BE4",
"TM 	c #88E4CB",
"UM 	c #C7D2C1",
"VM 	c #A59AF8",
"WM 	c #817FFF",
"XM 	c #7985FD",
"YM 	c #6C80F9",
"ZM 	c #61ACF0",
"`M 	c #34CBC4",
" N 	c #9D7DFC",
".N 	c #417DED",
"+N 	c #2F88E4",
"@N 	c #268DDA",
"#N 	c #2C8BDF",
"$N 	c #5674F8",
"%N 	c #7161F8",
"&N 	c #7680FB",
"*N 	c #E680CC",
"=N 	c #C280EA",
"-N 	c #9E7FFE",
";N 	c #3B8EEC",
">N 	c #2D82DF",
",N 	c #2070D1",
"'N 	c #9773FB",
")N 	c #AA7CF6",
"!N 	c #AC70F4",
"~N 	c #CD92E4",
"{N 	c #D781DC",
"]N 	c #CB7CE5",
"^N 	c #C87BEB",
"/N 	c #9B09AA",
"(N 	c #920498",
"_N 	c #7D0197",
":N 	c #790397",
"<N 	c #6C059C",
"[N 	c #620BA8",
"}N 	c #487CF2",
"|N 	c #4B77F0",
"1N 	c #3482E6",
"2N 	c #278ED9",
"3N 	c #307EE0",
"4N 	c #4B98F0",
"5N 	c #6E98FE",
"6N 	c #8A7BFA",
"7N 	c #6E84FC",
"8N 	c #7387FF",
"9N 	c #D188E2",
"0N 	c #E185D2",
"aN 	c #3F78EB",
"bN 	c #2280D7",
"cN 	c #1A75CE",
"dN 	c #4A8AF6",
"eN 	c #9D81FC",
"fN 	c #6698F7",
"gN 	c #5677F8",
"hN 	c #895AF8",
"iN 	c #5974F9",
"jN 	c #B26AF0",
"kN 	c #D366DD",
"lN 	c #D76DD9",
"mN 	c #D17FE5",
"nN 	c #BB83EE",
"oN 	c #077CA7",
"pN 	c #570C9D",
"qN 	c #70039A",
"rN 	c #7F0492",
"sN 	c #860095",
"tN 	c #7F0190",
"uN 	c #A9099D",
"vN 	c #EC4499",
"wN 	c #4684F3",
"xN 	c #3F6CED",
"yN 	c #2386D9",
"zN 	c #6CACF6",
"AN 	c #5AA8F2",
"BN 	c #A27BFC",
"CN 	c #7682FC",
"DN 	c #8E86FD",
"EN 	c #CB77E7",
"FN 	c #E273D1",
"GN 	c #C37CE6",
"HN 	c #5F83FB",
"IN 	c #3E7CEB",
"JN 	c #228CD6",
"KN 	c #438EEB",
"LN 	c #6D68FF",
"MN 	c #5B95F6",
"NN 	c #728EFB",
"ON 	c #7F9CFA",
"PN 	c #825DFA",
"QN 	c #CF6CE3",
"RN 	c #E37CCF",
"SN 	c #BD7DEF",
"TN 	c #0F80BA",
"UN 	c #14BBA1",
"VN 	c #32D6B4",
"WN 	c #6A90FB",
"XN 	c #747EFF",
"YN 	c #7B7FFA",
"ZN 	c #8B8CFF",
"`N 	c #7975FF",
" O 	c #877AFD",
".O 	c #7676FA",
"+O 	c #B7BCE4",
"@O 	c #CFD3BC",
"#O 	c #E8C09D",
"$O 	c #ED86BD",
"%O 	c #3D81F0",
"&O 	c #347BE3",
"*O 	c #396CE9",
"=O 	c #4774F1",
"-O 	c #527FF6",
";O 	c #5F9BFB",
">O 	c #7972FF",
",O 	c #7797FA",
"'O 	c #E47BCF",
")O 	c #C87CE9",
"!O 	c #638BFC",
"~O 	c #3B89EB",
"{O 	c #1F89D5",
"]O 	c #3A7AE8",
"^O 	c #7294FF",
"/O 	c #6C8EFC",
"(O 	c #9693FE",
"_O 	c #C895E2",
":O 	c #E088D2",
"<O 	c #1C80CC",
"[O 	c #16B0B2",
"}O 	c #41B8E3",
"|O 	c #8978FC",
"1O 	c #917EFE",
"2O 	c #778DFC",
"3O 	c #8D9AFA",
"4O 	c #749FFB",
"5O 	c #648EFA",
"6O 	c #8492FD",
"7O 	c #807BFC",
"8O 	c #918CFF",
"9O 	c #7E7CFB",
"0O 	c #7B7AFF",
"aO 	c #707FFC",
"bO 	c #8385FC",
"cO 	c #D6D2AD",
"dO 	c #E9AEB4",
"eO 	c #DC90D8",
"fO 	c #3D85E9",
"gO 	c #3386E2",
"hO 	c #236DD6",
"iO 	c #3E4FE3",
"jO 	c #784DF5",
"kO 	c #5C80F8",
"lO 	c #798DFD",
"mO 	c #6E86FF",
"nO 	c #CB8AE6",
"oO 	c #DF8CD2",
"pO 	c #D580DD",
"qO 	c #C67EEA",
"rO 	c #A782F6",
"sO 	c #3C85EB",
"tO 	c #2B84E0",
"uO 	c #1C88D1",
"vO 	c #3780E7",
"wO 	c #8E77FD",
"xO 	c #628AFB",
"yO 	c #CA82E8",
"zO 	c #D980DA",
"AO 	c #D17CE1",
"BO 	c #1B9BCA",
"CO 	c #26D0AC",
"DO 	c #26D3A8",
"EO 	c #30CDBA",
"FO 	c #49BBE0",
"GO 	c #7D91FF",
"HO 	c #6B8AFF",
"IO 	c #84A1FD",
"JO 	c #7996FC",
"KO 	c #7F9BFF",
"LO 	c #819FF9",
"MO 	c #7F98FF",
"NO 	c #7B98FC",
"OO 	c #8875FF",
"PO 	c #8F7BFF",
"QO 	c #887AFF",
"RO 	c #BBB8E3",
"SO 	c #D5D1B6",
"TO 	c #D3D4A8",
"UO 	c #D5D3AD",
"VO 	c #EB8DC2",
"WO 	c #D97BDB",
"XO 	c #358AE5",
"YO 	c #2377DA",
"ZO 	c #1B79D1",
"`O 	c #3971E8",
" P 	c #8263FC",
".P 	c #7F9BFC",
"+P 	c #68A0F7",
"@P 	c #CD83E6",
"#P 	c #D784DE",
"$P 	c #CA89E7",
"%P 	c #A987F8",
"&P 	c #3F7DEE",
"*P 	c #1F7BD0",
"=P 	c #317BE6",
"-P 	c #835EFB",
";P 	c #836EFB",
">P 	c #6C86FD",
",P 	c #C45CE5",
"'P 	c #DE7AD4",
")P 	c #D090DE",
"!P 	c #BD71ED",
"~P 	c #1F84D2",
"{P 	c #519FF2",
"]P 	c #34C2CC",
"^P 	c #2AD8A7",
"/P 	c #2ED2B9",
"(P 	c #43B9E1",
"_P 	c #6994FD",
":P 	c #8483FB",
"<P 	c #8682FB",
"[P 	c #7298F9",
"}P 	c #839BFB",
"|P 	c #749CFB",
"1P 	c #769FFB",
"2P 	c #7B94FB",
"3P 	c #7991FB",
"4P 	c #8F98FD",
"5P 	c #A29DF9",
"6P 	c #80A2FB",
"7P 	c #749BF8",
"8P 	c #7197FA",
"9P 	c #878AFD",
"0P 	c #8279FA",
"aP 	c #8B75FB",
"bP 	c #7F78FF",
"cP 	c #8174FF",
"dP 	c #BBB3E6",
"eP 	c #CFD7AE",
"fP 	c #A3B9EA",
"gP 	c #D674DB",
"hP 	c #357BEA",
"iP 	c #2985DC",
"jP 	c #2188D7",
"kP 	c #928FFF",
"lP 	c #C886E8",
"mP 	c #E27ACF",
"nP 	c #D984D9",
"oP 	c #C68BE7",
"pP 	c #627EFB",
"qP 	c #3D7FED",
"rP 	c #1D79D0",
"sP 	c #3580E6",
"tP 	c #895DFC",
"uP 	c #A35FF4",
"vP 	c #8D6BFD",
"wP 	c #697CFF",
"xP 	c #C589E9",
"yP 	c #EA7BC8",
"zP 	c #B87FF2",
"AP 	c #1F7ED2",
"BP 	c #5FA8F5",
"CP 	c #3CCACE",
"DP 	c #2FD6AA",
"EP 	c #33D4B5",
"FP 	c #53D6D1",
"GP 	c #79CBE1",
"HP 	c #80C7E7",
"IP 	c #82CFE3",
"JP 	c #7CC8EC",
"KP 	c #7BD3DD",
"LP 	c #8BD6DC",
"MP 	c #8DD7DA",
"NP 	c #81D2E5",
"OP 	c #8DD2E1",
"PP 	c #7BD5DD",
"QP 	c #76D2E1",
"RP 	c #7BD8DD",
"SP 	c #81D6DB",
"TP 	c #7FD9D7",
"UP 	c #78DBD6",
"VP 	c #7CE0D4",
"WP 	c #7DE2D2",
"XP 	c #84E2D4",
"YP 	c #7CE3D2",
"ZP 	c #89E2CE",
"`P 	c #8AE1D1",
" Q 	c #77D8DF",
".Q 	c #87D6DD",
"+Q 	c #77CBE5",
"@Q 	c #79D2E0",
"#Q 	c #8CC7E9",
"$Q 	c #78C6EC",
"%Q 	c #86C1ED",
"&Q 	c #79CDE5",
"*Q 	c #85CBE4",
"=Q 	c #80C9EA",
"-Q 	c #8FD1DD",
";Q 	c #AAD3D5",
">Q 	c #CBD4B5",
",Q 	c #D6D5A5",
"'Q 	c #D5D3AC",
")Q 	c #ADA5F0",
"!Q 	c #D979DA",
"~Q 	c #D483E0",
"{Q 	c #407CEE",
"]Q 	c #2D91DD",
"^Q 	c #1C86D2",
"/Q 	c #3287E4",
"(Q 	c #6981FF",
"_Q 	c #7C64FA",
":Q 	c #6966FB",
"<Q 	c #765AFA",
"[Q 	c #DF87D3",
"}Q 	c #DE82D9",
"|Q 	c #C779E9",
"1Q 	c #9A80FD",
"2Q 	c #3C85EE",
"3Q 	c #287ADE",
"4Q 	c #6C81FF",
"5Q 	c #9466FA",
"6Q 	c #9362FC",
"7Q 	c #B7ACE6",
"8Q 	c #DF86D6",
"9Q 	c #B496EE",
"0Q 	c #227AD4",
"aQ 	c #33DAAC",
"bQ 	c #3FE8A3",
"cQ 	c #5DF5A2",
"dQ 	c #71F9A7",
"eQ 	c #77F8A5",
"fQ 	c #81F9A2",
"gQ 	c #7DFBAA",
"hQ 	c #9DF6A4",
"iQ 	c #CDDBAA",
"jQ 	c #C1CCD0",
"kQ 	c #DF77D6",
"lQ 	c #4381F2",
"mQ 	c #2C84DE",
"nQ 	c #1B79D0",
"oQ 	c #5076F5",
"pQ 	c #7A97FF",
"qQ 	c #7E6DFA",
"rQ 	c #D079E2",
"sQ 	c #C480ED",
"tQ 	c #2979D8",
"uQ 	c #3A7CEC",
"vQ 	c #957FFB",
"wQ 	c #C47CEC",
"xQ 	c #DC91D4",
"yQ 	c #D383E2",
"zQ 	c #B482F3",
"AQ 	c #2785DC",
"BQ 	c #6AEBC2",
"CQ 	c #73F6A6",
"DQ 	c #77FCA1",
"EQ 	c #8CFC9A",
"FQ 	c #71FB9C",
"GQ 	c #89FD9A",
"HQ 	c #8BFA9B",
"IQ 	c #78F99C",
"JQ 	c #78FE9F",
"KQ 	c #79FB9B",
"LQ 	c #78FB9E",
"MQ 	c #9AE5C7",
"NQ 	c #D587DB",
"OQ 	c #D879DF",
"PQ 	c #497CF2",
"QQ 	c #2873D9",
"RQ 	c #5F86FF",
"SQ 	c #7FA4F5",
"TQ 	c #958BFC",
"UQ 	c #A287FC",
"VQ 	c #9F8EF8",
"WQ 	c #5874F9",
"XQ 	c #9383FF",
"YQ 	c #CE79E0",
"ZQ 	c #BE87EC",
"`Q 	c #628BFD",
" R 	c #387FE9",
".R 	c #3386E6",
"+R 	c #7274FB",
"@R 	c #85ABF6",
"#R 	c #9C68FB",
"$R 	c #CD6EE2",
"%R 	c #E275D2",
"&R 	c #C977E6",
"*R 	c #B97FEF",
"=R 	c #327DE3",
"-R 	c #2680D8",
";R 	c #909DFB",
">R 	c #AEC3E2",
",R 	c #B6DDC0",
"'R 	c #A7EEB2",
")R 	c #8DF4AF",
"!R 	c #7BF6A6",
"~R 	c #7AF9AA",
"{R 	c #87F6B1",
"]R 	c #82F6B7",
"^R 	c #80F2B6",
"/R 	c #89F2BA",
"(R 	c #7BF2BA",
"_R 	c #86F2B8",
":R 	c #87F3B7",
"<R 	c #83F3B9",
"[R 	c #79F0B8",
"}R 	c #86F2B6",
"|R 	c #86EEBD",
"1R 	c #7AEFB8",
"2R 	c #7FF0BC",
"3R 	c #7CF1BC",
"4R 	c #7CF1BA",
"5R 	c #85F1BD",
"6R 	c #79F4B3",
"7R 	c #82F3B3",
"8R 	c #7EF3AC",
"9R 	c #78F7B2",
"0R 	c #78F8AE",
"aR 	c #86F5B1",
"bR 	c #7CF3B1",
"cR 	c #7AF9AC",
"dR 	c #80F8B0",
"eR 	c #7CF6A9",
"fR 	c #53EBB0",
"gR 	c #3DDCC0",
"hR 	c #4DBAE5",
"iR 	c #9172FE",
"jR 	c #D084DE",
"kR 	c #3E7AEC",
"lR 	c #2E76E4",
"mR 	c #2685D9",
"nR 	c #7CA1FA",
"oR 	c #7A63FC",
"pR 	c #6773FB",
"qR 	c #8CA9F7",
"rR 	c #8D84FB",
"sR 	c #D484E3",
"tR 	c #D485E0",
"uR 	c #A080FB",
"vR 	c #667BFA",
"wR 	c #2180D2",
"xR 	c #3BA4E5",
"yR 	c #6698FB",
"zR 	c #6083F9",
"AR 	c #A674FB",
"BR 	c #8A7AFE",
"CR 	c #7271FD",
"DR 	c #8167FE",
"ER 	c #C678E5",
"FR 	c #DF77D0",
"GR 	c #D97EDB",
"HR 	c #BD88F2",
"IR 	c #1C75D1",
"JR 	c #776CF9",
"KR 	c #A48DF9",
"LR 	c #C7B0DE",
"MR 	c #CDCDC1",
"NR 	c #C2CECC",
"OR 	c #7DCBE2",
"PR 	c #7ECFE0",
"QR 	c #82CEE8",
"RR 	c #8ACAE3",
"SR 	c #8DC5EA",
"TR 	c #88C6ED",
"UR 	c #87BBED",
"VR 	c #83C0ED",
"WR 	c #7DBAF1",
"XR 	c #7ABEEB",
"YR 	c #77BDF0",
"ZR 	c #84BBF1",
"`R 	c #88BAEF",
" S 	c #84B9EF",
".S 	c #7EB6F1",
"+S 	c #80B3F5",
"@S 	c #71BEEA",
"#S 	c #81BFEE",
"$S 	c #79B7F0",
"%S 	c #84B8F4",
"&S 	c #86B9F2",
"*S 	c #7FB7F4",
"=S 	c #7EBAF0",
"-S 	c #77CAE8",
";S 	c #7EC3EA",
">S 	c #7AC5EC",
",S 	c #80C5EE",
"'S 	c #75CAE9",
")S 	c #78C8EB",
"!S 	c #84C8ED",
"~S 	c #88C2E8",
"{S 	c #85CDE3",
"]S 	c #81C8E4",
"^S 	c #7CC9E5",
"/S 	c #82CEE6",
"(S 	c #81C0EB",
"_S 	c #80C5EC",
":S 	c #86CFE2",
"<S 	c #7ECAE2",
"[S 	c #87C9EB",
"}S 	c #7CC6E9",
"|S 	c #66C4EA",
"1S 	c #41CAD2",
"2S 	c #2ECFBF",
"3S 	c #41B7DF",
"4S 	c #8C69FB",
"5S 	c #DC7DD7",
"6S 	c #CE7DE3",
"7S 	c #3E79ED",
"8S 	c #2377D7",
"9S 	c #337AE6",
"0S 	c #6F8DFD",
"aS 	c #8D6BFE",
"bS 	c #8870FC",
"cS 	c #6585FE",
"dS 	c #D28CE5",
"eS 	c #E284CE",
"fS 	c #D27EE0",
"gS 	c #A587F9",
"hS 	c #5D75FB",
"iS 	c #4083EC",
"jS 	c #2B8CDD",
"kS 	c #288BDE",
"lS 	c #428FEB",
"mS 	c #497BF4",
"nS 	c #8569FC",
"oS 	c #898CFF",
"pS 	c #8A80FB",
"qS 	c #E294D0",
"rS 	c #9E9FF9",
"sS 	c #BDC3D9",
"tS 	c #C7CCC6",
"uS 	c #CFCDC1",
"vS 	c #C4C1D4",
"wS 	c #A69DF8",
"xS 	c #7D7AFB",
"yS 	c #8284FB",
"zS 	c #8873FC",
"AS 	c #5A99F6",
"BS 	c #3EC6D2",
"CS 	c #33CEC0",
"DS 	c #2EC7C5",
"ES 	c #44BCDF",
"FS 	c #E082DA",
"GS 	c #D186E3",
"HS 	c #2D84E3",
"IS 	c #2383D9",
"JS 	c #388DE8",
"KS 	c #7B92FA",
"LS 	c #8694FD",
"MS 	c #64A2F9",
"NS 	c #976BFE",
"OS 	c #6287FA",
"PS 	c #9E7BF9",
"QS 	c #D683DB",
"RS 	c #DF7BD5",
"SS 	c #C47DE7",
"TS 	c #6B85FE",
"US 	c #4673F0",
"VS 	c #2D75E1",
"WS 	c #226CD5",
"XS 	c #3459DE",
"YS 	c #576AF7",
"ZS 	c #8894FA",
"`S 	c #808CFA",
" T 	c #8994FD",
".T 	c #D68BDE",
"+T 	c #DE88D3",
"@T 	c #CB80E5",
"#T 	c #2793D4",
"$T 	c #D1C7C6",
"%T 	c #C9D0BE",
"&T 	c #C1C4D5",
"*T 	c #A3A0F7",
"=T 	c #7A88FF",
"-T 	c #37BED1",
";T 	c #2ECBC2",
">T 	c #35CCC5",
",T 	c #51C2E0",
"'T 	c #D790D6",
")T 	c #CA90E7",
"!T 	c #3B8BEC",
"~T 	c #3186E3",
"{T 	c #58A4F2",
"]T 	c #8796FB",
"^T 	c #7F65FC",
"/T 	c #6478FB",
"(T 	c #9081FF",
"_T 	c #9D8FFF",
":T 	c #D175E2",
"<T 	c #DE6CCE",
"[T 	c #D27ADE",
"}T 	c #C07BEF",
"|T 	c #9D78FB",
"1T 	c #577FF9",
"2T 	c #246DD6",
"3T 	c #2067CF",
"4T 	c #4764EC",
"5T 	c #9492FF",
"6T 	c #808CFF",
"7T 	c #9B7FF8",
"8T 	c #CD86E2",
"9T 	c #DF69D7",
"0T 	c #CD81E3",
"aT 	c #BB75F2",
"bT 	c #2F78DF",
"cT 	c #49C2E1",
"dT 	c #CCCEC3",
"eT 	c #D2C9C2",
"fT 	c #C6BED5",
"gT 	c #A0A2F7",
"hT 	c #7F75FA",
"iT 	c #897FFA",
"jT 	c #857AFC",
"kT 	c #549EF3",
"lT 	c #38CEC3",
"mT 	c #B8B9E5",
"nT 	c #C97BE8",
"oT 	c #3A85EA",
"pT 	c #237AD7",
"qT 	c #7F6DFD",
"rT 	c #7498F9",
"sT 	c #727AFF",
"tT 	c #9797F9",
"uT 	c #DE81D2",
"vT 	c #DB7AD9",
"wT 	c #A283FB",
"xT 	c #5A70F7",
"yT 	c #2482D9",
"zT 	c #1F90D2",
"AT 	c #458FF2",
"BT 	c #7871FF",
"CT 	c #786FFF",
"DT 	c #DD6CD4",
"ET 	c #BF70ED",
"FT 	c #A59AF6",
"GT 	c #7988FB",
"HT 	c #7F85FD",
"IT 	c #7E88FB",
"JT 	c #758BFF",
"KT 	c #5FACF4",
"LT 	c #40C5D6",
"MT 	c #6FDFD1",
"NT 	c #A07CF8",
"OT 	c #4287EC",
"PT 	c #2A7EDE",
"QT 	c #417CF0",
"RT 	c #7C90FF",
"ST 	c #709FFB",
"TT 	c #C477EB",
"UT 	c #D47EDF",
"VT 	c #C679EB",
"WT 	c #A179F6",
"XT 	c #318AE4",
"YT 	c #228AD3",
"ZT 	c #367DE7",
"`T 	c #6970FF",
" U 	c #736BFC",
".U 	c #706BFD",
"+U 	c #AB6EF9",
"@U 	c #BA64EB",
"#U 	c #DD81D8",
"$U 	c #B383F3",
"%U 	c #C27CEE",
"&U 	c #A30BAB",
"*U 	c #8F0599",
"=U 	c #79029A",
"-U 	c #6B0599",
";U 	c #660BA8",
">U 	c #528BF6",
",U 	c #3E8AEC",
"'U 	c #257DD6",
")U 	c #1F7CD9",
"!U 	c #8F69FC",
"~U 	c #BF6FEC",
"{U 	c #E279CE",
"]U 	c #C37DED",
"^U 	c #4080EA",
"/U 	c #187BD0",
"(U 	c #3473E4",
"_U 	c #7B64FC",
":U 	c #668BFD",
"<U 	c #846BFB",
"[U 	c #D569E1",
"}U 	c #D77DD7",
"|U 	c #B68CF2",
"1U 	c #0586A5",
"2U 	c #124297",
"3U 	c #560B9B",
"4U 	c #6F0397",
"5U 	c #850193",
"6U 	c #800097",
"7U 	c #8D0397",
"8U 	c #AA0B9D",
"9U 	c #ED459A",
"0U 	c #FB81A6",
"aU 	c #3683EB",
"bU 	c #1F86D5",
"cU 	c #437CEF",
"dU 	c #957BFF",
"eU 	c #6879FD",
"fU 	c #765DF9",
"gU 	c #7A77FF",
"hU 	c #875FFD",
"iU 	c #C980EB",
"jU 	c #E483D0",
"kU 	c #C384EC",
"lU 	c #A07CFA",
"mU 	c #626DFD",
"nU 	c #4072EF",
"oU 	c #2A7ADD",
"pU 	c #1E8DD2",
"qU 	c #3689E9",
"rU 	c #C784EB",
"sU 	c #DB7ED9",
"tU 	c #C683EA",
"uU 	c #0F8CBA",
"vU 	c #13BBA1",
"wU 	c #2AD5A9",
"xU 	c #33D7B5",
"yU 	c #45BDDF",
"zU 	c #8975FB",
"AU 	c #7A77FC",
"BU 	c #8783FC",
"CU 	c #7B7CFB",
"DU 	c #897AFB",
"EU 	c #8B7EFF",
"FU 	c #6B84FA",
"GU 	c #807CFF",
"HU 	c #D5D7A8",
"IU 	c #E9BDA0",
"JU 	c #2186D4",
"KU 	c #3678E8",
"LU 	c #796EFB",
"MU 	c #806FFB",
"NU 	c #5D84FB",
"OU 	c #D78EDD",
"PU 	c #D57BDF",
"QU 	c #BA79ED",
"RU 	c #687DFD",
"SU 	c #477FF0",
"TU 	c #3785E7",
"UU 	c #2087D2",
"VU 	c #8C64FB",
"WU 	c #8271FB",
"XU 	c #6F67F8",
"YU 	c #9271FE",
"ZU 	c #CC79E1",
"`U 	c #E38ACE",
" V 	c #D980DE",
".V 	c #CC7FE7",
"+V 	c #1E8ECE",
"@V 	c #12ADB1",
"#V 	c #2BCDB6",
"$V 	c #40BAE3",
"%V 	c #7786FD",
"&V 	c #798BFB",
"*V 	c #898FFF",
"=V 	c #8D9BFC",
"-V 	c #759DFC",
";V 	c #658FFD",
">V 	c #7B8DFB",
",V 	c #8093FC",
"'V 	c #9390FF",
")V 	c #7B7FFC",
"!V 	c #8985FE",
"~V 	c #7E8FFF",
"{V 	c #BBBBDF",
"]V 	c #D4D0B7",
"^V 	c #D6D1AB",
"/V 	c #EBAEB5",
"(V 	c #DD7ED0",
"_V 	c #417DEF",
":V 	c #278EDD",
"<V 	c #1F8CD1",
"[V 	c #8E9FF9",
"}V 	c #879BFC",
"|V 	c #856FFF",
"1V 	c #7C74FB",
"2V 	c #6C86FF",
"3V 	c #9B96FA",
"4V 	c #DC80D7",
"5V 	c #957CFC",
"6V 	c #6087FC",
"7V 	c #4972F0",
"8V 	c #3282E5",
"9V 	c #206DD5",
"0V 	c #3076E5",
"aV 	c #7076FE",
"bV 	c #8A6FFC",
"cV 	c #D57EDD",
"dV 	c #E682CB",
"eV 	c #D87FDD",
"fV 	c #D084DF",
"gV 	c #276ED8",
"hV 	c #1796BF",
"iV 	c #35C1CE",
"jV 	c #26CFB2",
"kV 	c #29D3A6",
"lV 	c #2CCDBB",
"mV 	c #49B8E3",
"nV 	c #8F7AFD",
"oV 	c #8092FF",
"pV 	c #838DFC",
"qV 	c #8C94FF",
"rV 	c #6797FB",
"sV 	c #879FF9",
"tV 	c #8793FF",
"uV 	c #818FFC",
"vV 	c #8C81FF",
"wV 	c #BCBAE2",
"xV 	c #D3D6A9",
"yV 	c #D5D2AF",
"zV 	c #EB8CC6",
"AV 	c #DB88D8",
"BV 	c #4981F2",
"CV 	c #3189E3",
"DV 	c #2190D7",
"EV 	c #3094E0",
"FV 	c #9E9FFB",
"GV 	c #5B97F9",
"HV 	c #6175FC",
"IV 	c #6A87FC",
"JV 	c #C67DE8",
"KV 	c #D586E1",
"LV 	c #BC83EC",
"MV 	c #948BFE",
"NV 	c #518BF6",
"OV 	c #2F89E1",
"PV 	c #1E76D0",
"QV 	c #366EE9",
"RV 	c #7375FE",
"SV 	c #6E82FF",
"TV 	c #9196FE",
"UV 	c #D584E1",
"VV 	c #2C60D6",
"WV 	c #1D84D1",
"XV 	c #50A1F3",
"YV 	c #2AD4AD",
"ZV 	c #2AD7A9",
"`V 	c #30D2BA",
" W 	c #42B7E2",
".W 	c #8181FF",
"+W 	c #849BFB",
"@W 	c #6A9DF8",
"#W 	c #709EFC",
"$W 	c #789FFE",
"%W 	c #7994FF",
"&W 	c #799BFF",
"*W 	c #A19DF4",
"=W 	c #7FA3FB",
"-W 	c #7196FF",
";W 	c #887EFF",
">W 	c #9192FC",
",W 	c #C4CFC9",
"'W 	c #E983CD",
")W 	c #3676E4",
"!W 	c #2877DC",
"~W 	c #A163F6",
"{W 	c #5F63FA",
"]W 	c #6C6FFA",
"^W 	c #6F91FD",
"/W 	c #7D79FF",
"(W 	c #7966FD",
"_W 	c #9E75F9",
":W 	c #6581FC",
"<W 	c #C280EE",
"[W 	c #9D85FD",
"}W 	c #5B7FF7",
"|W 	c #4893F0",
"1W 	c #2C8AE1",
"2W 	c #198ACC",
"3W 	c #3788E4",
"4W 	c #8490FE",
"5W 	c #5E7AF8",
"6W 	c #7A61FD",
"7W 	c #876EFD",
"8W 	c #8E83FB",
"9W 	c #8D8DFF",
"0W 	c #D182DE",
"aW 	c #B878F3",
"bW 	c #2980E1",
"cW 	c #267DDA",
"dW 	c #6A88FA",
"eW 	c #5DA9F4",
"fW 	c #3FCACD",
"gW 	c #2DD6AB",
"hW 	c #31D5B3",
"iW 	c #55D6D2",
"jW 	c #6DCEE1",
"kW 	c #85CAEB",
"lW 	c #7EC8E5",
"mW 	c #81CEE8",
"nW 	c #80CFE0",
"oW 	c #86CDDF",
"pW 	c #78D5DC",
"qW 	c #8AD4DD",
"rW 	c #90D5DC",
"sW 	c #82D1DE",
"tW 	c #8AD2E1",
"uW 	c #84DADB",
"vW 	c #7AD8D8",
"wW 	c #88D5DB",
"xW 	c #83D9DA",
"yW 	c #7FD9D9",
"zW 	c #7BDBD7",
"AW 	c #76E1CD",
"BW 	c #88E1CD",
"CW 	c #8AE2D4",
"DW 	c #78D7DB",
"EW 	c #78D4E1",
"FW 	c #78D6DE",
"GW 	c #72D2E0",
"HW 	c #77D3DE",
"IW 	c #83CBE3",
"JW 	c #8EC5EC",
"KW 	c #83C3E7",
"LW 	c #7EC8EB",
"MW 	c #81CEE2",
"NW 	c #78CEE5",
"OW 	c #8DCFDB",
"PW 	c #ABD4D8",
"QW 	c #D3D7A5",
"RW 	c #D7D2AC",
"SW 	c #DA7AD4",
"TW 	c #3F83F0",
"UW 	c #2073D3",
"VW 	c #367AE7",
"WW 	c #6768F8",
"XW 	c #6A80FA",
"YW 	c #CA82E6",
"ZW 	c #DC88D3",
"`W 	c #D083E3",
" X 	c #C681EB",
".X 	c #9C79F7",
"+X 	c #4B87F7",
"@X 	c #1D82D0",
"#X 	c #2E96DF",
"$X 	c #69A3F7",
"%X 	c #6F77FF",
"&X 	c #5A83F7",
"*X 	c #9172FC",
"=X 	c #D976E0",
"-X 	c #298CDF",
";X 	c #7D9BFB",
">X 	c #61A1F9",
",X 	c #3ACCC9",
"'X 	c #5AF6A5",
")X 	c #73F8A9",
"!X 	c #82F8A4",
"~X 	c #7DFBA9",
"{X 	c #82FDA3",
"]X 	c #85FAA1",
"^X 	c #79FAA0",
"/X 	c #86F7A5",
"(X 	c #87F8AA",
"_X 	c #88F9A9",
":X 	c #9DF6A6",
"<X 	c #CEDAAA",
"[X 	c #C2CBD2",
"}X 	c #E077D4",
"|X 	c #3D81EE",
"1X 	c #1F78D6",
"2X 	c #3C7AEB",
"3X 	c #8998FF",
"4X 	c #5F7CFA",
"5X 	c #BA7DF2",
"6X 	c #6981FD",
"7X 	c #467BEF",
"8X 	c #2C72E1",
"9X 	c #4683EE",
"0X 	c #638BFD",
"aX 	c #6D92FA",
"bX 	c #6CA4F9",
"cX 	c #7A9EFC",
"dX 	c #8C60FB",
"eX 	c #CE7DE4",
"fX 	c #DA7ADB",
"gX 	c #C878E9",
"hX 	c #297EDB",
"iX 	c #2289D8",
"jX 	c #7490FD",
"kX 	c #76B8F2",
"lX 	c #68EAC4",
"mX 	c #73F8A7",
"nX 	c #89FD9C",
"oX 	c #8CFB9D",
"pX 	c #74FB9D",
"qX 	c #71FB9B",
"rX 	c #89FC9D",
"sX 	c #89FB9B",
"tX 	c #98E7C8",
"uX 	c #DB87D4",
"vX 	c #2085D3",
"wX 	c #3B78EB",
"xX 	c #7675FD",
"yX 	c #978EF9",
"zX 	c #9970FC",
"AX 	c #748EFF",
"BX 	c #91A6F7",
"CX 	c #C67DE9",
"DX 	c #E179D0",
"EX 	c #CE90E3",
"FX 	c #B38FF1",
"GX 	c #9D86FB",
"HX 	c #5F83FD",
"IX 	c #3183E7",
"JX 	c #3588E6",
"KX 	c #5B7FF9",
"LX 	c #7C9EF8",
"MX 	c #6D98FF",
"NX 	c #6282FB",
"OX 	c #A588FC",
"PX 	c #E680D3",
"QX 	c #C778EB",
"RX 	c #327CE5",
"SX 	c #2581D6",
"TX 	c #8268FF",
"UX 	c #ADC1E4",
"VX 	c #B8DBC3",
"WX 	c #8DF5AA",
"XX 	c #7BFAAB",
"YX 	c #7CF6AD",
"ZX 	c #85F4AF",
"`X 	c #85F4B0",
" Y 	c #83F4B2",
".Y 	c #89F0B9",
"+Y 	c #85F0B8",
"@Y 	c #78F2B9",
"#Y 	c #77F1B8",
"$Y 	c #81F0BD",
"%Y 	c #78F2B5",
"&Y 	c #7EEEBE",
"*Y 	c #86F1BD",
"=Y 	c #7FF1BD",
"-Y 	c #74F6B0",
";Y 	c #7FF4AE",
">Y 	c #79F7AE",
",Y 	c #84F6B1",
"'Y 	c #80F4B3",
")Y 	c #7AF8AE",
"!Y 	c #7DF6A6",
"~Y 	c #87F7AB",
"{Y 	c #73F6B2",
"]Y 	c #3DDABD",
"^Y 	c #9076FB",
"/Y 	c #806EFF",
"(Y 	c #DA8BDA",
"_Y 	c #D387E1",
":Y 	c #1E88D4",
"<Y 	c #2F81E4",
"[Y 	c #8A75FF",
"}Y 	c #788BFF",
"|Y 	c #896CFA",
"1Y 	c #C071EE",
"2Y 	c #E676CA",
"3Y 	c #D98BDF",
"4Y 	c #AF87F7",
"5Y 	c #608BFC",
"6Y 	c #458AEF",
"7Y 	c #3A95E8",
"8Y 	c #678DFC",
"9Y 	c #936DFE",
"0Y 	c #9D78F9",
"aY 	c #6484FB",
"bY 	c #5E70FA",
"cY 	c #90A5F8",
"dY 	c #CA87E8",
"eY 	c #E177CF",
"fY 	c #D679E1",
"gY 	c #2B7EDE",
"hY 	c #C3B0DD",
"iY 	c #CACBC6",
"jY 	c #CCCEC0",
"kY 	c #BFCDCD",
"lY 	c #9BCEE3",
"mY 	c #81D5E0",
"nY 	c #7CCFE1",
"oY 	c #86CCE5",
"pY 	c #8EC6E7",
"qY 	c #86BBF1",
"rY 	c #86B8F5",
"sY 	c #7DBDED",
"tY 	c #85BFEF",
"uY 	c #86BBEF",
"vY 	c #7DB2F6",
"wY 	c #7EB4F2",
"xY 	c #7AB0F6",
"yY 	c #7BB6EE",
"zY 	c #71C0EB",
"AY 	c #84BEF0",
"BY 	c #7AB8F1",
"CY 	c #84B6F3",
"DY 	c #87B8F3",
"EY 	c #82B6F0",
"FY 	c #7DBBEE",
"GY 	c #80BCEE",
"HY 	c #76C6E9",
"IY 	c #79C7ED",
"JY 	c #7BC3E9",
"KY 	c #7EC2E9",
"LY 	c #86CEE6",
"MY 	c #7FCAEA",
"NY 	c #81C5EC",
"OY 	c #8ACCE4",
"PY 	c #8AC9EA",
"QY 	c #40CAD4",
"RY 	c #8C69F9",
"SY 	c #D985DB",
"TY 	c #3991EA",
"UY 	c #2D8DE1",
"VY 	c #3185E5",
"WY 	c #9472FD",
"XY 	c #6591FA",
"YY 	c #9777FC",
"ZY 	c #E780C9",
"`Y 	c #D772DC",
" Z 	c #B371EF",
".Z 	c #9887FA",
"+Z 	c #448CEE",
"@Z 	c #3084E4",
"#Z 	c #288FDA",
"$Z 	c #3588E8",
"%Z 	c #6690FE",
"&Z 	c #5E96F7",
"*Z 	c #6892FE",
"=Z 	c #5483F9",
"-Z 	c #8572FF",
";Z 	c #BE91EC",
">Z 	c #DA88DC",
",Z 	c #C682E5",
"'Z 	c #BAC7DA",
")Z 	c #CECBC2",
"!Z 	c #C5C2D3",
"~Z 	c #8781FB",
"{Z 	c #7E89FD",
"]Z 	c #3FC7D3",
"^Z 	c #32CDBF",
"/Z 	c #2FC9C1",
"(Z 	c #41BCDD",
"_Z 	c #E580CC",
":Z 	c #DC83D7",
"<Z 	c #4989F3",
"[Z 	c #2B86DF",
"}Z 	c #7679FC",
"|Z 	c #8472FC",
"1Z 	c #6E87FD",
"2Z 	c #8D8AFD",
"3Z 	c #C08DEC",
"4Z 	c #DE86D0",
"5Z 	c #D168DF",
"6Z 	c #A68CFA",
"7Z 	c #6482FE",
"8Z 	c #4888F2",
"9Z 	c #2D8BE5",
"0Z 	c #3782E7",
"aZ 	c #6682FF",
"bZ 	c #76A1FD",
"cZ 	c #6970FC",
"dZ 	c #C589EB",
"eZ 	c #DE8DD0",
"fZ 	c #BF8BF0",
"gZ 	c #C2BBDD",
"hZ 	c #CDC8C4",
"iZ 	c #CAD1C1",
"jZ 	c #BDC5D2",
"kZ 	c #8584FF",
"lZ 	c #36BFD2",
"mZ 	c #2DCAC1",
"nZ 	c #52C0E1",
"oZ 	c #E28FD5",
"pZ 	c #DB7DD5",
"qZ 	c #2B79DB",
"rZ 	c #2075D2",
"sZ 	c #2F77E5",
"tZ 	c #6874FC",
"uZ 	c #8C7DFA",
"vZ 	c #626AFD",
"wZ 	c #7C6FFB",
"xZ 	c #D97EDE",
"yZ 	c #CE83E2",
"zZ 	c #4576EF",
"AZ 	c #3285E5",
"BZ 	c #2180D4",
"CZ 	c #387AEB",
"DZ 	c #697EFD",
"EZ 	c #7092FD",
"FZ 	c #8996FC",
"GZ 	c #5A85F8",
"HZ 	c #7799FD",
"IZ 	c #E18AD1",
"JZ 	c #D789DF",
"KZ 	c #C18BEB",
"LZ 	c #46C2DE",
"MZ 	c #CACDC4",
"NZ 	c #D1C8C1",
"OZ 	c #C7BED9",
"PZ 	c #A1A3F8",
"QZ 	c #3DC6CE",
"RZ 	c #38D3C1",
"SZ 	c #39D1C2",
"TZ 	c #B5B8E1",
"UZ 	c #D077E1",
"VZ 	c #2678DC",
"WZ 	c #1C78CD",
"XZ 	c #656CFB",
"YZ 	c #90A1F9",
"ZZ 	c #6E82FD",
"`Z 	c #5E76FA",
" ` 	c #A16CFA",
".` 	c #A576FA",
"+` 	c #C379E8",
"@` 	c #E37DD0",
"#` 	c #C173ED",
"$` 	c #A774F5",
"%` 	c #4B76F6",
"&` 	c #3681E6",
"*` 	c #807BFB",
"=` 	c #6765F7",
"-` 	c #7873FF",
";` 	c #6C96FA",
">` 	c #C878E7",
",` 	c #E583CE",
"'` 	c #D48CDE",
")` 	c #B882F1",
"!` 	c #5F7CFC",
"~` 	c #8EE4CB",
"{` 	c #CAD3C2",
"]` 	c #C0C3D6",
"^` 	c #8870FA",
"/` 	c #5DABF3",
"(` 	c #3FC4D7",
"_` 	c #7AE0D3",
":` 	c #AF7FF5",
"<` 	c #2579D9",
"[` 	c #1F7FD3",
"}` 	c #A58BF8",
"|` 	c #988EFF",
"1` 	c #959BFB",
"2` 	c #6D9BFB",
"3` 	c #7090FD",
"4` 	c #5F87F8",
"5` 	c #8769FD",
"6` 	c #C486EB",
"7` 	c #D682E0",
"8` 	c #C37BEB",
"9` 	c #6A7FFC",
"0` 	c #1E8AD2",
"a` 	c #2E82E2",
"b` 	c #6375FD",
"c` 	c #9A71FB",
"d` 	c #608FF9",
"e` 	c #D093E1",
"f` 	c #E881CA",
"g` 	c #D481DD",
"h` 	c #B37DF5",
"i` 	c #B583F2",
"j` 	c #9E0AA8",
"k` 	c #90049B",
"l` 	c #820494",
"m` 	c #587BF9",
"n` 	c #3F71EA",
"o` 	c #2780DA",
"p` 	c #247FDA",
"q` 	c #2E8DE1",
"r` 	c #6199F8",
"s` 	c #9D8DFA",
"t` 	c #5C98FA",
"u` 	c #7668FB",
"v` 	c #967DFD",
"w` 	c #696CFB",
"x` 	c #957CFE",
"y` 	c #CB80E9",
"z` 	c #D37FE1",
"A` 	c #9D80FE",
"B` 	c #6983FE",
"C` 	c #557FF7",
"D` 	c #3D70ED",
"E` 	c #1E6CD1",
"F` 	c #3696E2",
"G` 	c #6171FC",
"H` 	c #8E6DFA",
"I` 	c #8C65FC",
"J` 	c #6D92FD",
"K` 	c #937DFC",
"L` 	c #8F84FC",
"M` 	c #CD92E2",
"N` 	c #D17DDF",
"O` 	c #BA87F0",
"P` 	c #0584A5",
"Q` 	c #114398",
"R` 	c #560A9E",
"S` 	c #730298",
"T` 	c #790395",
"U` 	c #8F039A",
"V` 	c #A90B9D",
"W` 	c #EE449A",
"X` 	c #F87EA5",
"Y` 	c #417AEE",
"Z` 	c #2491D6",
"`` 	c #3E94E9",
"  .	c #69A8F8",
". .	c #755DF9",
"+ .	c #7178FD",
"@ .	c #6790FA",
"# .	c #C981E5",
"$ .	c #E07ED5",
"% .	c #D681DC",
"& .	c #C685EB",
"* .	c #9E93F9",
"= .	c #5680F8",
"- .	c #447DEE",
"; .	c #2E69E1",
"> .	c #2F67E0",
", .	c #4482EF",
"' .	c #5460F2",
") .	c #6960F7",
"! .	c #8C74FC",
"~ .	c #7A76FF",
"{ .	c #D376DE",
"] .	c #0D85B7",
"^ .	c #12B99F",
"/ .	c #2CD6A7",
"( .	c #7E90FC",
"_ .	c #8C83FA",
": .	c #8984FC",
"< .	c #7875FF",
"[ .	c #858BFF",
"} .	c #757FFB",
"| .	c #B9BDE0",
"1 .	c #CED2B7",
"2 .	c #EBC0A0",
"3 .	c #F080BA",
"4 .	c #477BF1",
"5 .	c #3979E7",
"6 .	c #2A8BDA",
"7 .	c #396BE6",
"8 .	c #5371F7",
"9 .	c #8169FB",
"0 .	c #6D99FA",
"a .	c #6579FC",
"b .	c #6E78FE",
"c .	c #9378FD",
"d .	c #8C9AFD",
"e .	c #6BA1F7",
"f .	c #8E7AFD",
"g .	c #C780E6",
"h .	c #E284D2",
"i .	c #D888DD",
"j .	c #987FFF",
"k .	c #6583FF",
"l .	c #307BE0",
"m .	c #2C76DF",
"n .	c #3754DE",
"o .	c #5B6EFB",
"p .	c #7388FB",
"q .	c #7D69FC",
"r .	c #8AA2FC",
"s .	c #9082FB",
"t .	c #D272E0",
"u .	c #E078CF",
"v .	c #D281DD",
"w .	c #C17BEF",
"x .	c #11AFB2",
"y .	c #2ED7AE",
"z .	c #2ED5A9",
"A .	c #6D8DFE",
"B .	c #7D8CFF",
"C .	c #8890FD",
"D .	c #729DFC",
"E .	c #688DFF",
"F .	c #8789FF",
"G .	c #928EFD",
"H .	c #797BFF",
"I .	c #8A82FB",
"J .	c #9188FF",
"K .	c #BBB9E1",
"L .	c #D6D3A8",
"M .	c #D6D0AC",
"N .	c #EBAEB6",
"O .	c #DE82D7",
"P .	c #397BE9",
"Q .	c #3475E9",
"R .	c #2074D4",
"S .	c #2E59DB",
"T .	c #7D54F8",
"U .	c #A081F8",
"V .	c #646CFB",
"W .	c #9365FB",
"X .	c #766FF9",
"Y .	c #9A6FFC",
"Z .	c #D37DE2",
"` .	c #3F84EC",
" ..	c #1D7ECB",
"...	c #4055E6",
"+..	c #A77EF8",
"@..	c #776EFB",
"#..	c #E287CC",
"$..	c #D58EDC",
"%..	c #C283EE",
"&..	c #247ED6",
"*..	c #1898C5",
"=..	c #33C2D2",
"-..	c #2DCEBC",
";..	c #47BBE2",
">..	c #7F73FB",
",..	c #878CFF",
"'..	c #9379FF",
")..	c #7E8DFF",
"!..	c #82A1FB",
"~..	c #7D9EFB",
"{..	c #D1D1B9",
"]..	c #D3D3B1",
"^..	c #D2BDD0",
"/..	c #E78DC0",
"(..	c #3B83E7",
"_..	c #3074E3",
":..	c #1A73CF",
"<..	c #9974F8",
"[..	c #7853F8",
"}..	c #7861FA",
"|..	c #7F5DF9",
"1..	c #706BFB",
"2..	c #7359F8",
"3..	c #9071FD",
"4..	c #6E71FF",
"5..	c #BB83F0",
"6..	c #3C80EF",
"7..	c #1979CD",
"8..	c #3284E7",
"9..	c #795EF9",
"0..	c #7762FB",
"a..	c #8A62F9",
"b..	c #8771FA",
"c..	c #D58ADD",
"d..	c #E68AC9",
"e..	c #D289E3",
"f..	c #AF8EF7",
"g..	c #1884CC",
"h..	c #2BD4A9",
"i..	c #31D4B9",
"j..	c #6993F9",
"k..	c #857AFF",
"l..	c #8D82FF",
"m..	c #689EF8",
"n..	c #789FFC",
"o..	c #7B93FF",
"p..	c #799AFB",
"q..	c #7894FF",
"r..	c #8D96FD",
"s..	c #969DF7",
"t..	c #7FA2FC",
"u..	c #739AF9",
"v..	c #7D83FB",
"w..	c #7387FA",
"x..	c #867DFA",
"y..	c #8D78FF",
"z..	c #9194FB",
"A..	c #BCB2E7",
"B..	c #D2CDB7",
"C..	c #D1D8AF",
"D..	c #C5CECB",
"E..	c #A4BAE9",
"F..	c #E585CC",
"G..	c #2D88E3",
"H..	c #3285E1",
"I..	c #8164FE",
"J..	c #9F84F9",
"K..	c #D173E3",
"L..	c #E577CE",
"M..	c #D682D8",
"N..	c #958AFF",
"O..	c #2581D8",
"P..	c #6667FD",
"Q..	c #83EDBF",
"R..	c #7DEDBD",
"S..	c #86E3D0",
"T..	c #87D0E1",
"U..	c #DA87D9",
"V..	c #E67FD0",
"W..	c #D277DE",
"X..	c #1C7DCC",
"Y..	c #60A7F5",
"Z..	c #3CCACB",
"`..	c #2CD7AB",
" +.	c #33D4B3",
".+.	c #6BCFDF",
"++.	c #87D3E0",
"@+.	c #7DD4DB",
"#+.	c #90D5DA",
"$+.	c #74D4E4",
"%+.	c #80D2DE",
"&+.	c #88D6DA",
"*+.	c #7ED8D6",
"=+.	c #84D8DA",
"-+.	c #7AE1D0",
";+.	c #81DED4",
">+.	c #81E3CC",
",+.	c #76E3D0",
"'+.	c #88E1CF",
")+.	c #79D5E0",
"!+.	c #75D2E3",
"~+.	c #7EC2EF",
"{+.	c #7BCDE2",
"]+.	c #78C6EA",
"^+.	c #76C4EA",
"/+.	c #8BCBE4",
"(+.	c #7CD2DF",
"_+.	c #7CCDE8",
":+.	c #8ECFE1",
"<+.	c #A8D5D8",
"[+.	c #D4D6A4",
"}+.	c #D5D1AB",
"|+.	c #C5C8CF",
"1+.	c #8591FD",
"2+.	c #DD7AD5",
"3+.	c #D675DC",
"4+.	c #3881E8",
"5+.	c #2A8FDF",
"6+.	c #8C89FA",
"7+.	c #6B9BFD",
"8+.	c #6FD0E1",
"9+.	c #81E8CB",
"0+.	c #82EDBF",
"a+.	c #88E5CA",
"b+.	c #796BFF",
"c+.	c #C783E6",
"d+.	c #E97FC9",
"e+.	c #E085D4",
"f+.	c #C27FF0",
"g+.	c #238DD7",
"h+.	c #A99AF7",
"i+.	c #B8D3CC",
"j+.	c #BDE1B5",
"k+.	c #C2D2C7",
"l+.	c #A1C1E8",
"m+.	c #56C3E4",
"n+.	c #3FD3C7",
"o+.	c #3BDAB4",
"p+.	c #D780DE",
"q+.	c #E46ECE",
"r+.	c #D37CDD",
"s+.	c #BB76ED",
"t+.	c #1A7ACE",
"u+.	c #7B9BFE",
"v+.	c #60A2F6",
"w+.	c #42E8A6",
"x+.	c #84FBA9",
"y+.	c #82F99F",
"z+.	c #86FBA2",
"A+.	c #7DFA9E",
"B+.	c #7BFCA2",
"C+.	c #74FAA3",
"D+.	c #7BFBA4",
"E+.	c #78F9A6",
"F+.	c #84FCA5",
"G+.	c #7CF8A4",
"H+.	c #88FAA3",
"I+.	c #C3CAD0",
"J+.	c #A39DF7",
"K+.	c #DB77D7",
"L+.	c #DA74D7",
"M+.	c #2B7ADF",
"N+.	c #1F78D2",
"O+.	c #C1DCB9",
"P+.	c #C3D0C7",
"Q+.	c #A3C4E3",
"R+.	c #56C5E3",
"S+.	c #3DD4C5",
"T+.	c #39DAB8",
"U+.	c #3ECCCE",
"V+.	c #6F61FC",
"W+.	c #9664F7",
"X+.	c #D392E2",
"Y+.	c #E389C9",
"Z+.	c #298CE1",
"`+.	c #1D8FCE",
" @.	c #2EA3D9",
".@.	c #82A6FC",
"+@.	c #D3B1D2",
"@@.	c #D5CDB6",
"#@.	c #4B19B8",
"$@.	c #6F0AAE",
"%@.	c #960BAE",
"&@.	c #B81DB9",
"*@.	c #2CCEB6",
"=@.	c #33B9D4",
"-@.	c #E078CD",
";@.	c #D975D8",
">@.	c #BA77F8",
",@.	c #217FD6",
"'@.	c #748EFC",
")@.	c #77B8F2",
"!@.	c #69EAC4",
"~@.	c #83FD98",
"{@.	c #89FB9C",
"]@.	c #8AFC9D",
"^@.	c #73FB99",
"/@.	c #97E6C9",
"(@.	c #90AFF2",
"_@.	c #D987DB",
":@.	c #DC7FD8",
"<@.	c #2775DA",
"[@.	c #2175D5",
"}@.	c #CBB6D7",
"|@.	c #D6CBB9",
"1@.	c #8A63FA",
"2@.	c #6C0CAE",
"3@.	c #970AAE",
"4@.	c #BA1CBB",
"5@.	c #2BCEB9",
"6@.	c #24B0C7",
"7@.	c #6487FB",
"8@.	c #DA87D7",
"9@.	c #E385CF",
"0@.	c #B983F3",
"a@.	c #2E88E0",
"b@.	c #37A5E2",
"c@.	c #A8A0F5",
"d@.	c #D5C7BC",
"e@.	c #2C29AA",
"f@.	c #3E1EAD",
"g@.	c #6D11BC",
"h@.	c #9310BE",
"i@.	c #BE1CAD",
"j@.	c #D427A7",
"k@.	c #22C1BD",
"l@.	c #3476E7",
"m@.	c #D574DB",
"n@.	c #C587EC",
"o@.	c #8E9DFA",
"p@.	c #B9DBC2",
"q@.	c #A1EFB5",
"r@.	c #8EF5AC",
"s@.	c #84F6B0",
"t@.	c #87F7AD",
"u@.	c #85F2BB",
"v@.	c #7BF0B9",
"w@.	c #7AF2B5",
"x@.	c #7CEEBB",
"y@.	c #7AF5B6",
"z@.	c #81F5B6",
"A@.	c #77F3B4",
"B@.	c #7DF5AD",
"C@.	c #7BF7B1",
"D@.	c #7DF5B5",
"E@.	c #82F5AA",
"F@.	c #7BF7AF",
"G@.	c #82F4AC",
"H@.	c #73F6B0",
"I@.	c #51EDAE",
"J@.	c #3DD9C3",
"K@.	c #4BBBE1",
"L@.	c #8F73FC",
"M@.	c #D68CDB",
"N@.	c #3980E8",
"O@.	c #2B84DE",
"P@.	c #2085D7",
"Q@.	c #4072ED",
"R@.	c #D5C9BD",
"S@.	c #2B29A8",
"T@.	c #3E1EB0",
"U@.	c #9212BD",
"V@.	c #C01AAC",
"W@.	c #D426A9",
"X@.	c #1FBEBA",
"Y@.	c #329BDD",
"Z@.	c #A58EFA",
"`@.	c #D37BE1",
" #.	c #D686DB",
".#.	c #C289F0",
"+#.	c #5A91F8",
"@#.	c #4988F1",
"##.	c #3286E8",
"$#.	c #CD7AE4",
"%#.	c #1C47B8",
"&#.	c #1E3CAE",
"*#.	c #423CDA",
"=#.	c #6A43EA",
"-#.	c #8A40ED",
";#.	c #E139B0",
">#.	c #DC41B7",
",#.	c #32C2CD",
"'#.	c #2078D1",
")#.	c #DB88DA",
"!#.	c #C18BED",
"~#.	c #1A75C8",
"{#.	c #786AFB",
"]#.	c #A58BF9",
"^#.	c #C7B1E2",
"/#.	c #CCC9C4",
"(#.	c #CCCFBE",
"_#.	c #BECECD",
":#.	c #9BCEDF",
"<#.	c #7ED1E3",
"[#.	c #81CFE6",
"}#.	c #83CDEA",
"|#.	c #79C4EB",
"1#.	c #8EC4E6",
"2#.	c #86C5EE",
"3#.	c #7FC4EE",
"4#.	c #88B6F2",
"5#.	c #7FBAF2",
"6#.	c #79BCF1",
"7#.	c #78BBF2",
"8#.	c #7DB4F4",
"9#.	c #78B1F6",
"0#.	c #7BB8EE",
"a#.	c #78B9EF",
"b#.	c #85B5F3",
"c#.	c #84B6F1",
"d#.	c #7EBAEE",
"e#.	c #7AC3F0",
"f#.	c #7EC1EB",
"g#.	c #77C6E7",
"h#.	c #7AC2EA",
"i#.	c #85C9EC",
"j#.	c #85C4E7",
"k#.	c #88CEE7",
"l#.	c #89CBE5",
"m#.	c #63C3E9",
"n#.	c #36CCC3",
"o#.	c #3FB6DE",
"p#.	c #8F69FD",
"q#.	c #DF7DD4",
"r#.	c #418AF1",
"s#.	c #2C8BDD",
"t#.	c #188BCC",
"u#.	c #317FE3",
"v#.	c #9D78FC",
"w#.	c #DF76D2",
"x#.	c #BFCACE",
"y#.	c #1E45BA",
"z#.	c #413DDC",
"A#.	c #6A43EC",
"B#.	c #8A40EB",
"C#.	c #DE39AF",
"D#.	c #E041B8",
"E#.	c #6E90FE",
"F#.	c #A378FD",
"G#.	c #E68CCA",
"H#.	c #D389E0",
"I#.	c #BD84ED",
"J#.	c #8F90FC",
"K#.	c #5B92F9",
"L#.	c #3D93E8",
"M#.	c #3383E2",
"N#.	c #2C6EDC",
"O#.	c #E271CB",
"P#.	c #B3A8EC",
"Q#.	c #0B6EAF",
"R#.	c #1360BC",
"S#.	c #4466EE",
"T#.	c #976EFA",
"U#.	c #B56EF2",
"V#.	c #E964C1",
"W#.	c #F168AE",
"X#.	c #45A6EB",
"Y#.	c #1688C6",
"Z#.	c #A08FF9",
"`#.	c #D388E3",
" $.	c #BF7CF0",
".$.	c #207CCF",
"+$.	c #9F9EFB",
"@$.	c #BBC6D8",
"#$.	c #CACBC5",
"$$.	c #7C85FC",
"%$.	c #7685FC",
"&$.	c #3BC5D2",
"*$.	c #30CEBF",
"=$.	c #D489DC",
"-$.	c #4286EB",
";$.	c #2C8CE0",
">$.	c #3494E0",
",$.	c #EB77C2",
"'$.	c #B8AAE8",
")$.	c #086EB0",
"!$.	c #1261BD",
"~$.	c #4764EE",
"{$.	c #6B65FD",
"]$.	c #986BF9",
"^$.	c #B66DF0",
"/$.	c #EA65C2",
"($.	c #F367AE",
"_$.	c #46A7EB",
":$.	c #157BC6",
"<$.	c #E477CA",
"[$.	c #D289E5",
"}$.	c #C386EE",
"|$.	c #408BF0",
"1$.	c #267FDD",
"2$.	c #2971DD",
"3$.	c #E87EC9",
"4$.	c #C255E2",
"5$.	c #0A98AE",
"6$.	c #0E97BB",
"7$.	c #4C88F6",
"8$.	c #7291FB",
"9$.	c #958FFB",
"0$.	c #AB95F7",
"a$.	c #EB99C1",
"b$.	c #F790AE",
"c$.	c #5F4AEF",
"d$.	c #CD7CE2",
"e$.	c #D97AD6",
"f$.	c #B471F2",
"g$.	c #2592D7",
"h$.	c #BFB9DB",
"i$.	c #CDC8C2",
"j$.	c #BEC6D1",
"k$.	c #A0A2F5",
"l$.	c #60A2F8",
"m$.	c #32BECD",
"n$.	c #2EC9C1",
"o$.	c #35CCC3",
"p$.	c #51C4DF",
"q$.	c #E08FD4",
"r$.	c #D48DDD",
"s$.	c #4490F0",
"t$.	c #2888DE",
"u$.	c #3589E9",
"v$.	c #EA87C7",
"w$.	c #B955EB",
"x$.	c #1094BA",
"y$.	c #4B8AF4",
"z$.	c #7192FB",
"A$.	c #E999C0",
"B$.	c #F590B0",
"C$.	c #4B4EE9",
"D$.	c #157BC5",
"E$.	c #D06CE0",
"F$.	c #E983C4",
"G$.	c #DB8DD8",
"H$.	c #3F7BEB",
"I$.	c #2878DB",
"J$.	c #2C74E0",
"K$.	c #DC89D9",
"L$.	c #CE3BCA",
"M$.	c #1CB3BA",
"N$.	c #1CBFAA",
"O$.	c #6FAEF5",
"P$.	c #9BACF4",
"Q$.	c #C5BBDD",
"R$.	c #DCC8B0",
"S$.	c #DFB6BC",
"T$.	c #4031CA",
"U$.	c #2A69DA",
"V$.	c #9580FF",
"W$.	c #E374D2",
"X$.	c #D66ADA",
"Y$.	c #BB70EF",
"Z$.	c #48C1E0",
"`$.	c #C7BFD6",
" %.	c #7E76FF",
".%.	c #56A0F5",
"+%.	c #38D0C3",
"@%.	c #BCB6E4",
"#%.	c #4085EC",
"$%.	c #2577DB",
"%%.	c #DB81DB",
"&%.	c #CA38CB",
"*%.	c #1BB4BC",
"=%.	c #19C1AA",
"-%.	c #3BBADA",
";%.	c #71B0F7",
">%.	c #9DA9F5",
",%.	c #C4BBDA",
"'%.	c #DEB7BC",
")%.	c #3B33C7",
"!%.	c #237ED7",
"~%.	c #EF83C1",
"{%.	c #CE77E2",
"]%.	c #AB78F7",
"^%.	c #227BD9",
"/%.	c #1B7CCB",
"(%.	c #BE6DF0",
"_%.	c #D83FBD",
":%.	c #6770FD",
"<%.	c #26D0A9",
"[%.	c #3AE1AD",
"}%.	c #69ECC0",
"|%.	c #98EBBD",
"1%.	c #C6DDB3",
"2%.	c #253CBE",
"3%.	c #5269F5",
"4%.	c #A365F6",
"5%.	c #C463E8",
"6%.	c #DB75D8",
"7%.	c #618AFC",
"8%.	c #88E6CE",
"9%.	c #C9D2BF",
"0%.	c #BFC4D8",
"a%.	c #5EABF3",
"b%.	c #3FC4D5",
"c%.	c #31CCC4",
"d%.	c #7FE1D4",
"e%.	c #AF77F2",
"f%.	c #357CE8",
"g%.	c #258BD6",
"h%.	c #399AE7",
"i%.	c #628CFA",
"j%.	c #B981F0",
"k%.	c #D842BF",
"l%.	c #6470FA",
"m%.	c #26CFA8",
"n%.	c #39E2AB",
"o%.	c #96ECBD",
"p%.	c #D1D3AB",
"q%.	c #253EBF",
"r%.	c #D389E2",
"s%.	c #E35EC9",
"t%.	c #D05EDA",
"u%.	c #A77DFB",
"v%.	c #3686E5",
"w%.	c #187FCC",
"x%.	c #9056F8",
"y%.	c #D557D2",
"z%.	c #C92EBA",
"A%.	c #47E2BA",
"B%.	c #6BF4B0",
"C%.	c #94F4AC",
"D%.	c #2D34B8",
"E%.	c #2C51D5",
"F%.	c #8965FD",
"G%.	c #CE61E0",
"H%.	c #EA84C6",
"I%.	c #DA8CD8",
"J%.	c #9909A7",
"K%.	c #820191",
"L%.	c #830394",
"M%.	c #810490",
"N%.	c #6A069C",
"O%.	c #4575F1",
"P%.	c #2C90DE",
"Q%.	c #2588D9",
"R%.	c #5880F9",
"S%.	c #CB50DF",
"T%.	c #6CF3AE",
"U%.	c #93F5AC",
"V%.	c #B8E2BA",
"W%.	c #2C33B7",
"X%.	c #334DD6",
"Y%.	c #9B78FA",
"Z%.	c #8C98FC",
"`%.	c #B164F0",
" &.	c #E264D0",
".&.	c #DF75CF",
"+&.	c #A984F6",
"@&.	c #326AE5",
"#&.	c #217DD4",
"$&.	c #1D70CE",
"%&.	c #AA5EF4",
"&&.	c #9E26D6",
"*&.	c #B61FBA",
"=&.	c #C935CB",
"-&.	c #A445EB",
";&.	c #5048E9",
">&.	c #4733D2",
",&.	c #D78FDB",
"'&.	c #EB82C7",
")&.	c #D477DF",
"!&.	c #BB75EF",
"~&.	c #057CA6",
"{&.	c #10449A",
"]&.	c #550B9E",
"^&.	c #8E0296",
"/&.	c #ED439B",
"(&.	c #FA82A8",
"_&.	c #518AF5",
":&.	c #1C81D1",
"<&.	c #3569E3",
"[&.	c #5E62F9",
"}&.	c #9F2DDA",
"|&.	c #BA25BF",
"1&.	c #C93BCF",
"2&.	c #A546EA",
"3&.	c #514DEC",
"4&.	c #3C37D1",
"5&.	c #3E25BE",
"6&.	c #4535D3",
"7&.	c #6A6AFC",
"8&.	c #AA8DF7",
"9&.	c #A67CF8",
"0&.	c #E98AC4",
"a&.	c #E083D3",
"b&.	c #CB79E7",
"c&.	c #AC86F7",
"d&.	c #5470F8",
"e&.	c #3B6DE8",
"f&.	c #2679D9",
"g&.	c #1776C8",
"h&.	c #3873EB",
"i&.	c #795EFB",
"j&.	c #851ED1",
"k&.	c #7F14C6",
"l&.	c #8116C4",
"m&.	c #8325DB",
"n&.	c #733FEA",
"o&.	c #CA90E4",
"p&.	c #D474DF",
"q&.	c #C47AED",
"r&.	c #0D7DBC",
"s&.	c #2FD7B6",
"t&.	c #46BDDF",
"u&.	c #788EFD",
"v&.	c #B6BEE2",
"w&.	c #CFD2B7",
"x&.	c #D1D8A5",
"y&.	c #EEBB9C",
"z&.	c #F286B8",
"A&.	c #4689F2",
"B&.	c #2A71DB",
"C&.	c #1B76D1",
"D&.	c #7D49F3",
"E&.	c #7724D8",
"F&.	c #7A16C6",
"G&.	c #8217C7",
"H&.	c #7E23D8",
"I&.	c #7637EA",
"J&.	c #6F67FB",
"K&.	c #9E87FB",
"L&.	c #9978FD",
"M&.	c #7C5AF6",
"N&.	c #C39DE6",
"O&.	c #E391CF",
"P&.	c #DB7ADB",
"Q&.	c #A480FC",
"R&.	c #3690E6",
"S&.	c #237BD5",
"T&.	c #1A84CE",
"U&.	c #3282E1",
"V&.	c #8876FC",
"W&.	c #9481FF",
"X&.	c #D07BE3",
"Y&.	c #E27CD0",
"Z&.	c #31D7B1",
"`&.	c #2BCDB8",
" *.	c #7B73FD",
".*.	c #758CFC",
"+*.	c #8691FD",
"@*.	c #8D9CFB",
"#*.	c #658DFE",
"$*.	c #797DFF",
"%*.	c #7F78FA",
"&*.	c #7A80FC",
"**.	c #7C91FE",
"=*.	c #9287FF",
"-*.	c #BDB9DE",
";*.	c #D5CEBB",
">*.	c #D7D2A8",
",*.	c #D5D0B0",
"'*.	c #EAADB2",
")*.	c #E17ECE",
"!*.	c #3379E8",
"~*.	c #296ED6",
"{*.	c #2474D7",
"]*.	c #6671FE",
"^*.	c #D280E2",
"/*.	c #D682DA",
"(*.	c #A67EF8",
"_*.	c #3487E7",
":*.	c #337AE2",
"<*.	c #6B7CFE",
"[*.	c #7D6CF9",
"}*.	c #8663FF",
"|*.	c #CB84E4",
"1*.	c #D673DD",
"2*.	c #297CDC",
"3*.	c #199CCA",
"4*.	c #29CEB0",
"5*.	c #28D3A9",
"6*.	c #2DCFB7",
"7*.	c #46BAE1",
"8*.	c #797EFF",
"9*.	c #82A2F7",
"0*.	c #7898FF",
"a*.	c #7BA0F9",
"b*.	c #7297FF",
"c*.	c #82A0FA",
"d*.	c #859EF8",
"e*.	c #7E96FF",
"f*.	c #7781FC",
"g*.	c #798EFF",
"h*.	c #757AFC",
"i*.	c #8972FE",
"j*.	c #7D75FC",
"k*.	c #747DFF",
"l*.	c #BAB9E1",
"m*.	c #D0CFBA",
"n*.	c #D2D5AA",
"o*.	c #CEBECB",
"p*.	c #EB8DC1",
"q*.	c #367FE5",
"r*.	c #2282D8",
"s*.	c #3271E3",
"t*.	c #8A68FD",
"u*.	c #7470F9",
"v*.	c #6B61F6",
"w*.	c #E67DCF",
"x*.	c #CA84E6",
"y*.	c #9F81FB",
"z*.	c #3572E7",
"A*.	c #3381E5",
"B*.	c #9777FF",
"C*.	c #6C6DFD",
"D*.	c #A27BF8",
"E*.	c #D17BE6",
"F*.	c #DD89D7",
"G*.	c #DA85D8",
"H*.	c #C888E8",
"I*.	c #32D2BA",
"J*.	c #42B7E3",
"K*.	c #7C97FF",
"L*.	c #7397F8",
"M*.	c #7495FF",
"N*.	c #699EFA",
"O*.	c #769DFA",
"P*.	c #809CFD",
"Q*.	c #7895FD",
"R*.	c #A29EF5",
"S*.	c #979DFB",
"T*.	c #80A3FD",
"U*.	c #749BFA",
"V*.	c #7096FB",
"W*.	c #BAB0E2",
"X*.	c #D2D0B9",
"Y*.	c #C2CECA",
"Z*.	c #E984CA",
"`*.	c #DA7DD6",
" =.	c #2D93DD",
".=.	c #3177E6",
"+=.	c #7656F7",
"@=.	c #8E68FC",
"#=.	c #8567FD",
"$=.	c #7364FD",
"%=.	c #5E7DFA",
"&=.	c #8474FB",
"*=.	c #CE84E3",
"==.	c #9E72F9",
"-=.	c #626FFB",
";=.	c #366CE6",
">=.	c #346DE1",
",=.	c #7562F9",
"'=.	c #9186FC",
")=.	c #7E70FB",
"!=.	c #C081EC",
"~=.	c #2A83E1",
"{=.	c #6B88FD",
"]=.	c #60A8F4",
"^=.	c #29D6A9",
"/=.	c #34D3B5",
"(=.	c #52D7D2",
"_=.	c #6ECEDE",
":=.	c #7DD4DD",
"<=.	c #8DD5E1",
"[=.	c #8FD5DD",
"}=.	c #79D7D9",
"|=.	c #7EDAD7",
"1=.	c #7CDBD7",
"2=.	c #83E1CF",
"3=.	c #76E2D2",
"4=.	c #8EE2D2",
"5=.	c #89DFD2",
"6=.	c #7BD9DB",
"7=.	c #75D8DD",
"8=.	c #76D8DB",
"9=.	c #85D4DB",
"0=.	c #87D3E3",
"a=.	c #7CCDE2",
"b=.	c #78D6E0",
"c=.	c #82D6E1",
"d=.	c #7DCFDD",
"e=.	c #8EC6EB",
"f=.	c #77C5EB",
"g=.	c #84C8EB",
"h=.	c #81CCE1",
"i=.	c #77CBE3",
"j=.	c #7ACEE6",
"k=.	c #8ED2DF",
"l=.	c #CED4B8",
"m=.	c #CAC9CF",
"n=.	c #DC78D8",
"o=.	c #DF77D8",
"p=.	c #4B77F2",
"q=.	c #157ACC",
"r=.	c #3786E5",
"s=.	c #6184FC",
"t=.	c #4D92F1",
"u=.	c #5168F2",
"v=.	c #69A7FA",
"w=.	c #D87AD8",
"x=.	c #C37AED",
"y=.	c #9D6CFC",
"z=.	c #5D78F9",
"A=.	c #2787DB",
"B=.	c #177BC6",
"C=.	c #256FD8",
"D=.	c #CD7FE4",
"E=.	c #E17FCA",
"F=.	c #1E79D4",
"G=.	c #7D99FA",
"H=.	c #64A1FA",
"I=.	c #3CCDCA",
"J=.	c #32DAA9",
"K=.	c #42E9A4",
"L=.	c #5AF6A3",
"M=.	c #70F9A7",
"N=.	c #7DFBA7",
"O=.	c #85FCA0",
"P=.	c #82FEA0",
"Q=.	c #86FBA0",
"R=.	c #79FBA5",
"S=.	c #78F8A3",
"T=.	c #79F8A9",
"U=.	c #9EF6A2",
"V=.	c #C2E7A1",
"W=.	c #CEDBAF",
"X=.	c #C0CBCD",
"Y=.	c #DD79D1",
"Z=.	c #DC77D5",
"`=.	c #4272EE",
" -.	c #2A70DF",
".-.	c #1E7ED2",
"+-.	c #3186E1",
"@-.	c #6A5CFA",
"#-.	c #8F64FC",
"$-.	c #5D99F9",
"%-.	c #6E55F9",
"&-.	c #8D62FA",
"*-.	c #A08CFB",
"=-.	c #D087E1",
"--.	c #C279EC",
";-.	c #2383D7",
">-.	c #8E9FFB",
",-.	c #8298FD",
"'-.	c #D287E2",
")-.	c #E686CE",
"!-.	c #D384E0",
"~-.	c #76B9F0",
"{-.	c #77FD9A",
"]-.	c #72F99A",
"^-.	c #7BFC98",
"/-.	c #79FB97",
"(-.	c #7FFC98",
"_-.	c #96E6C9",
":-.	c #8FB0F5",
"<-.	c #4274ED",
"[-.	c #2179D3",
"}-.	c #5D75F9",
"|-.	c #8068FC",
"1-.	c #667FFD",
"2-.	c #98ACF3",
"3-.	c #8FAAF9",
"4-.	c #C97CE2",
"5-.	c #E079D2",
"6-.	c #D876D9",
"7-.	c #9C80F9",
"8-.	c #338EE7",
"9-.	c #6C78FE",
"0-.	c #9C88FB",
"a-.	c #D47FDC",
"b-.	c #307EE2",
"c-.	c #2381D8",
"d-.	c #8F9EFB",
"e-.	c #A6EDB3",
"f-.	c #7CF8B0",
"g-.	c #7AEFBA",
"h-.	c #7CF1BD",
"i-.	c #7BEFC0",
"j-.	c #81F1B6",
"k-.	c #7FF6B4",
"l-.	c #76F4B4",
"m-.	c #7DF4B2",
"n-.	c #79F4B1",
"o-.	c #84F9AB",
"p-.	c #72F5B3",
"q-.	c #3CD9BC",
"r-.	c #D98AD9",
"s-.	c #D27CDD",
"t-.	c #2D6ADF",
"u-.	c #6783FF",
"v-.	c #8194FB",
"w-.	c #AA81F7",
"x-.	c #8CA5F9",
"y-.	c #CC73E7",
"z-.	c #E072D3",
"A-.	c #CA77E9",
"B-.	c #6474FF",
"C-.	c #1986CB",
"D-.	c #2F97E0",
"E-.	c #889BF9",
"F-.	c #9883FC",
"G-.	c #CD7AE2",
"H-.	c #E579CF",
"I-.	c #1C73D2",
"J-.	c #C9ADDD",
"K-.	c #C8CAC7",
"L-.	c #CDCEC0",
"M-.	c #9ACFE1",
"N-.	c #80C4E9",
"O-.	c #8DCAE7",
"P-.	c #87C5EA",
"Q-.	c #7FBBED",
"R-.	c #81BFF0",
"S-.	c #85C0EC",
"T-.	c #79BAF2",
"U-.	c #88BBF4",
"V-.	c #7CB1F3",
"W-.	c #7CB1F7",
"X-.	c #80B7EF",
"Y-.	c #80B3F2",
"Z-.	c #70BEEE",
"`-.	c #86B6F4",
" ;.	c #83B5F4",
".;.	c #86BEF1",
"+;.	c #78C2EF",
"@;.	c #76CAE6",
"#;.	c #84D3E0",
"$;.	c #80C0EE",
"%;.	c #86C4E9",
"&;.	c #87C7EA",
"*;.	c #88D1E4",
"=;.	c #8BC7EB",
"-;.	c #31CDC0",
";;.	c #40B6DE",
">;.	c #D083E1",
",;.	c #2C7BE4",
"';.	c #2C79E1",
");.	c #A470F8",
"!;.	c #A766F4",
"~;.	c #6073FD",
"{;.	c #C875E9",
"];.	c #E37DD1",
"^;.	c #A17AFB",
"/;.	c #4680EE",
"(;.	c #1F80CF",
"_;.	c #3A8EEE",
":;.	c #6975FD",
"<;.	c #CF7CE6",
"[;.	c #1E83D3",
"};.	c #CCCCC4",
"|;.	c #C4C1D2",
"1;.	c #7F8BFF",
"2;.	c #40C6D2",
"3;.	c #44BADE",
"4;.	c #D384DF",
"5;.	c #3383E4",
"6;.	c #6280FC",
"7;.	c #7463FD",
"8;.	c #C98AE5",
"9;.	c #E184CB",
"0;.	c #9C77FB",
"a;.	c #457CF0",
"b;.	c #3978E9",
"c;.	c #6C6DFB",
"d;.	c #8861FC",
"e;.	c #2A81E0",
"f;.	c #2A92DB",
"g;.	c #C0BAE0",
"h;.	c #BFC5D3",
"i;.	c #5FA1F5",
"j;.	c #35BED1",
"k;.	c #2CCCC2",
"l;.	c #36CBC5",
"m;.	c #4EC4E0",
"n;.	c #D778E0",
"o;.	c #4083EE",
"p;.	c #1C82CD",
"q;.	c #CA95E7",
"r;.	c #E189D5",
"s;.	c #D47FDA",
"t;.	c #BF7CED",
"u;.	c #477CF0",
"v;.	c #1C7CD2",
"w;.	c #E681CD",
"x;.	c #D3C8C2",
"y;.	c #9FA1F8",
"z;.	c #54A1F1",
"A;.	c #36D0C4",
"B;.	c #ACBAE7",
"C;.	c #CB7CE7",
"D;.	c #4179F0",
"E;.	c #2F7DE2",
"F;.	c #707DFF",
"G;.	c #8B74FA",
"H;.	c #9B83FF",
"I;.	c #DA88DA",
"J;.	c #D181E2",
"K;.	c #3289E6",
"L;.	c #6B6CFC",
"M;.	c #7769FC",
"N;.	c #9360FB",
"O;.	c #CC87E4",
"P;.	c #E47FCD",
"Q;.	c #8DE2CB",
"R;.	c #C8D3C3",
"S;.	c #A39AF7",
"T;.	c #8A80FF",
"U;.	c #8471FE",
"V;.	c #7783FB",
"W;.	c #61ABF2",
"X;.	c #3EC6D4",
"Y;.	c #33CAC1",
"Z;.	c #407CEC",
"`;.	c #287CDC",
" >.	c #1D7ECD",
".>.	c #717FFC",
"+>.	c #996EFB",
"@>.	c #CE70E2",
"#>.	c #D288DD",
"$>.	c #9F7CFE",
"%>.	c #6579FE",
"&>.	c #4784EF",
"*>.	c #207FD1",
"=>.	c #3072E2",
"->.	c #5D70FA",
";>.	c #738EFF",
">>.	c #9F5EF8",
",>.	c #876CFB",
"'>.	c #737AFE",
")>.	c #E580D0",
"!>.	c #D383DC",
"~>.	c #BD8AEF",
"{>.	c #9B0AA5",
"]>.	c #8F0398",
"^>.	c #87009A",
"/>.	c #820493",
"(>.	c #800594",
"_>.	c #790196",
":>.	c #6C049F",
"<>.	c #610CA8",
"[>.	c #487CF4",
"}>.	c #2977DB",
"|>.	c #1A7DCE",
"1>.	c #337DE8",
"2>.	c #816EFE",
"3>.	c #8E71FD",
"4>.	c #7590FB",
"5>.	c #C080F0",
"6>.	c #9981FD",
"7>.	c #4682F4",
"8>.	c #2875DD",
"9>.	c #80A4F8",
"0>.	c #A084FB",
"a>.	c #DA80DA",
"b>.	c #0681A3",
"c>.	c #570B9F",
"d>.	c #700496",
"e>.	c #A90A9C",
"f>.	c #ED4497",
"g>.	c #FA80A9",
"h>.	c #3B79EA",
"i>.	c #277BDE",
"j>.	c #866DFF",
"k>.	c #896EFD",
"l>.	c #8971FB",
"m>.	c #E281D2",
"n>.	c #C083EB",
"o>.	c #2876DB",
"p>.	c #1D75CF",
"q>.	c #6EA2F8",
"r>.	c #7EA9F8",
"s>.	c #9D8FFE",
"t>.	c #6A98F8",
"u>.	c #CE80E5",
"v>.	c #D57FDA",
"w>.	c #C379EC",
"x>.	c #0F7DBC",
"y>.	c #13BBA2",
"z>.	c #7585FF",
"A>.	c #8188FC",
"B>.	c #8376FA",
"C>.	c #8C7AFF",
"D>.	c #7E89FC",
"E>.	c #CFD4B6",
"F>.	c #D4D7A8",
"G>.	c #F07FC1",
"H>.	c #3A79EB",
"I>.	c #2D7BDD",
"J>.	c #6C93FA",
"K>.	c #9984FD",
"L>.	c #377FEB",
"M>.	c #8B8FFD",
"N>.	c #9375FB",
"O>.	c #799BFD",
"P>.	c #697EFE",
"Q>.	c #E57FCB",
"R>.	c #D979DD",
"S>.	c #14B0AF",
"T>.	c #BEBADF",
"U>.	c #DAD2AB",
"V>.	c #E9B0B7",
"W>.	c #1B74D0",
"X>.	c #397CE5",
"Y>.	c #9669FA",
"Z>.	c #CC76E5",
"`>.	c #3A81EB",
" ,.	c #1B81CC",
".,.	c #2B78E2",
"+,.	c #937CFF",
"@,.	c #8C7DFC",
"#,.	c #848EFF",
"$,.	c #7698FC",
"%,.	c #5E6EF7",
"&,.	c #9074FC",
"*,.	c #D482E4",
"=,.	c #DD7DD4",
"-,.	c #287DDA",
";,.	c #189BC9",
">,.	c #D5CFAB",
",,.	c #D0BECC",
"',.	c #E68DC5",
"),.	c #D286E1",
"!,.	c #3782E8",
"~,.	c #6778FA",
"{,.	c #6466F7",
"],.	c #9867FE",
"^,.	c #E375CC",
"/,.	c #5D7CF9",
"(,.	c #3B73EC",
"_,.	c #2575D8",
":,.	c #9A79FC",
"<,.	c #938CFE",
"[,.	c #5F63F8",
"},.	c #6274FC",
"|,.	c #D179DF",
"1,.	c #D885DD",
"2,.	c #1E85D2",
"3,.	c #BBB2E1",
"4,.	c #D2D5A6",
"5,.	c #D0D7AE",
"6,.	c #C3CFCD",
"7,.	c #A4B8EA",
"8,.	c #E584D1",
"9,.	c #3581E3",
"0,.	c #2184D9",
"a,.	c #1E83D1",
"b,.	c #3779E9",
"c,.	c #8068FA",
"d,.	c #7487FD",
"e,.	c #9674FE",
"f,.	c #D27BE3",
"g,.	c #E681CF",
"h,.	c #DB81D9",
"i,.	c #C480EF",
"j,.	c #5371F5",
"k,.	c #2675DC",
"l,.	c #1B7BCF",
"m,.	c #3686E7",
"n,.	c #6D64FF",
"o,.	c #6560F8",
"p,.	c #D676E1",
"q,.	c #D38BDF",
"r,.	c #BE8AEC",
"s,.	c #2C83E4",
"t,.	c #227ED1",
"u,.	c #CBD6B6",
"v,.	c #C7C8CD",
"w,.	c #D67BDA",
"x,.	c #2786DA",
"y,.	c #1B82CD",
"z,.	c #D689D7",
"A,.	c #E887CC",
"B,.	c #D580DB",
"C,.	c #C380EA",
"D,.	c #5980F7",
"E,.	c #3993EB",
"F,.	c #2689DA",
"G,.	c #1A7FCF",
"H,.	c #7A6BFC",
"I,.	c #CE8CE3",
"J,.	c #EA87C8",
"K,.	c #D987D9",
"L,.	c #B78FF0",
"M,.	c #1C7BCF",
"N,.	c #C3E6A2",
"O,.	c #DF76D3",
"P,.	c #3286E6",
"Q,.	c #2E89E2",
"R,.	c #7190FC",
"S,.	c #6F69FD",
"T,.	c #A388FB",
"U,.	c #C481EB",
"V,.	c #668BFE",
"W,.	c #3E92EA",
"X,.	c #1984CC",
"Y,.	c #3A7FE6",
"Z,.	c #7A81FF",
"`,.	c #858DFC",
" '.	c #D58EDE",
".'.	c #E57CD0",
"+'.	c #D675E0",
"@'.	c #BF7AEF",
"#'.	c #247CD6",
"$'.	c #2186D6",
"%'.	c #97E8C8",
"&'.	c #8DB0F4",
"*'.	c #9181FB",
"='.	c #3381E6",
"-'.	c #3C80ED",
";'.	c #A475F9",
">'.	c #E57ECF",
",'.	c #D780E1",
"''.	c #C37BE7",
")'.	c #977EFF",
"!'.	c #3B72E7",
"~'.	c #207CD3",
"{'.	c #317EE8",
"]'.	c #CC7AE6",
"^'.	c #E075D3",
"/'.	c #BF79ED",
"('.	c #2E7EE1",
"_'.	c #247FD8",
":'.	c #3FD9BF",
"<'.	c #768DFD",
"['.	c #D175E0",
"}'.	c #3A79EA",
"|'.	c #3077E3",
"1'.	c #719EFB",
"2'.	c #8D85FF",
"3'.	c #D76BDA",
"4'.	c #E87BCA",
"5'.	c #D87FD9",
"6'.	c #B97DEE",
"7'.	c #3B6BEB",
"8'.	c #2573D8",
"9'.	c #1A72CB",
"0'.	c #1C73D0",
"a'.	c #40C9D1",
"b'.	c #30CFBD",
"c'.	c #3DB7E0",
"d'.	c #D97FD7",
"e'.	c #8D85FE",
"f'.	c #739BFA",
"g'.	c #EA77C5",
"h'.	c #BE7FF2",
"i'.	c #9C7FFD",
"j'.	c #577FFB",
"k'.	c #317CE2",
"l'.	c #236AD4",
"m'.	c #9A93FD",
"n'.	c #8A69F8",
"o'.	c #D16ADF",
"p'.	c #D980DC",
"q'.	c #1781CB",
"r'.	c #599AF8",
"s'.	c #30CEC0",
"t'.	c #43BCDB",
"u'.	c #E082D8",
"v'.	c #3689E7",
"w'.	c #2381D9",
"x'.	c #6C96FC",
"y'.	c #8887FC",
"z'.	c #C190E9",
"A'.	c #E370CD",
"B'.	c #C47BEE",
"C'.	c #217CD7",
"D'.	c #4988F2",
"E'.	c #9E8CFA",
"F'.	c #6C6AF9",
"G'.	c #7472FA",
"H'.	c #6B67F9",
"I'.	c #E787C7",
"J'.	c #D480E2",
"K'.	c #2692D3",
"L'.	c #33C1CF",
"M'.	c #2DC8C0",
"N'.	c #D593DD",
"O'.	c #D180DF",
"P'.	c #1A87CC",
"Q'.	c #3476E6",
"R'.	c #E07ED3",
"S'.	c #C77AEA",
"T'.	c #A07DFB",
"U'.	c #5D78FB",
"V'.	c #1E83D5",
"W'.	c #2184D5",
"X'.	c #3A8FE9",
"Y'.	c #8796FD",
"Z'.	c #7979FB",
"`'.	c #DD8DD6",
" ).	c #3279E3",
".).	c #579FF4",
"+).	c #3DC8CF",
"@).	c #38D3C5",
"#).	c #35D1C4",
"$).	c #3776EA",
"%).	c #1B8BCB",
"&).	c #2B89E0",
"*).	c #C389ED",
"=).	c #E490CC",
"-).	c #DC82DA",
";).	c #BF81EC",
">).	c #A07BFC",
",).	c #227DD6",
"').	c #2788D9",
")).	c #7098FA",
"!).	c #8E6FFB",
"~).	c #638CFE",
"{).	c #7186FF",
"]).	c #8C9DF9",
"^).	c #CF75E6",
"/).	c #E471CC",
"().	c #5D7CFB",
"_).	c #6FDED5",
":).	c #C993E9",
"<).	c #DF90D2",
"[).	c #C182EB",
"}).	c #2893DB",
"|).	c #2690DA",
"1).	c #4181EF",
"2).	c #6C8AFC",
"3).	c #7B91FF",
"4).	c #898FFD",
"5).	c #CB85E5",
"6).	c #C376EA",
"7).	c #B87BF0",
"8).	c #690599",
"9).	c #5D0CA9",
"0).	c #3D71E9",
"a).	c #1986C9",
"b).	c #8D8CFF",
"c).	c #9575FC",
"d).	c #D080DF",
"e).	c #D488E0",
"f).	c #B788F2",
"g).	c #4082F0",
"h).	c #2A91DC",
"i).	c #3982EB",
"j).	c #E180D1",
"k).	c #C079EF",
"l).	c #077EA9",
"m).	c #13429A",
"n).	c #8C0397",
"o).	c #A90C9B",
"p).	c #EF4399",
"q).	c #F881AB",
"r).	c #3989EC",
"s).	c #3380E8",
"t).	c #298AD9",
"u).	c #769DFC",
"v).	c #878EFF",
"w).	c #746FFF",
"x).	c #D376E0",
"y).	c #E37ACE",
"z).	c #D67FDE",
"A).	c #B680F2",
"B).	c #5F8AFA",
"C).	c #4174EA",
"D).	c #2B7DE1",
"E).	c #3280E4",
"F).	c #6D75FE",
"G).	c #CC8CE0",
"H).	c #C17FE9",
"I).	c #1182BE",
"J).	c #BABCE3",
"K).	c #CFD1B9",
"L).	c #D4D8A6",
"M).	c #EF88C0",
"N).	c #3A97E7",
"O).	c #2A88DF",
"P).	c #1E75D2",
"Q).	c #337CE2",
"R).	c #84A9FA",
"S).	c #7584FB",
"T).	c #D47CE0",
"U).	c #BB7CEF",
"V).	c #568FF6",
"W).	c #3882EB",
"X).	c #9093FE",
"Y).	c #CC91E1",
"Z).	c #DB8CDB",
"`).	c #13B1B2",
" !.	c #D6D1B1",
".!.	c #2489D7",
"+!.	c #1A81CE",
"@!.	c #307EE3",
"#!.	c #936CFD",
"$!.	c #968CFC",
"%!.	c #D080E1",
"&!.	c #D27EDC",
"*!.	c #BC81EF",
"=!.	c #5C7CF7",
"-!.	c #388BE9",
";!.	c #D28DE0",
">!.	c #C284E9",
",!.	c #1999C6",
"'!.	c #918FFD",
")!.	c #B9BBE1",
"!!.	c #D3D3AF",
"~!.	c #E78DCB",
"{!.	c #4A7FF1",
"]!.	c #2989E0",
"^!.	c #727DFD",
"/!.	c #9F73FA",
"(!.	c #A56AFA",
"_!.	c #7B58FA",
":!.	c #7B64FD",
"<!.	c #7567FC",
"[!.	c #9F83FC",
"}!.	c #3F82EB",
"|!.	c #2887DB",
"1!.	c #746FFD",
"2!.	c #CC82E5",
"3!.	c #BF75EE",
"4!.	c #2A83DF",
"5!.	c #1B85D1",
"6!.	c #BCB3E2",
"7!.	c #D7D6A8",
"8!.	c #CFD8AD",
"9!.	c #C2CDC7",
"0!.	c #A6BAEC",
"a!.	c #4581F3",
"b!.	c #2D82DD",
"c!.	c #6888FF",
"d!.	c #7861F7",
"e!.	c #6E61F7",
"f!.	c #785FFB",
"g!.	c #927FFC",
"h!.	c #E278D0",
"i!.	c #DA79DA",
"j!.	c #617DFA",
"k!.	c #1C81D3",
"l!.	c #3776E8",
"m!.	c #9771FA",
"n!.	c #C77EE9",
"o!.	c #1E7DCD",
"p!.	c #CDD6B7",
"q!.	c #C8C7CC",
"r!.	c #D579DE",
"s!.	c #467DF1",
"t!.	c #177ACB",
"u!.	c #2C80E0",
"v!.	c #6985FF",
"w!.	c #8874FA",
"x!.	c #7E67FD",
"y!.	c #4180F2",
"z!.	c #7A71FF",
"A!.	c #D470E2",
"B!.	c #E489CE",
"C!.	c #2D77E0",
"D!.	c #1E7AD1",
"E!.	c #C2CCCE",
"F!.	c #9F9CF7",
"G!.	c #DC76D9",
"H!.	c #D788D9",
"I!.	c #257CDB",
"J!.	c #197CCD",
"K!.	c #9876FE",
"L!.	c #8A6FFE",
"M!.	c #C577EE",
"N!.	c #8B73FB",
"O!.	c #C992E5",
"P!.	c #2C7CDD",
"Q!.	c #96E7C7",
"R!.	c #90AFF0",
"S!.	c #D788D7",
"T!.	c #8467FF",
"U!.	c #6298F8",
"V!.	c #D382E1",
"W!.	c #E585CD",
"X!.	c #BF7DEB",
"Y!.	c #A57DFA",
"Z!.	c #697CFC",
"`!.	c #3F86EE",
" ~.	c #2C7EE4",
".~.	c #2189D0",
"+~.	c #3490E7",
"@~.	c #6E6CFB",
"#~.	c #7A8FFC",
"$~.	c #A795F9",
"%~.	c #9581FA",
"&~.	c #C08EED",
"*~.	c #DB72D7",
"=~.	c #CB6EE3",
"-~.	c #C188EF",
";~.	c #3484E5",
">~.	c #2280DA",
",~.	c #51EAB1",
"'~.	c #42D8BF",
")~.	c #4EBBE4",
"!~.	c #2681DE",
"~~.	c #858CFE",
"{~.	c #CF86E0",
"]~.	c #BB86EE",
"^~.	c #A37DF7",
"/~.	c #3F81F1",
"(~.	c #2B7AE1",
"_~.	c #2474D5",
":~.	c #3188E7",
"<~.	c #6C72FA",
"[~.	c #D68BDD",
"}~.	c #C690E6",
"|~.	c #41CAD0",
"1~.	c #2DCFC0",
"2~.	c #31CDC2",
"3~.	c #DB7CD8",
"4~.	c #D477E1",
"5~.	c #247BD8",
"6~.	c #8985FD",
"7~.	c #CA7DE5",
"8~.	c #B78DF3",
"9~.	c #9C84FC",
"0~.	c #657DFB",
"a~.	c #3C75E9",
"b~.	c #2979DC",
"c~.	c #2764D7",
"d~.	c #5379F6",
"e~.	c #9C7DFE",
"f~.	c #9087FC",
"g~.	c #E088D6",
"h~.	c #CE9BDD",
"i~.	c #B888EE",
"j~.	c #2386D7",
"k~.	c #1882CC",
"l~.	c #599AF4",
"m~.	c #30C9C4",
"n~.	c #45BBE1",
"o~.	c #DB83D7",
"p~.	c #D37DDE",
"q~.	c #466FED",
"r~.	c #3078E4",
"s~.	c #6696FA",
"t~.	c #CD7CE5",
"u~.	c #D873D9",
"v~.	c #627FFD",
"w~.	c #227BD7",
"x~.	c #2776DD",
"y~.	c #4471EE",
"z~.	c #568CF8",
"A~.	c #7EA2FA",
"B~.	c #C786EC",
"C~.	c #DD79D3",
"D~.	c #BB83F2",
"E~.	c #2480D7",
"F~.	c #2291D6",
"G~.	c #5CA2F7",
"H~.	c #2DC9BE",
"I~.	c #33CFC4",
"J~.	c #3F73EB",
"K~.	c #1E7ACF",
"L~.	c #C787E8",
"M~.	c #C381ED",
"N~.	c #4A67F3",
"O~.	c #9185FF",
"P~.	c #BD7DED",
"Q~.	c #2C7BE0",
"R~.	c #40C0DB",
"S~.	c #53A1F3",
"T~.	c #35D0C0",
"U~.	c #A7BCE7",
"V~.	c #7D5FFD",
"W~.	c #856CFC",
"X~.	c #C878EB",
"Y~.	c #DB86D7",
"Z~.	c #2783D8",
"`~.	c #C981E7",
" {.	c #BC80F2",
".{.	c #5A7CFA",
"+{.	c #88E4CF",
"@{.	c #68DED2",
"#{.	c #1A81D0",
"${.	c #9D95FA",
"%{.	c #7B5DF9",
"&{.	c #D179E7",
"*{.	c #BE79F0",
"={.	c #2684DB",
"-{.	c #1D80D3",
";{.	c #3978EA",
">{.	c #9172FB",
",{.	c #988AFB",
"'{.	c #DE79D5",
"){.	c #D77CDC",
"!{.	c #B883EF",
"~{.	c #B080F8",
"{{.	c #980BA7",
"]{.	c #6B0398",
"^{.	c #600CAA",
"/{.	c #2C7ADE",
"({.	c #6E8EFF",
"_{.	c #95A7F1",
":{.	c #A190F8",
"<{.	c #CD80E0",
"[{.	c #E782CE",
"}{.	c #BD82EE",
"|{.	c #5982F6",
"1{.	c #3F81EF",
"2{.	c #2580DB",
"3{.	c #1A7DD0",
"4{.	c #3787E6",
"5{.	c #906EFF",
"6{.	c #7F6BFF",
"7{.	c #7096F9",
"8{.	c #7A63FB",
"9{.	c #8A6DFB",
"0{.	c #C576EB",
"a{.	c #DE7ED8",
"b{.	c #0880A5",
"c{.	c #134398",
"d{.	c #8C0494",
"e{.	c #ED439C",
"f{.	c #F97FA8",
"g{.	c #1980CD",
"h{.	c #2E80E6",
"i{.	c #8DA1F8",
"j{.	c #81ADF8",
"k{.	c #709FF7",
"l{.	c #8F9CFA",
"m{.	c #E589CA",
"n{.	c #BF80EB",
"o{.	c #9F6CF9",
"p{.	c #BB73F1",
"q{.	c #539AF6",
"r{.	c #BA86F2",
"s{.	c #0D7FBB",
"t{.	c #B7BDDF",
"u{.	c #CED2B9",
"v{.	c #D5D7A5",
"w{.	c #EE82C0",
"x{.	c #4282EE",
"y{.	c #1B83CC",
"z{.	c #889AFE",
"A{.	c #7084FD",
"B{.	c #D38CDA",
"C{.	c #E387D0",
"D{.	c #C089EE",
"E{.	c #9E8AF9",
"F{.	c #3B84EA",
"G{.	c #2888DC",
"H{.	c #807EFB",
"I{.	c #AE5EF1",
"J{.	c #A748EA",
"K{.	c #6975FF",
"L{.	c #5D92FA",
"M{.	c #CD85E8",
"N{.	c #E489CC",
"O{.	c #167DC8",
"P{.	c #13B1B0",
"Q{.	c #DBD1AD",
"R{.	c #D6D0AE",
"S{.	c #ECB1B3",
"T{.	c #3C8BEA",
"U{.	c #8B77FA",
"V{.	c #9181FE",
"W{.	c #8C86FF",
"X{.	c #9285FB",
"Y{.	c #D285E5",
"Z{.	c #DE74D6",
"`{.	c #CE90E6",
" ].	c #5481F6",
".].	c #4282F0",
"+].	c #277FD9",
"@].	c #3180E5",
"#].	c #8C6AFD",
"$].	c #A24AEC",
"%].	c #D18EDE",
"&].	c #E18CD0",
"*].	c #B670ED",
"=].	c #1A99C6",
"-].	c #BBBAE2",
";].	c #D2D2AC",
">].	c #D0BECE",
",].	c #E88DC6",
"'].	c #3B8BEE",
")].	c #2188D3",
"!].	c #1A7ECC",
"~].	c #7E9FFC",
"{].	c #8898FA",
"]].	c #CD7AE6",
"^].	c #DD8BD3",
"/].	c #C481EA",
"(].	c #2E8AE1",
"_].	c #A079FA",
":].	c #D48ADF",
"<].	c #DA82D6",
"[].	c #CA75EC",
"}].	c #BF81F0",
"|].	c #BBB3E4",
"1].	c #D1D6AE",
"2].	c #2287D5",
"3].	c #1988CD",
"4].	c #387AE8",
"5].	c #6F83FF",
"6].	c #CB7AE3",
"7].	c #E57DCC",
"8].	c #B471F5",
"9].	c #9573FB",
"0].	c #268BDD",
"a].	c #A974F8",
"b].	c #D871DC",
"c].	c #CB7EE4",
"d].	c #CAD5B7",
"e].	c #C8C7CD",
"f].	c #ACA6EE",
"g].	c #8394FF",
"h].	c #D874D7",
"i].	c #1582C7",
"j].	c #7D6BFF",
"k].	c #8173FA",
"l].	c #9373FC",
"m].	c #8A8DFE",
"n].	c #6686FF",
"o].	c #8B63FA",
"p].	c #8960FC",
"q].	c #C17DEE",
"r].	c #647CFF",
"s].	c #4B83F2",
"t].	c #1F92CB",
"u].	c #9999F9",
"v].	c #7792FD",
"w].	c #6E6FFD",
"x].	c #9D7AFC",
"y].	c #D169E4",
"z].	c #E072D1",
"A].	c #D78ADA",
"B].	c #BD84EF",
"C].	c #227BD5",
"D].	c #DB77D9",
"E].	c #267DDC",
"F].	c #1C87CD",
"G].	c #2D88E1",
"H].	c #6F9BFA",
"I].	c #9194FF",
"J].	c #8B7CFB",
"K].	c #CA82E5",
"L].	c #BE7FF1",
"M].	c #608AFA",
"N].	c #4584ED",
"O].	c #307AE5",
"P].	c #1C7AD1",
"Q].	c #7095FD",
"R].	c #836DFE",
"S].	c #B77CF2",
"T].	c #2287D9",
"U].	c #DB8AD9",
"V].	c #DA86DC",
"W].	c #1A8CCA",
"X].	c #8D70FE",
"Y].	c #8DADF6",
"Z].	c #678BFB",
"`].	c #CE82E4",
" ^.	c #DE80CE",
".^.	c #C779E7",
"+^.	c #9A87FA",
"@^.	c #6588FE",
"#^.	c #3B82EC",
"$^.	c #8F7CFA",
"%^.	c #E788CC",
"&^.	c #AB7AF7",
"*^.	c #3BD9C0",
"=^.	c #50BBE7",
"-^.	c #9073FF",
";^.	c #D288E1",
">^.	c #3A83E9",
",^.	c #2C7FE5",
"'^.	c #268CDE",
")^.	c #8D88FE",
"!^.	c #939BFD",
"~^.	c #84A2F8",
"{^.	c #C987E8",
"]^.	c #E184D5",
"^^.	c #C881E7",
"/^.	c #A882FC",
"(^.	c #3C79EC",
"_^.	c #2E77DE",
":^.	c #7F69FC",
"<^.	c #D281DE",
"[^.	c #CE6DE1",
"}^.	c #B678F5",
"|^.	c #1A74CC",
"1^.	c #42C8D1",
"2^.	c #2FD0BE",
"3^.	c #32CCC0",
"4^.	c #3DB6E1",
"5^.	c #227ED3",
"6^.	c #2B91DC",
"7^.	c #6898FA",
"8^.	c #6B7FFA",
"9^.	c #BB8FEE",
"0^.	c #D494DE",
"a^.	c #3279E5",
"b^.	c #9984FB",
"c^.	c #D078E0",
"d^.	c #D472DF",
"e^.	c #BC7CEE",
"f^.	c #589AF8",
"g^.	c #3BC8D2",
"h^.	c #4381F0",
"i^.	c #38A6E1",
"j^.	c #5CB7EE",
"k^.	c #86A6FB",
"l^.	c #8D6DFC",
"m^.	c #CA8EE8",
"n^.	c #E288CE",
"o^.	c #CD8BE2",
"p^.	c #B781F1",
"q^.	c #9F73FC",
"r^.	c #698BF9",
"s^.	c #CE7BE5",
"t^.	c #DF79CD",
"u^.	c #BB7FF1",
"v^.	c #2A92D9",
"w^.	c #5DA1F4",
"x^.	c #33BED3",
"y^.	c #2FC9BF",
"z^.	c #34CEC4",
"A^.	c #D890DC",
"B^.	c #D378E1",
"C^.	c #4B82F6",
"D^.	c #5477F9",
"E^.	c #9B8EFA",
"F^.	c #8990FB",
"G^.	c #8D99FD",
"H^.	c #5B83FC",
"I^.	c #AE7CF5",
"J^.	c #CF89E2",
"K^.	c #DC74D7",
"L^.	c #CF73E2",
"M^.	c #B380F6",
"N^.	c #647DFC",
"O^.	c #437FEF",
"P^.	c #8B83FA",
"Q^.	c #CB7DE3",
"R^.	c #B980F1",
"S^.	c #4BC3DE",
"T^.	c #53A0F2",
"U^.	c #3EC8D2",
"V^.	c #3BD4C2",
"W^.	c #AEB9E6",
"X^.	c #3F49DF",
"Y^.	c #6847EE",
"Z^.	c #6077FB",
"`^.	c #9493F9",
" /.	c #97A1F8",
"./.	c #9797FB",
"+/.	c #6577FD",
"@/.	c #6F60F9",
"#/.	c #6490FB",
"$/.	c #AA70F8",
"%/.	c #BE60EA",
"&/.	c #DA6FD7",
"*/.	c #BC76F2",
"=/.	c #3D84EE",
"-/.	c #397BEB",
";/.	c #7D72FC",
">/.	c #718DFB",
",/.	c #CF7CE8",
"'/.	c #5D7FFB",
")/.	c #8FE3CC",
"!/.	c #5FACF2",
"~/.	c #3DC5D3",
"{/.	c #70DED5",
"]/.	c #A283F8",
"^/.	c #2772D8",
"//.	c #1B74CE",
"(/.	c #336EE6",
"_/.	c #6F60FB",
":/.	c #8B8FFB",
"</.	c #6C79FB",
"[/.	c #4C71F5",
"}/.	c #8663FD",
"|/.	c #596FF8",
"1/.	c #8F59F7",
"2/.	c #C95FE3",
"3/.	c #CB79E8",
"4/.	c #2B87DE",
"5/.	c #747CFF",
"6/.	c #908EFB",
"7/.	c #CF78E3",
"8/.	c #D87DDC",
"9/.	c #B776EE",
"0/.	c #B67CF4",
"a/.	c #6208A5",
"b/.	c #4881F4",
"c/.	c #278ADD",
"d/.	c #347BE5",
"e/.	c #A86AF3",
"f/.	c #7256F6",
"g/.	c #5261F2",
"h/.	c #7C56F7",
"i/.	c #D47CE2",
"j/.	c #DF83D0",
"k/.	c #D585DC",
"l/.	c #C581E8",
"m/.	c #4080EE",
"n/.	c #8391FE",
"o/.	c #897DFB",
"p/.	c #6B7FFC",
"q/.	c #CA7CE9",
"r/.	c #BC72EF",
"s/.	c #0583A9",
"t/.	c #A90B9E",
"u/.	c #FB83A7",
"v/.	c #4B94F0",
"w/.	c #279CD2",
"x/.	c #1887CC",
"y/.	c #926FFF",
"z/.	c #9359F9",
"A/.	c #6D70FB",
"B/.	c #566DF9",
"C/.	c #6F5BF8",
"D/.	c #997CFC",
"E/.	c #C286EA",
"F/.	c #A283FA",
"G/.	c #4583F2",
"H/.	c #1E8BD0",
"I/.	c #3888E9",
"J/.	c #73ABF5",
"K/.	c #1189BB",
"L/.	c #B8BEE2",
"M/.	c #D4D6A5",
"N/.	c #EABE9B",
"O/.	c #F08ABA",
"P/.	c #4C90F5",
"Q/.	c #248BDA",
"R/.	c #1589C2",
"S/.	c #2E8FE0",
"T/.	c #9093FC",
"U/.	c #627BFA",
"V/.	c #658AFC",
"W/.	c #7497FF",
"X/.	c #9E87F9",
"Y/.	c #9E8EF9",
"Z/.	c #E57CCE",
"`/.	c #C087F0",
" (.	c #9B81FE",
".(.	c #4A87F1",
"+(.	c #1C8FC8",
"@(.	c #9184FA",
"#(.	c #5A8CFB",
"$(.	c #528DF5",
"%(.	c #9583FB",
"&(.	c #C58CEA",
"*(.	c #D4CEB8",
"=(.	c #D7D2AA",
"-(.	c #EDACB2",
";(.	c #4489EE",
">(.	c #1980CB",
",(.	c #9158F5",
"'(.	c #805DF9",
")(.	c #76ACF6",
"!(.	c #9290FB",
"~(.	c #9B8FFD",
"{(.	c #E076D2",
"](.	c #498EF3",
"^(.	c #3480E2",
"/(.	c #1A8ACA",
"((.	c #3095E3",
"_(.	c #6D9EFB",
":(.	c #5E7DFC",
"<(.	c #A181FC",
"[(.	c #8066FF",
"}(.	c #8E8AF9",
"|(.	c #E27BCE",
"1(.	c #D777D9",
"2(.	c #C87DE4",
"3(.	c #1498BE",
"4(.	c #D3D6A7",
"5(.	c #CCBFC9",
"6(.	c #ED8AC0",
"7(.	c #4080EC",
"8(.	c #147BC6",
"9(.	c #2979DA",
"0(.	c #8461FD",
"a(.	c #9965F8",
"b(.	c #A784F8",
"c(.	c #2E76E2",
"d(.	c #34A2DF",
"e(.	c #8199FB",
"f(.	c #6E9AF9",
"g(.	c #7994FB",
"h(.	c #7990FF",
"i(.	c #C183E8",
"j(.	c #E780CF",
"k(.	c #2976E0",
"l(.	c #1984CA",
"m(.	c #BDB0E5",
"n(.	c #CFD2B5",
"o(.	c #C4CDCA",
"p(.	c #E885C8",
"q(.	c #3A75E9",
"r(.	c #1680CC",
"s(.	c #2583DA",
"t(.	c #7083FB",
"u(.	c #8A90FF",
"v(.	c #9670FB",
"w(.	c #E389D1",
"x(.	c #DA82D8",
"y(.	c #C881EB",
"z(.	c #A68AF9",
"A(.	c #6487FD",
"B(.	c #4175EB",
"C(.	c #327BE2",
"D(.	c #3D8EEA",
"E(.	c #66A7F7",
"F(.	c #826BFA",
"G(.	c #7A4CF4",
"H(.	c #C195EE",
"I(.	c #C67AE7",
"J(.	c #2C77DD",
"K(.	c #C7C7CF",
"L(.	c #ADA7EF",
"M(.	c #1783CB",
"N(.	c #2D81E3",
"O(.	c #8396FC",
"P(.	c #69ADF6",
"Q(.	c #8C8CFA",
"R(.	c #D38ADC",
"S(.	c #A683F9",
"T(.	c #4E69F4",
"U(.	c #748AFA",
"V(.	c #597CFA",
"W(.	c #5683F6",
"X(.	c #9075FA",
"Y(.	c #5A8EFB",
"Z(.	c #3674E5",
"`(.	c #BC78EF",
" _.	c #C387EB",
"._.	c #D687E0",
"+_.	c #C5E5A4",
"@_.	c #CED9AF",
"#_.	c #C2C9D1",
"$_.	c #9082FD",
"%_.	c #E579CE",
"&_.	c #E085D2",
"*_.	c #3C87ED",
"=_.	c #268AD8",
"-_.	c #188CC7",
";_.	c #2F8BDE",
">_.	c #9970FD",
",_.	c #578BF9",
"'_.	c #8372FC",
")_.	c #D67CDE",
"!_.	c #E777CD",
"~_.	c #C57FEF",
"{_.	c #AC77F9",
"]_.	c #2C85E1",
"^_.	c #5555F3",
"/_.	c #7A4FF4",
"(_.	c #6572FC",
"__.	c #739FF8",
":_.	c #815FFC",
"<_.	c #A154F2",
"[_.	c #805BF9",
"}_.	c #5287F7",
"|_.	c #86ACF7",
"1_.	c #9777FE",
"2_.	c #BD86EE",
"3_.	c #87F9A2",
"4_.	c #9AE7C7",
"5_.	c #E182D3",
"6_.	c #2989DF",
"7_.	c #148FC8",
"8_.	c #2D98DE",
"9_.	c #708AF9",
"0_.	c #756BFF",
"a_.	c #747DFC",
"b_.	c #E572CD",
"c_.	c #C27CEC",
"d_.	c #A774F7",
"e_.	c #4C81F3",
"f_.	c #2E5FDF",
"g_.	c #9543EF",
"h_.	c #6A5AF9",
"i_.	c #846DFC",
"j_.	c #5F76FA",
"k_.	c #8F55F5",
"l_.	c #917BFF",
"m_.	c #D178E2",
"n_.	c #E286D1",
"o_.	c #1E81D6",
"p_.	c #4FEDB2",
"q_.	c #40D8BF",
"r_.	c #DC83D5",
"s_.	c #317AE1",
"t_.	c #1A76CD",
"u_.	c #2A95DB",
"v_.	c #6378F8",
"w_.	c #C17CE7",
"x_.	c #A57BFB",
"y_.	c #2871D8",
"z_.	c #1672C9",
"A_.	c #845FFC",
"B_.	c #7757F8",
"C_.	c #965AF6",
"D_.	c #8753F6",
"E_.	c #5C80FB",
"F_.	c #CC8AE4",
"G_.	c #1E73CE",
"H_.	c #9166FC",
"I_.	c #246BD7",
"J_.	c #2163D1",
"K_.	c #3585E8",
"L_.	c #5E8FF8",
"M_.	c #716CFC",
"N_.	c #6D69FC",
"O_.	c #7268FC",
"P_.	c #9973FE",
"Q_.	c #CA7FE4",
"R_.	c #C783EA",
"S_.	c #A57FF8",
"T_.	c #697AFC",
"U_.	c #4099ED",
"V_.	c #6D97FD",
"W_.	c #5A6DF8",
"X_.	c #635EF9",
"Y_.	c #7F55F7",
"Z_.	c #A765FA",
"`_.	c #8671FC",
" :.	c #9D7CFE",
".:.	c #A5A7F4",
"+:.	c #BF8DF0",
"@:.	c #B98BEE",
"#:.	c #579DF5",
"$:.	c #32CEC1",
"%:.	c #43B9DD",
"&:.	c #E883C9",
"*:.	c #2F7CE4",
"=:.	c #2289D4",
"-:.	c #4983F1",
";:.	c #617FFB",
">:.	c #726EFF",
",:.	c #7B67FE",
"':.	c #9682FB",
"):.	c #2086D1",
"!:.	c #5572F4",
"~:.	c #4B70F2",
"{:.	c #6274FE",
"]:.	c #9C94F9",
"^:.	c #A488F9",
"/:.	c #7061FA",
"(:.	c #928AFF",
"_:.	c #B58AF3",
"::.	c #9E82F9",
"<:.	c #7362FC",
"[:.	c #C474EF",
"}:.	c #D77BDE",
"|:.	c #277EDB",
"1:.	c #2594DB",
"2:.	c #34BDD0",
"3:.	c #2CC9BE",
"4:.	c #36CDC6",
"5:.	c #E08FD1",
"6:.	c #2D89E0",
"7:.	c #288DDB",
"8:.	c #608CF9",
"9:.	c #7394FB",
"0:.	c #6188FD",
"a:.	c #9B9FF8",
"b:.	c #8676FB",
"c:.	c #7089FD",
"d:.	c #D983DA",
"e:.	c #657EFC",
"f:.	c #2F7FE0",
"g:.	c #316EE3",
"h:.	c #646CFD",
"i:.	c #90A9F9",
"j:.	c #8F97FA",
"k:.	c #7E5CFB",
"l:.	c #CE7DE6",
"m:.	c #D87FDB",
"n:.	c #45C3DC",
"o:.	c #53A2F1",
"p:.	c #3EC7D1",
"q:.	c #C4B5DE",
"r:.	c #D683DD",
"s:.	c #2693D6",
"t:.	c #6B71FD",
"u:.	c #6397FC",
"v:.	c #7C97FE",
"w:.	c #93B2F2",
"x:.	c #939EF8",
"y:.	c #9880FC",
"z:.	c #DD80D9",
"A:.	c #2583DD",
"B:.	c #1A7BCC",
"C:.	c #3173E1",
"D:.	c #D982E0",
"E:.	c #8AE3CF",
"F:.	c #5FABF6",
"G:.	c #34CABF",
"H:.	c #B97DEF",
"I:.	c #278CDE",
"J:.	c #1E90CF",
"K:.	c #5B6CFA",
"L:.	c #8C98FA",
"M:.	c #89A5F9",
"N:.	c #6484FF",
"O:.	c #87A1FE",
"P:.	c #CC86E6",
"Q:.	c #E684CF",
"R:.	c #826CFD",
"S:.	c #9985FE",
"T:.	c #9B92FB",
"U:.	c #CC84E7",
"V:.	c #6A09A8",
"W:.	c #1F86D1",
"X:.	c #2C90DC",
"Y:.	c #6491F8",
"Z:.	c #856FFE",
"`:.	c #D77ED8",
" <.	c #277ADA",
".<.	c #1B76C9",
"+<.	c #A892F7",
"@<.	c #BA91F1",
"#<.	c #DD7FD3",
"$<.	c #BB81F1",
"%<.	c #057FA6",
"&<.	c #14439B",
"*<.	c #91029A",
"=<.	c #AA0C9F",
"-<.	c #EE4797",
";<.	c #FA7DA5",
"><.	c #4679EF",
",<.	c #328BE7",
"'<.	c #5587F8",
")<.	c #707CFF",
"!<.	c #6068F9",
"~<.	c #D286DE",
"{<.	c #6A7EFB",
"]<.	c #2477D7",
"^<.	c #1578CD",
"/<.	c #90AAF7",
"(<.	c #C182EA",
"_<.	c #DB8FD9",
":<.	c #1083BA",
"<<.	c #EEBD9F",
"[<.	c #F47AB7",
"}<.	c #4A6AF1",
"|<.	c #2E70E1",
"1<.	c #2274D7",
"2<.	c #3373E1",
"3<.	c #5578F8",
"4<.	c #717AFD",
"5<.	c #5C87FA",
"6<.	c #A394F9",
"7<.	c #C17BEB",
"8<.	c #657CFE",
"9<.	c #3E79EF",
"0<.	c #277FD8",
"a<.	c #1C87CF",
"b<.	c #8E89FD",
"c<.	c #849AFD",
"d<.	c #D18BE4",
"e<.	c #1C84CB",
"f<.	c #11AFB0",
"g<.	c #8F8CFF",
"h<.	c #D7D4A9",
"i<.	c #EBAFB1",
"j<.	c #DF7AD6",
"k<.	c #4173EE",
"l<.	c #316CE4",
"m<.	c #3865E4",
"n<.	c #6079FA",
"o<.	c #6E71FE",
"p<.	c #8098FA",
"q<.	c #77A0FA",
"r<.	c #CD79E8",
"s<.	c #9D84FA",
"t<.	c #417FEC",
"u<.	c #2B8FDD",
"v<.	c #AA73F5",
"w<.	c #9F77FB",
"x<.	c #7265FB",
"y<.	c #8E61F8",
"z<.	c #D188E1",
"A<.	c #D086E5",
"B<.	c #B783F1",
"C<.	c #BAB9E3",
"D<.	c #D1D1B7",
"E<.	c #D2BBCB",
"F<.	c #237FD4",
"G<.	c #3478E7",
"H<.	c #7175FD",
"I<.	c #7776FF",
"J<.	c #826AFE",
"K<.	c #9E76FD",
"L<.	c #CB85E7",
"M<.	c #9E80FC",
"N<.	c #4485ED",
"O<.	c #3089E7",
"P<.	c #6E82FB",
"Q<.	c #9F88FA",
"R<.	c #7256F9",
"S<.	c #B376F5",
"T<.	c #DA75DB",
"U<.	c #DE76D7",
"V<.	c #D281E0",
"W<.	c #D4D6AF",
"X<.	c #C3CEC8",
"Y<.	c #A4B8EB",
"Z<.	c #3173E3",
"`<.	c #6F73FB",
" [.	c #6A7FFE",
".[.	c #6C64F8",
"+[.	c #9A5AF7",
"@[.	c #BF80F2",
"#[.	c #2E72DD",
"$[.	c #686FFD",
"%[.	c #E27CCF",
"&[.	c #CBD6B8",
"*[.	c #D7D3A4",
"=[.	c #7488FF",
"-[.	c #7792FB",
";[.	c #5278F7",
">[.	c #559CF4",
",[.	c #C37FEE",
"'[.	c #3C7EEF",
")[.	c #2D76DF",
"![.	c #8B71F9",
"~[.	c #8759FA",
"{[.	c #9064F9",
"][.	c #9079FD",
"^[.	c #D67DD9",
"/[.	c #B37CF4",
"([.	c #1E79D2",
"_[.	c #4678F1",
":[.	c #3D92EC",
"<[.	c #717EFE",
"[[.	c #6668FB",
"}[.	c #676DF9",
"|[.	c #85B2F3",
"1[.	c #859CFA",
"2[.	c #6E75FA",
"3[.	c #D384DD",
"4[.	c #607CF9",
"5[.	c #706FFB",
"6[.	c #996CFD",
"7[.	c #AB66F5",
"8[.	c #E37BD2",
"9[.	c #D670DE",
"0[.	c #BB77F2",
"a[.	c #257FD7",
"b[.	c #2286D4",
"c[.	c #88FAA5",
"d[.	c #8DAEF3",
"e[.	c #2F76E2",
"f[.	c #257EDC",
"g[.	c #366AE2",
"h[.	c #676EFA",
"i[.	c #6280FA",
"j[.	c #A0A9F6",
"k[.	c #899CFB",
"l[.	c #6988FD",
"m[.	c #C086ED",
"n[.	c #2C80E2",
"o[.	c #2A7CE0",
"p[.	c #8D76FC",
"q[.	c #6597F8",
"r[.	c #8895FE",
"s[.	c #D677DD",
"t[.	c #E47CD3",
"u[.	c #1F81D8",
"v[.	c #3FD9C1",
"w[.	c #D98ADD",
"x[.	c #D486DC",
"y[.	c #4184EF",
"z[.	c #2D73E2",
"A[.	c #3566E6",
"B[.	c #93A3FA",
"C[.	c #947EFA",
"D[.	c #6169F8",
"E[.	c #9868F8",
"F[.	c #C088ED",
"G[.	c #6285FD",
"H[.	c #2883DC",
"I[.	c #197FC9",
"J[.	c #9A8CFB",
"K[.	c #D974DC",
"L[.	c #D682E2",
"M[.	c #1C74CD",
"N[.	c #33CDC3",
"O[.	c #237FD6",
"P[.	c #4185EA",
"Q[.	c #688CFC",
"R[.	c #9A66F9",
"S[.	c #D062DF",
"T[.	c #E76BC9",
"U[.	c #C07AEA",
"V[.	c #258FD9",
"W[.	c #9594FC",
"X[.	c #6376F9",
"Y[.	c #6977FC",
"Z[.	c #948CFC",
"`[.	c #7CA0FE",
" }.	c #86A6F9",
".}.	c #D37FDF",
"+}.	c #C17DEC",
"@}.	c #2ECFC0",
"#}.	c #4090EF",
"$}.	c #2A97DA",
"%}.	c #1D87D1",
"&}.	c #2F93E1",
"*}.	c #759CFB",
"=}.	c #7CA6FA",
"-}.	c #5A96F6",
";}.	c #638DFB",
">}.	c #C76BE8",
",}.	c #DA80D7",
"'}.	c #7DA5FA",
")}.	c #8498FB",
"!}.	c #98A4F8",
"~}.	c #60A1F5",
"{}.	c #35BFCC",
"]}.	c #2EC8C0",
"^}.	c #51C4E3",
"/}.	c #D785D9",
"(}.	c #4581EF",
"_}.	c #228FD2",
":}.	c #389AE5",
"<}.	c #5796F5",
"[}.	c #948EFA",
"}}.	c #859FFC",
"|}.	c #669DF8",
"1}.	c #5F9AF8",
"2}.	c #E88AC8",
"3}.	c #9883FA",
"4}.	c #6280F8",
"5}.	c #457CF3",
"6}.	c #3890E7",
"7}.	c #6761F9",
"8}.	c #866AFB",
"9}.	c #825EFC",
"0}.	c #E47DCC",
"a}.	c #CE78E5",
"b}.	c #BF7AEE",
"c}.	c #3FC8D0",
"d}.	c #B7B8E4",
"e}.	c #CF76E4",
"f}.	c #2F83E3",
"g}.	c #5D85F7",
"h}.	c #7F9EFB",
"i}.	c #A593F7",
"j}.	c #928EFF",
"k}.	c #638BFA",
"l}.	c #7492FF",
"m}.	c #C985E8",
"n}.	c #E693C9",
"o}.	c #6886FF",
"p}.	c #2489DB",
"q}.	c #4190EC",
"r}.	c #6A93FC",
"s}.	c #6496F7",
"t}.	c #6F6DFC",
"u}.	c #8668FA",
"v}.	c #9666F8",
"w}.	c #D478DD",
"x}.	c #657EFD",
"y}.	c #86E3CE",
"z}.	c #40C4D3",
"A}.	c #33CDC1",
"B}.	c #6FDFD3",
"C}.	c #A26CF6",
"D}.	c #2E72E1",
"E}.	c #6F94FC",
"F}.	c #8A98F9",
"G}.	c #E97DC8",
"H}.	c #BD81F2",
"I}.	c #4182EA",
"J}.	c #2B8EE1",
"K}.	c #2487DA",
"L}.	c #3F7FEB",
"M}.	c #6080F9",
"N}.	c #D56DDE",
"O}.	c #C387E9",
"P}.	c #9C0BA8",
"Q}.	c #760394",
"R}.	c #6C039B",
"S}.	c #4E7CF4",
"T}.	c #4D87F2",
"U}.	c #3179E7",
"V}.	c #2077D6",
"W}.	c #3F82ED",
"X}.	c #8B92FD",
"Y}.	c #8B9EFD",
"Z}.	c #637FFA",
"`}.	c #A680F7",
" |.	c #4E77F5",
".|.	c #6668F9",
"+|.	c #E781CB",
"@|.	c #D783D9",
"#|.	c #BF84F0",
"$|.	c #134397",
"%|.	c #8D049A",
"&|.	c #F884A7",
"*|.	c #498FEF",
"=|.	c #2483D7",
"-|.	c #388BEB",
";|.	c #8E92FD",
">|.	c #6FA6F9",
",|.	c #68A6F9",
"'|.	c #5690F4",
")|.	c #607DFD",
"!|.	c #C29EE8",
"~|.	c #E583CC",
"{|.	c #DB83D9",
"]|.	c #9F86FC",
"^|.	c #6686FD",
"/|.	c #3886EA",
"(|.	c #2577DA",
"_|.	c #2A81E2",
":|.	c #3D9FE8",
"<|.	c #8B6EFE",
"[|.	c #8769FF",
"}|.	c #6469FB",
"||.	c #BB77F0",
"1|.	c #1080BF",
"2|.	c #14BCA3",
"3|.	c #EABF9D",
"4|.	c #F281B9",
"5|.	c #2D8EDF",
"6|.	c #3A8EE8",
"7|.	c #8689FA",
"8|.	c #6785FF",
"9|.	c #7AA2F7",
"0|.	c #698EF9",
"a|.	c #5492F7",
"b|.	c #C98DE7",
"c|.	c #DF88D6",
"d|.	c #D783DB",
"e|.	c #C289EA",
"f|.	c #3E82ED",
"g|.	c #2E89E4",
"h|.	c #376FE6",
"i|.	c #5773FB",
"j|.	c #6178FC",
"k|.	c #707AFD",
"l|.	c #7C5AF9",
"m|.	c #9586FD",
"n|.	c #E473CB",
"o|.	c #DE7ADD",
"p|.	c #BE7CEA",
"q|.	c #D3CFB6",
"r|.	c #E281D0",
"s|.	c #587BFD",
"t|.	c #2F8FE3",
"u|.	c #2289D6",
"v|.	c #3D89E7",
"w|.	c #8D7EFF",
"x|.	c #978FFE",
"y|.	c #568AFA",
"z|.	c #C372EA",
"A|.	c #E084D1",
"B|.	c #D988D7",
"C|.	c #4279EE",
"D|.	c #5E93F9",
"E|.	c #779BF9",
"F|.	c #616EFA",
"G|.	c #8C6FFF",
"H|.	c #C47AEB",
"I|.	c #2982E0",
"J|.	c #189BC5",
"K|.	c #B8BBDE",
"L|.	c #D7D6AA",
"M|.	c #DA85D6",
"N|.	c #878DFF",
"O|.	c #6C68FB",
"P|.	c #4F74F6",
"Q|.	c #1E82CE",
"R|.	c #3A83EC",
"S|.	c #63A8F5",
"T|.	c #5E87FB",
"U|.	c #6F70FE",
"V|.	c #D3CEB8",
"W|.	c #D4D7AA",
"X|.	c #C3CFCB",
"Y|.	c #DB86D9",
"Z|.	c #3074E1",
"`|.	c #4F78F6",
" 1.	c #6792FB",
".1.	c #C884E7",
"+1.	c #3080E1",
"@1.	c #7477FC",
"#1.	c #4C84F3",
"$1.	c #6FA3F9",
"%1.	c #919BFC",
"&1.	c #E67FCE",
"*1.	c #C38AEB",
"=1.	c #D6D6A2",
"-1.	c #D4D2AB",
";1.	c #8495FF",
">1.	c #D687DA",
",1.	c #3278E7",
"'1.	c #538CF7",
")1.	c #1F83D1",
"!1.	c #6F96FD",
"~1.	c #DB84D5",
"{1.	c #C2E7A2",
"]1.	c #C3CAD2",
"^1.	c #A09DF8",
"/1.	c #E278D4",
"(1.	c #5077F6",
"_1.	c #C38CEA",
":1.	c #D97FD6",
"<1.	c #9B87FF",
"[1.	c #4089EF",
"}1.	c #8A9AFC",
"|1.	c #6871FE",
"11.	c #6E77FA",
"21.	c #7EA1FB",
"31.	c #699EFC",
"41.	c #7473FD",
"51.	c #916EFC",
"61.	c #D37BE3",
"71.	c #E57ECD",
"81.	c #BB74EE",
"91.	c #2B76DC",
"01.	c #768EFA",
"a1.	c #69ECC4",
"b1.	c #8CFB9F",
"c1.	c #75FB9A",
"d1.	c #70FC99",
"e1.	c #75FC9D",
"f1.	c #88F8A2",
"g1.	c #DF81D7",
"h1.	c #4280ED",
"i1.	c #587FF8",
"j1.	c #4F8CF7",
"k1.	c #7D96FB",
"l1.	c #C5A2E4",
"m1.	c #DF89D2",
"n1.	c #D883DE",
"o1.	c #A083F9",
"p1.	c #1F80D1",
"q1.	c #4377F1",
"r1.	c #8791FF",
"s1.	c #6393F7",
"t1.	c #6B75FB",
"u1.	c #9772FD",
"v1.	c #D775DA",
"w1.	c #8069FF",
"x1.	c #909EF7",
"y1.	c #ADC1E2",
"z1.	c #B9DDC1",
"A1.	c #A5EFB2",
"B1.	c #8DF4AD",
"C1.	c #86F3AF",
"D1.	c #8BEFB9",
"E1.	c #86F2B4",
"F1.	c #77F0BA",
"G1.	c #79F5AC",
"H1.	c #7FF9AE",
"I1.	c #7CF5A6",
"J1.	c #88F7AA",
"K1.	c #7CF4B4",
"L1.	c #DD8AD2",
"M1.	c #DD80DB",
"N1.	c #817AFB",
"O1.	c #7F8BF9",
"P1.	c #64A0F8",
"Q1.	c #7496F8",
"R1.	c #BC87EF",
"S1.	c #D98BD6",
"T1.	c #9A7BFC",
"U1.	c #1581C9",
"V1.	c #9860F9",
"W1.	c #DB7AD7",
"X1.	c #AA8AF9",
"Y1.	c #C5AFDE",
"Z1.	c #CBCAC8",
"`1.	c #CCCDBF",
" 2.	c #BFCECB",
".2.	c #7ECFE4",
"+2.	c #86C6EC",
"@2.	c #7EC3ED",
"#2.	c #86C0EE",
"$2.	c #80BCF2",
"%2.	c #75BAF1",
"&2.	c #7DB3F3",
"*2.	c #7AB7F0",
"=2.	c #7CBAF3",
"-2.	c #81BDEF",
";2.	c #76B9EE",
">2.	c #7FB6EF",
",2.	c #88BDF1",
"'2.	c #7FB8ED",
")2.	c #82BCEE",
"!2.	c #77C8E3",
"~2.	c #82D0E6",
"{2.	c #81C6ED",
"]2.	c #88CCE3",
"^2.	c #8AC9EC",
"/2.	c #3ECBD4",
"(2.	c #31CEBD",
"_2.	c #3576EA",
":2.	c #267ADA",
"<2.	c #7A92FE",
"[2.	c #D483E2",
"}2.	c #B77AF3",
"|2.	c #6282FD",
"12.	c #2A6BDF",
"22.	c #2D91DC",
"32.	c #9779FF",
"42.	c #6375FB",
"52.	c #C278EB",
"62.	c #9F9FF7",
"72.	c #BAC5D9",
"82.	c #CBCBC3",
"92.	c #CDCDC3",
"02.	c #A59DF3",
"a2.	c #3DC7D1",
"b2.	c #30CCBE",
"c2.	c #31C7C5",
"d2.	c #44BCDE",
"e2.	c #DA74DA",
"f2.	c #456EEE",
"g2.	c #356BE5",
"h2.	c #2D6FDD",
"i2.	c #3E75EC",
"j2.	c #7C68FB",
"k2.	c #9267FD",
"l2.	c #4E8DF6",
"m2.	c #7794FC",
"n2.	c #CA83E9",
"o2.	c #DB76D4",
"p2.	c #BE7BEC",
"q2.	c #2977DC",
"r2.	c #2572DA",
"s2.	c #2E87E1",
"t2.	c #687AFA",
"u2.	c #9872FB",
"v2.	c #9A7DFD",
"w2.	c #6D77FD",
"x2.	c #6661FB",
"y2.	c #BD6EEB",
"z2.	c #E26ED1",
"A2.	c #D86BD4",
"B2.	c #C56BE7",
"C2.	c #2A94E0",
"D2.	c #C3B9DE",
"E2.	c #2EC9C3",
"F2.	c #52C3E1",
"G2.	c #D791D9",
"H2.	c #D06FE2",
"I2.	c #4268ED",
"J2.	c #2B6EE1",
"K2.	c #8B68FA",
"L2.	c #A671F5",
"M2.	c #DF70D6",
"N2.	c #5F72FC",
"O2.	c #3673E8",
"P2.	c #B870F0",
"Q2.	c #DC63D6",
"R2.	c #D85CD6",
"S2.	c #C75BE2",
"T2.	c #59C6E3",
"U2.	c #D3C9C0",
"V2.	c #C5BBD4",
"W2.	c #A2A2F8",
"X2.	c #55A0F3",
"Y2.	c #A8BAE8",
"Z2.	c #BE68ED",
"`2.	c #4161E8",
" 3.	c #3966E5",
".3.	c #3369E5",
"+3.	c #5477F5",
"@3.	c #805EFD",
"#3.	c #6160F9",
"$3.	c #B46BF1",
"%3.	c #C483E9",
"&3.	c #6474FD",
"*3.	c #3C7EEC",
"=3.	c #8071FF",
"-3.	c #D35CDC",
";3.	c #D557D4",
">3.	c #CC4FDB",
",3.	c #A150F3",
"'3.	c #A5E1C8",
")3.	c #BEC3D6",
"!3.	c #A59CF9",
"~3.	c #8772FB",
"{3.	c #7F89FC",
"]3.	c #35CBC2",
"^3.	c #60DCD2",
"/3.	c #7961FD",
"(3.	c #415CEB",
"_3.	c #395FE4",
":3.	c #3B66E8",
"<3.	c #5D6CF9",
"[3.	c #6D60F8",
"}3.	c #6E69FB",
"|3.	c #B77CF0",
"13.	c #3D80EB",
"23.	c #2282D6",
"33.	c #6093FC",
"43.	c #C379EA",
"53.	c #D059D7",
"63.	c #C543D9",
"73.	c #DD4FC9",
"83.	c #E56CCD",
"93.	c #B744DF",
"03.	c #9128DA",
"a3.	c #861CD4",
"b3.	c #851ECF",
"c3.	c #811FD4",
"d3.	c #821DD1",
"e3.	c #7E1FD3",
"f3.	c #8122D4",
"g3.	c #7F20D4",
"h3.	c #7B20D3",
"i3.	c #8021D7",
"j3.	c #8223D7",
"k3.	c #8220D5",
"l3.	c #7D1ED0",
"m3.	c #8021D5",
"n3.	c #8021D3",
"o3.	c #8321D6",
"p3.	c #7F24D7",
"q3.	c #8025DA",
"r3.	c #8524D5",
"s3.	c #8023D6",
"t3.	c #8519CE",
"u3.	c #821ECE",
"v3.	c #7E1CD1",
"w3.	c #811ACD",
"x3.	c #801ECD",
"y3.	c #801BCF",
"z3.	c #831ACC",
"A3.	c #7E16C5",
"B3.	c #8417CA",
"C3.	c #8018CD",
"D3.	c #8116C8",
"E3.	c #8318CA",
"F3.	c #7F18CB",
"G3.	c #7E1CD3",
"H3.	c #8019CC",
"I3.	c #821AC9",
"J3.	c #8217C9",
"K3.	c #8017C9",
"L3.	c #7B18CB",
"M3.	c #8418CD",
"N3.	c #7C15C4",
"O3.	c #7918C7",
"P3.	c #7C1AC9",
"Q3.	c #7D1ACD",
"R3.	c #7F1ACE",
"S3.	c #7F1DD2",
"T3.	c #8221D3",
"U3.	c #7924DA",
"V3.	c #841FD3",
"W3.	c #7F21D7",
"X3.	c #8019CA",
"Y3.	c #7F20D6",
"Z3.	c #7E1FD5",
"`3.	c #8421D4",
" 4.	c #8522D5",
".4.	c #8120D1",
"+4.	c #821ACF",
"@4.	c #7E20D6",
"#4.	c #801FD0",
"$4.	c #821ED6",
"%4.	c #821ED0",
"&4.	c #801FCE",
"*4.	c #7D20D3",
"=4.	c #7C1ED4",
"-4.	c #8122D6",
";4.	c #8223D5",
">4.	c #6726D8",
",4.	c #3B4EDB",
"'4.	c #2A5AD8",
")4.	c #4050E4",
"!4.	c #4351E6",
"~4.	c #3F6CEB",
"{4.	c #647CFA",
"]4.	c #6684FE",
"^4.	c #B781F3",
"/4.	c #E67EC9",
"(4.	c #AF72F4",
"_4.	c #3E80F0",
":4.	c #836DFC",
"<4.	c #A579F5",
"[4.	c #A94DEE",
"}4.	c #B43ADB",
"|4.	c #BD3CD7",
"14.	c #A61DC5",
"24.	c #9A14C1",
"34.	c #8A14C0",
"44.	c #8413C3",
"54.	c #8715C3",
"64.	c #8215C8",
"74.	c #7F14C4",
"84.	c #7F14C2",
"94.	c #8514C6",
"04.	c #8419CB",
"a4.	c #7F16CA",
"b4.	c #7E17C6",
"c4.	c #8119C6",
"d4.	c #7B1ACC",
"e4.	c #8317CC",
"f4.	c #7C18C8",
"g4.	c #7716C5",
"h4.	c #8015C5",
"i4.	c #8716C8",
"j4.	c #8114C5",
"k4.	c #7615C6",
"l4.	c #7E13C3",
"m4.	c #8515C1",
"n4.	c #8114C7",
"o4.	c #8018C7",
"p4.	c #8516CA",
"q4.	c #8418C6",
"r4.	c #8419C7",
"s4.	c #8518CB",
"t4.	c #8118CA",
"u4.	c #8119C8",
"v4.	c #7C1BCD",
"w4.	c #7417C0",
"x4.	c #7516CA",
"y4.	c #8816C6",
"z4.	c #7D16C7",
"A4.	c #8616C3",
"B4.	c #8116C6",
"C4.	c #8214C5",
"D4.	c #7A16C8",
"E4.	c #8015C7",
"F4.	c #8717C4",
"G4.	c #7C13C5",
"H4.	c #7B14C7",
"I4.	c #8914C5",
"J4.	c #8113C4",
"K4.	c #7C11BF",
"L4.	c #7D12C2",
"M4.	c #7A12C1",
"N4.	c #7A12BF",
"O4.	c #810FBC",
"P4.	c #8412C0",
"Q4.	c #7115C0",
"R4.	c #7B10C0",
"S4.	c #8F11BD",
"T4.	c #8611C0",
"U4.	c #6E12BD",
"V4.	c #8C12BF",
"W4.	c #7D11BD",
"X4.	c #7C11C1",
"Y4.	c #8111BD",
"Z4.	c #8513C1",
"`4.	c #8614C4",
" 5.	c #8513C0",
".5.	c #7513C0",
"+5.	c #8311C1",
"@5.	c #8212BF",
"#5.	c #7F11BE",
"$5.	c #7E12BE",
"%5.	c #8211C1",
"&5.	c #7D10C1",
"*5.	c #7C10BE",
"=5.	c #7C10BC",
"-5.	c #8110C2",
";5.	c #7912C1",
">5.	c #8012BF",
",5.	c #8712C3",
"'5.	c #8012C3",
")5.	c #7D12C0",
"!5.	c #8412C2",
"~5.	c #8113C2",
"{5.	c #7F12C3",
"]5.	c #7814C4",
"^5.	c #8212BE",
"/5.	c #8812C0",
"(5.	c #8214C3",
"_5.	c #8514C4",
":5.	c #7E17C8",
"<5.	c #8415C9",
"[5.	c #7817C8",
"}5.	c #7E17CA",
"|5.	c #6C19C9",
"15.	c #9216C4",
"25.	c #8314C8",
"35.	c #7C15C8",
"45.	c #7D16C9",
"55.	c #8315C6",
"65.	c #8215C6",
"75.	c #8315C2",
"85.	c #7A13C2",
"95.	c #8115C3",
"05.	c #7F16C8",
"a5.	c #8013C4",
"b5.	c #7917C6",
"c5.	c #8413C7",
"d5.	c #7B14C5",
"e5.	c #7E12C0",
"f5.	c #8012C1",
"g5.	c #8715C5",
"h5.	c #7C14C1",
"i5.	c #7A18C7",
"j5.	c #7516C8",
"k5.	c #8210BD",
"l5.	c #8312C6",
"m5.	c #8014C2",
"n5.	c #8113C0",
"o5.	c #7E13C1",
"p5.	c #8615C7",
"q5.	c #7E15C7",
"r5.	c #7915C5",
"s5.	c #8013C6",
"t5.	c #7D14C6",
"u5.	c #7C14C3",
"v5.	c #8312C2",
"w5.	c #8C15C7",
"x5.	c #8518C9",
"y5.	c #7918C9",
"z5.	c #7A17C9",
"A5.	c #7916C8",
"B5.	c #7116C9",
"C5.	c #6822D3",
"D5.	c #4F39DC",
"E5.	c #404FE6",
"F5.	c #5150EC",
"G5.	c #5F5AF2",
"H5.	c #6B6DFF",
"I5.	c #B580F4",
"J5.	c #D769DA",
"K5.	c #9E81F8",
"L5.	c #407EEF",
"M5.	c #1E7ED5",
"N5.	c #9276FF",
"O5.	c #9350F5",
"P5.	c #B54DEC",
"Q5.	c #BD41DF",
"R5.	c #A52DDA",
"S5.	c #9F2AD9",
"T5.	c #9C2EDD",
"U5.	c #9027DB",
"V5.	c #8C28DA",
"W5.	c #812CDF",
"X5.	c #7A29DE",
"Y5.	c #9134E4",
"Z5.	c #8930E4",
"`5.	c #7831E5",
" 6.	c #8032E6",
".6.	c #7B23D9",
"+6.	c #8C28E0",
"@6.	c #8E40EC",
"#6.	c #7831E7",
"$6.	c #7638E5",
"%6.	c #892FE6",
"&6.	c #7C31E4",
"*6.	c #6B30E2",
"=6.	c #702FE1",
"-6.	c #7B28DC",
";6.	c #7B30E5",
">6.	c #872CDF",
",6.	c #7D2ADE",
"'6.	c #822DE3",
")6.	c #892EE1",
"!6.	c #7C2FE1",
"~6.	c #7330E2",
"{6.	c #712CE1",
"]6.	c #7933E4",
"^6.	c #863BED",
"/6.	c #8734E4",
"(6.	c #7A31E3",
"_6.	c #8233E7",
":6.	c #8D2EE2",
"<6.	c #8532E4",
"[6.	c #792FE4",
"}6.	c #8130E5",
"|6.	c #7C2BDF",
"16.	c #7936E5",
"26.	c #7528DA",
"36.	c #7427D7",
"46.	c #7F27DB",
"56.	c #7F24D9",
"66.	c #802DDD",
"76.	c #7334E7",
"86.	c #7B32E4",
"96.	c #9124D7",
"06.	c #6838E4",
"a6.	c #852DE1",
"b6.	c #8123D3",
"c6.	c #7327DF",
"d6.	c #9126D4",
"e6.	c #772DE4",
"f6.	c #822FE3",
"g6.	c #882FE3",
"h6.	c #7A25DB",
"i6.	c #7D28DD",
"j6.	c #792BE1",
"k6.	c #7E2BDF",
"l6.	c #8329E0",
"m6.	c #7828DF",
"n6.	c #7926DA",
"o6.	c #7B2EE0",
"p6.	c #7C2FDF",
"q6.	c #892ADE",
"r6.	c #7A2FE2",
"s6.	c #7C2BE0",
"t6.	c #8127D7",
"u6.	c #7D2EE1",
"v6.	c #7F32E4",
"w6.	c #7B2DE1",
"x6.	c #7430E5",
"y6.	c #753BE8",
"z6.	c #8932E3",
"A6.	c #8E2CE1",
"B6.	c #8523D8",
"C6.	c #7E2AE0",
"D6.	c #7E2DE2",
"E6.	c #8025D8",
"F6.	c #8029DA",
"G6.	c #8728DC",
"H6.	c #7527DB",
"I6.	c #6E3DE7",
"J6.	c #8330E4",
"K6.	c #8425D7",
"L6.	c #7D2DDE",
"M6.	c #7A25DA",
"N6.	c #8724D6",
"O6.	c #7F26D8",
"P6.	c #7722D5",
"Q6.	c #8A22D7",
"R6.	c #732DDD",
"S6.	c #7526DA",
"T6.	c #8F28DB",
"U6.	c #892BE1",
"V6.	c #7F27DE",
"W6.	c #8429E0",
"X6.	c #8829DD",
"Y6.	c #7132E5",
"Z6.	c #6C2BDD",
"`6.	c #7429DE",
" 7.	c #7025D8",
".7.	c #8B1CD2",
"+7.	c #8D29D9",
"@7.	c #8022D8",
"#7.	c #8028DC",
"$7.	c #7A26DC",
"%7.	c #8B28DB",
"&7.	c #7928DF",
"*7.	c #7D29DF",
"=7.	c #7B26DC",
"-7.	c #7827DC",
";7.	c #872ADD",
">7.	c #9432E1",
",7.	c #8530E5",
"'7.	c #7231E5",
")7.	c #7C2EE2",
"!7.	c #6732E2",
"~7.	c #6132E0",
"{7.	c #5D39E3",
"]7.	c #652FDF",
"^7.	c #5E43EA",
"/7.	c #5053EC",
"(7.	c #5D53F0",
"_7.	c #BC84EF",
":7.	c #E17FD6",
"<7.	c #C879EC",
"[7.	c #4478EE",
"}7.	c #2185D1",
"|7.	c #A16CF8",
"17.	c #A03FE7",
"27.	c #9B2ADA",
"37.	c #8E20D7",
"47.	c #8B1ACA",
"57.	c #9120D4",
"67.	c #8C23D5",
"77.	c #6F22D2",
"87.	c #7224DA",
"97.	c #A01EC9",
"07.	c #911CCB",
"a7.	c #701FD3",
"b7.	c #7120D4",
"c7.	c #7F1ECD",
"d7.	c #7A22D6",
"e7.	c #702BDE",
"f7.	c #7229DB",
"g7.	c #8D1FD6",
"h7.	c #8B22D6",
"i7.	c #8A25D9",
"j7.	c #7924D7",
"k7.	c #7121D2",
"l7.	c #9422D2",
"m7.	c #861FD2",
"n7.	c #7B1ACB",
"o7.	c #8724D9",
"p7.	c #8422D7",
"q7.	c #781FD3",
"r7.	c #8623D5",
"s7.	c #7323DA",
"t7.	c #6E1FD2",
"u7.	c #7920D2",
"v7.	c #8622D4",
"w7.	c #622DDD",
"x7.	c #8916C9",
"y7.	c #7C21D8",
"z7.	c #761ED5",
"A7.	c #8A1CCD",
"B7.	c #7E23DA",
"C7.	c #7A20D0",
"D7.	c #7C18CA",
"E7.	c #7E1DCE",
"F7.	c #811FD8",
"G7.	c #7A1FD4",
"H7.	c #781ACA",
"I7.	c #6E19CC",
"J7.	c #9318CB",
"K7.	c #901FCF",
"L7.	c #7A1BD1",
"M7.	c #7920D0",
"N7.	c #891CCD",
"O7.	c #861DD2",
"P7.	c #8E21D6",
"Q7.	c #781DD0",
"R7.	c #8C2BDC",
"S7.	c #872DE4",
"T7.	c #722EE3",
"U7.	c #821AC7",
"V7.	c #7419CE",
"W7.	c #8B1ACC",
"X7.	c #891BCA",
"Y7.	c #7B1CD2",
"Z7.	c #841BCD",
"`7.	c #8518CD",
" 8.	c #7929DA",
".8.	c #7122D5",
"+8.	c #831ED4",
"@8.	c #831ED2",
"#8.	c #771CCF",
"$8.	c #751ECF",
"%8.	c #871CCC",
"&8.	c #7B20D5",
"*8.	c #7B19CE",
"=8.	c #761DCF",
"-8.	c #891BCC",
";8.	c #881CD2",
">8.	c #7420D0",
",8.	c #7526D9",
"'8.	c #831CCD",
")8.	c #851CD0",
"!8.	c #831ACE",
"~8.	c #7518C9",
"{8.	c #6721D1",
"]8.	c #8724D7",
"^8.	c #851CCE",
"/8.	c #8A23D6",
"(8.	c #861BCB",
"_8.	c #8617CB",
":8.	c #871BD0",
"<8.	c #751CCC",
"[8.	c #811DCD",
"}8.	c #952ADA",
"|8.	c #9227D7",
"18.	c #8320D3",
"28.	c #731FCF",
"38.	c #7C21D6",
"48.	c #7625DA",
"58.	c #732EE3",
"68.	c #5841E9",
"78.	c #6553F7",
"88.	c #9B75FE",
"98.	c #8093FA",
"08.	c #6380F6",
"a8.	c #D481DB",
"b8.	c #C475EA",
"c8.	c #447BF2",
"d8.	c #3A90E7",
"e8.	c #7395F9",
"f8.	c #808AFB",
"g8.	c #6F76FB",
"h8.	c #6F59F9",
"i8.	c #9238E7",
"j8.	c #7934E5",
"k8.	c #8C33E5",
"l8.	c #9438E5",
"m8.	c #7E32EA",
"n8.	c #7B31E6",
"o8.	c #7A2AE1",
"p8.	c #8C34E8",
"q8.	c #9033E6",
"r8.	c #634DF0",
"s8.	c #7147F1",
"t8.	c #9926D9",
"u8.	c #7338E8",
"v8.	c #7539E9",
"w8.	c #8C2DE1",
"x8.	c #932CDD",
"y8.	c #7E30E4",
"z8.	c #8534E8",
"A8.	c #853BE8",
"B8.	c #8734E6",
"C8.	c #843AE9",
"D8.	c #763AE8",
"E8.	c #903EEB",
"F8.	c #9B3EE7",
"G8.	c #8843EC",
"H8.	c #8037E8",
"I8.	c #6F39E9",
"J8.	c #894AF3",
"K8.	c #8B3EEE",
"L8.	c #7337E7",
"M8.	c #A135E3",
"N8.	c #A03CEA",
"O8.	c #713BEB",
"P8.	c #6D3CE6",
"Q8.	c #8749F6",
"R8.	c #764DF4",
"S8.	c #8445EC",
"T8.	c #863CEB",
"U8.	c #8640EE",
"V8.	c #6F3AEA",
"W8.	c #6B3BE9",
"X8.	c #783DED",
"Y8.	c #7B36E7",
"Z8.	c #8A2BDF",
"`8.	c #722DDE",
" 9.	c #6642EC",
".9.	c #752EE2",
"+9.	c #7632E7",
"@9.	c #9527D8",
"#9.	c #5F38E1",
"$9.	c #8D2CDE",
"%9.	c #8430E0",
"&9.	c #7B38EA",
"*9.	c #8A32E0",
"=9.	c #8532E6",
"-9.	c #8538EA",
";9.	c #7231E3",
">9.	c #9745EF",
",9.	c #6F32E5",
"'9.	c #7936E6",
")9.	c #893BE9",
"!9.	c #7A35E8",
"~9.	c #7932E6",
"{9.	c #8A33E4",
"]9.	c #8936EA",
"^9.	c #6934E6",
"/9.	c #662CD9",
"(9.	c #7328DD",
"_9.	c #942DDC",
":9.	c #8A26D8",
"<9.	c #842FE4",
"[9.	c #8332E6",
"}9.	c #8B30E3",
"|9.	c #8636E5",
"19.	c #9335E5",
"29.	c #993DEA",
"39.	c #6533E2",
"49.	c #5638E5",
"59.	c #934AF3",
"69.	c #9042ED",
"79.	c #653BE7",
"89.	c #8A2DE0",
"99.	c #8830E4",
"09.	c #9830DD",
"a9.	c #6A3EED",
"b9.	c #7242EE",
"c9.	c #892CDD",
"d9.	c #7B2CE0",
"e9.	c #782FE1",
"f9.	c #7C28E2",
"g9.	c #9532DD",
"h9.	c #8F36E8",
"i9.	c #7F2CE0",
"j9.	c #782DE2",
"k9.	c #752CDD",
"l9.	c #7630E8",
"m9.	c #8A31E1",
"n9.	c #932CDB",
"o9.	c #8044F1",
"p9.	c #8234E8",
"q9.	c #7C40F0",
"r9.	c #7C31E6",
"s9.	c #8341EB",
"t9.	c #7F39E7",
"u9.	c #8A37E7",
"v9.	c #7934E7",
"w9.	c #752CDE",
"x9.	c #782BDD",
"y9.	c #722FDE",
"z9.	c #8345F2",
"A9.	c #9F2FDB",
"B9.	c #9D3BEA",
"C9.	c #6238E4",
"D9.	c #7036EA",
"E9.	c #6F30E1",
"F9.	c #8D34E6",
"G9.	c #8334E8",
"H9.	c #9836E5",
"I9.	c #A549EC",
"J9.	c #8335E9",
"K9.	c #7C2DE0",
"L9.	c #8136E8",
"M9.	c #8040EE",
"N9.	c #7944EE",
"O9.	c #785AFA",
"P9.	c #7668FD",
"Q9.	c #7271F9",
"R9.	c #8C60FD",
"S9.	c #646BF9",
"T9.	c #6069F6",
"U9.	c #BE74EF",
"V9.	c #A27CF6",
"W9.	c #3C95E9",
"X9.	c #7EA6FB",
"Y9.	c #6885FD",
"Z9.	c #8B5CF8",
"`9.	c #9892FC",
" 0.	c #71A3FA",
".0.	c #8169FF",
"+0.	c #7169FC",
"@0.	c #896CFC",
"#0.	c #9164FB",
"$0.	c #885CFB",
"%0.	c #915BF7",
"&0.	c #7253F6",
"*0.	c #7658F8",
"=0.	c #8257FC",
"-0.	c #935CF8",
";0.	c #5262F5",
">0.	c #804DF4",
",0.	c #8858FA",
"'0.	c #7A72FC",
")0.	c #7C4BF2",
"!0.	c #6D7FFD",
"~0.	c #A88BF5",
"{0.	c #517FF7",
"]0.	c #9560F9",
"^0.	c #995DF9",
"/0.	c #5F5EF7",
"(0.	c #5E6BF8",
"_0.	c #9A69F8",
":0.	c #8B77FD",
"<0.	c #8B69FB",
"[0.	c #8055FA",
"}0.	c #7353F4",
"|0.	c #7B4DF5",
"10.	c #9AACF4",
"20.	c #5C93FA",
"30.	c #915BF9",
"40.	c #5F6AF8",
"50.	c #726AFD",
"60.	c #8570FB",
"70.	c #9C6FFD",
"80.	c #865CFC",
"90.	c #7C5EFA",
"00.	c #7F67FB",
"a0.	c #8370FD",
"b0.	c #A45BF2",
"c0.	c #716FFF",
"d0.	c #6A6DFC",
"e0.	c #967BFF",
"f0.	c #6769FC",
"g0.	c #7A68FA",
"h0.	c #A959F0",
"i0.	c #7A46F0",
"j0.	c #6757F5",
"k0.	c #8159F8",
"l0.	c #AC7BF9",
"m0.	c #A074FB",
"n0.	c #7D6FFF",
"o0.	c #A57BF9",
"p0.	c #5757F3",
"q0.	c #696AFA",
"r0.	c #C27FE8",
"s0.	c #4F84F4",
"t0.	c #436EF0",
"u0.	c #7BA0FB",
"v0.	c #6D73FF",
"w0.	c #6E93FB",
"x0.	c #A980F8",
"y0.	c #A38CF8",
"z0.	c #8992FB",
"A0.	c #89A1F9",
"B0.	c #8E90FD",
"C0.	c #6397FA",
"D0.	c #66A4F7",
"E0.	c #8597FB",
"F0.	c #6E95FA",
"G0.	c #926CFD",
"H0.	c #7855F9",
"I0.	c #6A70FC",
"J0.	c #536DF8",
"K0.	c #6054F2",
"L0.	c #875BF8",
"M0.	c #6B4FF2",
"N0.	c #5071F4",
"O0.	c #9A74FF",
"P0.	c #8582FF",
"Q0.	c #939DFC",
"R0.	c #7555F6",
"S0.	c #917AFF",
"T0.	c #986BFA",
"U0.	c #815FFB",
"V0.	c #7D60F8",
"W0.	c #846DFB",
"X0.	c #B18AF7",
"Y0.	c #9E5FF8",
"Z0.	c #705FFB",
"`0.	c #5A87FE",
" a.	c #71B1F1",
".a.	c #6CA5FC",
"+a.	c #6893FB",
"@a.	c #896BFD",
"#a.	c #6A8BFF",
"$a.	c #9890FF",
"%a.	c #9661F7",
"&a.	c #6781FC",
"*a.	c #6D6BFA",
"=a.	c #7752F7",
"-a.	c #9878FF",
";a.	c #91A3F7",
">a.	c #988FFC",
",a.	c #9C7CF9",
"'a.	c #7F86FB",
")a.	c #A798F7",
"!a.	c #918AFA",
"~a.	c #727DFB",
"{a.	c #5467F2",
"]a.	c #DE82CD",
"^a.	c #D581E3",
"/a.	c #BF7FEF",
"(a.	c #1E77D1",
"_a.	c #516BF6",
":a.	c #997FFA",
"<a.	c #5564F5",
"[a.	c #80E7C9",
"}a.	c #7BEFBE",
"|a.	c #91D6DD",
"1a.	c #8895FD",
"2a.	c #955EF8",
"3a.	c #8864FC",
"4a.	c #7465FE",
"5a.	c #6AB4F1",
"6a.	c #6891FA",
"7a.	c #7381FB",
"8a.	c #91A8F8",
"9a.	c #7BB1F9",
"0a.	c #7AA2FA",
"aa.	c #8E98FA",
"ba.	c #7C4FF4",
"ca.	c #7566FD",
"da.	c #7A71FE",
"ea.	c #6296FB",
"fa.	c #4358E5",
"ga.	c #733BE7",
"ha.	c #A74CF1",
"ia.	c #9C4BEE",
"ja.	c #8C49F0",
"ka.	c #7242F0",
"la.	c #6C61FB",
"ma.	c #7362FE",
"na.	c #5854F1",
"oa.	c #A887FA",
"pa.	c #5859F1",
"qa.	c #7C51F8",
"ra.	c #917CFB",
"sa.	c #9063FC",
"ta.	c #7498F8",
"ua.	c #9684FC",
"va.	c #7F62FC",
"wa.	c #6F95FA",
"xa.	c #879BFE",
"ya.	c #85ECBD",
"za.	c #83EEC4",
"Aa.	c #6584F9",
"Ba.	c #6C9DFC",
"Ca.	c #7767FB",
"Da.	c #6E5AF9",
"Ea.	c #8A4DF3",
"Fa.	c #A482FA",
"Ga.	c #9794FB",
"Ha.	c #4D79F4",
"Ia.	c #5A91F6",
"Ja.	c #909DF9",
"Ka.	c #727BFA",
"La.	c #6490F9",
"Ma.	c #516DF4",
"Na.	c #7F7DFA",
"Oa.	c #7C9DFC",
"Pa.	c #9094FF",
"Qa.	c #818DFB",
"Ra.	c #6F77FE",
"Sa.	c #919EFA",
"Ta.	c #9C8BFE",
"Ua.	c #5183F6",
"Va.	c #925AF9",
"Wa.	c #7184FC",
"Xa.	c #9474FB",
"Ya.	c #768AFD",
"Za.	c #A085F8",
"`a.	c #8193F9",
" b.	c #A2A5F4",
".b.	c #AA83F6",
"+b.	c #8F57F8",
"@b.	c #7A65FE",
"#b.	c #75E1D1",
"$b.	c #6CD0DF",
"%b.	c #6959F7",
"&b.	c #6A5CF9",
"*b.	c #CE69E3",
"=b.	c #D283DE",
"-b.	c #A384F9",
";b.	c #438BEF",
">b.	c #4D8EF4",
",b.	c #BACBD2",
"'b.	c #C0E0B7",
")b.	c #A1CBE1",
"!b.	c #45D8C5",
"~b.	c #3CDFB4",
"{b.	c #42CECF",
"]b.	c #6797FD",
"^b.	c #8864FA",
"/b.	c #9B77FB",
"(b.	c #A279FB",
"_b.	c #9065FB",
":b.	c #548FF7",
"<b.	c #8D94FE",
"[b.	c #8F94FC",
"}b.	c #9FAEF3",
"|b.	c #99ABF3",
"1b.	c #687BFC",
"2b.	c #445DEE",
"3b.	c #6E4DF4",
"4b.	c #AA4EED",
"5b.	c #925CF8",
"6b.	c #8B54F7",
"7b.	c #7D71FF",
"8b.	c #667AFD",
"9b.	c #8E66FB",
"0b.	c #8B57F9",
"ab.	c #8C44F0",
"bb.	c #713DEA",
"cb.	c #6F5EF8",
"db.	c #9493FB",
"eb.	c #815CFA",
"fb.	c #5E4CF0",
"gb.	c #988CFA",
"hb.	c #8769FB",
"ib.	c #6C6FFC",
"jb.	c #7586FC",
"kb.	c #648CFE",
"lb.	c #8661FC",
"mb.	c #6873FF",
"nb.	c #BDCAD2",
"ob.	c #C1DDB7",
"pb.	c #A2C2E8",
"qb.	c #55BCE7",
"rb.	c #3ED1C7",
"sb.	c #39DBB6",
"tb.	c #3EC8D3",
"ub.	c #709BF9",
"vb.	c #A19AF7",
"wb.	c #6B62FB",
"xb.	c #99A9F6",
"yb.	c #9273FF",
"zb.	c #778BFB",
"Ab.	c #6D77FB",
"Bb.	c #8D96FB",
"Cb.	c #5387F5",
"Db.	c #B06EF4",
"Eb.	c #8F52F5",
"Fb.	c #889CFF",
"Gb.	c #80ACF7",
"Hb.	c #744FF4",
"Ib.	c #C8A6E2",
"Jb.	c #CCCCC2",
"Kb.	c #D1AED8",
"Lb.	c #5091F7",
"Mb.	c #36BFD1",
"Nb.	c #34D4BC",
"Ob.	c #706EFD",
"Pb.	c #D977DE",
"Qb.	c #E881C6",
"Rb.	c #BD8EEE",
"Sb.	c #6F88FC",
"Tb.	c #5496F6",
"Ub.	c #558BF8",
"Vb.	c #C0BADE",
"Wb.	c #28B4CD",
"Xb.	c #9C6BFB",
"Yb.	c #8A72FE",
"Zb.	c #9176FB",
"`b.	c #925CFC",
" c.	c #825FFB",
".c.	c #A069FB",
"+c.	c #7E64FD",
"@c.	c #9898F8",
"#c.	c #A79AF6",
"$c.	c #919BFD",
"%c.	c #468AEF",
"&c.	c #4061EC",
"*c.	c #5965F9",
"=c.	c #813FEB",
"-c.	c #A14CF0",
";c.	c #9644EE",
">c.	c #9B50F3",
",c.	c #8F4CF3",
"'c.	c #9367FC",
")c.	c #4D91F2",
"!c.	c #7470FF",
"~c.	c #5F65F9",
"{c.	c #B198F4",
"]c.	c #6052F0",
"^c.	c #8893FC",
"/c.	c #626AFB",
"(c.	c #8E51F7",
"_c.	c #6C73FF",
":c.	c #8B62FE",
"<c.	c #6A71FD",
"[c.	c #6178F8",
"}c.	c #986FF9",
"|c.	c #9873FE",
"1c.	c #6871FC",
"2c.	c #CCB7D8",
"3c.	c #D7CABA",
"4c.	c #8B64FB",
"5c.	c #481AB8",
"6c.	c #970BAC",
"7c.	c #B71CB6",
"8c.	c #6A67FC",
"9c.	c #2BCEB1",
"0c.	c #39B8D9",
"ac.	c #6548EE",
"bc.	c #9862F6",
"cc.	c #9272FB",
"dc.	c #5C6DF9",
"ec.	c #8786FB",
"fc.	c #88A9FA",
"gc.	c #8D94FC",
"hc.	c #9E87FC",
"ic.	c #8F70FA",
"jc.	c #9183FC",
"kc.	c #5F96FB",
"lc.	c #7061F8",
"mc.	c #A46EFA",
"nc.	c #705DF5",
"oc.	c #8A68FA",
"pc.	c #AC6DF9",
"qc.	c #507CF5",
"rc.	c #B1BDE3",
"sc.	c #29B3D0",
"tc.	c #5C74F8",
"uc.	c #D690D9",
"vc.	c #E77FCA",
"wc.	c #9F80F8",
"xc.	c #2973DE",
"yc.	c #2982DC",
"zc.	c #4F95F4",
"Ac.	c #CECCC0",
"Bc.	c #1CBAB9",
"Cc.	c #9175FD",
"Dc.	c #8A5EFD",
"Ec.	c #6965FA",
"Fc.	c #8C8FFA",
"Gc.	c #A381FA",
"Hc.	c #A587F7",
"Ic.	c #3B71EF",
"Jc.	c #4971ED",
"Kc.	c #5C77FA",
"Lc.	c #597DF7",
"Mc.	c #8A5EF9",
"Nc.	c #A269F8",
"Oc.	c #935DFD",
"Pc.	c #934FF4",
"Qc.	c #AF5FF4",
"Rc.	c #9A68FB",
"Sc.	c #6C50F3",
"Tc.	c #553EE8",
"Uc.	c #5C62F4",
"Vc.	c #816AFF",
"Wc.	c #A69EF3",
"Xc.	c #4B7EF3",
"Yc.	c #6B65FB",
"Zc.	c #6F75FD",
"`c.	c #9391FC",
" d.	c #546FF4",
".d.	c #CA7BE8",
"+d.	c #726FFE",
"@d.	c #735AF6",
"#d.	c #7759F7",
"$d.	c #695FF6",
"%d.	c #9271FC",
"&d.	c #C96FEA",
"*d.	c #2E29A9",
"=d.	c #3F1DB0",
"-d.	c #6A11BB",
";d.	c #9111BC",
">d.	c #C11AAF",
",d.	c #D128A7",
"'d.	c #21BDBA",
")d.	c #2D6CDD",
"!d.	c #B099F3",
"~d.	c #79A8F6",
"{d.	c #886AFC",
"]d.	c #7085FC",
"^d.	c #6A83FA",
"/d.	c #708AFB",
"(d.	c #8391FC",
"_d.	c #866AFD",
":d.	c #7A89FC",
"<d.	c #7E74F9",
"[d.	c #6A74FA",
"}d.	c #5882F8",
"|d.	c #9CA4F5",
"1d.	c #A58AFB",
"2d.	c #8695FC",
"3d.	c #8472FF",
"4d.	c #5F65FB",
"5d.	c #9461FA",
"6d.	c #9979FF",
"7d.	c #9466FC",
"8d.	c #8D53F5",
"9d.	c #B069F7",
"0d.	c #D1CBBD",
"ad.	c #1FBEB9",
"bd.	c #908DFE",
"cd.	c #CF8AE5",
"dd.	c #D37DE0",
"ed.	c #BF6DEB",
"fd.	c #AD7FFB",
"gd.	c #3E72EC",
"hd.	c #307CDE",
"id.	c #4F69F4",
"jd.	c #CF7FE2",
"kd.	c #AED0D9",
"ld.	c #2BBEC8",
"md.	c #8D7EFB",
"nd.	c #8485FF",
"od.	c #8B6FFF",
"pd.	c #9781FF",
"qd.	c #7CA4FB",
"rd.	c #6767F9",
"sd.	c #7164FA",
"td.	c #8B86FA",
"ud.	c #6E6FFF",
"vd.	c #B36DF4",
"wd.	c #9658F7",
"xd.	c #3E4EE1",
"yd.	c #4476F1",
"zd.	c #7FA1FB",
"Ad.	c #B26AF4",
"Bd.	c #5136DD",
"Cd.	c #504AE8",
"Dd.	c #8D5EFC",
"Ed.	c #4C78F1",
"Fd.	c #577FF8",
"Gd.	c #A27EFC",
"Hd.	c #9098FD",
"Id.	c #88A0FA",
"Jd.	c #95BAEE",
"Kd.	c #82A8F9",
"Ld.	c #97B8ED",
"Md.	c #A768F7",
"Nd.	c #8253F9",
"Od.	c #8658F9",
"Pd.	c #786BF9",
"Qd.	c #7F64FF",
"Rd.	c #7F5AF8",
"Sd.	c #E570C9",
"Td.	c #CEC5C6",
"Ud.	c #1F46BB",
"Vd.	c #1D3BAD",
"Wd.	c #413DD8",
"Xd.	c #8A42EE",
"Yd.	c #BC40DE",
"Zd.	c #DE3AAD",
"`d.	c #2FC2CC",
" e.	c #96A2F6",
".e.	c #488DF2",
"+e.	c #A17DFB",
"@e.	c #718FFF",
"#e.	c #9390FB",
"$e.	c #83A6F7",
"%e.	c #729AFC",
"&e.	c #82A5F7",
"*e.	c #516BF3",
"=e.	c #9E6FFB",
"-e.	c #6B74FF",
";e.	c #8AACF4",
">e.	c #835EFC",
",e.	c #784FF6",
"'e.	c #997CFA",
")e.	c #8D9EFA",
"!e.	c #956CF9",
"~e.	c #E274D5",
"{e.	c #2EC1C9",
"]e.	c #958BFE",
"^e.	c #BF84EE",
"/e.	c #1F72D2",
"(e.	c #485FED",
"_e.	c #8F5EF8",
":e.	c #E562CA",
"<e.	c #9FABF3",
"[e.	c #3DA6E7",
"}e.	c #158FC2",
"|e.	c #645BF6",
"1e.	c #5D5EF6",
"2e.	c #906DFD",
"3e.	c #9461FE",
"4e.	c #6D7FFF",
"5e.	c #A95FF2",
"6e.	c #622FE3",
"7e.	c #745AF9",
"8e.	c #6192F9",
"9e.	c #8594FB",
"0e.	c #A18EFA",
"ae.	c #709AFC",
"be.	c #6D65F9",
"ce.	c #916CFA",
"de.	c #8956F9",
"ee.	c #554BEA",
"fe.	c #7456F6",
"ge.	c #9B7CFB",
"he.	c #8665FE",
"ie.	c #72A9F9",
"je.	c #B58FF4",
"ke.	c #496BF3",
"le.	c #5B8BF9",
"me.	c #839DFE",
"ne.	c #978BF9",
"oe.	c #8E95FD",
"pe.	c #9C97FB",
"qe.	c #6C82F9",
"re.	c #5566F4",
"se.	c #9076FD",
"te.	c #7585FE",
"ue.	c #5B7DFB",
"ve.	c #F27EBB",
"we.	c #CAA3E4",
"xe.	c #0C6DB1",
"ye.	c #4564F0",
"ze.	c #6A64FA",
"Ae.	c #B76EF3",
"Be.	c #EB65BE",
"Ce.	c #F067AF",
"De.	c #50A9ED",
"Ee.	c #1588C7",
"Fe.	c #5589F6",
"Ge.	c #6AA3FA",
"He.	c #AE96F4",
"Ie.	c #7287FA",
"Je.	c #818DF9",
"Ke.	c #8984FF",
"Le.	c #7F94FD",
"Me.	c #9297FD",
"Ne.	c #5F9AF4",
"Oe.	c #6999FB",
"Pe.	c #898DFB",
"Qe.	c #5496F4",
"Re.	c #7467FD",
"Se.	c #9C90F6",
"Te.	c #998BFC",
"Ue.	c #6275F8",
"Ve.	c #875EF8",
"We.	c #9D75FC",
"Xe.	c #8BA6F7",
"Ye.	c #A26CF5",
"Ze.	c #E66AC8",
"`e.	c #ACA9F0",
" f.	c #4DAAED",
".f.	c #1587C6",
"+f.	c #9F7DF8",
"@f.	c #2681DA",
"#f.	c #4383EF",
"$f.	c #E975C8",
"%f.	c #B755E8",
"&f.	c #514DEA",
"*f.	c #1286BF",
"=f.	c #646DFA",
"-f.	c #7773FE",
";f.	c #8C5DFB",
">f.	c #7C54F5",
",f.	c #8547F0",
"'f.	c #6F5AF5",
")f.	c #5652EF",
"!f.	c #7055FA",
"~f.	c #9270FB",
"{f.	c #717FFA",
"]f.	c #9A7BFD",
"^f.	c #685DF7",
"/f.	c #7D99FC",
"(f.	c #6070FB",
"_f.	c #6578F9",
":f.	c #8556FA",
"<f.	c #77A3FC",
"[f.	c #639BF8",
"}f.	c #925BF7",
"|f.	c #6C56F6",
"1f.	c #7A5CF8",
"2f.	c #907BFA",
"3f.	c #6368FA",
"4f.	c #4C5CED",
"5f.	c #8FABF5",
"6f.	c #7A8EFF",
"7f.	c #EE8CBB",
"8f.	c #C85ADF",
"9f.	c #0F96B6",
"0f.	c #7591FE",
"af.	c #9190F8",
"bf.	c #F592AF",
"cf.	c #544DE9",
"df.	c #177FC8",
"ef.	c #7BAAF8",
"ff.	c #909AFB",
"gf.	c #8598FF",
"hf.	c #9199FB",
"if.	c #979AF9",
"jf.	c #5C96F9",
"kf.	c #5C8FF8",
"lf.	c #8B9AFF",
"mf.	c #6C62F9",
"nf.	c #7875FA",
"of.	c #6482FC",
"pf.	c #935EF7",
"qf.	c #7C54F3",
"rf.	c #836BFF",
"sf.	c #7263FC",
"tf.	c #7552F6",
"uf.	c #6E74FE",
"vf.	c #7A6DF9",
"wf.	c #726DFF",
"xf.	c #A374F8",
"yf.	c #A662F5",
"zf.	c #9B70FD",
"Af.	c #4A82F3",
"Bf.	c #7C5CFB",
"Cf.	c #7B59F8",
"Df.	c #EE70C4",
"Ef.	c #C658DF",
"Ff.	c #4C4CE8",
"Gf.	c #1379C4",
"Hf.	c #E77CCA",
"If.	c #D080E3",
"Jf.	c #AB82FA",
"Kf.	c #6177FE",
"Lf.	c #4588F0",
"Mf.	c #2B8BDF",
"Nf.	c #2292D4",
"Of.	c #4189ED",
"Pf.	c #C838CD",
"Qf.	c #3C31CD",
"Rf.	c #1B87CF",
"Sf.	c #7A7AFF",
"Tf.	c #7D59F9",
"Uf.	c #7B57F9",
"Vf.	c #8063FD",
"Wf.	c #606DFA",
"Xf.	c #9D86FA",
"Yf.	c #6E6CFD",
"Zf.	c #705DF7",
"`f.	c #7F72FE",
" g.	c #6C71FF",
".g.	c #9086FF",
"+g.	c #8A5AFB",
"@g.	c #9478FF",
"#g.	c #7269F8",
"$g.	c #8095FE",
"%g.	c #695BF9",
"&g.	c #735BFB",
"*g.	c #6651F4",
"=g.	c #A3ABF4",
"-g.	c #CF3CCB",
";g.	c #3AB9D9",
">g.	c #70AFF6",
",g.	c #9EACF5",
"'g.	c #C1BAD9",
")g.	c #DDC9B1",
"!g.	c #E0B5BF",
"~g.	c #4130CE",
"{g.	c #988BFD",
"]g.	c #7A9BFA",
"^g.	c #738FFA",
"/g.	c #81A7FA",
"(g.	c #8CA1FE",
"_g.	c #7864FB",
":g.	c #6F7BFF",
"<g.	c #88A9F6",
"[g.	c #87B3F2",
"}g.	c #6798FF",
"|g.	c #9C6BFA",
"1g.	c #5568F3",
"2g.	c #485DEE",
"3g.	c #856BFF",
"4g.	c #6D9EFA",
"5g.	c #5EACF4",
"6g.	c #637AFA",
"7g.	c #5E72F9",
"8g.	c #8876FF",
"9g.	c #8591FF",
"0g.	c #87ABF5",
"ag.	c #8870FF",
"bg.	c #985BF7",
"cg.	c #A863F4",
"dg.	c #5F50F3",
"eg.	c #5F77FB",
"fg.	c #6477FA",
"gg.	c #D441C5",
"hg.	c #2783DA",
"ig.	c #BE91EE",
"jg.	c #4E82F0",
"kg.	c #3797E4",
"lg.	c #BC6DED",
"mg.	c #DA41BF",
"ng.	c #2D39C1",
"og.	c #4F82F7",
"pg.	c #7F9DFF",
"qg.	c #A171F8",
"rg.	c #686DFD",
"sg.	c #8356F9",
"tg.	c #8D5EF8",
"ug.	c #6479F9",
"vg.	c #89ABF5",
"wg.	c #6C68FD",
"xg.	c #6D74FF",
"yg.	c #C97BE9",
"zg.	c #E042BD",
"Ag.	c #646FFC",
"Bg.	c #25D1AB",
"Cg.	c #3BE2AE",
"Dg.	c #68EBBF",
"Eg.	c #99ECC0",
"Fg.	c #2D39C3",
"Gg.	c #578AF7",
"Hg.	c #738CFF",
"Ig.	c #8982FF",
"Jg.	c #9297FB",
"Kg.	c #86B3F4",
"Lg.	c #5A79F8",
"Mg.	c #6E48F3",
"Ng.	c #985DF5",
"Og.	c #9D6CFB",
"Pg.	c #566CF6",
"Qg.	c #6F71FA",
"Rg.	c #785EFD",
"Sg.	c #7663FD",
"Tg.	c #69A2F9",
"Ug.	c #AA7CF9",
"Vg.	c #72AEF4",
"Wg.	c #5477F7",
"Xg.	c #8762FD",
"Yg.	c #9678FA",
"Zg.	c #7D6EFD",
"`g.	c #8D72FD",
" h.	c #A165FB",
".h.	c #885AFB",
"+h.	c #7050F3",
"@h.	c #7F98FC",
"#h.	c #7298FD",
"$h.	c #DE43BB",
"%h.	c #283DBD",
"&h.	c #4C7FF5",
"*h.	c #E584CB",
"=h.	c #DC7FDA",
"-h.	c #4A7BF2",
";h.	c #4A76F3",
">h.	c #D253D6",
",h.	c #3A4CDC",
"'h.	c #5E6FFB",
")h.	c #8FA3FA",
"!h.	c #7B98FF",
"~h.	c #6D7BFF",
"{h.	c #869AFD",
"]h.	c #809FF9",
"^h.	c #8A8CFB",
"/h.	c #6383FE",
"(h.	c #A78DF8",
"_h.	c #859CFC",
":h.	c #628EFB",
"<h.	c #A487FB",
"[h.	c #6F6DFF",
"}h.	c #8B6EFC",
"|h.	c #959EFB",
"1h.	c #74A9F7",
"2h.	c #9B6CFA",
"3h.	c #8C8EFF",
"4h.	c #9A7DFB",
"5h.	c #D254D2",
"6h.	c #CA2CBE",
"7h.	c #46E1B9",
"8h.	c #6BF4AE",
"9h.	c #93F4B1",
"0h.	c #BAE0B9",
"ah.	c #3F48E1",
"bh.	c #9497F8",
"ch.	c #918AFC",
"dh.	c #516DF5",
"eh.	c #3A72E9",
"fh.	c #9D66F8",
"gh.	c #AF61F3",
"hh.	c #8755F6",
"ih.	c #755BFA",
"jh.	c #7547F0",
"kh.	c #8F68FF",
"lh.	c #7D72FF",
"mh.	c #6190FA",
"nh.	c #5583FB",
"oh.	c #9B7EFE",
"ph.	c #5E62F7",
"qh.	c #7661FC",
"rh.	c #7674FB",
"sh.	c #A362F4",
"th.	c #9E6FFD",
"uh.	c #5095F4",
"vh.	c #8B8DFA",
"wh.	c #9762FA",
"xh.	c #6C75FE",
"yh.	c #766FFD",
"zh.	c #9874FA",
"Ah.	c #D254D9",
"Bh.	c #364BD8",
"Ch.	c #E684CD",
"Dh.	c #D27BDC",
"Eh.	c #BD73EE",
"Fh.	c #3877E8",
"Gh.	c #2E62DA",
"Hh.	c #9F28DA",
"Ih.	c #BD23BF",
"Jh.	c #CC41CE",
"Kh.	c #A65AF2",
"Lh.	c #4D63F4",
"Mh.	c #3645D6",
"Nh.	c #372FC0",
"Oh.	c #4043DC",
"Ph.	c #82AFF3",
"Qh.	c #94A3F6",
"Rh.	c #7977FC",
"Sh.	c #72ACF5",
"Th.	c #6094FA",
"Uh.	c #6583FB",
"Vh.	c #6C76FC",
"Wh.	c #7A8CFC",
"Xh.	c #8E9BF9",
"Yh.	c #88B4F5",
"Zh.	c #71ADF6",
"`h.	c #7577FF",
" i.	c #9586FB",
".i.	c #9E6FF9",
"+i.	c #AE8FF7",
"@i.	c #5696F7",
"#i.	c #9F27D6",
"$i.	c #B923C0",
"%i.	c #CB3BCE",
"&i.	c #A64BEE",
"*i.	c #4F4DEE",
"=i.	c #3A3ACE",
"-i.	c #3634C3",
";i.	c #3A59E5",
">i.	c #95A8F7",
",i.	c #8586FC",
"'i.	c #906FFE",
")i.	c #9665FC",
"!i.	c #6C36E4",
"~i.	c #594FEC",
"{i.	c #5774F4",
"]i.	c #916BFE",
"^i.	c #8047EE",
"/i.	c #6493FB",
"(i.	c #7E6CFF",
"_i.	c #6474FB",
":i.	c #557DF7",
"<i.	c #6870F9",
"[i.	c #6C8CFB",
"}i.	c #9C4EF2",
"|i.	c #776EFD",
"1i.	c #9D71F8",
"2i.	c #8B6AFF",
"3i.	c #9E29D8",
"4i.	c #B821BE",
"5i.	c #C93BCB",
"6i.	c #A854F2",
"7i.	c #5054EB",
"8i.	c #3D34CD",
"9i.	c #3F25BE",
"0i.	c #4537D5",
"ai.	c #927DFC",
"bi.	c #E17DD3",
"ci.	c #A178FA",
"di.	c #6A8BFC",
"ei.	c #3A7CEA",
"fi.	c #2C85DF",
"gi.	c #3568E5",
"hi.	c #8867FF",
"ii.	c #7956F8",
"ji.	c #8F41ED",
"ki.	c #8C23D7",
"li.	c #7151F4",
"mi.	c #7BA9F7",
"ni.	c #86B1F6",
"oi.	c #8867FE",
"pi.	c #AC69F6",
"qi.	c #8465FE",
"ri.	c #6E83FF",
"si.	c #6D7CF9",
"ti.	c #7471FF",
"ui.	c #926FFD",
"vi.	c #8298FE",
"wi.	c #8E7EFB",
"xi.	c #9D8AFF",
"yi.	c #588BF8",
"zi.	c #A78AFE",
"Ai.	c #7169FD",
"Bi.	c #9C8FFB",
"Ci.	c #A184F8",
"Di.	c #7C53F9",
"Ei.	c #4760F0",
"Fi.	c #6C9AFA",
"Gi.	c #7960F9",
"Hi.	c #7D16C5",
"Ii.	c #9D26D6",
"Ji.	c #A76CF8",
"Ki.	c #7DABF8",
"Li.	c #6DB2F3",
"Mi.	c #7B92FC",
"Ni.	c #7C6CFF",
"Oi.	c #985CF8",
"Pi.	c #9751F2",
"Qi.	c #7B53F4",
"Ri.	c #664FF5",
"Si.	c #7B52F6",
"Ti.	c #8A56F6",
"Ui.	c #6343EC",
"Vi.	c #7240EF",
"Wi.	c #9B60FA",
"Xi.	c #6D52F7",
"Yi.	c #8E74FC",
"Zi.	c #9A6DFB",
"`i.	c #AE78F4",
" j.	c #6B73FA",
".j.	c #6E78FB",
"+j.	c #AD7BF6",
"@j.	c #5E85FA",
"#j.	c #728EFC",
"$j.	c #856DFF",
"%j.	c #7080FA",
"&j.	c #778FFB",
"*j.	c #869DFA",
"=j.	c #82A2F9",
"-j.	c #9462F9",
";j.	c #8745EF",
">j.	c #8E22D7",
",j.	c #7118CA",
"'j.	c #BC8EF0",
")j.	c #6C81FE",
"!j.	c #9C84FF",
"~j.	c #9A9BF8",
"{j.	c #7EA1FD",
"]j.	c #7B94F9",
"^j.	c #6992FC",
"/j.	c #74ACF6",
"(j.	c #739BFD",
"_j.	c #7DA0FC",
":j.	c #8292FF",
"<j.	c #8759F9",
"[j.	c #55A7F3",
"}j.	c #84A2FC",
"|j.	c #73B0F3",
"1j.	c #8282FF",
"2j.	c #7691FC",
"3j.	c #7890FA",
"4j.	c #958EFF",
"5j.	c #8497FD",
"6j.	c #9397FA",
"7j.	c #8C81FB",
"8j.	c #818FFA",
"9j.	c #AA8FF6",
"0j.	c #5944E9",
"aj.	c #8263FE",
"bj.	c #9B8AFA",
"cj.	c #74A9F5",
"dj.	c #6799FA",
"ej.	c #8C90FB",
"fj.	c #849CFF",
"gj.	c #8B9EFC",
"hj.	c #AC85F8",
"ij.	c #AB86F8",
"jj.	c #6E6CFE",
"kj.	c #8552F7",
"lj.	c #7C65FD",
"mj.	c #6B61F8",
"nj.	c #6E9CFE",
"oj.	c #75A8F7",
"pj.	c #8A7EFC",
"qj.	c #7A92FF",
"rj.	c #7092FE",
"sj.	c #946AFA",
"tj.	c #898BFA",
"uj.	c #6B9DFC",
"vj.	c #859EFA",
"wj.	c #899BFF",
"xj.	c #8EBCEE",
"yj.	c #91BAEE",
"zj.	c #8792FB",
"Aj.	c #7C9AFC",
"Bj.	c #9298FA",
"Cj.	c #8396FD",
"Dj.	c #8487FA",
"Ej.	c #5374F5",
"Fj.	c #8072FD",
"Gj.	c #8479FF",
"Hj.	c #889FFC",
"Ij.	c #8CA2F7",
"Jj.	c #D593DB",
"Kj.	c #D38EDF",
"Lj.	c #A093FC",
"Mj.	c #1F91CF",
"Nj.	c #3FC2D6",
"Oj.	c #76CFE1",
"Pj.	c #88CCE1",
"Qj.	c #8FCEE0",
"Rj.	c #91CFE4",
"Sj.	c #7BBDEF",
"Tj.	c #8ACAE5",
"Uj.	c #A0C7E4",
"Vj.	c #70D2DF",
"Wj.	c #89DADB",
"Xj.	c #73DBDA",
"Yj.	c #72CFDE",
"Zj.	c #77D5DD",
"`j.	c #8DD6DD",
" k.	c #79CBE3",
".k.	c #76CCE7",
"+k.	c #79D0E4",
"@k.	c #7AD3E1",
"#k.	c #8ABEEE",
"$k.	c #9AC9E7",
"%k.	c #73CEE1",
"&k.	c #8FC7E8",
"*k.	c #8CCFE0",
"=k.	c #87CFE7",
"-k.	c #73CFE6",
";k.	c #94CCE5",
">k.	c #95D0E2",
",k.	c #70C6E7",
"'k.	c #71C3EB",
")k.	c #8CC3EA",
"!k.	c #8CBFEA",
"~k.	c #6CC9EA",
"{k.	c #6EC1E9",
"]k.	c #80C7E5",
"^k.	c #7AD3E3",
"/k.	c #86D3DD",
"(k.	c #8ACDE8",
"_k.	c #6FCEE4",
":k.	c #84D4DB",
"<k.	c #8BCFE4",
"[k.	c #85D0E3",
"}k.	c #8ED2DD",
"|k.	c #6FC9E4",
"1k.	c #73C0EC",
"2k.	c #8CCCE5",
"3k.	c #77C2EC",
"4k.	c #79B7F4",
"5k.	c #8ECFE5",
"6k.	c #68CAE5",
"7k.	c #7ED0DE",
"8k.	c #7FD2E2",
"9k.	c #7ED5DC",
"0k.	c #74D5DC",
"ak.	c #8ECAE4",
"bk.	c #94CFE1",
"ck.	c #9FBAF1",
"dk.	c #93C0EA",
"ek.	c #6BC3EB",
"fk.	c #57C6E2",
"gk.	c #79D1DF",
"hk.	c #74CBE9",
"ik.	c #79BFF0",
"jk.	c #72C0EE",
"kk.	c #93CAE9",
"lk.	c #87C8E6",
"mk.	c #72C4E9",
"nk.	c #7ED4E1",
"ok.	c #89D0E2",
"pk.	c #8EBEEC",
"qk.	c #78CFE2",
"rk.	c #72D4DF",
"sk.	c #89CFE8",
"tk.	c #95CEE1",
"uk.	c #78C0F2",
"vk.	c #91CBE1",
"wk.	c #7BD6DB",
"xk.	c #A8CDDD",
"yk.	c #9FE6C8",
"zk.	c #65E3CD",
"Ak.	c #54C3DF",
"Bk.	c #89C8E9",
"Ck.	c #6EC8EA",
"Dk.	c #89D0E4",
"Ek.	c #77CEE1",
"Fk.	c #82CFE1",
"Gk.	c #8AD7DD",
"Hk.	c #75CCE7",
"Ik.	c #7EC6EC",
"Jk.	c #5CA4F6",
"Kk.	c #7AC1EB",
"Lk.	c #8DD6DF",
"Mk.	c #8ED3E2",
"Nk.	c #92D0DF",
"Ok.	c #73D0E2",
"Pk.	c #7BCFE7",
"Qk.	c #9DD4D9",
"Rk.	c #C6C2D0",
"Sk.	c #DD9AD0",
"Tk.	c #BC88EC",
"Uk.	c #4A82EF",
"Vk.	c #3A92EC",
"Wk.	c #42BADD",
"Xk.	c #64DED1",
"Yk.	c #78E6CB",
"Zk.	c #7DE5CC",
"`k.	c #89E2D0",
" l.	c #85DFD3",
".l.	c #77DBDB",
"+l.	c #81E9C8",
"@l.	c #8FDFD2",
"#l.	c #8AE3CD",
"$l.	c #78E5CE",
"%l.	c #7AE7C7",
"&l.	c #72E7CC",
"*l.	c #72E7CA",
"=l.	c #7AE7C8",
"-l.	c #74E7CA",
";l.	c #89E6CB",
">l.	c #94E2CC",
",l.	c #75DDD6",
"'l.	c #7FE5CD",
")l.	c #81E5CB",
"!l.	c #82E3D0",
"~l.	c #81DDDC",
"{l.	c #80E3CE",
"]l.	c #7DE3CD",
"^l.	c #7AE8CF",
"/l.	c #82E6CC",
"(l.	c #93E0CE",
"_l.	c #8EDFD0",
":l.	c #7FDADB",
"<l.	c #71DCD4",
"[l.	c #6DE2CF",
"}l.	c #76DED7",
"|l.	c #7BDBDA",
"1l.	c #7EE1CD",
"2l.	c #87DFD1",
"3l.	c #84E0D1",
"4l.	c #81E2CE",
"5l.	c #84E7CA",
"6l.	c #7EE5D0",
"7l.	c #87E4CF",
"8l.	c #80E1CD",
"9l.	c #82E5D0",
"0l.	c #76E2D5",
"al.	c #78E6CD",
"bl.	c #88E6CB",
"cl.	c #7BDFD7",
"dl.	c #8CE3D0",
"el.	c #8AE4CB",
"fl.	c #77E3CB",
"gl.	c #88E4CD",
"hl.	c #84E2D2",
"il.	c #7EE4CF",
"jl.	c #82E4CB",
"kl.	c #8DDDD4",
"ll.	c #8AE0D5",
"ml.	c #73DCD5",
"nl.	c #71E2CE",
"ol.	c #82E6CA",
"pl.	c #83DFD0",
"ql.	c #7BE5CF",
"rl.	c #79E5CD",
"sl.	c #84E6CF",
"tl.	c #8ADCD6",
"ul.	c #85DBD8",
"vl.	c #8CE0D0",
"wl.	c #70D8D7",
"xl.	c #75DFD1",
"yl.	c #78E2CC",
"zl.	c #7EE3D1",
"Al.	c #87E4D1",
"Bl.	c #73DAD9",
"Cl.	c #79DFD1",
"Dl.	c #81D9DD",
"El.	c #7AE4CD",
"Fl.	c #83E8CA",
"Gl.	c #80E7CA",
"Hl.	c #7BE5CE",
"Il.	c #88E0D2",
"Jl.	c #86E1CF",
"Kl.	c #82DFD4",
"Ll.	c #81DFCF",
"Ml.	c #71E6C9",
"Nl.	c #83E8C8",
"Ol.	c #71DBD7",
"Pl.	c #7DE4CF",
"Ql.	c #77E5CA",
"Rl.	c #8CE7C8",
"Sl.	c #7EE4CE",
"Tl.	c #76DFD1",
"Ul.	c #B4DCC4",
"Vl.	c #B3C8DB",
"Wl.	c #46BBDE",
"Xl.	c #51DBCC",
"Yl.	c #72E9CB",
"Zl.	c #73E2D1",
"`l.	c #86DDD4",
" m.	c #8EDED1",
".m.	c #72DED1",
"+m.	c #82E0D0",
"@m.	c #8AE0D3",
"#m.	c #80E1D0",
"$m.	c #72E1D1",
"%m.	c #6ADCD4",
"&m.	c #75E0D0",
"*m.	c #90EAC6",
"=m.	c #8DE8C7",
"-m.	c #87E5CB",
";m.	c #73E5CC",
">m.	c #74E5C9",
",m.	c #7AE0D2",
"'m.	c #76E2CB",
")m.	c #8CE4CC",
"!m.	c #7EDED2",
"~m.	c #78E4CC",
"{m.	c #7FE6C9",
"]m.	c #8DE5CC",
"^m.	c #9CDED4",
"/m.	c #C38DED",
"(m.	c #B382F5",
"_m.	c #6268FA",
":m.	c #5F96FA",
"<m.	c #67BAF0",
"[m.	c #75D9DB",
"}m.	c #76DAD8",
"|m.	c #8AD1E3",
"1m.	c #87D8DC",
"2m.	c #86D5DC",
"3m.	c #8FCDE2",
"4m.	c #75D6DC",
"5m.	c #77D3E0",
"6m.	c #76DDDA",
"7m.	c #76DBD7",
"8m.	c #73E2D2",
"9m.	c #73DFD2",
"0m.	c #8DD6DC",
"am.	c #7ED9DC",
"bm.	c #7BDAD6",
"cm.	c #74DED2",
"dm.	c #7CDCDB",
"em.	c #84D2DE",
"fm.	c #81D0DF",
"gm.	c #7FD8D6",
"hm.	c #8ADAD9",
"im.	c #74DBD8",
"jm.	c #80DCDB",
"km.	c #88DAD8",
"lm.	c #82D8D9",
"mm.	c #74CFE4",
"nm.	c #92CFE1",
"om.	c #73D5DE",
"pm.	c #7BDADC",
"qm.	c #7ED9DA",
"rm.	c #7FD7D9",
"sm.	c #88D5DF",
"tm.	c #75D6DF",
"um.	c #86DBD8",
"vm.	c #81D6D9",
"wm.	c #84D1E3",
"xm.	c #7CD3E4",
"ym.	c #8FD0E2",
"zm.	c #75DDD4",
"Am.	c #7BD5E0",
"Bm.	c #80D5DA",
"Cm.	c #8BCDE3",
"Dm.	c #61C0EC",
"Em.	c #73CEE3",
"Fm.	c #88D2DD",
"Gm.	c #77D2E4",
"Hm.	c #8ADAD7",
"Im.	c #72D8DD",
"Jm.	c #87D8D9",
"Km.	c #87D5E2",
"Lm.	c #86DDD7",
"Mm.	c #88DDD8",
"Nm.	c #86DADA",
"Om.	c #7AD9DD",
"Pm.	c #7DD5D9",
"Qm.	c #90DED1",
"Rm.	c #88D9DC",
"Sm.	c #80A6FB",
"Tm.	c #A1CADC",
"Um.	c #6CDAD7",
"Vm.	c #77D9D8",
"Wm.	c #84D6E1",
"Xm.	c #85D8DE",
"Ym.	c #80DADB",
"Zm.	c #8CD5DB",
"`m.	c #88DFD7",
" n.	c #7BD3E1",
".n.	c #78DAD9",
"+n.	c #77D6DC",
"@n.	c #95DDD2",
"#n.	c #7EDDD9",
"$n.	c #7ADED6",
"%n.	c #78D7D9",
"&n.	c #80D8D9",
"*n.	c #73D4DA",
"=n.	c #8CD7DC",
"-n.	c #8BD5E0",
";n.	c #8FC5E7",
">n.	c #AB80F4",
",n.	c #739BFB",
"'n.	c #87AEF9",
")n.	c #8EBFEA",
"!n.	c #83BBEE",
"~n.	c #75C2EE",
"{n.	c #78C1EE",
"]n.	c #8DBBED",
"^n.	c #83C1EA",
"/n.	c #8CC1EB",
"(n.	c #80BBF5",
"_n.	c #7BB8F1",
":n.	c #8AB7F0",
"<n.	c #88ACF8",
"[n.	c #79B8EE",
"}n.	c #67CCE0",
"|n.	c #70C2EA",
"1n.	c #7BC6ED",
"2n.	c #88C2EA",
"3n.	c #72BFED",
"4n.	c #81C2E8",
"5n.	c #80BBF3",
"6n.	c #80B8F1",
"7n.	c #88B4F3",
"8n.	c #80B6F4",
"9n.	c #7BB5F5",
"0n.	c #89B7F5",
"an.	c #84BCEF",
"bn.	c #87BFEE",
"cn.	c #7FBCF3",
"dn.	c #77BBEC",
"en.	c #7FB5F1",
"fn.	c #80CDE1",
"gn.	c #80C4EB",
"hn.	c #85BFED",
"in.	c #7DC5ED",
"jn.	c #83BDED",
"kn.	c #7BBFEC",
"ln.	c #77B9F3",
"mn.	c #8BBAF0",
"nn.	c #8EB4F2",
"on.	c #82BBF0",
"pn.	c #75BBEF",
"qn.	c #7AC1EF",
"rn.	c #89B7F2",
"sn.	c #84BFEB",
"tn.	c #81B9F2",
"un.	c #7DBAF0",
"vn.	c #80C3F0",
"wn.	c #78B6F3",
"xn.	c #85C5E9",
"yn.	c #99BAED",
"zn.	c #8BB7F4",
"An.	c #6DC1ED",
"Bn.	c #67C5E7",
"Cn.	c #75C5E8",
"Dn.	c #7CC6ED",
"En.	c #88A9F8",
"Fn.	c #71B1EF",
"Gn.	c #88BCEE",
"Hn.	c #7EBAEC",
"In.	c #7FBCF2",
"Jn.	c #76C4EB",
"Kn.	c #74C3EA",
"Ln.	c #87C0ED",
"Mn.	c #83BCF1",
"Nn.	c #7DB8F2",
"On.	c #96BAEA",
"Pn.	c #80BDF3",
"Qn.	c #6EB2F1",
"Rn.	c #7EB9F5",
"Sn.	c #73BDEE",
"Tn.	c #86C9E4",
"Un.	c #8CC4E7",
"Vn.	c #76C3ED",
"Wn.	c #79C3E6",
"Xn.	c #7EC0F0",
"Yn.	c #8AD1E7",
"Zn.	c #74BFE9",
"`n.	c #89CAE6",
" o.	c #77C2EA",
".o.	c #88C3EF",
"+o.	c #8AAFF3",
"@o.	c #75BDEF",
"#o.	c #6DC7E9",
"$o.	c #7AC6E6",
"%o.	c #8CBEEF",
"&o.	c #8AC4E9",
"*o.	c #78BFED",
"=o.	c #9AB9EF",
"-o.	c #76B7F1",
";o.	c #88C7EA",
">o.	c #93B6F0",
",o.	c #83AFF6",
"'o.	c #76BBF2",
")o.	c #7CC5E8",
"!o.	c #77C1F2",
"~o.	c #78C4E8",
"{o.	c #70C3EB",
"]o.	c #94C4EA",
"^o.	c #86BEED",
"/o.	c #7BB7F3",
"(o.	c #74C1EF",
"_o.	c #78C3ED",
":o.	c #86C4EB",
"<o.	c #8EC3ED",
"[o.	c #8DC0EB",
"}o.	c #7CB7F1",
"|o.	c #8B9BFD",
"1o.	c #7F9EF9",
"2o.	c #81A3FA",
"3o.	c #87ACFA",
"4o.	c #8EA2F8",
"5o.	c #82A9F6",
"6o.	c #8692FF",
"7o.	c #8095FF",
"8o.	c #7C9EFF",
"9o.	c #63B3F2",
"0o.	c #69ABF7",
"ao.	c #829CFD",
"bo.	c #7DA2FA",
"co.	c #8E9DF8",
"do.	c #8A9EFD",
"eo.	c #8B97F9",
"fo.	c #7F94FF",
"go.	c #7B9EF8",
"ho.	c #719EF9",
"io.	c #8399FC",
"jo.	c #7996FE",
"ko.	c #789CFD",
"lo.	c #8097FF",
"mo.	c #819AFE",
"no.	c #83A3F8",
"oo.	c #90A4FB",
"po.	c #74A2F8",
"qo.	c #7598FC",
"ro.	c #7697FF",
"so.	c #7B9EFC",
"to.	c #7D93FF",
"uo.	c #7D9CF7",
"vo.	c #72A2F7",
"wo.	c #78A1F9",
"xo.	c #7D9AF8",
"yo.	c #86A1FA",
"zo.	c #8C9AFB",
"Ao.	c #8C90FE",
"Bo.	c #7FAAF9",
"Co.	c #81A0FB",
"Do.	c #839CF9",
"Eo.	c #7A97FB",
"Fo.	c #7E9FFE",
"Go.	c #81A1F8",
"Ho.	c #7FA0FF",
"Io.	c #77A6F8",
"Jo.	c #79A6F7",
"Ko.	c #79A2FA",
"Lo.	c #8BA5F9",
"Mo.	c #81A0FD",
"No.	c #81A5FB",
"Oo.	c #76A2FB",
"Po.	c #8991FE",
"Qo.	c #6F9EFA",
"Ro.	c #8C9CFB",
"So.	c #72A5F8",
"To.	c #84B1F5",
"Uo.	c #8AA9FB",
"Vo.	c #8C93FB",
"Wo.	c #7792F9",
"Xo.	c #7599FA",
"Yo.	c #79A2FC",
"Zo.	c #869AFB",
"`o.	c #86A1FC",
" p.	c #8A9DFC",
".p.	c #7A91FB",
"   .  +  @  #  $  %  &  *  =  -  ;  >  ,  '  )  !  ~  {  ]  ^  /  (  _  :  <  [  }  |  1  2  3  4  5  6  :  7  8  9  0  a  b  c  d  e  f  g  h  i  j  k  l  m  <  n  o  p  q  r  s  *  t  u  v  w  x  y  z  A  B  C  D  E  F  G  H  I  J  %  K  L  M  N  L  O  P  Q  R  S  T  U  o  V  W  X  Y  L  Z  `   . .. +. @. #. $. %. &. *. =. -. 9  ;. >. ,. '. ). !. ~. =  {. r  ]. ^. g  /. (. _. :. <. [. }. |. _. 1. #. 2. 3. 4. 5. 6. 7. 8. x  <. 9. r  3  0. 3  %. +. a. b. c. d. =  e. f. Y  @. g. h. w  x  i. j. T  k. l. m. n. o. u  *  p. q. r. s. t. K  u. v. w. g  x. y. z. d  A. B. C. D. E. t  F. G. r. H. =. I. J. S  3  g  K. L. M. 8. 9. N. O. P. Q. R. S. T. Q  U. &  V. W. X. L. +  Y. H  Z. `. *.  + .+ ++ @+ #+ 8. $+ %+ *  &  &+ *+ =+ -+ ;+ $. >+ w  ,+ 7  '+ %. )+ !+ I  ~+ {+ ",
"]+ ^+ /+ (+ _+ :+ <+ [+ }+ |+ 1+ 2+ 3+ 4+ 5+ 6+ |+ 7+ 8+ 9+ 0+ a+ b+ c+ d+ e+ f+ g+ h+ i+ j+ k+ k+ l+ m+ n+ o+ p+ q+ r+ s+ t+ u+ v+ w+ x+ y+ z+ A+ B+ C+ D+ E+ F+ G+ H+ I+ J+ l+ K+ L+ M+ x+ N+ O+ P+ Q+ R+ }+ 5+ S+ T+ U+ V+ W+ X+ Y+ Z+ `+  @ e+ .@ L+ +@ k+ @@ #@ $@ %@ &@ *@ =@ -@ ;@ >@ ,@ '@ )@ !@ ~@ {@ o+ ]@ -@ ^@ /@ (@ _@ :@ <@ [@ }@ |@ 1@ 2@ 3@ 4@ 5@ 6@ 7@ 8@ 9@ 0@ a@ b@ c@ d@ e@ 7@ -@ f@ x+ g@ h@ i@ j@ k@ l@ m@ n@ o@ p@ q@ w+ r@ s@ t@ u@ v@ w@ x@ X+ y@ z@ A@ B@ C@ D@ E@ F@ G@ H@ I@ J+ J@ K@ L@ M@ <@ M@ n+ T+ N@ O@ P@ Q@ o+ k+ R@ S@ T@ U@ V@ W@ X@ V@ Y@ Z@ `@  # .# h@ ^@ +# +@ [+ @# e@ ## v@ $# h@ V+ A+ %# &# *# :+ =# -# ;# ># ,# '# )# !# ~# {# I@ ]# ^# X@ /# (# <+ _# :# <# l@ [# V+ ## }# M@ |# 1# 2# 3# 4# 5# 6# 7# 8# -@ e@ 9# 0# .@ A+ a# *@ 6+ b# c# d# e# ",
"f# g# h# i# j# k# l# m# m# n# o# p# q# r# s# t# u# v# w# x# m# y# z# A# B# C# D# E# F# G# H# I# J# K# L# M# N# O# P# Q# R# S# T# U# V# W# X# Y# Z# `#  $ .$ +$ @$ #$ $$ %$ &$ *$ =$ -$ ;$ >$ ,$ '$ )$ J# !$ ~$ {$ !$ y@ ]$ ^$ /$ ($ _$ :$ <$ [$ }$ |$ 1$ 2$ 3$ 4$ 5$ 6$ 7$ 8$ 9$ k# 0$ a$ b$ c$ <$ Z# d$ e$ t# f$ =$ g$ h$ {$ i$ j$ k$ l$ m$ A+ n$ o$ p$ q$ r$ s$ t$ `# u$ v$ w$ x$ y$ z$ A$ i$ B$ C$ D$ E$ F$ E$ 5$ G$ H$ I$ J$ K$ J# L$ M$ N$ O$ P$ y@ Q$ R$ S$ f$ T$ U$ V$ W$ T# X$ Y$ K# Z$ `$  % 7$ .% T# +% @% #% $% %% J# &% *% =% -% W# ;% o# `# >% ,% '% W# `# )% !% S$ ~% {% ]% C# 6$ ^% /% 4$ k# 6$ `# (% u$ E# E# _% :% '$ {% <% [% }% |% 1% n# 2% 3% v$ 4% 5% 6% 7% _$ 8% u$ 9% 0% I# a$ Y$ q# a% b% c% M# P$ y@ C# d% e% f% g% h% i% j% -$ k% l% Z# d$ m% 6% n% o% p% q% r% s% t% ",
"u% v% w% x% y% z% A% B% C% D% E% F% @$ z% G% H% I% J% K% L% M% N% O% P% Q% R% S% T% U% V% W% X% Y% Z% `%  & .& +& @& #& $& %& && *& =& -& ;& I% >& ,& '& )& !& ~& z% {& ]& ^& /& (& _& :& <& [& }& |& 1& 2& H$ v# 9% 3& 4& 5& 6& '& 7& 8& 9& 0& a& '& b& c& T% d& 0& I% e& Z% f& g& h& i& j& k& l& m& n& o& p& q& V# D% Z% r& 1& G% G% s& t& u& v& v& w& x& y& z& A& B& C& D& E& u$ F& G& H& I& J& K& [& (& L& M& N& O& P& Q& R& S& Z% T& U& c& w& V& W& X& Y& D% Z& `& n&  * .* +* @* #* $* %* &* ** G% =* -* ;* >* ,* '* S% )* !* e& ~* T& K% (& e& l& T% {* ]* ^* /* (* _* :* <* [* $* }* (& {* D% _& Q& |* 1* 7& 2* o& 3* 4* 8& 5& K% 5* 6* 7* B% l& 8* B% 9* 0* a* b* O& c* d* e* f* g* h* i* j* k* l* m* n* e& ]% o* p* q* #* r* z% s* ;& t* e& h* u* v* I& (& K% i& a& w* x* y* z* A* B* ",
"C* D* E* F* G* H* I* J* K* L* M* N* *# O* P* Q* R* S* T* U* V* W* &# d+ X* Y* Z* >% `*  = .= += `# l# @= #= $= ## %= &= *= == -= ;= >= ,= '= )= != ~= {= ]= ^= /= (= _= ;$ := <= [= x$ }= |= &$ 1= 2= 3= 4= Q* 5= 6= 7= 8= L@ 9= 0= a= b= N$ c= d= e= f= g= _% h= i= j= k= l= m= n= 4# o= p= q= v$ r= s= t= )$ u= v= w= x= y= z= &$ A= B= d@ C= &$ D= X+ E= F= G= #= H= I= J= K= ]% L= M= N= O= P= Q= R= S= M$ T= U= V= W= X= Y= Z= `=  - .- +- @- @= #- u@ $- %- &- t$ *- =- -- t$ ;- >- ,- '- T* )- 6+ !- ~- {- ]- ^- /- +- (- _- :- <- [- ,- }- |- 1- g@ 2- 3- '= 4- 5- 6- 7- 8- 9- !$ V= 0- a- x$ T$ O# [+ b- c- V* d- >% e- `# <- f- B# g- h- 4- i- j- k-  - p= l- m- n- o- p- q- r- s- t- g$ u- -- v- w- x- y- z- A- B- C- D- E- :# m+ F- G- H- I- != ;- }- V* V= n# J- m# K- L- M- N- O- ",
"P- Q- R- S- T- U- V- W- X- 7. Y- Z- `-  ; .; t. +; @; #; 6  $; %; h. &+ &; *; =; -; ;; >; ,; '; ); !; ~; e. {; ]; ^; /; i  (; _; :; <; [; }; h  |; 1; 2; 3; 4; `. 5; 6; 7; 8; 9; 0; )+ a; b; c; d; e; f; g; h; i; j; k; l; m; n; o; p; q; W  r; I  s; :  t; u; v; w; x; y; z; A; B; C; -+ H  D; E; F; G; H; t. I; J; K; L; M; N; O; P; Q; R; S; T; U; u% V; W; X; Y; Z; `;  > .> +> @> #> $> %> &> *> => 8. A. -> ;> >> ,> '> )> !> W. ~> {> ]> ^> /> (> _> :> <> [> }> |> 1> E. 2> |. 3> 4> 5> 6> 7> 8> 9> 0> a> b> 2> c> d> e> f> g> h> i> j> x  k> l> m> n> o> p> q> r> s> t> u> v> w> $  x> y> z> A> B> C> D> E> F> G> &  H> I> J> K> L; L> M> P  3  N> O> P> Z. Q> R> S> T> U> V> W> X> Y> Z> `> e>  , ., +, @, #, $, %, &, *, =, 1. -, ;, >, ,, ', ), !, ~, {, ], ^, D. /, (, _, :, <, [, ",
"}, |, 1, 2, 3, 5. 4, 5, 6, 7, 8, 9, 0, a, b, c, d, D  e, .. j  f, O. g, h, i, j, k, l, m, n, o, p, q, r, s, t, u, g  v, w, x, y, z, A, Y. B, C, x. D, E, #  %. F, G, %+ B  H, J  I, .; @  @. $. q> J, O. K, L, M, N, q> O, P, Q, R, S, T, U, Z- V, F. W, z. W, X, Y, Z, `,  ' .' +' 2. @' ^  F. #' $' #. %' &' p  N> |; *' O> =' -' ;' >' ,' '' 0  )' !' ~' {' ]' h, ^' /' (' _' :' <' [' }' |' 1' 2' 3' 4> 4' 5' 6' 7' 8' 9' 0' a' _> 3  b' c' d' /; e' f' 5  g' 5' h' i' j' 6, k' |; g  t. 9. l' m' {> n' o' .+ p' +  q' ]> x  r' Y. k. s' t' u' v' s' V, w' x' y' ]  z' H. o  A' B' C' D' Z- P. ~+ E' F' G' 6  g  H' I'  + J' K' L' M' w, N' O' S  2. C. P' Q' R' ;+ |. S' T' f. U' V' W' +  X' Y' Z' r' `'  ) x. .) J  +) @) #) E  $) %) &) *) =) -) ;) >) ,) ') P; *. )) !) ~) {) ]) ^) /) ",
"() _) :) <) [) }) |) C, 1) 2) 3) 4) 5) 6) 7) 8) 9. 9) i> 0) a) b) c) d) n, o. e) f) (  g) h) }) <. i) j) _> N' |) k) Q  l) m) n) o) p) q) r) s) t) u) v) t. B. E  ~' w) x) y) z) -. %  <. A) $  p. ,> B) C) H. {; D) E) @, F) G) H) *> I) J) K)  ' L) 3  M) m. N) O) P) $, P. Q) R) z. S) T) h  K> U) V) ~, W) X) Y) Z) K) `) E.  ! .! h  +! @! ', #! $! %! e> &! *! x) h  =! -! ;! >! ,! '! )! !! ~! {! ]! X> ^! B) /! (! _! :! <! (. [! }! &' |! 1! 2! 3! 4! 5! 6! u, c  +  p; (  q. z  7! 8! 4  9! 0! a! b! c! d! e! f! U  g! h! i! I. j! k! l! m! n! _. .. .. 7! k. o! T  p! =. q! r! s! H  '+ t! y) %. >. $  u! v! w! x! y! z! A! B! #  p  C! D! E! =. q. F! 8. G! B. H! I! J! y) #. Y  K! e' L! M! N! ]  t. x. $  O! P! Q! I. q> &' p! R! S! T! U! V! W! X! Y! Z! `! 9;  ~ .~ +~ @~ #~ $~ ",
"%~ &~ *~ =~ -~ ;~ >~ ,~ '~ )~ !~ ~~ {~ ]~ ^~ /~ (~ (. _~ L  1. v; :~ <~ [~ }~ |~ 1~ &. @+ 2~ 3~ 4~ 5~ 6~ 7~ 8~ 9~ O. 0~ a~ b~ c~ d~ e~ f~ H  q  g~ w> h~ |~ i~ j~ k~ l~ m~ |! M  n~ o~ p~ q~ a! N' m. r~ ]; s~ z. d. k; K> |> t~ u~ x' v~ w~ x~ y~ z~ B. A~ B~ C~ ~> D~ E~ V> w> 8! F~ 2. X-    8. I  d! G~ H~ I~ 5  J~ K~ L~ O. D! M~ N~ O~ P~ Q~ R~ B; S~ T~ U~ V~ W~ X~ Y~ Z~ `~  { .{ +{ @{ #{ K. ${ %{ &{ E' *{ ={ &) -{ _. ;{ B  >{ ,{ '{ ){ _. !{ n> =. ~{ w) {{ ]{ ^{ Y  /{ ({ _{ :{ ,{ <{ ~. [{ }{ |{ B) 1{ 2{ i~ K) *. 4. I. 3{ 4{ 5{ _. ;! 6{ t. 7{ 4  8{ 9{ 7  0{ a{ b{ c{ 3  L) d{ e{ f{ g{ X- d; O, h{ Y) g. i{ j{ k{ v) l{ m{ n{ o{ X, c  p{ q{ r{ s{ t{ U  8! u{ v{ w{ x{ p. [{ /' z  e{ y{ z{ A{ b~ t  B{ '{ P. 3  C{ D{ M) E{ '~ )~ !~ ~~ {~ ]~ ^~ /~ F{ G{    H{ I{ J{ #~ K{ ",
"L{ M{ N{ O{ P{ Q{ R{ S{ T{ U{ V{ W{ X{ Y{ Z{ f  `{  ] .] _. H. +] @] [{ #] e# }~ $] 4> %] &] .. *] =] -] u, ;] >] %; f. .' ,] z. '] )] !] ~] u) {] ]] ^] /] (] _] :] <] [] }] Z, Q  |] 1] 2] 3] g  4] 5] 6] 7] 8] 9] 0] a] Q! b] +) c] d] e] f] =. g] h] i] j] Z- k] ^, K. l] m] x  U  n] ,+ Z- +] 2. o] p] q] r] s] t] u] v] _> w] x] y] z] A] B] C] I  v  D] y  _~ a) E] F] G] H] I] J] K] L] M] N] O] P] m~ ). s) Q] R] 7  E~ -. @+ f. c; S] T] U] V] /; >. W] X] Y] Z] `]  ^ .^ +^ P~ @^ #^ $^ %^ &^ C{ *^ =^ -^ I~ H  ;^ f! '{ >^ ,^ 8. '^ )^ u. }  =  !^ 0' m~ +] b; t. ~^ 1! e. {^ $) ,  *. 7  ]^ ^^ /^ (^ _^ :^ <^ [^ }^ M! |^ 1^ N~ 2^ 8! 3^ 4^ Q, 5^ 6^ 7^ 8^ 9^ 0^ h' a^ b^ c^ d~ W> W. p! d^ %. e^ f^ g^ h^ i^ j^ *  :  k^ 8  l^ m^ T{ U{ V{ W{ X{ Y{ Z{ f  n^ o^ p^ q^ +~ r^ s^ K{ ",
"t^ u^ v^ w^ x^ [~ y^ z^ A^ B^ I] C^ D^ L] E^ F^ G^ H^ w   ~ u  I^ J^ K^ L^ 7' X) h> M^ h> C. N^ O^ P^ Q^ R^ x. #  ^  S^ T^ .+ U^ F. V^ W^ X^ Y^ Z^ `^  / Q] l  ./ K> +/ @/ #/ $/ %/ &/ */ =/ -/ ;/ E' M! >/ [, ,/ *  '/ h~ )/ !/ ~/ p.  + *] {/ ]/ ^/ // (/ G) _/ :/ </ @' [/ 3  }/ 4  |/ 1/ 2/ 3/ 4/ 5/ r{ 6/ 7/ <. y) Q' 8/ 9/ 0/ a/ b/ c/ {. d/ e/ X- ^  `. f/ g/ q. h/ i/ j/ k/ l/ m/ n/ o/ p/ q/ r/ s/ J  t/ u/ v/ x, w/ x/ E; 9. y/ }/ z/ A/ E  B/ o, C/ D/ @' `^ E/ F/ G/ H/ j^ D  I/ J/ K/ L/ M/ 7> b; N/ I) O/ P/ )) Q/ @+ R/ S/ T/ U/ k] V/ B! H! w! W/ X/ N) J  Y/ Z/ ^  `/ w; j  D   ( $^ .( {. U. +( [! a~ H/ @( #( $( %( e] w~ E. x  4  }  k) &( E; *( =( -( ;( >( ,( '( ={ )( !( t  ~( )> p; {( 9^ ](  ) ,. B  9. 8. h  ^( /( (( A^ B^ I] C^ D^ L] E^ F^ _( :( $^ <( [( }( |( 1( ",
"2( 3( 4( 5( 6( ). 7( 8( 9( 0( a( b( Q] c( d( q/ e( f( s. ]  g( F. h( i( 0~ j( k( l( h  a' m( b) [, 3  n( O. o( p( 7. f  q( r(  ' d; )^ 2] s( t( u( v( m~ w( x( y( z( A( B( C( D( E( *^ F( G( H( I( J( K( /; L( ]; i> D) Z/ :^ y! M( N( d. )+ 3  O( P( Q( R( S( s, T( U( 4; V( W( 7. O; O. *' X( N/ Y) Y( Z( o; `( C  3   _ ._ +_ J  @_ #_ $_ o  a~ %_ &_ *_ =_ -_ ;_ B  >_ ,_ '_ )_ !_ ~_ {_ ]_ ^_ /_ (_ __ !) r~ ;  :_ <_ T] b~ [_ }_ |_ 1_ O. !) 2_  ) 3_ 4_ 5_ 6_ H~ 7_ 8_ 9_ 0_ e/ a_ b_ |) c_ d_ e_ f_ g_ h_ X.  ; m) i_ K. `' ]  j_ B; k_ .. J  l_ m_ y/ n_ S( x~ 3. 9. q> t. o_ p_ q_ r_ :. s_ ;+ ,/ t_ u_ v_ 4> ). w_ O. 8{ x_ 3  t) w' U  O. y_ 3] z_ A_ B_ C_ ./ D_ E_ .] F_ ;/ )> G_ H_ p~ g  I_ (' X. J_ K_ L_ 4' M_ w{ N_ O_ P_ Q_ 9( 0( a( b( Q] c( d( q/ R_ S_ T_ U_ V_ W_ X_ Y_ ",
"Z_ `_  : .: +: .+ @: #: $: %: &: g] *: =: -: ;: >: ,: ': ): J  !: ~: :  {: 2^ ]: ^: A' b~ /: 0] (: _: :: 1. <: f. }) k  N' B. '+ [: }: |: 1: 2: 3: 4: 5: 6: 7: 8: 9: 0: a: |{ b: c: d: G) e: f: g: h: i: j: k: .  l: e/ m: w> n: o: p: q: r: s: t: u: v: w: x: y: z: A: B: j  C: D: T  E: F: G: H: I: J: &  K: h. L: L) M: N: O: +' P: Q: +( a! f! R: =. S: T: U: %+ x  V: W: X: Y: Z: `:  < .< +< @< #< $< %< &< ,+ *< =< i. -< c) :  F. %. y) ;< 6  G> >< ,< '< )< !< ~< 7  {< ]< ^< /< O_ (< h^ _< :< << [< }< |< <! #] 1< 2< 3< 4< 5< 6< 7< 8< 9< ={ 0< a< c/ b< c< d< e< z/ f< g< h< i< j< k< t  T~ |_ l< B) B. m< %. n< y  Z-  ) ;  o< p< G  |< q< T  C]  ' r< 9< p< s< t< u< v< w< Q: x< w  %  O. ;  y< 7. z< A< B< C< D< 7  E<  + F< G< $: %: &: g] *: =: -: ;: H< I< J< K< L< M< N< O< ",
"#+ P< Q< R< S< T< U< V< W< X< Y< Z< `<  [ .[ +[ @[ #[ $[ %[ =, m] &[ .+ 0  _. *[ 1~ =[ p{ -[ q< ./ K~ U; ;[ j  >[ L, V> ,[ '[ )[ ~> ![ ~[ {[ ][ ^[ /[ ([ N' p> C] _[ r. :[ <[ f  [[ }[ |[ 1[ =] 2[ 3[ 4[ x: 5[ 6[ Q: 7[ Y] 8[ 9[ 0[ a[ b[ c[ d[ s) E' %. X- e[ f[ g[ h[ +( D, *] c/ *  w  w  B) i[ j[ k[ }[ 9: O! ,  w) O( *] h_ l[ m[ ;; /. d; >{ t, (' n[ o[ )] p[ q[ r[ s[ t[ u[ v[ w[ x[ y[ z[ 6< A[ B[ C[ D[ (^ |_ E[ F[ k: G[ $; )> W. V' H[ s! S^ @' I[ s> }{ J[ g~ K[ 0> v  L[ M[ _/ N[ r{ O[ P[ Q[ R[ {. o  /; ^; i  S[ T[ U[ c  V[ W[ X[ Y[ Z[ `[  } %[ .} Q  +} }] @} #} $} $! %} &} O> =^ O. e; *} 5~ g/ k: K> =} f! .. h) -} ;} >} [~ ,} }  '} )} !} 7  ~} o. 2> {} ]^ ]} ^} /} (} o  p~ ,  _} :} r; (: <} _. W] d! [} n< ]  }} |} W< X< Y< Z< `<  [ .[ +[ #< 1} W. 2} 3} 4} 5} 6^ ",
"6} 7} 8} 9} 0} a} b} c} d} e} Y! f} x[ g} h} s. i} j} Y/ n) ({  / k} $) f~ l} m} j. n} o} p} 3  q} r} s} t} u} v} w} x} y} N( z} q~ A} B}  ! ,{ C} D} E} F} e# d' L, G} S[ H} D[ E~ c] I} J} c  g  W~ K} L} M} N} D! O} P} Q} R} S} T} U} V} ~. W} (; X} Y} Z} 4_ `}  | .| +| @| .  T  &, [{ ^  O} K) #| 4; *] V/ <> p! L' &' $| q' %| &| *| +] Z. s_ =| -| ;| >| ,| '| )| !| ~| A~ {| ]| ^| /| (| _| :| c^ <| P; G! e: T) g; s. N> j. y/ 8^ [| %, }| 7{ || 1| ~, 2| (< 3| 4| i! p! 5|  ) A] d  6| y) 7| 8| 9| u{ 7{ t. B. 0| c. a| k: b| q> *, c| d| e| f| g| h| i| j| $; k| l| n{ m| n| o| p| q| K/ /. ;. r| ^> S' s| w> +  t| 0' o. }) H. u| v| /' %  w| x| &  y| A. y( z| 2^ o  A~ X' A| B| -} &' N, C| D| t. K/ E| F| g( G| X  H| a! I| J| d} e} Y! f} x[ g} h} s. K| L| M| N| O| P| Q| R| ",
"S| T| U| V| W| r, X| Y| ~| Z| `|  1 .1 +1 @1 #1 $1 %1 G. &1 *1 J[ =1 -1 ;1 >1 =. ,1 '1 x> )1 a[ n< !1 ~1 {1 ]1 s_ ;/ g  ^1 3] i, /1 O) (1 &' _1 t! :1 E. <1 [1 [^ }1 |1 7  11 j  :  21 31 <~ M) Q' p; .} p^ B_ e_ k. *+ L. *_ 41 51 61 71 81 d  >^ 91 01 a1 b1 ^. c1 d1 e1 ;+ %_ 7  |) B  ;^ Y/ a_ f1 g1 B) h1 ~: i1 ;; j1 k1 N) l1 m1 n1 o1 x> p1 _~ -| E~ q1 r1 T; s1 .+ Z, t1 u1 v1 w1 x1 y1 z1 A1 B1 C1 D1 E1 F1 o[ I, M' O> *> O_ &+ @| 8] G1 >. %1 #. H1 I1 J1 t  K1 L1 M1 i! N1 `  O1 P1 Q1 R1 S1 /; T1 w! U1 N/ f. V1 W1 X1 o{ Y1 c  Q[ Z1 `1 y<  2 .2 +2 @2 Q1 #2 [, $2 %2 &2 )^ *2 =2 -2 `] _. r, 6] ;2 >2 ,2 c' #. M' 8! Z_ '2 )2 !2 ~2 Y- (  3. {2 ]2 h^ w; ,{ ^2 /2 x. y' (2 _2 :2 <2 '| Q{ [2 }2 |2 F, :  12 J< 22 ^~ 32 42 52 62 ~| Z| `|  1 .1 +1 @1 #1 72 b' #_ 82 92 02 a2 Y( ",
"b2 c2 d2 e2 f2 g2 h2 A. i2 j2 k2 l2 m2 n2 o2 p2 K; }^ q2 r2 s2 t2 e; u2 v2 w2 x2 y2 z2 A2 W; B2 C2 D2 +. E2 6< H. M! h^ x. << F2 .. G2 F; (. e  H2 K  {: I2 d  J2 _> _! K2 L2 M2 |~ O_ E, w  8/ N2 7. *, 3  0~ n, b~ g| 2. :  O2 P2 Q2 R2 S2 T2 Y  U2 <  V2 W2 X2 Y2 41 Z2 `2  3 .3 +3 M~ k; @3 #3 $3 b^ %3 2{ &3 *3 =3 -3 ;3 >3 ,3 5, '3 s. W[ !) )3 U2 b: 7  C. V/ =. b~ 2] p[ !3 ~3 {3 ]3 D% |@ >< ^3 /3 (3 _3 q2 :3 <3 #_ [3 }3 q> |3 13 w) 3' 8. -} 23 33 a! +( 4' E. 43 53 v] T2 %1 63 '| 73 83 93 03 .| a3 b3 |{ 8] V  c3 d3 e3 :1 w> f3 g3 h3 i3 ^/ K. j3 k3 Y^ (1 Y, G[ l3 7. m3 n3 o3 p3 q3 r3 B_ s3 `2 ~[ t3 3' u3 >( _. v3 b| w3 7: $) x3 K) y3 p1 z3 @  A3 B3 C3 R] D3 p_ E3 F3 G3 H3 I3 J3 K3 y_ *3 3' f! +. L3 M3 N3 p! |) x| O3 P3 Q3 R3 S3 T3 U3 V3 W3 X3 x, T. Y3 Z3 `3  4 .4 ",
"+4 @4 #4 $4 %4 &! c] &4 *4 =4 -4 ;4 >4 ,4 ,= e> '4 )4 ^; !4 ~4 4  {4 k~ ]4 ^4 /4 (4 _4 =) :4 <4 [4 }4 |4 14 24 34 44 54 64 74 84 94 04 a4 b4 c4 d4 e4 f4 g4 h4 i4 j4 k4 74 l4 m4 n4 o4 p4 q4 r4 s4 t4 i3 u4 v4 w4 x4 y4 z4 A4 B4 C4 D4 E4 F4 G4 H4 I4 J4 K4 L4 M4 N4 O4 P4 Q4 R4 S4 T4 U4 V4 W4 X4 Y4 Z4 `4  5 .5 +5 @5 #5 $5 %5 &5 *5 =5 -5 ;5 >5 ,5 '5 )5 !5 ~5 {5 ]5 74 ^5 /5 (5 _5 :5 <5 [5 }5 |5 15 25 35 45 55 65 75 85 95 05 a5 b5 c5 d5 e5 f5 g5 h5 i5 j5 k5 l5 m5 n5 o5 p5 q5 r5 s5 t5 u5 v5 w5 x5 y5 z5 A5 B5 C5 D5 E5 F5 G5 H5 I5 J5 K5 L5 M5 N5 84 z5 O5 P5 Q5 R5 S5 T5 U5 V5 W5 X5 Y5 Z5 `5  6 .6 +6 @6 #6 $6 a5 %6 &6 *6 W4 =6 -6 ;6 >6 ,6 '6 )6 !6 ~6 {6 b5 ]6 ^6 /6 (6 _6 :6 <6 [6 }6 |6 16 26 36 46 Z1 56 66 76 p~ 86 |) d  96 B} 06 a6 b6 c6 d6 x+ <. 4' e< j, e6 f6 g6 l^ h6 ",
"i6 j6 k6 l6 m6 n6 |  g, p[ o6 b: g( p{ _. )4 i( M  j  p6 J  q6 r6 s6 t6 u6 v6 w6 x6 y6 z6 A6 B6 C6 D6 E6 F6 G6 H6 I6 J6 K6 L6 M6 N6 O6 P6 Q6 R6 S6 T6 U6 V6 W6 X6 Y6 Z6 `6  7 .7 +7 @7 #7 $7 %7 &7 *7 =7 -7 ;7 >7 ,7 '7 )7 !7 ~7 {7 ]7 ^7 /7 (7 _7 :7 <7 [7 }7 |7 17 27 37 47 57 67 77 87 97 07 a7 b7 c7 d7 w6 e7 f7 g7 h7 i7 j7 A6 k7 l7 m7 y6 n7 o7 p7 q7 r7 s7 t7 u7 v7 w7 x7 y7 z7 A7 B7 C7 D7 E7 F7 G7 H7 ^7 W6 I7 J7 K7 L7 M7 N7 z6 O7 P7 J7 Q7 L7 R7 S7 T7 U7 V7 W7 X7 E6 v7 Y7 Z7 `7  8 .8 +8 @8 I7 #8 o7 $8 %7 %8 `7 &8 *8 =8 -8 ;8 >8 ,8 '8 )8 !8 ~8 Z7 {8 I6 ]8 ^8 /8 (8 _8 :8 <8 [8 }8 |8 18 28 38 @> 48 y6 58 Z7 a7 68 '8 78 P7 88 98 08 a8 b8 c8 d8 `6 k7 e8 f8 g8 h8 i8 j8 k8 D6 l8 m8 n8 o8 p8 q8 r8 s8 t8 u8 v8 w8 x8 o, y8 V> z8 P^ A8 b: B  M' B8 %  .. C8 Y) D8 E8 F8 G8 H8 ",
"I8 J8 K8 L8 M8 N8 O8 P8 Q8 q! C; '^ R8 4  Y. ,> <. v> b; c/ S8 T8 U8 V8 W8 X8 Y8 Z8 `8  9 .9 15 H4 +9 @9 #9 $9 ,6 x4 %9 .7 &9 ;7 *9 <6 =9 -9 b, ;9 >9 ,9 ;7 '9 )9 !9 L4 ~9 {9 e4 ]9 ^9 %6 /9 35 D4 (9 _9 :9 <9 [9 }9 |9 (9 19 29 39 ') 49 59 69 79 89 99 ,9 09 ,7 a9 b9 c9 d9 e9 f9 g9 h9 i9 j9 k9 l9 m9 n9 {9 o9 p9 q9 r9 s9 t9 u9 <4 h5 v9 w9 x9 q9 y9 z9 A9 B9 C9 D9 E9 F9 G9 H9 I9 J9 K9 B5 L9 M9 =6 N9 O9 l8 h7 P9 G9 Q9 R9 S9 T9 U9 K9 V9 W9 X9 ]7 Y9 Z9 $9 `9 w9 X9  0 .0 [6 f8 +0 q9 @0 !9 #0 $0 %0 &0 *0 =0 -0 ;0 >0 ,0 '0 b9 *6 )0 -9 !0 ~0 {0 K9 ]0 ^0 /0 %9 (0 _0 :0 <0 [0 }0 |0 10 20 30 40 50 60 70 80 &9 90 W4 00 a0 b0 c0 d0 e0 f0 g7 g0 g0 h0 `9 ;9 i0 ,0 j0 k0 l0 m0 n0 o0 84 p0 q0 r0 s0 t0 u0 v0 w0 x0 y0 ,2 9< z0 A0 B0 D. l3 p. C0 D0 E0 :! ,{ :  g  8{ >( `3 F0 G0 H0 5, ",
"t^ I0 1, J0 o^ f, K0 L0 *  M0 [. N0 e[ I( O0 K  d' j  P0 Q0 R0 S0 T0 U0 V0 W0 X0 Y0 Z0 `0  a .a +a @a #a $a %a &a U4 &a *a =a -5 -a ;a >a ~5 ,a 'a )a !a ~a {a ]a ^a /a b4 (a _a :a 45 <a [a }a |a >a 1a 2a 3a 4a 5a 6a 7a 8a 9a 0a aa ba P2 ca da ea fa m0 ga ha ia ja ka la ma na oa pa qa ra sa ta ua T4 va wa xa ya i5 za Aa Ba Ca Da |a +a Ea Fa Ga Ha _a i3 Ia Ja Ka La Ma Na Oa e4 Pa Qa Ra Sa Ta Ja Ua Va Wa Xa {a Ya Za `a  b .b {a +b @b Ja #b $b %b 6a &b *b =b -b ;b >b ,b &a 'b j5 {a )b !b ~b {b M} Qa ]b ^b ia /b >a (b _b d4 :b <b [b X4  b _b }b |b 1b 2b 3b 4b 5b 6b 7b 8b 9b 0b Ga ab bb cb *b db `a !b .b eb fb gb hb ib jb n5 kb lb -a mb nb ob fb pb qb rb sb tb ub vb wb xb yb zb Ab Bb Cb Db Eb Fb Gb Hb Ib Jb Kb Lb Mb c' L  j. B{ b' ,. Nb |. h  g  K. Ob Pb Qb Rb Sb ",
"Tb Ub Vb Wb Xb /. R~ Yb $) Zb 3> ;. [^ `b  c >; I  p~ .c +c @c #c $c %c &c *c =c -c ;c >c ,c 'c )c !c ~c {c ]c ,c ^c /c (c _c :c <c [c }c |c 1c ~c <c 2c ~c ~c 3c 4c ~c /c 5c (c 6c :c )c 4c =c 7c [c 4c 8c )c 9c 0c 8c ac bc cc dc ~c ^c ,c ]c 4c 1c ~c ]c ac ec _c ~c ,c 7c 4c fc :c =c 8c gc ~c <c 1c hc |c ic jc ~c 1c =c kc lc mc ~c :c hc ^c :c ]c :c ~c _c ,c ]c ac <c ^c :c nc ic 4c oc pc 3c =c {c ic )c =c |c qc ,c gc rc ac ~c sc 6c ]c [c ic tc :c :c lc |c =c /c )c uc ~c )c ~c ic ~c =c /c ]c vc 3c 0c 6c 8c ic <c ,c ic ~c wc xc yc zc ac xc jc ,c ,c ~c )c ,c ac 9c 3c ~c ac Ac mc qc Bc :c ic Cc ,c ^c 2c [c 1c qc Dc jc Ec ~c Fc =c ic Gc :c Fc uc ,c ic :c Hc Ic Jc 8c 3c )c :c ic zc Kc Lc Mc Nc Oc Pc Qc Rc Sc Tc G; Uc W1 7. ;. _!  . m. 6] _. U1 )} >+ ^  Vc Wc Xc Yc Zc ",
"`c  d .d +d @d #d $d h  s. 1/ 7. Q! 5> 2  %d g( _. &d *d =d -d ;d >d ,d 'd )d hc )c :c =c =c nc nc 9c !d ;c 0c :c 3c ac ]c ~d ~c ic nc ,c ]c 0c ~c xc {d :c |c nc =c :c mc ]d ic xc ~c 6c ]c ;c 0c 2c _c 3c 4c :c 9c 0c :c pc 3c <c 6c ~d :c ^d [c /d :c 6c (d <c 3c ;c ^c _d 6c zc {c ~c 9c ^d _c ;c Ic Cc ac :c ~c uc ]c ac ]c ic xc ~c 3c :c <c uc {c :c 6c ac nc ]c ]c ^c :d _c pc ac 8c ;c :c xc nc _c ,c :c <d ~c ]c _c :c xc ;c [d ^c 3c 3c xc ~c _c <c =c nc :c ac pc 3c :c ^c 3c :c uc :c ac nc 8c ac nc ac ic }d :c nc ~c nc 0c :c 3c ,c :c 2c =c _c xc /c ic 0c ,c gc 6c _c <c ac ]c 0c !d _c ic Gc ]c 2c Dc :c =c 3c |c :c xc ]c ]c _c =c Cc pc 2c |c ]c [d 4c 4c [c 3c 3c 6c ~c nc xc ic :c 9c |d 1d 2d 3d 4d 5d 6d 7d 8d 9d 8^ 0d <2 7  7. =, s) [1 Z. ,+ '  v  e# ad bd cd dd ed ",
"m| v^ fd L8 gd w/ hd s. id E' v  5. c  jd (  e! L{ 7  kd ld md nd od pd qd rd sd td @. 3  4> p. t  [~ ud m] $; vd <. u  |_ )4 L  :. Z- j  `. f  Z. L/ 8  K> j  I_ o. 4! e' 8~ w  o  $^ g  l) &' [  3  f. wd 8. xd C{    O_ $+ yd E; 7  B. g  [! z. M_ zd @) =. =} x. +| a' 9{ B  |{ Ad 2. t. s. @. .] L/ m. 3  4  u) 9{ .. r2 p! 4, t. $) Bd [~ Cd 8  (^ A~ Dd +  e{ x) 3  m. C; C. i_ h  |; F  q> Z. $  R  7  B. wd Y/ X. Ed @. p  t. wd Fd E. Z. 1/ Z. E_ 4  4  8. 4  C8 _> p. _> c; w, 8] w  Z. Y/ e_ u  L. 8. g  C{ Gd 0. O. Z- '4 }/ O! ,  i  Hd n( 8/ [[ N1 i( :  K> V' 5  8  &  #] f, Id y  t< M~ Jd Kd Q  7. w_ '+ 7  O. Ld Ad  ~ Z/ Z- }/ &+ i  9: Md Nd Od $) h. v, u. c' .. Y. h. *  E, *  D! Pd Qd Rd Sd Td Ud Vd Wd Xd Yd C] Zd 1_ .| ~: +. '+ Y) l3 $; @. t. g  `d  e .e +e @e #e ",
"$e %e &e *e =e -e ;e <. >e ,e 8. N0 'e n| `] Y. C| )e !e ~e {e ]e ^e /e (e _e :e <e td Z- Y/ [e #  ~+ F  t. r  j  o  <. 7{ e_ 8  !> g  t. ,  Y) }e |e +. T] %; d^ H  Y. E. 6{ O! x) F, u  5  B. p. [  O. C; B. t! ,{ 4  8. M' ^  1e |) 4' &, >{ @. H  7  :! e. w) 2e p' 3e n{ @} t> J! d{ x' =.  ( 4  c; i1 z  q,    (. f. xd t  6] 4e _> 7{ q! @+ |) f] t~ 5~ 5e z. 6e c; $. ;+ x. &' )4 t. +. U  b~ [  r_ C; +. Z- -. u  >. p  g  wd t. t. @. :  @. Y/ g  Z. F  Y/ >. +. 7e g  @. z. o] 8. <. +. @. vd o  %  b' t  3  Y. t. .. << v  q' 8e 2. X. #. p. b[ n< U  )) F. K. 9e .. I_ <> 0e e  >e 8~ _. w' G| `[ ae {: 7  M1 z. +| 4  7  C  P. _> F, f. B  O} be Nd |! =. _> =} C. ,  8/ .. ce 8. C{ de ee fe ge he ie je ke le me ne 4' P) ,/ x> p  =. ,> B) &, $+ #] [1 t. C{ {; oe pe qe re l{ ",
"se te ue ve we xe t< `) E, E} :{ f. i6 y: ye 3  ze I/ Ae Be Ce De Ee Fe Ge He Ie Je Ke Le @. g  c  3< 7. t. $) E. _> 4  =} C; =. p  [  $) H. W  [  Me 9. t. M) X[ b~ 4' w' K. }  w' Ne X[ 2. _. C8 Id J  g  D!  ~ +. o  t. $, B8 Oe G1 4  *. !^ =. Ad B: Pe Qe {. Re K) Se Te Ue Ve We Xe Ye Ze f1 &) 4' p' |) *. 4; h) 7  .. z/ `e  f .f b_ 8| w) M| *. +f @f w) 8/ b~ -[ i: 6{ #f V  C{ j  9. @. N0 7{ $, 42 7{ _. U  o  g  g  g  g  f. f. @. F, 7. g  Ed $f Z- =} L. o  %f O0 )} s| Y/ &f 3  !> 3  v] E! M. $+ Z. Gd $  .. *f t. =f    $; 4; I  #  -f *  =} w_ 7{ _. 7{ W- C) k. '> ;f i^ B! $+ Z- Z- Gd B. 7  C| _. 4  [  u  F, o  n< 8. h  Z- g     ,  v> a) >f c  E_ @.  ( f  ,f d' 'f r_ )f !f ~f {f ]f ^f /f (f _f :f <f [f }f |f 1f D! 2f j^ O. J  v  3f O! R> t. t. >e 4f 5f 6f 7f 8f ",
"9f 0f af bf cf df ef +( p} ~; m) h  g  ff A3 h) q' gf hf if jf <( kf lf mf nf of pf qf rf (| o  sf c' j  sf @. %  '{ 1_ <. _> C8 >+ 8. j  tf >.  ( Z. H. 7. Y/ 8. [1 U  :} uf vf wf [~ t. 2. t  w_ )} 3  7. *  xf .. B. yf .. v. @' zf O} M) 2. `' =. f! x) Af u  N' 3f I. @+ z  i  Bf Cf ={ Df Ef Ff Gf Hf If Jf ]^ Kf Lf Mf Nf Of Pf Qf Rf Sf p' B) 7  Jd _. w' Tf -[ v  Uf d; /, u/ Vf .. p  3  Z- A~ C8 t  @] |! n< v  2. L. j  t. wd g  9{ &' C~ Wf 'f 2. %. :} Xf c' =} =} .. Z- }/ 3  3  %  Yf '{ a~ v) X[ Zf (. .. v. 2. v. *' `f }e Y/ _. &'  g c' l) .g +g :  g  $) }/ @g #g y) a; Z  $g $  <. Z- E< .. 3  Y. [~ W  L  [  8. (. (. >f j  g  s  Z. s. ', 4! %; [1 h  5  F  I  Z. =  %g &g *g =g -g ;g 4) >g ,g 'g )g !g ~g {g ]g ^g j: /g (g ;. f. T]  ( +g 6] O! o  $, _g :g <g [g }g ",
"|g 1g 2g .: 3g 4g 7  5g 6g R> 7g 8g >. >( C; J! =^ 9g 0g ag bg cg dg eg X/ fg gg hg ig jg kg lg Q5 mg fa ng q5 g5 og |0 pg qg rg sg pg c5 tg ug vg wg xg yg qg zg d5 n5 m0 Ag Bg |0 qg c5 m0 10 #0 Cg d9 Dg Eg m0 _6 Fg Gg Hg Ig Jg Kg Q9 /5 Lg W4 Mg Ng L9 Og G9 Pg Qg Rg X9 X9 '9 #9 Sg .7 Tg Z9 >0 Ug Vg {8 f0 Wg y6 D7 {8 Xg Yg Zg ;7 ]7 `9 `g q9 u9  h a0 .h +h @h #h $h &9 %h &h *h =h |4 -h zg 84 !9 z9 ;h >h ,h =h 'h )h !h ~h {h Cg Cg >h %h sg -h ]h &h wg z9 10 ^h /h (h {h sg p9  6 16 _h :h n5 _5 <h nb [h }h |h c5 sg 1h )h ng 2h Cg wg q5 #6 3h 4h eb 20 5h [h q5 6h %6 7h pg 8h 9h 0h :b mg ah bh ch dh %h eh fh ah 20 gh ch J9 hh ih o9 jh og vg kh vg ng lh d9 =h /9 mh nh oh ph qh rh sh th uh vh wh xh yh zh Ah g' n{ Bh Ch Dh Eh ,+ Fh o  @. w' a; Y, Z. N' Gh Hh Ih Jh Kh ",
"Lh Mh %{ Nh Oh Ph I_ hd Qh Rh &{ Sh Th a{ n. Nd Uh [! Vh Wh Xh Yh Zh `h Ad  i .i +i @i #i $i %i &i *i =i -i ;i >i -i >i ,i 'i )i !i ~i {i ]i ]i ^i >i /i (i >i _i {i :i )i ]i )i <i >i [i }i |i -i 1i 1i 2i 3i 4i 5i 6i 7i 8i 9i 0i ai bi ci di ei fi gi hi ii ji ki 0i li mi li ji ji ni oi pi qi ri si ji ti ui vi 7i wi ji 0i pi xi ii ti yi zi ki 8i 'i Ai ji Bi Ci Di Ei Fi Gi Hi Ii Ji Ki Li 1i Mi Ni Di Oi Pi 1i Bi Qi ~i =i 1i Ri Si 1i (i >i Ti [i ]i Ui (i [i (i >i Vi ]i Wi Ti Xi Ri Yi Ri 1i Zi `i Si )i |i  j >i >i .j Si >i +j Ui >i .j >i <i Ti `i @j Ui .j Ii (i #j [i >i |i {i `i >i {i =i Ri &i *i ]i |i &i Di si >i &i $j _i ,i %j ]i #j [i &j <i Xi >i |i *j 'i [i }i =j -j ;j >j ,j 'j 6_ Bd )j !j ~j {j ]j ^j /j (j @. _j $) h( _. a! O_ *  :j <j w> [e 2. [j }j |j 1j 2j ",
"P} 3j 4j H^ 5j !+ d  1_ n< 6j H: 7j 8j _> E. 8~ @g $) 9j 0j aj bj cj dj ej fj gj hj ij jj kj lj mj nj oj pj qj bi rj sj ki tj uj vj wj vi rj xj yj zj Aj Bj Cj Dj vi Bj yj xj yj Ej bi Fj yj pj bi vi oj Gj Hj Ij Gj Jj Kj Lj Mj Nj Oj mj Pj Cj qj Qj bi Qj oj Rj Sj Tj Kj Uj Vj Wj Xj Dj pj wj Yj tj vi Sj Zj yj `j Tj Cj bi rj Aj mj ni lj mj Dj  k Sj nj Bj .k +k @k #k $k Zj %k nj &k qj *k =k bi yj -k ;k Tj >k ;k Rj uj yj qj Dj Aj bi Bj ,k ri 'k  k Bj Ej mj tj ki rj Tj )k !k vi Fj mj ri pj Tj ri wj Fj >k `j rj wj ~k nj vi Zj pj {k Nj vi Sj >k 'k ]k vj `j ^k Aj pj Aj /k qj Aj pj nj rj Bj &k (k ri ki Ej nj bi (k Vj _k :k Zj 'k wj <k nj oj Kj bi oj vi Aj [k }k |k uj pj &k 1k 2k 3k 4k B) 5k (j 6k 7k 8k 0} 9k 0k ak s, 4  bk %( ~( ck ^; w  b) r{ dk I! .. ek fk gk hk ik K. ",
"jk kk lk 9k mk u} 8. ', N1 '+ nk n( ;  -} v  M' u, ok pk qk rk sk tk uk N^ vk wk xk yk zk Ak Bk Ck `i Dk ,i Ek +j Fk Gk ;i Dk Vi [i {i +j +j @j @j @j Hk Ik @j ,i Fk Jk :i :i Bk Kk Lk Gk Zi Mk Nk Ok Pk Qk Rk Sk Tk Uk Vk Wk Xk Yk Zk `k  l .l +l @l #l $l %l &l *l =l -l ;l >l ,l 'l )l !l Zk ~l {l ]l ^l /l (l _l :l <l [l }l |l 1l [l 2l 3l 4l 5l 6l 7l -l 8l 9l 0l al bl =l cl dl el fl gl 0l Ok hl il jl kl ll ml nl ol Ik Tk pl ql rl Ik sl tl Zi Zi pl Ik Ok ul Gk Ok tl @j Zi vl ol Mk :i wl xl .j )i yl :i zl ]i Fk ol Dk Zi >i  j Al @j Ik ,i yl yl *i <i )i )i `i Gk ol Mk Bl Cl :i @j Fk Dl El Fl Gl Tk Hl nl pl Il Il Nk Jl Gk :i  j Tk Kl Ll @j Jk Ik al @j il Ml Nl il Ol Pl Ql Rl Sl Tl Ul Vl ]> Wl Xl %4 Yl Zl `l i<  m v] .m 4_ @  +m |; d, Y/ @m #m .| b  $m %m &m *m =m -m ",
"c1 ;m >m =~ ,m X3 @. _> p. 'm `. )m _. B. v~ c] !m 5> ~m {m ]m 7f ^m /m B; (m _m :m <m [m }m Ag og kh |m 1m qg %h 30 %h {h 2m 3m _9 4m ah 5m q5 q5 6m 7m 8m  6 9m vg }h  6 [h qg 74 {h 9m 9m og ]5 |h 0m am qb d4 lb am .b bm d5 n4 cm _a dm em Wa -b fm gm hm im jm km lm mm Pa nm om #b pm Z0 qm rm hm km sm tm um aa im vm wm mb p3 xm #b ym ha *b  b =a i3 zm U4 35 Am ~5 Bm Cm Dm Em Fm /6 sg =) Gm Hm @a ng  a pg pg %h Im 20 ng yg %h yg W5 Jm [h Km ~5 eb Lm n5 n5 ca Mm Ta Mm %b Nm {h 16 1m {6 h5 Im mg (6 2h ca vg 7m p9  6 dh  6 24 yg >a ug Om Pm 10 Qm Rm xg c5 og Cg (6 Sm Tm /h |5 :4 q5 74 n4 g5 tg eb 7h Om dh qg o0 yg Um  6 Vm Wm #a /6 g5 :b Xm c5  a Ym *b Zm `m  n .n +n @n #n $n %n 3e ({ &n *n =n 4j -n ;n >n O, w~ U  ,n &{ 'n )n !n Ad $+ ~n q: 8  {n ]n ^n /n (n _n ",
":n _) <n [n }n hd v, *' g  #  t_ |n !) u  O.    /  a! 1n 2n <g 3n 4n 5n 6n 7n 8n 9n 0n an bn |_ l) J  f. 9{ @. &' g  '+ o  Z- &'    |; w_ 4  g  O_ |. g  f. e_ .. t  Z. Z. g  cn $) )) C{ 8. 8{ $. h  |; [{ )1 dn M' j  C; c/ en U  p  2. +] Y. t. fn +. h  6] gn a! >f p. _~ Z. 8: 2. 7  J  >. hn V  %  g  }/ O. Ad 9. Z. B  $) b' 2. O. E. 7. o  =. p^ |! t. f. g  b{ /; a' =^ x. ,. in Z. [~ jn t  s_ v  4  ;. 8. 3  B. =. .. Z. *f C{ O. Z-  + [{ $) v  kn 8j >. t. *  cn |_ 8. Z. >+ O! `. 7{ .. *. 7{ o> 7  w' '+ 4  C~ Z- g     &' _. (.    4. g  Z- 3  Y/ $) t. Z- t. 4, ,{ >+ H. t. o  Z- O. $+ 2. w  g  u  u  Z/ ,{ u  tf C{ E_ O. '+    =. u  M. Z. E. 2. w  g  >. _. s, &' Q8 E} .. ln mn nn on pn qn rn sn tn un vn wn }/ K) |{ 4; .| k. >' Z' _  m{ xn +. ok 3. yn zn rn An Bn Cn ",
"Dn En Fn Gn Hn In 4  Jn F. 3  +  A  4  <. s  9  ^> @+ Kn Ln Mn Nn On Pn Qn Rn Sn Tn Un Vn Y/ *  %. $^ C[ C; &'    t.    L/ 4  a{ V     8j    )) .. Y/ .. g  t.    t. @. g  w  Z. 8: '{ u  8{ vd t  $+ $) J  i^ Wn L; 6< K. Xn M' 2. >. +] [~ t. f  '+ Yn 4  t  Zn .> _. O_ b' 7. .} ;. t  &' Z- _> .. z  h. xd Z. _. %) =} `n C; Q8 O! *  T) T] $  T  w{ v] 5  g  %. 1/ w; s| w' [: n< l) g  7{  o W  ,. 2. q> o  8. p. 8~ w  U2 +. $) '{ g  9. H. 4  %  O. C| =. O. H. 1/ 2. K  g  H. C; J  Y) o  E. i^ Y/ =. 7{ %. $) +. 7{ L/ Z. 42 5  W  .o  ~  ( $  i1 Z. 7. w' Y/ +o d^ %. v. T  a{ F  Y. E  '  w' [  f. F, Y  7. @o ~^ a! E. b; +. C{ g  .} f. 9. +. @. g  %  :. %   ~ 4. b{ #o 7{ %. #. 8~ $o %o &o *o =o -o ;o >o ,o 'o )o $  Zn U( {+ !o ~o {o t. ]o j) i_ n( Xn g  l{ ^o /o (o 5} _o ",
":o v^ <o [o }o |o @g w{ ]  j  *] S} _> #o )4 y{ 8. 1o 2o 3o 4o 5o 6o 7o 8o 9o 0o ao X- +. @g f. )> r. m. ,{ jn ~^ Z. j  F, 3  f. 4  n] '+ 5  f. f. g  t  Z. V  g  Z. >. Z. ..    .} Y/ Z. t. Z. O. E. h  )> f  r  :. k( 1| M' 3  t. Y/ 2. O. w! [e E. bo w. U  co O. do Xf |. v. Y/ s. m< j  _> w  y     8. Y/ $) g  _. '+ hn o. C{ Y) r. 3  s. >( r_ Y. v, eo K  t. g  _. t| |f fo Ed E_ C. &' 4' go ^; 7{ 4  ho C  %  $+ io +. 4  .. @. E. >. w  w  X[ 8. *f H. t. jo d; g  9. B. $) t. [{ :. %  t. h  X[ t. 9{ L/ $  ;+ 3  (. U     Z. %.    +. [[ :  g   ( Md bo sf 9{ u. z  V' p  o  [[ x. W, e/ b{ +] Z. w  r' B. '+ _> U  &' 2. C~ Z. g  .. 9{ _> z/ 2. F, w  _. +  +  T  o  U  F. w! C8 1_  ~ ko lo mo no oo po qo ro so to uo N> vo wo xo yo ,> N0 '+ *  w, W- i^ :  l' zo Ao Bo Co Do ",
"Kd Eo Fo Go Ho I8 >+ K  Io z  Jo J> Ko ,> |! K  z. Lo Mo No Oo Po Qo Ro So To Uo @o $) 3  2. w. U  u  O_ bn sf d^ 3  3  Vo  ~ N' $) >. Z- w  g  g  @. t. '{ @. t. g  t. wd 2. f. Z. [e @. |; t.    g  O_ N'  ( Z/ }  q' ;. Wo #  X[ $) H. @. Xo L/ E. j  Z. 8. 8/ !^ h) H  7{ t  L/ C{ |n Yo $  Z. Z. H. .. H. 1_ h. *' '2 +. 4  A~ |. ,, &' Z/ E' u  Y. j  i1 4  ,{ z. _. v  s! m~ i1 g  $) h  .. w_ U  8! J  A~ Zo x~ S  1/ d; g  Z. =} .. @.    U  G, j  C{ tf z/ H. v, w  g  S;    $) V  K  h   ~ &' >. 3  c  'f Y. +] ;+ z/ 7. O. t, O. gn v, K     H. y) 2. A) vd 8: `o b{ >. $, *  @g |)  p 'f .p Z- 1_ 3  O. z  @. F, &' &' .. %  Y/ +] Z. Y. o  .} C~ t. E  x) w_ |. u/ E_ C; 8. t. 4  s| Z. v, +p @p #p $p C, %p &p *p =p -p 8: ;p >p !( E. ]1 %  :  ,p 'p [e 3  v, L. )p !p vh ~p {p ",
"]p ^p 9} /p (p .} =. [: Y  ,{ D. Gd || _p f! o> =  :p <p [p }p |p 1p 2p 3p 4p 5p }d 6p 7p 6c vc 8p <d 9p }d 7p 0p Dc ap 6c 6c _d ^d _d 7p 7p bp ^d cp }d 7p 9p dp }d 9p 8p 0p }d 8p ^d 7p ep _d }d fp nc ep 7p ^d 6c bp }d ep Dc gp hp 8p ip vc 6c 6p 6c 3c 7p jp 6c ^d vc kp jp nc nc lp ep jp mp 7p ep 0p 6p 7p Dc np 6c op kp 6p <d _d kp 9p 7p }d pp 8p 9p dp ap kp pp qp _d rp op 6p nc 5p ip ^d sp 0p :c pp 5p op kp 7p tp ^d 3c 6c 3c 8p 0p lp 7p 8p 7p 7p }d 7p up ip pp }d qp }d 7p _d pp vp ip 5p 0p qp }d ^d !d 8p jp 7p kp }d ^d _d kp }d 5p 7p ep pp 0p 7p ip bp 5p ^d }d 9p }d ep !d ip _d 6c 3c op }d 7p }d 7p ap pp _d vc 7p Dc 0p 0p kp 7p nc 6c 8p dp ap 5p 6c _d rp lp 6c ^d 7p _d _d }d wp xp yp zp Ap Bp Cp Dp X|  + Ep b  Qe w{ Q  >+ e# Nd Y, *< e' T  -  Fp L< No Gp Hp ",
"Ip Jp Kp Lp Mp Np fo Op a! 3  &  O} C{ O_ #. w! ,. Pp Qp Rp Sp Tp Up Vp Wp Xp op 9p }d bp tp ip 6c 0p nc _d 7p 7p 0p Gc 5p 7p ^d 7p 9p ap ap 5p 5p }d nc ^d ap 5p op 6c nc 0p _d _d Yp 0p qp }d hp }d _d 7p 0p nc 7p 9p ap jp 0p dp 8p 7p _d ^d 9p 0p ;c 0p 9p _d _d kp }d _d _d 6p np 9p }d pp tp 7p Zp kp op gp 0p 8p 8p jp kp 7p kp 0p }d qp ep kp 0p 7p ep 8p `p }d dp 6p rp  q ep }d !d .q fp _d ip 6p 9p pp jp 5p +q 6c 8p ap }d 8p }d }d 5p ep 0p nc 6c ^d _d 5p vc }d 7p 5p ]d pp dp 7p ^d 6c rp @q _d #q 0p 8p 7p rp nc ep _d !d 7p }d 0p _d 7p ^d op 6c _d ^d 0p nc ap 6c 8p jp Dc 6c 6c rp 6p 9p $q dp _d _d }d }d vc 0p ip 7p jp _d bp ep lp 5p 0p 9p bp ^d ^d 0p jp kp ip ep 0p sp }d ap qp 6c %q &q *q =q -q ;q >q ,q  ; 'q Yd n( p1 )q !q e/ ~q t3 {q x. q, @' }  ]q ^q /q (q _q ",
":q <q [q }q |q 1q Y) bo e. A. 42 ~; 2q 3q C] d> E~ 4q 5q qk 6q 7q 8q 9q 0q rd aq Y- C~ 8. $. ~> g  (. o1 8~ 8~ Y. +] Y. u  :. &  bq w  Y/ &^ Dd >. 'f Y/ cq L. dq c; :  eq O! l) |; )> t  Z-  ( L. h. Z. t. %  r2    p  f  O! M' @o s| &' .. w~ Vn M_ t| a~ F.    x. b: b~ F, 3f fq gq %. Z. ;+ f. w  L/ fo 3  O.  ' .. g  z/ $+ $)    t  Y. -. z/ 3  4' h) >( hq iq y' jq kq %) w. j. M' vd -. b{ g  E, 4  Md 4  w  8. fo Y. .. t. f. g  .. j  .. .} g  |; C. w' j  '+ kn Y  #. N. 9  g! 8] L/ Z. +] v, _> j  lq 2. g  Y. hn B. 9. &4 Gd ,, Dd 3  8~ *. b~ [~ D. j^ $  K> 8~ B. 3  %; #] a; *> g  U2 M~ mq O,  c N' M1 H. B        >  O. f  Z- Y  H; hn p! nq oq J  .} h  [~    E; @. sf *  L. :  %  71 pq qq rq sq tq uq vq [n @d n. wq b; xq O_ |{ u{ @+ 4. 3. 0] ,| @+ U  $+ yq zq Aq Bq Cq ",
"'^ Ap Dq Eq Fq Z~ 3] E. Gq R' i  Z) Q' Hq s' Iq Jq ;( Kq Lq 02 Mq Nq Oq Pq Qq Rq <e Y- +. 3  )> #  ~+ Wf .. s. h  w  Y. ,. e_ T] Y) >. t. E; 3q :. Gd F  6< %; 8{ C  <. j  Y) m] Sq w  u  t.    )4 |. O. L/ w' r] R  O. Y/ 9: O! s) Tq B_ B  Uq Z. H  7  d{ e. Vq ,2 0  :j n{ (3 t> Wq mq g{ w! O.  ( I1 (. )> P! w. e_ .. 5  %. yd )> u  U  B  B: Xq %_ Yq e{ Zq `q z' Y  4> 6< 7  4  R> Z. C; d; v  j  c' U  |; K  e_ |_ %. %. f. g  Z. t. C{ $  Z. %  >. g   r 8. 2. Z- [~ .r >. Vn +r 3  <. Z. y  Xo 9. 8. ce g  Y/ _> @. t. @r b~ 2f #r 2. x  Y) $r C[ [: |! B. =. 8: %r g  #| d  &r C1 *r M' U  B. c; w; =r *. B  7  e< Ad '+ &,  + P. u  L/ g  7  ^1 (: B) e! F. u     '+ J  U  Z- $+ i  t. -r ;r >r ,r 'r )r !r _f ~r {r ]r ~o d; p; ^r /r _> k. g  y  X- w, F. x  [1 8e (r _r :r <r [r ",
"}r |r ro 1r 2r 3r zd 4r 5r <! nq C| q! 6r >+ 7r >e 8r `3 9r 0r ar kf br cr dr er fr gr Qh 2. wd G. G[ 7. f. $) j  bq '+ O. b~ q> 2. L. 2. .} _> E. m] G, t. 8: $+ v  Q  J  q' w>    Mb g  >. >+ 7{ i^ J  g  W, '+ 9. |; C~ p! 3q b] G1 O. y' Nd =. :! oq @+ Qe {. g{ W] hr ir Z> Ve -/ jr 0  kr lr mr U1 nr @  Nd X  =. B  C. >. n( or pr qr B< u) rr sr tr ur g{ vr C  w; V, #  P' ,. f. E. K  g  V, C; p! E. in _. 7{ 9{ 5  @. t. .. 2. Fd K  -( ,{ g  8. 4> Z- 4  h  K  h) Vn ,{ M~ 3  wr Y/ }e %  (. v] t. 8~ g  7! 4> Z. %  @. 3' F, $+  ; l. Y) m) 8. O. n] t. 7{ _. c' xr k. @. w> p~ >e 8~ Z- K  Gd 4  7  fn _. 4  s  |e w  Z- n< [1 h. +. g  &' +  cq yr i( B~ w  f. '+ Z/ zr #| 8. K. ef Ar Br Cr Dr Er /f Fr |r un Nh Gr T^ y' 5: Hr Z_ Ir _~ 3. i^ Jr @f `, 6e Kr Lr Mr Nr Sp N< B{ ",
"Or Pr Qr Rr Sr i1 Y  A' e. 7  g  G     ![ #; Tr F. H8 Ur Vr 0g Wr Xr Yr Zr `r  s .s +s @s z0 V  <. f  j  7! f. Y/ h  t  <. Y. 5  7{ M. ce *  $) $^ C{ H. #s 8  8. '{ U  fn 8j j. 8^ ]  9{ g  t  B  Od 8. J  h  ~^ Z. H. :! .. O! $s s2 S} K. p  `' =. @+ sr i: N. M) B  Q  C' K. |. %s gj &s &/ j: Ff *s =s }~ -s ;s >s h: L~ ,s 's O~ )s !s ~s x~ C' `q @) _. )} .+ a' E! 8! U  9e ;+ =. @. t. +] w  C| '+ $) C{ 8/ 9; C; t  id 8. L/ Z. >. 9{ 7. g  Bd u  [e 1_ fn t. #f w_ w{ @. w  8{ Ed 3  |.  . 2. {s e. X[ R> 9; t. $) .. z  (. U- }e +] U  O0 ]s %. g  .g x  $  $) g  9  F  Q{ *> }e K> Q' [< _> l) @. f. i  u  (. N. ', h. 8. ^s co cn 8. p  [  .. >f /s S^ &  [  '{ -( vd c  t. n( (s _s :s =g <s ;g [s }s |s 1s 2s 3s 4s A) 2. O! 5s 6s 'q T. |) $) 7s -+ b! 8s 9s 0s as bs cs ds es ",
"/j fs gs hs is n! v> O( js ks %  )} ]  P^ ls -+ ms ns os ps qs rs ss ts X/ us vs ws pf xs kg ys &> 9m 7h kh d9 30 d9 Eg zs og ah As Bs ng Cs jh vg Ds %h Es c5 c5 Fs ng #0 04 }h dh g5 q5 10 2h Gs %h rg 8m Xm rg (6 Fg Hs +h Is Pg Kg Js Ks L5 `8 Ls Ms Ns X5 70 !0 Qg V9 U9 G9 Os Ps S9 &9 Qs Rs >0 Ss d8 Ts Us Vs Ws 98 {8 Xs F7 X9 Ys a0 Zs `9 `8 ]7 Ls <6 >9 /0 @h gh `s  t {h #6 .9 .t +t Cg rg )9 W9 Vm Ag !h *0 H4 @t &> 10 (6 Cg  6  6 #0 |m As  6 %6 q5 #t $t 2h  6 p9 %t  6 94 &t {h &t Ym :h #6 *t /6 =a d9 %h :b qg 30 =t fh #a #0 -t %h [h #a 3h ;t eb e4 e4 [h rg %6 {6 |h |0 `m #6 >t d5 Bg vg Om va 74 {h ,t Qm 't og )t Es Fm Jm !t 10 #0 6m %h  6 9m n5 >a m0 ~t 94 %5 {t ]t ^t /t (t _t :t m  <t [t }t |t 1t 2t 3t B. .. 4t [~ &. ): c' 9) q, 5t #! Q  6t 7t 8t 9t 0t at I[ ",
"bt ct dt et ft Y  8e 42 gt &s ht %  N0  + it 6: jt %  kt lt mt nt ot pt a~ qt rt st tt ut vt wt &i Xi +j .j xt [i [i ,i :i ,i )i <i  j }i |i .j ]i Ri Yi {i Ui Hk {i yt {i ]i ]i Xi zt Ki =i }i 4i -i (i >i (i }i 6i 6i Ji qi li Ei At Bt Ct Dt Et di ji Ft uj 0i Kj Ji Ji Gt di ci gi xi Ji (k Ji Ht ki si It 0i Jt Gt wi mj ki pi Gt Kt Ct wi Kt Ji di Lt Mt pi Gi Nt *i pi zi Ot Pt Qt Oi Di Rt Ii |i Ki Ti 'i  j 4i hi Qi Jk |i Ri ~i (i (i (i -i Ni (i xt #j ]i -i ;i >i St >i Et Tt (i [i Yi Ut Vt Zi  j >i +j Vt <i `i ]i &j ~i [i >i si Xi {i -i [i Yi >i `i Vt }i ]i }i [i Xi 1i 1i Wt  j >i zl |i -i Xi  j (i {i Xi Ri si [i Xt Yt Dk +j }i =i [i xt ]i Ti ]i Ri |i 6i hi Zt (i `t  u .u +u @u #u s3 ]  $u %u &u *u =u -u Z- ;u w{ J. >u ,u n( N' F' 'u >. ~. d' ,+ )u !u bd ~u {u 1( ",
".^ ]u ^u /u (u Z- Q{ p[ $. _u Y- :u O. -( #_ <u O! 2> %m [u }u |u 1u 2u 3u Ul mr 4u 5u 6u 7u 8u 9u 0u au oj bu rj pj lj Ij nj .k wi wj Aj Wj Uj vi qj vi vi Tj ri Dj Wj yj xj Bj oj pj nj Bj Cj Bj vi Bj nj Bj xj Nj [k -k [k cu rj pj lj qj pj nj Aj gi At Aj du wi Dj Bt rj Pj Wj Uj ri vi `j vi ri eu Pj Tj wj Qj Sj vj Bj qj rj oj ri du mj Dj Dj Bt vi (k .k fu gu hu iu ju @k eu <k qj *k Zj mj ku Qj xj lu mu Bj Zj Ht nu Fj 'k bi Fj mj wj pj eu Yj ki pj Dj Bt Aj Wj Sj /k wj Dj pj Ej /k Ej ou Cj pu Dj lj wj `j qu oj pj mj lj /k [k pu vi ri vi Rj Vj ru yj pu `j Cj vi ji Jt xj vi vi nj yj [k Wj Cj ki Aj pj vi Bj 'k .k su Zj au wj cu Aj vi Wj pj vi pj vi cu Kj _k 7i nj Jj yj `t tu uu ~. K_ o( vu wu xu yu ve |r w  $) p  4  hd B  zu y) Au fo x< I  ^> Bu (> Cu Du Eu Fu Gu ",
"/; Hu ve Iu Ju Ku x< Lu >. K> Mu t> D< i_ Nu 0{ F. i^ Ou }} Pu Qu Ru ro U> Su Tu Uu Vu Wu Xu Tk @j yl ;i :i Yu Cl Ik Dk >i Fk Zu `i zl @j Pl :i :i Zi `i Jk yl Jk @j >i +j @j Zi `u yl al @j rl pl Zi Zi  v Bl .v +v il @v #v $v %v &v &l *v =v !l -v .l ;v >v *v ,v ^l ,l $l >l 'v )v !v ~v {v ]v ^v @l {v /v (v _v Zk Zk :v <v [v }v |v 1v 2v +l 3v 8l Wk 4v 5v 6v 7v vl +l 8v dl ql #v 3v 9v 0l 0v av pl bv ll cv ml dv Dk ol @j Gk Ik cv Zi @j ml al :i Ik nl Ik Fk :i ol Bl Tk Zi ev ol 0l ol Fk Dk >i ,i nl Hk zl :i Gk Fk Fk Bl rl ~i Gk Ck Mk Gk :i ql Al >i `i ,i :i Fk Gk ~i +j Pl @j @j sl 0v av  v Yt Tk Ik Zi rl nl nl al Ok >i Zt $j fv Cl sl Zi Gk Ok nl Tk Pk Fl gv @j Ck hv iv jv kv lv mv nv 0) ov pv qv rv sv |r =. 8  tv i) O. f! &' J  %  Y/ 3  L^ w_ P' uv vv _, wv xv yv ",
"7! zv Av Bv Cv ]g d_ Dv Q{ .  x( .f S' Y/ C, 1_ o. l) Ev Fv Gv Hv Iv /m Jv Kv Lv Mv Nv Ov Pv jh 9m [h Qv fh %h #t 24 vg %h Bs Rv Sv Vm 8m Tv Pm ng }h &t d0 {h ca jh  6 o0 [h Uv |h q5 20 %h 9m Ym 9m Vv Wv Xv Yv lb .b Zv `v  w .w +w #b @w @w 36 #w Zv $w _a %w jm km &w *w =w -w ;w >w 2b ,w ka 'w Ga Ga )w !w ~w $w {w ]w ^w /w mb s4 zm 1a -5 *b ^a @a (w Da _w Bs :w <w %b @b [w }w lb |w 54 c4 j4 1w am 2w |5 zs pg %h qg ng 20 yg ca &t Am ]5 c5 )5 3w Fs 4w :4 e4 kh 5w Cm zs um nb #t &t 1m 6w Sm 7w og 8w q5 q5 dh Om 7m wg 20 Cg &> &> 9w Cs &t Cs {h Im 0w 9m jh tg vg {6 {6 )h &> aw bw 20  a %b tg ih 64 7h 30 Jm og  6 cw dw %h z9 ew #a Bs fw _h &> qg gw Mm _w /9 hw iw jw kw lw mw nw ow {o n) pw Gh qw rw sw tw a! uw ]> !  vw g  8  E, o  7{ )> g  ww W, P) xw yw zw Aw Bw ",
"Cw Dw Ew Fw Gw Hw Iw ). Jw x, 8~ Kw Lw jt Mw V- _> o6 Bn Nw bs Ow Pw Qw Rw Sw Tw Uw Vw Ww N' Y. |; >( 9{ 9. C~ 4  g  u. Z- +. w' 4  +. ). )) [e O_ 3  g  f. e_ g  $) t. t. C{ 4> t  $) t. %  _> :  E. Z- ). Xw Yw Hd 8  o  p~ u, _. 2. t  <. _> >. b{ +. L. p! N. [: 4! )4 +g g  Z/ >. x. J  g  <. Z- '{ t. }/  ~ p^ +. g  L) [e *  )> ,{ [1 ,{ o  fn a~ ,. f. .. .. G  /; H  B) w_ _. w{ .. v, 7  >. N. b~ '+ j  Y/ 8. u. q> o  g  |. C{ a{ o  b~ ). p  b~ y  J  2. t. %  hn Ed 8. +. 7{ Jo Z/ >+ @. Zw |! 4' z. B. B. 4  .} K  t. w' )) _. [~ 4  @o $) w  sf 3  %. C~ w  .. g  8j B. 4  5  r2 w  B. y( t  9. g  _> =| c' J  <. [  @. C; B. 4  '+ A~ Y. 3  Z. E. 2. +. Z. 2. _. x~ O. >f -f t. `w  x .x +x @x 2! #x $x %x rv &x *x N/ y{ @+ =x <> -x D. .2 vf d. o  ;x ;3 >x K  Gh ,x 'x )x !x ",
"~x {x ]x ^x /x (x B/ g:    _x O  :x b{ 7. a. <x >e ,e [x }x |x 1x 2x 3x 4x 5x 6x 7x 8x ). 8  *  8: O0 }/ Z- w' '+ C~    +. B. 4  L/ H. w' 4  E< .. %  Z. .. 5     t. 2. g  K  @. W- [1 _> Ed Y. >. vw H. J  `. ]{ .2 C) c' n( '{ >. .} Y. e_ F, N' O. k) '+ 7. m. }) _. `. *   ( t  [  >. w' Z- <. Z. [e h  Z. t. Jn b~    J  l) :. O! E. 4> [< $  O. 9x v  7{ 5  $) 1/ u{ x. 7. [: A) y  +. U  b: <. t, @. v| L/ 8. ;+ p! C; co t. $) j  .. o     '. %  '+ =} fn O. '+ g  @. o  g  2. 7{ ,{ :{ E_ [  f  i  =. 7{ 2. p  |; >+ K  t. h  C~ _> w! '+ J  :. [~ +. ,  ,{ i  >. 3  $) t  T  O. F  W  7. 0x =} h  g  o  Y. J  4. 8{ Y  [  j  C{ g  g  5  Z. K  w  t. ax 3  $  8. 1_ >( F. A| >+ $) #. 8~ bx cx &o *o dx Ce ex fx gx hx ix y/ jx b: o  u, @. (. O} 5> 2~ >~ |) r{ e/ /; kx lx g6 mx nx ",
"9> ox px qx rx /  sx tx ux D. d  v  D{ vx #. f  _> wx xx E8 yx zx Ax Bx Cx Dx Ex Fx ,  C. K  >. z  ', P. Od w' Ed Z. |. 9. M. C{ O. B  O. f. g  g  @g t  2. L/ Z. .. .. f. Z.    Z. 3  g  Gx g  '+ $, *  p  c' Hx !> K. 6r b; %  t  Y/ %. '+ fn z  L. ,. '+ 7{ Ix  ~ y' 7{ 3  >. Y/ ;+ Y) 42 Y. e! .} f. Y/ j  2. g  7{ J  Gd l; z/ #  W. h. ;+ c_ K. hn o  jo K  g  Z. d; (^ o. fo |_ o  f  E  Jx w{ a  w{ g  I. ,> 3  p! Y/ F, 4  L/ M. '{ C{ .. [[ E. h  +]    f. _. 5  t. F, C. $) t. L) s. +] +. Me %  g  Z- '{ >f p. 3  i1 Kx O. @. p  &' K  o  4> t  )} ,+ w  u  C; 4  K. 8~ 2. L/ (. x. n( <{ =. *  .. Z-  ~ T     |_ _. &' g  t. z/ 5  f. E_ i  .. H. f. o  |! @o Lx >( K  _. fn =. -( >. %. Mx Nx Ox Px Qx kx Rx ]x Sx Tx m. u, =| z. @o 8. '  Ne Ux Vx R/ 8/ z| Wx Xx Yx +~ Zx `x P: ",
"i!  y .y +y @y #y #2 $y %y w' w> .  v| *! p' n6  ) <. &y *y }u =y x! -y ;y >y ,y E' 5  8. wd '+ _. 0. @o f  +] ~^ Y/ 8. w  B. c' z  y  w  9. 5  C{       j  .. t. Z. +. t. 1/ t. Z. $) g  +. @. u. z/ 8: @o '+ [e S} c' E. ~; m< j  H. g  .. r2 v, E. %  .. *  C; f! A~ (. a{ t  9. g  'y Yo $  Z. Me O. .. %. 1_ *  o  s! K     F. f. p! ,{ Z/ +  8{ u  8. E_ a{  ( ,+ _. b~ u{ z' o  g  '{ )y L/ B  kn 4' ,{ I. +( x~ [! C. 5  f. @. 4  f. f. O. _. l) i  >. i  g  Me w  5  L/ 7  t. 2. @. l) j  ,  J  t  P^ Q8 vd }/ %  S^ .} @o 5  !( >+ <. *' vd &' $) ek t  F: K  Z/ 7  F. >. 6] 8. Z. t] P! Z- Z_ 5^ 2. 3  =} >. f. V  .} &' g  3  8  3  .. u  Z- t. Z. -( 7. C' jn j  j  L/ F, 3  g  7{ s| C{ (. !y ~y {y ]y 6_ ^y /y (y _y Q  :y 1_ J  .. wd V, g> <y t% [y }e #  o) K3 }y ag |y 1y !x ",
"n, 2y 3y 4y 5y 6y 7y c. B: 8y e/ C| 9y x) <2 X. Mb B2 0y ay by cy dy ey 3p fy 5p 9p kp 6c 9p ep rp _d }d 9p 7p @q ap _d }d 7p }d 8p ep }d 7p Dc 6c ^d ap 7p rp lp 7p }d 7p }d ap ap jp 7p 6c 5p ap 7p }d [d 7p Dc 8p uc ^d ep #q 8p jp 9p ap op dp 0p 7p }d pp _d (d pp 9p #q 7p ap pp 9p ep 0p }d 8p 9p 5p !d ap gy ip 8p 7p }d 8p ap 7p ep pp gy ip op pp 5p 9p _d 6c ^d hy pp ^d _d _d }d 7p dp }d vc rp dp Dc pp 8p 7p _d nc ^d _d 6c Dc nc ap _d _d 7p }d iy 5p }d jy 6c }d 8p _d 0p 6c Dc _d 0c sp _d 0p pp 7p 6c nc nc 7p 6c nc ky ap ^d kp jp 8p 3c 8p ep 0p 5p }d hp 7p }d 7p ^d Dc ep 6c lp _c 7p 7p 6c 6p ep 6c _d 8p ^d ^d 0p 7p 8p 8p rp ^d 7p Dc vc 7p ep rp 0p ep }d 0p lp _d }d ap lp (d ^d ly my ny oy py qy ve ry >x )> sy &' &' '+ Yn ty rr ,} #  3u Y[ uy vy wy xy yy zy Ay ",
"By Cy Dy Ey Fy Gy U  Hy 7  g  2. ns sr Iy 4t %, ^   ( Jy Ky Ly My Ny Oy Py Qy $q xc 7p 6c 7p ^d ep 7p qp ^d nc Yp Ry 7p kp 7p 6c fp ^d qp }d ^d }d }d ap 8p }d 8p 7p 7p Dc 8p 5p 6c 7p 0p _d }d kp 6c 0p 9p ep 7p ^d 7p }d ap 7p }d nc _d Dc _d @q $q 7p Dc 7p 7p _d <d :c }d ap ^d 7p 9p 0p pp .q 6c }d kp Sy gp Ty sp dp gp lp }d 7p }d 7p 7p 8p _d fp 8p }d 8p ip kp bp 6p Uy _d ]d 7p 0p Vy 6c 8p nc }d ap _d }d _d _d ^d ap }d 8p ep ap lp vc }d 7p 8p 7p }d }d ^d vc 7p 6c 0p gy }d pp ap 6c 0p 0p _d 6c ;c 7p ep mp qp 5p 8p 7p ip Dc jp 5p 0p 0p !d }d _d nc 7p vc 5p ap nc ky Wy ^d ip 9p op 6p ap gp 0p 0c 5p <d 8p ap ^d 0p 9p ap 7p 6c 6c nc dp 9p 7p }d _d 9p rp 5p 8p 7p 6c ^d kp 0p 8p }d #q Xy Yy Zy `y  z .z +z @z #z Ad Me  ~ M. M) 8j Vq B. o> $z b: %z @. &z *z =z -z ;z >z ",
",z 'z )z !z ~z {z f! Ad A] ]z ^z /z ,( X/ w' [e    #; (z _z :z <z [z }z |z 1z sd )' C{ |. :. p. 2. F  '4 9: $; |e sf 2z sf 4! <> >f C; i  j. 3z g  l) Y/ 4z h  l; o. $  C] 6] Z- e! B. g  l) &' [  8. 9{ @. Ed @. g  $) z  p! 5z @o [{ w. f. t! M~ l( 4' :! A~ 4  7  :! b~ |; jn 3' @) 1_ g  6< @. _. E_ +g 3  '+  ' 5  Z. .. 6] >. Gx %. |_ *' .. Y/ I. F. 6z g! uh {. hn m. C  w. s> 42 l) F  o> g  E, B. z. '+ ,. Y/ P. u  .. .. Z. @. +. h  g  Z. t. L/ >+ 4  C0    V  u  7z Y. C[ +  -  @g f. i  (. sf ;. [1 g  M. Gd 8{ w. C; &4 Y. b; Dd 3   g *. 8/ e_ J_ fo :. 1< $, a{ 3  8z 9z 0z q< 2. A: [{ a  az (^ J  7  B. 7     B. +| E  8: [[ 9  y/ h. V' 7  Nd J  z  E. ]     N' g  _> 3  [  4> 8  F' bz cz dz ez fz Rx gz hz iz p[ jz t. ;. t. }  :  _. >+ M'  p $  kz !{ 81 lz mz nz oz pz ",
"-, qz rz sz tz uz ): g  p' vz uh fn z! wz xz m  =[ yz zz J{ Az Bz ve Cz Dz Ez Fz Gz Hz L/ Y/ [e C1 J_ Iz .. #. |. w  Y. e! v] *  #  '{ t. E; Y) ;+ N. 9. ;+ d  |e i: }/ *  Y, yd Xn e! u  f. O. 7z Me '+ L/ 4  S  V/ 5  8. $+ Wn {n t! o> w_ O( g  ,> 7  h) Jz Re ,2 Vq o( i{ Kz Lz J! Mz w) F. 7. a{ a! -. [e Q{ O. [~ f. f. 2.  g Dd |_ U  0x J. |) Nz Oz @f N~ [{ 3t }/ 4> C) n] >+ ;+ t. L/ 7{ a' b; c' V  9{ 9. e_ |_ >. %. z/ >. z/ f. g  $r g  3  %. g  v, 3  t  +. 9; f. g  ,+ Pz P^ Gd g  +. o  K  8. E. 6] 3  }/ C. 2. Qz C  O_ Rz t  x  #  Zf |f t< e!    w! Z/ *< g  y{ d  Sz p6 =x 9: 7{ &' b[ -[ x~ *. '  4e z. b: O. jn ,> X. <. V  @g B  p> H~ f! Jn q> <. '+  (  ~ w{ w  h  Y/ z/ -r Tz Uz Vz (t Wz Xz Yz Zz `z 3g 8! _.  A O_ 7. K  $, |) 8/ L) +  fo C{ ). =  .A +A @A #A $A ",
"hn %A &A `z *A =A s. -A =  b| nq 71 |{ Tr ;A 1: >A Zo ,A 'A )A !A ~A {A cr dr ]A ^A /A (A wd C~ l. d. J  C. %. E. |_ ,{ w' b~ =.  ~ j  >. g  Gd h  h  +. .. K. Me _A t| w' W- )1 H. d' wd $) 7{ _. p~ @o 1/ :A >+ w  Z- Z. 9: :{ <A ,/ 4  ~. yf =. d{ @+ @+ 0{ c]  ' |{ hr [A -r G) =2 jr 0  Ze }A &) (^ `' t! do 4; =. 7  t. 1_ =  |A 1A 2A |~ g{ 3A *. 4A ur  ' v  v  5A C; :{ T~ _. g  s  w  t. e! U  9: X[ vr w{ _. Z- z/ t. +. 9{ .. t. Z- @. ,{ g  Y. r  K  w' s  9. w! z. O. Md -x 6A C0 }e 3  F  v  g  V' f. u  $  f. =| t. I~ g  8~ d_ _~ #  ,e |. B. 7  y  U  7{ %. R> n! >. Xw W- m{ 6] w  Z- Y. w' x. =. _.    E. 7! o  e! co 8. [1 9. f. ,{ @o 'u a) cn x  o  g     K. j^ I_ *  O_ 3u 7A 8A 9A 0A aA bA cA dA *u eA fA gA u{ {/ J  Y/ w' D0 2. g  *. u  w  K  Y/ hA iA jA kA lA mA ",
"qn 8k nA oA pA I( 8/ ^z Sb Z. v) [{ ,} e! 7! 7  _< qA rA sA tA uA vA wA xA yA zA AA BA CA DA 9. hn c' j  u  +. 8. [  g  <. _> V  7{ +] h. E. g  &' g  f. w' |. 8. j  '. w! &' p~ L  Bd Z. 1_ H. B  ,{ %  ,{ *  x  t. 4  a~ Z. 8~ EA FA O} %. $) GA >< =^ do b~ =| W- x. 4' C' q' 3  7r HA IA JA KA LA MA NA OA -s PA qr ff QA X' RA SA TA !s UA 0  *. !) :! |! J  v) A| a' /; d; || :. A~ z/ 5  Y/ o  =. w' g  b' _. t< b~ p  h  8  f. C~ Me wd 7. w  ]  Y. $) p  F. .} c' 7  |! f. +. }/ Ed %  %  i) >. VA WA |. s. e_ g  p  .. t  [~ [: :. h. 5  &' vw c' .. X  X. :  2. 2. a! F, XA .  Zf 'u Q' r! sf Z- .. .} %  W  (. <. d. '{ *f YA [~ $  8  $) j  >. $  6  :  ZA $+ j  '+ F  4; Z. c] `A  B :s 9A .B +B @B #B $B %B &B *B =B C[ g  V, Y  1_ T   ~ p. 42 4> B~ %  <.    -B ;B >B ,B 'B )B ",
"!B ~B {B ]B ^B 8! </ %g N1 /B 9z (B _B ]g Y/ @+ ;> :B <B [B }B |B 1B 2B bk 3B 4B ws 5B 6B 7B 8B gh 9m fa ]5 q5 qg kh 20 7m 9m #0 Qv )5 [h 9B 0B vg mg mg 16 ca d9 aB :4 10 Bg  6 74 ih 9m *5 {h  6 {h [h 3m bB 't cB dB Ls eB fB gB hB iB jB Lg W4 -0 kB lB mB Qg f8 '9 ]7 U9 V9 nB Zg V9 Z9 Tg oB pB e8 A7 qB d7 Wg 58 rB sB tB =7 Q9 W9  t `9 Mg q9 L4  h Ys Fg @0 uB fh vB  t vg lb wB .t  9 #t Ym xB yB zB AB ah z9 =h BB cw ah ;h  6 Zm  6 CB Cg ih xg AB rg %h *0 't o0 pg !b DB %h Im >h /h :b EB :b <h FB Za ng jh |h 9m g5 Am GB 10 {h !h wg n5 #6 bb ;t db Ym HB ga c5 Rm %6 J9 |0 IB JB Ba hh  6 }h &t ~0 dh }h j4 sg ug tg KB V4 |0 Ba LB 2h 10 o0 {h g5 9m 20 MB 10 }4 Rv N9 NB OB PB QB RB SB TB ur UB g6 VB WB =~ XB YB sf (. .. |) *  3  h. 5  <. t. '> j  p  ZB 9j Z3 `B  C .C ",
"+C @C #C $C %C o_ &C *C =C #  ;] -C o. ;C ;A ~o >C S. ,C +~ 02 'C )C !C +| ~C {C ]C ^C /C (C _C Tt Zt >i .j Ui -i (i >i ]i >i <i !i  j zl }i :C ]i (i <i ]i ]i !i Ui {i yt Ui 'i ~i *i +j ]i ]i si Ek 4i [i (i Et ei <C Ji 0i ui pi At Ji Kt Dt ji pi 8i hi ti qj Dt Ai Ai bi qi mi ji Ai 7i [C bi qj Bt Gt ni ki vi mi Gt xi bi ni ji Gt }C Ct |C Bt Ji ci bi 1C Di 6u ii Ei 2C 3C 4C *j 5C Ki Rt ei 6C Bi Ki 'i &i 4i 7C Tt ~i Ii [i *i [i .j 1i >i *i ]i >i Ui 1i Xi )i Ki 8C :i ei Xi Ui .j <i [i [i zl Jk Yi :i Vt zt >i 4i >i Xi [i Cl ]i Yi xt #j <i <i Jk @j Ui ]i 5i )i #j zt >i |i =i >i #j )i |i Ri Xi Yi Ri [i Zt Ki 'i Ri 9C 0C Gk .j %j Ui <i >i {i <i (i )i :C Qt oi Ti oi Mi -j aC bC cC #u l{ co dC eC fC gC hC iC jC w] =f kC 0x lC ce Z/ 2. >. vr A~ 4  >+ yo mC nC oC pC qC ",
"rC sC tC uC vC wC [~ l; qn D! xC E~ yC r: zC AC I, N2 BC Nw CC DC gz EC )f FC GC HC IC JC KC Rj mj tj oj tj qj nj tj 'k ki Cj Ht Bj wj xj Wj Bj Aj vj pj vi ri Sj mj Wj Wj xj Aj nj bu pj nj xj `j Yj nj yj nj LC pu [k xj <k MC &k >k Ft pj mj Kj yj qi yj Bj .k 'k bi `j yj Cj bi rj Sj ki }k nj Bt wi pj ti ,k NC Sj pj Aj pi bi oj .k Sj vj Dj nj /k nj vi OC PC fu QC RC su SC pj Nj pj KC 8u /k yj -k rj uj Cj bi uj .k ki vi Tj qj oj tj Wj vi Dj Bj ki Fj oj /k Bj Fj mj bi nj zj qj ri Dj nj uj tj LC Sj 'k `j xj `j Ij Yj Dj 'k mj TC xj qj Dj mj lj ]k vj [C wj ki Fj Aj Hj UC vi [C tj Bj yj &k bi Tj qj nj pj vi Bj Sj VC |k lj 'k ku cu vi Yj wj eu Fj nj vi Lj yj WC Sj nj XC 1k YC ZC `C y'  D .D }p +D @D #D $D %D 61 !/ |) =| O1 &D s) u3  ~ t_ *D !( 5  3f r] =D -D ;D >D ,D ",
"'D )D /y !D ~D {D ]D W( %. L' Zb ^D B; /D (D _D Wf p! :D 0j <D [D }D |D N3 v! 1D 2D 3D 4D 5D Bl :i Zi Al Gk `i Jk @j Jk .j ql Zu Jk .j :i +j 6D yl Bk Dk Dk Yu :i Ik Cl +j Bl Zi Zi @j Fk Al Ik @j Nk pl 7D 8D 9D av @v Vk 0D aD bD <l cD 3l 8l dD eD +l fD gD hD /l }l iD ;l jD ,l <l kD lD :v mD nD [l [l .l oD {l pD qD rD rD }l sD tD uD vD #l .l wD xD yD #l 6v zD  v AD BD ml cl vl CD DD ED Zi hl Vk bv vl il Il FD ql nl Zi yl pl Zi Gk Zi pl 0v @j ol GD Zi Ik :i Ik Ik @j pl HD ql ql Dk Fk nl {i +j al )i >i +j @j ID Ik Pl ol Si *i Cl ul `i Fk Ik JD *i xt Yu Gk @j ol Ik +j Gk @j Tk Ik ul Kl zD Qk ul Ik il Gk nl KD Mk Mk <i Hk Hk hl Kl Ik rl Bl pl Tk Zi @j LD MD ND Pl Nk OD PD QD RD Ul b. )+ SD cd TD UD VD WD t{ 8. XD YD E! [{ ZD `D d, 3' X2 L) 8. p. `. ,g  E .E +E _  ",
"-e @E #E $E %E &E *E N[ '+ 8[ z8 a> a> x< 1. P  <. k( =E -E 4o |p ;E >E n~ ,E 'E )E !E ~E {E ah og q5 |m Im ]E vg d9 {h >h pg Zm q9 ^E %6 2h [h vg vg 1m Gs Cg qg jh Cg {h d9 J9 ca 20 og 9m 9m |h d5 /E (E 7, _E :E <E ;a 2b |0 .b [E }E jb |E 1E 2E Ca $w rb 3E im rb 4E 5E 6E Z0 7E 8E lm rb 9E 4b ]w 0E aE bE Bm #w cE dE eE vm fE 0b zm la -5 gE !b am -b hE Cm 35 7m _w %t <w Vv am J9 iE bh ^0 #h 5a HB c5 eb pg 7m  6 |m ng Fm &t qg fh ~0 Jm d9 )5 U4 *a 4w :b |h 9m jE Cm jw `a kE  6 &> pg 84 t9 )h 9m y9 !h g5 og lE fh jh |h mg ih Bs mE vg GB d9 vg DB nE d9 >h og %h %6 %6 Zm 16 dh 9m &h :b oE Ym 9m eb fa LB /h og vg &t Rv %h }4 pE qE 35 Xm :b rE g5 eb ]5 bb |m s9 sE tE uE vE wE xE yE zE AE BE CE DE EE FE GE X  HE IE JE E; KE LE r. S  /3 S; N/ ^: }e g| ME NE OE PE l_ ",
"QE RE SE TE UE }^ l{ VE k: ~x 9  WE >. N' X. t. 8. z  fk XE YE ZE `E  F .F +F @F Uw Vw #F K. u  K  J  @. l) t.    t. B. o  Z- &' B. w  w_ w. >. `. 8. 2. t. i1 g  g  2. C. g  >f 2. t  @g +] Y. $  b; l) Vn $F L' $+ Yo Z- S} q< _. z  >. sf _> f. =. +. E. p! |_ A) $  ;+ x  5  en '{ M1 H. [e _> o  $+ C{ <. B. %F Xo t. L) %. E. z  7. E. E  |; =. B: |! t. z/ @. A~ 8! N0 J. B  C8 7{ f. v, B  p  9  C  )) s  3  8  O. C| |; .. M. |. 4  F, C  nq R  b~ _.  ~ 2. C. *  hn +] <. 1/ w{ ^  N' C; g  y' d; &F ). ,{ &' O. f. @. -(    4  7{ e_ B. @o %. +. jq M. p  t. o  z/ t. O. &'    .. +. +. t  p! Me w  .. <. Gd r_ B. Y. m] t. Z- '+ O. B. Z| |_ 3  g  E. 2. +. t. 2. 7{ Vq    fo &{ g  *F =F -F ;F @x >F ,F 'F )F !F qx ~F {F ]F |e s) ^F /F d! >e (F _F :F <F 7. X- [F }F Oo N| 6f Jw ",
"|F 1F 2F $E 3F B/ I. #  4F +] 3z z' 5F <> E  K  @, X, 6F 7F 8F 9F 0F Pn aF bF cF dF Fx eF i  3  K. &' 7e E_ T  O. t. B. 9. O. '+ ..    8j B. O. t. C0 g  C{ t.    t. f. Z. w  g  c' ;. 'f }/ Y. 2. 9: [e  ( Z/ fF L  7z Z/ O( h  [e >. u  gF g  N'    8! '+ 7. k: y{ ,. f  L. E  g  h  $)  ( o  u  Z. )> *  H. 2. 7{ b~     ( 9. $  9z X[ y; $  $. 7. ,.  + U  t. 2. Z. #o B  J  [: [: K  t. d; Ad Y. ,. g  :} o  %  p. 9: K  co t. 2. X[ g  L/ B. =} Y/ 4  =. &, '+ 4  @. .. Z- t. >. 7{ J  Y, |; [1 O_ 8. b{ 7{ 2. >. +. '. v, Z. E. p  |_ b{ =} J  T) 9; g  &' w' 8. g  3  1_  ~ )> '+ e_ Y. J  M1 4  h  Z. hF W  J  @o u  Y  h  j  g  .. .} >. >. w  F, C{ f. 3  E, 8. g  +  =. u{ ,. >. #  9: $o iF jF kF lF mF nF oF pF qF rF S~ ^; B_ 8^ sF p; tF 8] J~ uF vF wF [! t. xF yF zF AF #~ BF ",
"}^ CF ,o !D Dp t< B. A~ $  p6 DF EF w; M  FF ^~ GF HF IF JF KF LF MF NF OF PF QF RF SF t. |; g  >. 6  y; &' T  [_ 9{ 3  9. %  g  >+ B  )) @. @. +. f. %. Z. Z- t. t. .. >. g  B. @. |. f. g  f.    *  h  %. c' }e }e K. =x p! j  @. |. %. u. F. >. E. ,. 4  U  ;  &' TF |! 3  $) 3  R> :{ 42 _> L/ g  z/ 8  @] t  Z. w{ u. Gd }/ g  #  L  3  7z X- O_ }/ hF '. |; g  g  7{ 4' G| UF <. E_ H. ,  I. |! Ad |! ,{ VF b~ 3  9: %  +. 4  y  Z. *  .. o  .. E. [  8. 4  f. _. U  C. l) w. p  Z. [{ p. +] g  j  L. g  e! Z. $  s. Y/ [~ ,. >+ WF H.    9. Vo $  2. 7. ,+ 7{ u  o     `. $+ [e @g [~ 7  W, u) o> 8. 2. o  4  J     |_ _. T  2. C{ t. @. t. Z- <. .. $) y  L/ _. c_ *> w' o  7{ q> b{ d; g  [e XF YF ZF `F  G .G Rx +G !D @G #G 6} $G q< %G &G W/ v~ _> 6  ~; *. *G d' s) =G -G 8F ;G >G ",
",G 'G )G !G ~G s_ Ed F, e! o. [. C] B} d) {G ]G 8^ ^G /G (G @A Tp .^ _G :G <G [G N' g  io    -( 7{ u  z  N' |e Ed 8. Y/ [[ w' O_ $) C. |; +. Z. Z. C. a{ P^ g  @g g  g  5  Z. t. C{ >. f. y  g  u. C~ c' @o    2. u, c' E. t) C1 j  2. >. wd o  Z- E. ;. >. 8. _. @+ fn co ,{ g  o  g  6{ b; }G g  .. w' f.  ~ 2. M. Z- v  Z- O. t| 4  9: J  f  Lx u  P^ =| w  v  7. L) ,. ,. w; u{ w  @. >. j  o  7  ,. 4' O. ]z |G 0] [! 5  5  g  y  '. t. C~ w' 5  K  +] $) 3  Z. 1G w  w  Z. n] t. )> L/ Z- [  w' J  %. 3  j^ <. <. 3  a; 2. ,{    F. B. _> K  ..    g  k  %. U- v, r_ x. &, 2. $+ |. @. t! l] l) .p o  t  8. 4  %. f. l) O. '+ @. 8  =| *  9{ Y. Z- t. +. t. J  *. B  [1 ;. V  @. %  t.    ,+ 9{ H[ 2G 3G {y 4G 5G qz 6G 7G 8G 9G 0G b; do aG bG :  G. x  zd |! r. cG G, V/ dG eG nF fG gG ",
"hG %e ne iG jG W^ m] u/ _> 8/ kG lG mG [[ nG A. oG pG ;o qG ,g rG sG tG uG bp }d dp _d ep 7p pp 9p ^d 7p up nc 7p 6c 9p 5p pp jp 0p 8p 6c 6c pp _d _d 5p ap 8p 6c }d 8p kp }d 7p _d }d Dc gy _c ^d cp 7p 6c _d 4p }d bp 9p bp nc ep jp }d 7p 7p 9p 3c }d 0p ap }d +q _d }d lp 7p pp _d dp 0p 7p _d ip 0p 7p (d 0p vp ep 8p 6c 7p ip rp Dc 7p dp ^d dp 0p 7p jp ep 8p 7p pp op pp _d rp 0p _d }d _d 6c 6c 0p 8p }d }d 7p pp 0p _d 7p }d 6c lp jp _d op nc 8p 0p ep 0p _d jy nc 6c 8p ap ^d Dc ^d 5p nc Dc 8p vG 6p }d 7p nc kp }d }d 7p @q rp ^d jp 0p ap Dc jp ^d vc kp _d ep 0p 7p 5p qp ep }d Dc _d 6c 9p pp op 8p }d }d }d 7p _d 7p lp ep 9p 8p 9p 0p ep _d !d ep kp _d ep }d rp 0p kp pp ap 6c ep 9p }d wG xp xG oy 9G yG zG AG BG CG 4  8^ DG Mw E. U  p> it EG .| F, $, FG 82 qk bg GG C, ",
"o[ HG pF IG JG KG tv e; 3  LG $z D| MG NG [: OG  D PG QG RG <g SG TG UG Py VG ^d Ry dp _d ep 8p 3c pp nc ^d 9p 9p 7p ^d ap 7p 8p _d _d ^d _d ep ^d ip 9p ep _d 7p rp 6c jp ip 0p }d 9p _d }d _d 5p 6c _d 5p }d 0p ^d dp }d kp nc _d }d @q ^d 7p 6c 6p 0p }d 8p ky <d 7p ^d 6c dp 0p gp mp Dc 7p kp kp 7p np fp 7p pp 7p 0p 7p ep pp 8p }d ^d 0p 9p lp tp 7p kp 7p ^d ]d dp qp jp 7p jp 7p _d 0p 7p 7p 7p Yp rp 5p 5p <d 5p op xc 6c _d 6c nc sp Yp 6c 5p Dc ^d dp 9p !d 4p 8p WG :c 7p 8p 5p xc dp 0p Hc }d ep }d 7p 0p ^d 0p Gc lp 8p }d vc 8p 7p qp ap 7p 9p ap vc 0p 7p 6c gp ep 5p }d 9p dp }d rp op _d $q _d }d 7p 0p kp ap !d ^d _d nc 8p dp 0p ^d gp jp 7p 8p !d 7p 6p ap ep nc _c Dc _d 7p 0p Yp XG YG ZG `G  H .H pF +H @H R> |{ b^ s% #H u  $H B  &4 [~ B  a  o, [[ B! %H ,x 8F &H *H ",
"=H -H gx ;H >H ,H 'H )H !H j. ~H ;p #d {H =[ {/ ]H n/ ^H if /H (H _H :H <H rd [H 2] @. 8. Q8 s. g  9. s; L. 9: }/ _> <. N. :  <> $  9. Y/ O_ f  g  Z- Y/ 0^ *  I_ s_ $  V( O! F, Xf J  Z. w  7. m] 3  g  t. S^ g  g  p  f  p! }H 4. ,+ &' .. |H 1H (^ 8! %F C8 4  0x a~ b~ wd '  2H mq $) @. )4 @. 7{ F, X. '> T  `' g  2. .. p! $) f. >. =| v, M. 3  ho =. [/ 3. uh 3H 3  |e v] &' j. 8. F, F  b{ g  $  t. ). 4  |! h. A. Y. Z. f. f. t. .. *  f. f. wd Z- O. 4  M. 4  _. P^ ;+ |_ 9  D0 U~ Z- wd Y/  r vd id h  g  2. <. u  B. o  4H 8{ p! c_ %  O! oq !m [~ N1 P. $  K> V' u. %  r. 5H Y) j. t. G( q! p^ T^ G_ >( &, 4  7  u. ;< a~ uf O_ @g }/ n. +] 8~ ). *. w' $) 3  [[ 5  O_ Z. sf h  42 :  8. D! 6H 7H 8H 9H 0H aH bH cH dH eH p[ fH gH hH J  $F d' ~; iH x. d! =A !^ S} jH kH lH mH nH ",
"oH  z *u S- pH >; `o S} _  t  *+ W. h_ Q  Z| C' jk A  qH rH sH tH sz uH vH .s wH Gz e1 E_ |. $) e  xH F  g  C) [1 K  _> _. [~ +] p6 .. t. Dd 'u ~> u  vd r  yH u  V, Bd L. 3q 6] *. .. |_ Z. B. ;+ h  )) Xo &' zH    O. 3  p! #] x, AH .' x. W, C{ C  7  a  D, M! e/ ~[ d< n{ (3 BH C( v~ w) G  &' O. Y  -. $) XA &' ]  g  @. t  vw `n |_ _. w_ f! D  CH ={ uh N~ M~ 6e b[ :  s. C|  ( }e .. o  _. 8/ |. 8: 7{ Z- Z- (. u  >. t  t. g  |< @. 9{ }e Z. C0 $) H. Wf %  2. K  (. g  g  t] w] 3  Y. Z. y  Z- 9. 8  *  >. 3  Y. t. 5  [^ H  K. DH $) c  Y, C) a! -} C; jn G  O_ EH 2. Mb d  v> Y) H1 9: w{ 5  a! ,> ~[ B) B  7  [{ +| &' B   + k: <. @g g  yf .  FH sr |! G  }/ 4  u. 7. U  o  E. Y/ .. &. GH HH IH JH KH LH MH 0F NH is OH b: PH Q} QH RH r, V; +) SH O8 y; d_ TH DH UH VH Xc zx WH ",
"XH YH ZH `H  I ~[ .I !( 7. ;+ '. (. ,. W  q, 6] +I l{ @I dC #I $I %I &I *I =I -I ;I >I ,I y  g  X  6  $^ C. >. L. |_ &' &' %) F. )> E. >. .. Gd [  3  F, f. K. ;.  + N_ R  O_ c/ '+ d' F, %. C; .. i^ nq WF n(  ~ v  L/ +. $; 0z JE 'I B. *. yf Z| d{ f! {: q; *. w) D{ L~ )I !I f# ~I {I x~ %s lr ]I B_ ^I [! Zw 4r C| B  g  t. |/ /I (I _I b| x' p1 :I %s 8y `' b~ E! ,> b~ #  Wn U  Z. j  L/ C~ _. 8/ y( E. C8 v  7{ 9. Z. g  Z. >. g  t. l) .. #s t. 3  m. F, >+ s  F, =. [{  ~ e< 3  /' 8. }e hn [~  + |< 9: g  d^ $  .r Y/ z/ H_ 1/ 9: X  4; Y) &{ @] H. [{ @. 7{ d; %. )4 c, g  w> <I [I y( Z- y  u  -( e< =. d; '+ [  W  Z- +. n< 8. 8  C; f. ,{ E' v> 6  $. x  w  2.    f  }I #| 8  Z/ ef |I 1I 2I 0A 3I 4I 5I 6I ~r hs 7I w; 8I 9I 0I aI W[ bI cI cn d> W( 6; Dv dI [F eI fI gI hI S, ",
"iI jI kI P] lI M[ 4' g  )> t  n] in :j F. U1 mI nI oI D8 pI qI rI sI tI uI G^ vI 0q wE wI ,I Z- _> V/ ;. _> >. Y/ j  z  _> <. 5  _. E. E. tf [e J     f. ,{ Y/ *  8. U  q> T  u, yr [~ g  2. p  0x &' io ,  ;. X. f. B. Jd .. V' c/ FA +  z  z  w) A~ B) Nd v  |_ O_ x. jo =^ K. 3  7r gj 3r xI `2 LA yI zI AI BI ]^ qr d: hr /2 CI DI |^ Lz 4g H_ Xn ,+ Ad _. &' @) w; b~ /; ,. 9! }e A~ .. g  *  @g h) '+ $) ;. 5  s' b~ %. j  +] wd t. f. g  E  f. |_ u  1_ .} =. g  `. B  7{ g  9. sf 3  3  3  8z $) b: EI b; ~> (. C. [e >. t  7e `f p. %  7{ 7. [  O_ C{ O[ c  :  %. )> o. w  8e w, C) 4z 2> 4> Y. K  t. tf 3  |_ e_ _> 6  |. 8. [: K  >f 3  $) b; @. :. /' cn d  h  M' 4  [~ 4r g  >{ %g _s FI GI HI II JI KI Xc LI MI NI OI  ) _/ %] @1 PI J( w_ QI 'u 6  RI N/ '+ 1| *d SI TI Xc Aw UI ",
"VI WI XI YI WD hd *G v) 2. s> s. j^ g  4' ZI `I t. {^ wy  J .J N< +J @J X/ #J $J %J ig 1z &J lg #h 9m d5 [h rg qg 9m dh )5 c5 Cs ih :w MB d9 ah ng wg qg Xm qg c5  w n5 #0 #0 vg 9m g5 9m vg #0 0B q5 q5 k5 35 *5 *J Fg Y9 x4 Js =J hB -J *6 ;J >J Mg Rs Ns ,J '9 (0 70 a0 Q9 G9 W4 U9 #9 'J Tg kB )J !J ~J Ts d7 Vs D6 D7 {8 {J ]J ^J !9 a0 /J (J _J .h +9 :J L4 -0 B5 {0 `s <J  6 >a wB [J  9 Cg {h h5 G9 'h }J %h zB ^E |J 1m #0 1J %h }h %h  6 jh &t  6 05 Cs #t z9 10 Cg 7m am %h /9 yg wg Im Ym `4 d9 2J /6 (E [h  6 Eg qg og 3J bh d9 10 jh CB Lm ]5 D5 D5  w ]5 4J &h c5 5J %6 dh ca `m 6J @a 7J }h %h ih va 74 }h eh xg #0 mg KB i4 74 hh 30 vg *5 o0 %h 9m qg 8J mE q5 H4 a5 ^0 c0 9J ^t 0J aJ sh bJ cJ YE dJ eJ rz fJ gJ 4<  . hJ iJ jJ aI kJ R} b; M) y  x' `' O. lJ mJ nJ oJ pJ q| ",
"qJ rJ sJ tJ uJ vJ M1 @+ 8/ 7{ +g O  7. >< B_ O, a~ wJ xJ yJ ^H zJ AJ BJ {/ ~C CJ st DJ EJ FJ GJ Yi {i ;i ;i )i [i #j ,i `i 4i Xi Jk Hk (i 1i ]i Si 1i *i ]i Ui Yi [i )i xt ]i [i Ti Xi [i 1i |i HJ Ui )i (i 1i [i di %j 1C 1C oi li IJ xi 7i Dt JJ Bt <C ii KJ gi ki Ji ji wi ji oi Ji 7i Ji pi Bt 7i Gt Bt LJ pi (k ji ri ji Gt ni vi 1C uj Fi ii pi bi ii ji qi Di Ci Xi Kj Ct 8C Et 8i li Zt MJ NJ OJ Ti Xi ci Ki si &i Tt zt xt xt <i Ui .j ]i *i zt {i <i Ui ]i Vt ]i <i yi [i PJ Ki -i (i >i Xi QJ )i :i Si Vt zl &i ]i (i <i RJ  j xt {i Si 1i [i Xi Yi *i {i )i Ri =i .j Ri -i .j |i 1i Si [i SJ }i Xi Pi Xi -i ]i *i Lt HJ [i Yi Vi >i {i :C }i <i Ki TJ ~i -i (i zl 6i 4i Ti oi UJ VJ WJ XJ YJ ZJ s3 (. `J  K .K +K @K #K 5r j  5| ,{ Ve =| x. $K vr +  c' L) -[ V] %K &K {) rk Jh *K ",
"Mu =K -K ;K >K -[ e{ H/ G  f!  ) @o ,K -s I( H  do 'K Kn F0 )K !K ~K Ew 81 <2 {K ]K ^K wt kj lu Cj tj Ej tj Kj nj Fj Tj vi Fj ti tj Uj nj yj Aj vi mj tj vi Cj Dj tj Bj yj `j Bj pj pj Bj (k fi vi Bj LC eu bu wj /K {k wj ^k iu #k qj Tj Ej Ej `j qu /k Bj Kj uj Cj Dj yj (K ri Wj rj Vj vi wj [C Sj rj ri Tj wj Dt Dj Hj vi ;k Aj Cj |C lj mj mj mj bi Fj vi mj _K :K <K [K 8u }K Bj }k vi |K ju /k }k ,k Uj ti ni (K uj .k wj nj Dj Wj pj tj 1K pj Ht Bj xj pj 'k 2K yj ji Cj qj `j tj pj mj Sj vi .k mj `j Vj >k `j xj Aj Bj ki mj OC Cj pu wj pj au mj 'k 3K Bj yj -k Bj 4K (K qi bi nj bi Bj vi Fj 5K yj Sj ki vi Ej Wj yj Sj 6K _k 8u ri wj Jj nj Yj yj /k ji bi vi ,k wj *k xi fi TC pu 4C tu `C Zw  D 3e 7K )K 8K 9K 0K aK F. X- v> h2 bK _. Od &2 ^+ t  *  cK 4; b  bn dK Wh eK fK gK ",
"hK iK jK kK lK &{ t. z' M! b~ mK nK oK *G 66 ,> 8e pK qK L< rK sK tK Qr uK vK wK xK yK zK Xu {i `i @j ,i Gk Al Jk @j >i +j Dk AK BK ,i 6D 6D Gk Bl Fk  j Dk :i +j rl &j {i +j Zi Zi Zi Gk Ik Ik @j il Zi jl CK DK CK Vk xD vl AD EK &v hD !l (l #l kD `k ;v &v *v |v cD fD ^l FK $v GK nD 4l &v |l HK ,v [l IK JK KK LK &v mD 2l MK )l hD NK /l 5v OK PK Wk fD QK RK xl nl 8v !l FD Mk SK TK gl UK Zi Pl VK WK XK nl ml jl ql Fk Pl Zi Ik Gk Ik Ck Il yl +j pl vl Ik ul `i Ck ul yl Gk Ok rl Ik @j xl wl Ui `i Tk `i {i Cl Ok ql Fk ul :i YK :i Nk ev Jk GD @j !i <i -i )i Jk ul Fk _i :i 6D Bk @j al Dl fv ZK FD @j Ik Il Zi  v jl Ik Dk `K *i  j  L av sl @j .L Gk Gk Zi Pl WK +L Pk Ll hl Ql jv @L #L $L #; )+ %L &L *L Dp =L -L Z~ ;L %< >L L, .  [~ ,L C' A  co :  S^ v} X) 'L )L rK !L <} ",
"~L {L ]L tJ ^L /L &r f  _. I     |) j  (L a[ q; ww hq _L :L <L [L rz }L *+ Kv |L 1L !E 2L 3L Ag 9m q5 Qv As 4L m0 LB o0 }h 5L Cg '9 Vm Rm 't ng ng {h ih d0  6 q5  6 DB %h 2w Ym 30 qg og og qg #6  a [w pb 6L :h :E `a .w 7L Em .b wm #b 8L @w /a _b .b ja zm @w 9L 3a 0L aL *w {b bL cL dL rb eL fL gL ~b hL iL jL kL lL mL nL oL fE pL `0 qL rL *b oE sL j5 tL ~5 ~0 V4 Ta n4 uL 5a vL e4 f5 xg =) #h .n b4 c5 eb Mm 7m wg 16 4w Ym 16 vg Xm [w ob d9 )5 D5 aB Ym ob Ym ca wL Sa zs .b nb Bg &t sg %6 84 gh vg 6w 10 qg 9m yg fh !h 74  6 /h &t #a 10 &t lh %h DB Ag og d9 vg Cg {6 {6 Qv 16 aw n5 20 |h {a g5 mg d5 eb mg aw g5 %h &t Cg Bg *0 Wm [h 35 ih g5 xL xg hh aw o4 /9 IB yL .n zL AL BL CL DL k; ({ EL +e %p FL GL HL IL JL T) KL LL W- jq l} ML e_ b~ i] I  o  NL 0g qk oC OL PL ",
"QL RL ot SL TL UL x, '+ Y  3' Od Dd R> 6  s. M~ xH o  kx VL WL GG yG XL YL ZL `L Uw  M RA K. 7! Z- ,  @. Z- C. B. .. &' L/ o  r'    w  jn '+ $) f  8  M. 5  o  f. )> g  t. C{ .M '{ %. '{ 8  u  $  Y/ +. 3f )1 c/ $+ h. L/ it u, 7{ p  t  _> Gd .. q> o  E. V' [_ ^s $. Zf k: .. K. 1_ z. H. .} sf Z- Me f. u     :! o  1/ [{ +M jq  ~ E  E. $^ o  ><  o 7{ t. g  g  q> /; v  f! x. ,. w{ z/ [~ .o g  Bd v] w' b' 8. 3   ~ &, 9. .. r2 |. u. +. a' !) t. b~ 7{  ~ 2. g  8. 3  d^ C0 g  5  P' 8: w{ z/ *. ,. b{ ). J  w. w' .} l) t. B. 4  U  [~ u. ,  )y Z- %  8  >. g  V  C{ z   ~ O.    f. +. K  '+ p! v. F, t. _> Y. N'  ~ sf ;. f. w  4     5  F. Y. 3  g  Yo $) L/ @. g  w{ f{ H. 4> V( C. @M #M $M on %M Z~ &M <g RE *M =M -M ;M |/ C; G} @; >M 2f fo %1 I~ ,2 H| +' f  ,M pv Nw r^ 'M Gu ",
"p| )M !M $D ~M {M r] y' AH g{ 1{ .o j< I) ]M ^M /M vy (M Lq 4} _M :M <M [M }M !E |M 1M q! 8. 8. O_ [e b[ |; 8j H. 2. 4  F, '+ 4  9{ C. )} 5  '+ 5  8. g  t. Z. O. g  t. Z. +. @. K. $+ u  Gd <. %. 6] >. O0 Z/ =x .2 !> K. W, X[ $) 1_ _> |; Z. bn 2M b{ 4  ,{ }I l; ,. N' %  ,{ H. 8. H. '+ +. Y  g  t  j  C{ t. Xf b~ B. &' Z- T] #] b; cn 4! :  J  _. v  _. @. 1_ f. `[ x. 8j  r p[ o  C~ _. @) sf V  g  q> Z- 8  $  O! |; co 5  $) E. f. Z- a{ H. %  >+ C| =. '+ 4  2. g  9. Z. )> in E  Y) 9. Me Z/ 3  b{ _. >. g  Z- d; hF Z. *  p  _> b{ =} t  T] (. l) 7. ,{ Y/ @. 8  >. t  J  a{ K  |_ E  M1    b; t. i1 sf &' k  +] a! *  '{ f. t. t. C{ g  o  +. Z. .. 8  $  3  1_ >( F. -} -( %. m< ,, 3M iF 4M 5M 6M 7M pk 8M 9M ts 0M >u OH .p @. aM L2 [  bM cM n] dM hK Z. %. hA eM fM gM rG C, ",
"hM iM jG jM kM lM v3 L) F, }e _. >p o! s' D{ v~ $F mM nM oM rk pM qM rM sM tM Ex ao 4. t. |; Z. p  ', P. )} ,{ u  f. Y/ 9. C0 Z. '+ B  '+ |< Z. g  g  $) @. y  g  @. g  f. @.    f. i  t. t. f. 4  E. h  [e `. p. }e i^ >e $+ 3  Z. M. g  H. b{ 2. [  |! B. '. [: O. sr _. *  4, +] }e e  [  _> L/ g  z/ |. 8. %. g  _. w' 7! c; C~ #  wr *  }e y) N' _> y  C; |; z/ g  8/ t| 9  c  |_ 9. >. J  G  w  %F 7{ 4  B_ ,> Y/ b; 8. F, 4  y  .. |. Z. 9. L/ b; ce P^ O. .. U  ,. t. L/ O. t  f. x. ~> Y/ f. L. L. t. o  C. $. p. 3  -. 4  t. t. $) '+ .. o  $. g  O0 ,+ V  _> L/ 4  K. ,, p  Z- ]  x. O( `' q> +] z/ y     ,{ '+ _> _. 7. >. g  9{ f. .. L/ u  Z. g  f. Z- ,. Dd O} )> o  _. q> A~ ,. H. [e uM vM wM xM yM Po zM AM BM CM DM EM b! 8] D_ |! A. {} r. FM &] _> _. T  s3 GM HM IM JM pK ",
"KM LM Sr ve MM ;x Sf NM c; [{ !+ lC 6  f  OM R} h^ PM QM RM SM Yh a^ TM UM >y VM +  f. '> .} 4  ,. <. f  O_ 7! d^ 3  8. o  w' f  p  Z. V  +. f. .. z/    i  g  Z. wd .. g  Z. wd Z. p  g  Xo t. u. g  O_ $m 4   ~ s> c' E. a. p. [  $) t  .] Z- 9. E. %  .. (g _. @+ F. [~ 2M $) y  f. Y) E. 4> 5  g     g  t  [e 'f l) H  o  t. v| y  6] 7. K. Dd |_ Y. 3  9. 5  7. 7  _. b~ #o *C |; WM z  j  Xo C| ,. b{ B. =. k; 0  |) g  5  t. t. B. g  g     |! Z- h. g  C0 wd 2. Z- XM Z. B  @. t  Z- Z- E. ,{ ,{ t  i  A. _> <. 3  ~> .} E  t. q> 4  Y. y  l) >+ t  y) $) 9; Z- N' 7  b{ 1_ 8~ +] C~ |) Rz 9. YM l) %. |. 4  %. .. ..    w. Z. ;. i  3  .. +] L/ 2. Z. t. J  y' 7  h  $+ G, V  3  Z. '+ z. +. (. ZM @p `M $p  N .N +N @N #N $N '4 8  _: W, =. O. C  %N W. &N fo |) 3  p  :D *N 5I =N -N ",
"vF ;N >N ,N wn 'N w' Rh V2 L/ U[ S~ y; )N 3A {< B! !N ~N {N ]N ^N +E /N (N uc 8p 8p ]d ^d vc 7p 0p 7p 6c kp op :c ip _d _d up ^d rp 8p }d ep 7p }d ^d 8p 0p nc 7p jp 8p vG (d bp }d 0p 0p 6c 6c Dc 9p }d 3c lp ap nc up }d up #q 9p ap 7p dp 9p 5p ap 8p 7p 7p bp op lp Gc dp nc _d Yp lp kp 7p 9p _d jp 7p mp _d  q 7p kp 0p 7p 0p 7p ep }d 7p Dc pp fp ep jp np 7p 8p tp jp 9p 7p 6p ^d ep 7p 5p 7p 3c _N dp 0p 7p 0p pp $q }d _d lp ap nc ep _d Uy 8p sp  q nc 7p 8p 6c 7p 7p 7p 4p .q 3c _d 6c jp kp _d @q rp }d 8p nc _d 3c rp ]d 7p ^d 7p 5p nc 8p pp _d jp qp ip 4p 5p nc lp Dc 6c 7p dp _d ^d $q nc <d 7p Dc pp }d vc #q 0p ^d 0p 5p 8p 5p lp ^d nc _d ^d bp 6c 6p }d 6c }d ^d 0p 6c 7p 7p 5p 8p _d :N <N [N }N |N 1N 2N 3N 4N 5N 6N /) Rz ]g v  7N 8N `' [[ h^ %  _. o{ 9N 0N {N Aw h6 ",
"L{ aN bN cN dN eN D) Uq fN gN Qo C; @f I; hN iN _. jN kN lN mN nN oN Oy pN qN !d }d lp #q 6c 5p }d jp 6p :d 4p }d 7p _d }d }d nc 5p ep _d 6c 6c 7p ip dp 6c 8p 0p 6c nc 6c 0p 7p }d 8p pp vc 9p #q ip 7p lp ]d  q ip 7p _d }d _d nc }d nc _d 8p }d ^d op _d 7p 8p !d jp }d 8p 5p Vy qp 9p Ty _d 7p 9p 0p rN 0p pp jp kp kp 7p 8p }d cp 0p 0p 7p kp kp 7p op kp ^d ^d mp sN rp rp gy jp }d fp Vy nc 9p 0p <d tN _d kp }d 6c fp 7p ^d _d bp _d _d 7p Dc ^d ap }d 7p 7p 0p qp Dc vc rp 7p 0p ap Ty ap _d 7p 5p nc pp _d pp 0p 7p op }d gp jp }d 8p 6c !d 0p 8p }d jp 8p ^d jy ep _d 6c 8p ep _d ep }d fp op 7p +q dp _d 9p 7p ap 8p 0p ip lp }d 9p bp 0p 6c ^d }d jp mp _d _d Sy ap 5p _d 7p #q _d #q kp _c dp Xy uN vN `y wN xN yN [f zN AN >x BN P> 4' o> u  %F CN V, D{ o  DN *] EN FN wh GN eN ",
"HN IN 2s JN KN 3  v> y, LN MN NN ON h~ m; PN &r f! |) QN RN {N SN TN UN |z VN @x WN 4  3  >f $  v. (. &+ $; p! }/ =| u  8{ $  3> $  |; C0 Z/ %. f. *' 3  v> L. XN s_ T) (< 9: F, YN #s g  K   ( h. 3  Z. g  Y/ g  C. $) K. O! M' @o Md B. 5  M~ z. Nb b{ @) h) O. w_ b: v] V  7  W] a  f  .. :  C. _. F, x  8. 4  Vq g  t. t. p! %. 1/ [e Y. v] t. 3  4' q> X- O} `) y' 8. }I b~ O. j. *  w  -. =. t. L; B. n] 4  G_ io Zn 'f f. >. >. @. .. E. f. >. wd Z- u. 4  '> 4  in 7! ~> _> N. ;3 ZN F, g  3  7e sf [  L. 9{ .. _> W  '+ K  `N |e  g +  tf vw Zw H  F  '4 |e $. %r b; 4  3  G[ #]  O u, 5  X3 ). ^; r>  c 8j 7     w_ w' B. p^ $^ `. y  o. .O Y/ p! n] Zw J  $) 8. F     N' g  u  io $+ Q8 %  F' +O @O qh #O $O %O &O *O =O v< -O ;O m) b] E, }^ -| j^ >O h  L) ,O ,{ d  cg 'O No )O Gu ",
"!O ~O Iv {O ]O b; |) P  ^. ^; ^O W~ z0 /O C| =  /z (O _O :O Ur rI <O [O Dz .s Rq }O td E_ 8  jx C1 ~+ [~ >. 6< E. w  _> U  (. Y. #. r2 g  @o |O ~> u  Z- s. %; 7! Af }/ m] Y, $+ Xn Z- <. g  O. p. *     E_ )) `e H. w' Y/ b' 9! 1O |) k) 7  =  t.  + jn {/ 2O Hy h' s, &[ h' 3O 4O 5O :! =[ F.  (    Gd (. p  Q{ O. (. g  y  %. vw @o u  w{ x. =^ S  iq ={ 6O @3 n] s! Y  4> p. jn )) R> >. L/ _.  + h  `. _. K  l) %) _> >. t  g  .. .. 2. g  >f g  7O [e 2. e_ 8. $) 9. H  -( 4  ,+ 8O 9O 0O y  @. F, v, Y/ j  2. Y/ <. wd @. aO H  %. Rz [e Z) #. }e N. ^s _. g  G  O_ -+ H. zC %; f, f, Wn 9: w{ O. I_ H[  ' {: B  L) z. a~ O. x. i: X. }/ F, g  x. Yw (: Nd d; b{ <. w' B. bO w  +. *  Y/ t. de |I FI ,r cO dO eO fO gO hO iO jO {1 kO F, X, D. ,} 8/ lO I. L' oI b~ mO :{ nO oO pO qO rO ",
">n sO tO uO vO wO 'y Op @] ^. U  g  +C xO f! O! 71 ./ yO zO AO Ow MI BO _( CO DO EO FO R) @. g  ,} r. 7. Z- t  M' Y  '+ '+ e! =. $) [  >. g  =| E. [1 Z- .. O_ E. v  k) J  K. q< =} d' 5  2. _. _. en E  U  n( 4  y  Z- f. v. #  uv G1 O. sr .; fn a~ Nd {/ GO .I Pe !q D< Te de HO P} IO t3 JO f1 &) Q  e/ r] 3H c  w! jn g  p  n( KO LO A/ MO `' u~ {. NO ur Hy _. ,> w;  c OO X) 7{ f. 8  9. t. H  jo 8~ 42 w{ 7{ U  K  g  Z. f. g  Z. f. o  C{ w' t. 3  T) V  4  h  Z- A~ ,+ J  [{ cn x_ *f #. cn ]  E! C~ y( g  u  r  >. Y. g  K) f. yd 4; c{ Y) ,e 8. jn &, t. _. 7{ O_ R> {+ f. :p s> PO QO l) Xo sf t. &, w! _. H. '{ d^ E_ o  p[ io b; o  2. ,{ Dd K> L  $  +g w  1/ 4  %. fo q[ P^ c' u| RO SO TO UO 3I VO WO XO YO ZO `O  P (D !o 0  Q' 42 .. D! .P +P m  X[ d_  + *. @P LH #P $P %P ",
"Sc &P un *P =P x_ }1 j> -<  ^ -P ;P N0 Ve >P e# 1( q' ,P 'P )P !P ne ~P {P ]P zA ^P /P (P _P Xo Gd Z/ $+ <. $) 7O h  %. u  d^ _. e! 3  %  %  H. J  @. t. %. |. 8. E. .] :} :P .  a) ]  t. 2. %. [{ J  M. J  [1 y; f. 4  @) g  8~ `] >} u, <P t  e/ G  f! Xn '2 u  O_ B  I. Nd N' C0 tr [P ^O B3 }P u8 |P 1P ON 2P 2P qr I' 3P 4P 5P Pf 6P 7P 8P 0  9P Vn :! 5  8j e. <! ,. mK jo #] }e .o t. >. +] F, h) =} >. ;. '. A) bo g  h  tf f. C{ 2. .. ,{ g   r sf $) p  F. Z. %. n] >+ M. +. <. P^ 8  io R> $) .; .+ E. s. ,> @. 1_ t. .}  r (. r  %  _. #s &^ O_ l) I1 j^ $  t  .} b[ w  t! sy 0P Z  aP bP _> Z- 2. t. *  |e -. [_ W. [  3  [: e_ E, |. $) E. +. 4> cP $  d  E. lq O. F   ; Z. O( D_ dP :s TO eP II fP +~ gP hP iP jP gO << n. ;+ c' p  |) M' kP C1 ;/ Z, o. '+ %  F' lP mP nP oP 8r ",
"pP qP AJ rP sP ;  <F EF '4 ;, tP uP vP wP .o 3A b; 8> xP yP .A zP fA AP #z BP CP DP 0q EP FP ys GP kh fa c5 vg c5 c5 ca zs 9m zg /9 )5 d9 ng 10 d9 m0 og sg qg kh HP Ym #0 8m vg dh 9m qg 2h #0 %h mg q5 IP JP 2h (6 Fg Rg KP K9 LP MP K9 NP OP W4 PP Tg x6 QP yB !0 q9 RP Ps a9 SP X9 Ys TP Ng Rs UP e8 VP WP f0 I7 XP o8 YP ZP `P [6 +0 00  Q /J q9 I4  h <J .Q x4 Z4 +Q @Q <J }h #a *h z9 +9  6 ng )9 {9 z9 g9 %h *0 =h @t &t  6 %6 %h Cg vg  6  6 24 %h %6 ga xg Vm #0 >h 16 !b }h bh p9  6 sg :b #Q :b }9 m5 Ba 4w %h aw n5 9m $Q 54 2w ah jh Cg >a 20 ~5 ;t Jm n5 7J ng q5 t9 IP Jm dh `m JB %Q db {h  6 bh va 74  6 7w &Q *Q qg )h :w =Q ob c5 ah 10 xg {h qg c5 ]5 mE ng  9 dw b5 -Q ;Q >Q ,Q 'Q SB )Q q; !Q ~Q {Q ]Q ^Q /Q (Q _Q @. [e 3] B  >/ Y) :Q <Q e' 8. 4; M. e) <r [Q }Q |Q 1Q ",
"vF 2Q 3Q +d ~G i! v} 2. d; 4Q ,> 5Q 6Q ,e ,{ U  w> ,K 7Q 8Q &L 9Q cj 0Q VA h: {C st aQ bQ cQ dQ Qi ~i (i )i ]i (i Ui .j (i (i :i Dk *i ]i Ui 4i ;i [i ~i {i .j JD >i yt zl ]i Ui [i <i .j Ui (i [i Zt .j -i 1i Et <C %j 1C gi li bi ai mi Ai ui 8i di fi yi Kt ki pi ji ji gi /k si /k wi Ji Dt si Cj pi ji Gt Bt ki Ji qj Ai ji vi ki wi du Bi ni 9i Ji wi ji ji Ni eQ Di <C zi 8C %j oi si [i Qi ]i 6C Ni Pi 4i [i fQ Ki *i -i |i [i Xi `i 4i 'i Zt ~i -i Ui Ri ]i >i (i Ki Xt SJ =i &i }i 4i <i [i Ri :i *i *i +j 6D >i [i {i <i Di -i )i .j Ki -i Xi Xi zt Jk +j `i ]i ]i Ui 4i <i >i :C zl )i gQ zl }i Oi [i Xi .j (i `i [i JJ -i Yi MJ Al Cl PJ 4i <i )i -i <i [i 4i ]i <C -i Ni {i UJ hQ WJ iQ jQ 's ([ -. kQ 4o lQ mQ nQ +G oQ Zb z( Q{ ^r W; pQ I_ 2( qQ S. A. $  L. 4q rQ }x %u sQ Jw ",
"3~ |r tQ *e uQ In m~ K. b~ -} T{ p( vQ g! en ;+ G1 W[ wQ xQ yQ zQ AQ $D )f `! gj ]K BQ CQ DQ _k tj tj mj vi Bj vi nj ni Bj pj Zj Jt xj Bj Kj Bj vi Sj vi bi ri mj ri vi Wj (k yj pj mj Bj Bj nj Aj Kj vi xj ki (K QC XC xj &k EQ Nj Ej mj Sj pj nj yj pi Qj Cj Zj pj wi xj xj 0u bi Uj Sj tj xj Aj Ej bu ri Zj [C 1k Dj /k qu bi bi Cj ti Ht Dj Dj pj bi tj yj Tj FQ :K GQ HQ ou }K tj qu bi _k IQ Aj yj }k wj uj mj Fj su JQ Kj pj Sj ki vj tj QC nj Pj qj bu au Sj mj bi xj Pj ru Bj 4K mj vj ni pj 'k ji wj Sj .k wj xj vi vi vi ri KQ bu 5K `j Yj Sj ri ju Ht mj `j #k yj Fj pj Bj Aj nj vi vi nj xj [k wj Sj bi vi bu vi Ij tj LQ *k .k au -k wj Fj Bj ;k Fj pj pj Bj <k ki 7u ni Wj hu Qj Mi MQ X] Zw z| :j NQ OQ PQ QQ Nq 3g RQ SQ TQ UQ VQ '> Z_ %( WQ :F XQ y_ U  L. i_ YQ if Sp ZQ h6 ",
"`Q  R 4n L8 .R 7N #o t_ |. +R ck @R T  @o 4; 03 ^  #R $R %R &R *R =R -R N^ /B ;R >R ,R 'R )R Bl ~i Bl :i Jk BK .L yl Jk `i BK !R <i .j :i +j Dl Cl Cl ~R BK Gk .L `i :i Bl ul Zi Ok ul @j Ik Zi Al Tk Bl zD Ol {R Ol Tk ]R xD ^R /R ;v hD .l 8l !l (R 8l _R <l OK OK hD :R <R [R }R |R 1R ~v LK 2R 3R 4R [l JK 4R KK 'l 5R ]v MK 2l _v mD =l 8l PK *v +l xD iD +l 6R UK 0l 7R BD dl Zi 8R Ml 9R 0R 0v Ol aR bR vl pl nl Il cR Ok Tk Zi ql Al ul Ok `u Gk Ik Ok #v dR @j Gk Gk @j Ik Bk Il Dk Ok @j ql eR >i >i Dl (i )i >i yl Hk Fk cv Bk YK Jk Nk ol ul Dl Dk Jk <i |i +j yl :i Fk ql Bk Pl @j yl yl Dl Nk jl 0R il ul pl ol ol GD al ID Al Yu $j {i VK Il Gk @j @j Bl Zi Pl 6R gv Tk Dl Pl Ql fR gR hR ]+ iR w} )A jR kR lR mR .y J! nR Nz x, :. oR i) f/ pR qR rr sf L/ 4  rR sR lx tR uA uR ",
"vR Ub XI wR xR yR zR Ed 7{ a> AR BR CR DR [[ $, [! k  ER FR GR HR tC IR JR KR LR 1L MR NR 3L k5 vg d9 OR ih ca 0B 30 {h  6 :w a5 q9 PR Rm ~h q5 d9 xg qg QR %h c5  6 wg  6 m0 |h 9m q5 og mg 30 :4 Jm 0m b4 RR SR TR *a %Q UR aB VR [E zm @w WR XR _b Va $w Z0 YR im km ZR aL I3 hm om 8E `R  S .S +S km Ga {w @S n4 #S $S %S &S *S dE &w =S Ja ~a ha  b =a -b Ya _w 2m -S @b um ;S >S ,S 5h 'S /9 b5 &Q wL Ba mg ,S pg pg wg ih ng Ym yg %h yg )S :b rg Bs U4 5h Fm JB !S HP zs @b Km n4 ~S mg qg 7m (6 44 eh J9 {S #0 og 20 ih 1m 0B ]S q5 yg fh ng #0 ^S MB %h bh t9 o0 %h Uv vg ~h /S /9 16 dh d9 20 74 (S qg qg Jm _S c5  a qg #t &t dw }h h0 :S kb 7m yg 74 yg LB db |0 o4 <S `m [S }S |S 1S 2S {y 3S +( 4S 5S 6S 7S ft 8S 9S 8/ g{ 0S aS bS w{ T~ w; s1 6P cS |f [  Z/ s) dS eS fS !L gS ",
"hS iS jS kS lS mS Or e/ y{ Iw R/ nS aO es oS x~ g| pS @P qS .J pM EE ve rS sS tS uS vS wS O_ <. G, )} f. E_ y  B. f. '+ w  l) w' t. w  =}  ( >. O_ |. f. .. G, f. Z. 2. .} f. xS $) t  z/ Y/ u  $  *  9. e< L' L' $+ 8. |; it j. 7{ g  2. u  <. t. =. +. j  $; W  U2 R> a; X. @. q'  ~ 7   ~ %. 7! 9. [  2. Y. '. p^ Z- g  jn  ~ L. t  yS j  @o Z- q> v) |! t. g  f. t, 8! b~ >  L) _. '. @. K  C| %. _> ,> O. L. Y/ 3  '. F. o  Z. |. .. O. w  C  nq 2. C; C; T  H. .. 8. tf u  8. g  U  O! c' 7{ g  Zw V  I. n] @o >+ t. Z. Z. >. w' >+ U  -. T  @o $) o  Y/ |. >. .. w  f. %. r' w.    f. 9. K  4  O! p  +. g  kq _> f  B. <. E. |< F, O. B. =} fn Ed 3  f. C{ 2. |; f. .} w{ 0  J  T) zS @. AS BS CS DS ES 9| FS GS %x HS IS JS KS LS MS o, NS 3H E. Pp t] ~x OS M[ a) 4> PS QS RS =E SS Gu ",
"TS US VS WS XS YS [: .; 8d b: ZS `S )(  T  g E  e_ |) .T +T @T =N Bp #T [M $T %T &T *T 7  *f h. O_ ,{ G| l) bO    g  >+ 9{ ))  ~ 9.    O0 '+ '+ t. %  Z. g  Z.    g  f. C{ l) Z. O_ j  i  W  Y. .}  g )> T  8: =x 8^ )4 N' 71 [  >. p  sf Wf g  K. B. 4' O. ,{ j^ }[ v  c' u/ >( 2. '{ g  ,{ v, _> C. >. ;. g  @. w{ b~ '. O0 Z- S^ ^  '{ 4> 4> Hx 7. '+ b~ _. g  g  .} N0 n] 7. co `f o  t. U  b: 7! _. t. G  Z- Y/ R> $; o  F: 5  v. s  f. o  u. w' i  '+ ]z =.    =} 2. .] F  g  1_ d; O. #  w  42 z  '> b{ kn [e $) 9. _. [[ >. @] g  d^ b{ B. )} E, o  C~ ,{ '+ 8. t. Y/ >. [e J  '+ K  Y. J  L) 4  lq g  K  Ed 7. y) +] G| h  s  f. >. @. C{ 4  K  o  t. C{ 8  :. %  z  i_ =T w; _. H. Y) 8~ y0 -T ;T >T ,T 'T )T !T ~T tC fO Jf o] '^ {T ]T sy Wf f> ^. ^T _> /T h, (T _T :T <T [T }T |T ",
"1T `O 2T 3T 4T 5  d{ Qz #o =  5T 6T EI 7. hn [< %[ 7T 8T 9T 0T aT bT cT dT eT fT gT @o .. 9. 9{ p  hT fo 8j J  +] '> j  E_ Y/ t. O. '  >+ WM @. Z. t. [e .. w  9{ g  .. @. t. H. g  i  g  .. t. 4  Fh E. 2. K. T] }e iT 6r $+ +] g  j  2. u. q> t  b' in O. _. A) g  W, U  3  [e P^ p. e  [  <. o  f. C{ 8  +] $) >. U  w' 8{ a! 2. 6{ 6  io )4 X- z  d^ w  U  G, g  @. 7{ e] @( Z) sf G, t   ( 4' '. mq e!    (B vr +] M' 8. 9. 4  .. r2 E. Z. @g F  '{ jT 8  w' @. 7{ _. Z. .. B. g  g  Od ;+ %  g  b; L. t. Z- H. 4! 6< j  [[ _.    g  $)    w  K  E, $) &' ). |! Y. l)  ~ r_ 9: t  o  e_ B  O( `' h) 8. F, |; '+ &' O. u  V  #s H. y  +. t. t. Z- i  Z.    f. Z- d; >( 3. J  l) 7{ A~ w! _. t  2. kT Nx ZF lT mT nT oT Zz pT =K H. qT h_ @+ rT sT T^ b[ 1/ cI b  /g t{ tT 3u 7f uT vT po wT ",
"xT -~ yT zT AT 4  .> N/ _. 8e p; y     u  BT CT 53  N Bz DT .J ET XD 97 ;y >y FT Dd g  i  |< 4  U  <. Z/ `. <. |_ 8  3  L/    7. $) >. +. L/ g  t. z/ H. *f Z. g  Z. t. Z. @. @. f. 2. .. Z- Z. 4  g  O_ >( a{ 2. q< K. h  t) Y) [  $) )> .. Z- o  *  *  f. j  _. Nd GT (. HT 2. F, f. :{ Yo $  f. f. O. @. $) H. sf y   + +. H. t| 5  $+ )} 3z +  _> |e Y/ Z- 7{  ( !) 5  ,> u{ u{ o  C{ $) E. w  IT 5  B_    G  JT x~ |) @. 5  t. @. O. C{ g  4  U  Z- 8  2. i  g  t  K  7{ g  0x 9{ >. +. o  E. w' J  1_ Y/ X. _> u  8  R> >. J  '+ =. 4  u  i1 l) w. 1_ X- )> U2 w  f  x. =. >. 8~ S^ @. [! Rz F, t} o  g  ;. B. g  g  o  B. 4  g  [  %  8. .. u  Z- g  .. t. 7. J. 7  42 E. o  y  hn g  &' e< C{ e_ KT LT xE MT NT OT PT -n QT b~ F  .. 3f C  4' e] RT ST f{ ,2 |{ o{ :B 7. TT fI UT VT WT ",
",; WI XT YT ZT `T m| ~+ P) w> V> 4|  U *G .U *,  N +U @U #U 02 $U %U &U *U cc ep dp _d nc dp 6c ^d sp dp jp 0p ^d nc vp _d 8p 0p 6c up 7p ^d bp ^d nc 7p }d ^d _d 8p }d 6c _d _d ip Dc 7p nc }d kp 7p 5p dp ^d 8p 0p 6c ep 7p ep 7p }d ap kp 6c 7p lp ep ^d 7p }d 5p _d fp 7p 6c 8p ^d 7p 7p ap 7p nc jy ;c _d up 7p Ty 9p 7p pp ^d 8p }d kp }d Dc 0p ^d jp 8p pp 7p ep lp $q _d 5p _N 7p 6c pp 7p up :c 0p }d _d ]d 7p _d nc nc _d _d 6c 0p pp ap ^d 3c 6c ep 0p 7p pp 7p 7p sp 6c ip 8p }d 6c 8p ap ^d Ry ap 7p nc 8p kp 6c 7p _d pp }d $q ^d }d 7p 5p nc 8p op 7p @q :c ep ep ^d nc 7p 9p ep ep tp }d Ry _d 0p 6c 8p ip jp _d ep 7p ^d }d ep nc pp 7p Dc 5p }d up 6c 7p 8p }d }d 0p 5c 7p ap }d _d }d 0p =U -U ;U >U ,U 'U )U zp h. }/ g  7< u{ ^s 6e {^ @. `, r~ K^ .. !U &d ~U {U $x ]U I; ",
"v_ ^U SE /U (U _~ [: d' =, o; _U e> }; Xf :U n( e< <U [U 2n }U |U 1U 2U 3U 4U tp 6c 7p 5p 8p 0p nc np op ^d }d Dc fp 0p 7p dp }d op nc 8p ep }d cp ap }d kp dp vc !d 8p 7p nc _d _d 7p nc 6p }d }d 5p _d rp dp jp }d ep jp Dc _d }d _d ep pp 6c nc _d fp 6c 7p 8p <d pp 9p 0p ap +q 0p 9p 5U lp gy ep 8p 0p 6p rp ap Dc 6c 9p up ip _d 7p _d 0p pp 7p 5p tp dp rp $q cp }d 9p _d rp jp (d 0p _N rp jp gy ^d ^d }d gp ap _d 7p 9p 7p 7p 7p 8p Dc _d }d pp rp @q 6c rp vc _d Yp ^d <d $q 6c ap mp }d lp _d 6c 8p }d 5p ap ^d 0p ^d ep _d lp 6c dp ^d 0p ^d kp ^d dp 6c 0p 8p ap gp _d 3c up jp 3c 8p Hc 6p 0p ^d ip 7p ap }d @q ap 7p rp }d 6c 0p Dc hy 7p 8p 7p _d jp 0p 6U rp _d cp _d nc 7p 7p nc pp _d Wy 7U 8U 9U 0U aU 1u bU cU j; &< dU T] eU 4| :  c  fU 4; gU vx D{ :. hU iU jU {N kU lU ",
"mU nU oU pU qU I. }{ K^ G, L; R> b; @' |> |{ :! $  n( rU RG sU tU uU vU wU xU yU kJ g  3  cn p. g  F  m> $, 8~ u  Y. _> _> E, i) E, F, r2 K. %. g  F  3  4z h  b  o. Q8 zU 8~ o  l)  ( Z. w  )> E. 8  @. f. h. @. g  1_ %. p! vw i_ Md w. @. t! eF (^ U1 ^; F. ,{ A~ VA !m [[ 0x lO :! H. M. u/ wd jo K  AU E.    `' f. g  f. 6] p  f. %. |e H  @. 8. (^ =. BU *> LS {. %  k: !m '+ S} E. Z- -. =. g  4>    !) -( >+ *  _~ vd .. Z. Z. t. g  h  Z. g  g  o  -( w' Y/ k' _. kq ;+ }/ CU 3. 8] y  .. |. [~ 8{ b; [  f. .. W  'f ,{ o  bK Gd 9: X- 3  e, Xn  + Bd xH c  :  DU $+ '+ 8  d  EU Y, u, 9{ [: ). >  FU U1 $^ 3f 4  7     u. mq 7. Z/ L/ s_ n. 3  b; 7  *. 7. $) Y/ [~    O_ p  8{ h  h  %, GU F' 7A Qd HU IU fz _) AQ JU KU LU P' c/ MU 4Q [: m> +R ', O} f. N' 9| NU Y) OU ag PU QU .c ",
"RU SU TU UU ry Z, WE `I B_ u  Od E  @] VU WU XU d  YU ZU `U  V .V +V @V Pq <H #V $V kJ E_ Y/ 2. Y, J_ (. t. $  E. +. <. _. e_ j  p6 C{ C. Dd :{ $  Ed E_ r  d  N. ,> Y. j  :{  g y' Z- +] Z. O. p. Yo =} K  '+ |) J  B. 8  b' ]{ =x r] %V 7  Uq t.  + &, B: &V  ' h^ ~[ G{ *V =V -V ;V >V e/ Q  r' O. Y  K  1_ *] &' [~ C~ f. 1_ vw w' }/ U  M1 Nd @  ,V g3 6O 'V Od 5A 9  S^ r! B  B. p. f. l) >+ b~ |. N' 7{ Z- 9. e_ +] $) %. g  .. g  g  F, >f Z- *  >. g  e_ Y/ )> E_ [~ f. t. !) w] Y/ <. g  l) )V w  3  @] p  8. Y. .. .. Qz  + z  !V 1_ j^ u/ r  @( t< U  w' b{ r_ 'I g  }) %; Z  #  S) p! kn =} o. z' ~V f! M1 '  [{ @) =} w_ C; k: <. V  g  L) Yw FH =^ V  b{ sf    '+ T  U  |; [  3  g  NL {V ]V ^V UO /V (V _V :V <V Q< =. [V }V |V Y  2( l; 1V Z/ $) e] )> G| 2V 3V Yc 4V 8F <p 5V ",
"6V 7V 8V 9V 0V aV Tr ^s o, ,+ Rz !m n> h  I> ]> N' bV cV dV eV fV gV hV iV jV kV lV mV (| t. g  _~ a) ,  @. %. L. Gd '+ 4   + =. )> b; g  t. hn E. j  E_ 5  `. b; v, I. ,{ `. (T B. y{ 5  z  e! V  3. V/ Z. Uq '+ |; .. C. ck 0z nV *< O. *. .; w! a~ .; f! oV pV aI 3' <| qV +) G) rV {I Ye T' nR Cf N_ `' @  *. 4; F. &, >. 2. >{ .P (I sV #_  ' tV sr ;A @f uV 8/ b~ #o ,> :y X) 7{ g  |. o  5  8/ |! 8~ h  ,. _. _. Z- 5  t. .. g  2. @. w  2. $^ g  io 4> G, jn j  o  q> ). w' q! 3  ~+ %  r  8  [[  + g  v. C{ Y. m.  ~ +] wd |{ Z. p! P  j^ Y) &{ Y/ 4  7  C~ >+ '. N' ;+ n! t. c/ vV 6r ck 9. o  sf w' A~ F. 7{ =} [  P^ Z- i1 9; 3  h  L/ .}    +  Z  Q! $  j^ l) g     N' fo I_ Ed c' E1 wV :s xV yV 3I zV AV BV CV DV EV O. FV GV HV g  8N IV K  ^  !  1. 7e 0' %s Lx JV :g KV LV MV ",
"NV }t OV PV QV RV 7e i  &, ^[ B  fo (' SV %+ TV  ~ -C UV Ln cA Mq VV WV XV `r YV ZV `V  W ,I V  _> %. u/ Y  g  |. ;. $) Gd |_ 7{ 7{ 3  h  j  2. J  Z. g  7. Y/ *  Me V, b{ uf i^ 6  K  g  $) )> C| 7. %  7. E. x  .W 4  a     Hd }  }g 3. z  H. `' h) C' B) 8/ u  N' &, B_ y. W- i  7r ML t~ JA +W @W #W $W `2 %W ^[ b_ &W L~ 4P *W Pf =W 0d -W p' *. [{ a~ _. )} 0' 9; H  e] 7{ 9e r  h) y  g  8. Z- Vf a{ t  j  w  U2  + g  L. %  .. t. g  f. &' f. [~ =| g  H. =. t. f  L) U  t. Z- <. GU 3  3  i) 2. {/ :! [  #. (. g  v. C~ 1_ Wf -[ %K +] U  ,{ p! ;W t. ,} Zn 4> g  2. a! F, XA O} ;+ Z  m) 4> Y. 9. wd z/ Y/ Y. (. _> 6  ce 8. dq (. >f 8. t. L. Z. >f ', :. %; h  42 B. [~ ,} g  =  >W  B ~f xV .B ,W fP 'W (o &u )W IG !W M1 ~W {W ]W P' .| ^W @1 r' /W (W _W hA :W 9. 0T [u nF <W [W ",
"}W |W 1W 2W 3W ,. Bd C' 4W B) 7N 5W 6W 7W 8W K3 /; 9W 0W E8 .J aW bW cW dW eW fW gW ig hW iW jW #h 30 eb kW tg c5 qg lW Eg tg #0 |m Es c5 og 2h d9 Bg xg Xm c5 n5 d5 4w 2h mW wg dh 9m ih {h o9 Cg #t q5 nW zs *5 oW  0 Gg pW K9 qW rW Js sW tW `8 75 uW vW H9 q9 wW `8 :J xW ]7 nB .0 Sg yW k9 k9 zW $8 e8 Q7 s7 Wg D6 AW I6 BW CW Zg #9 )0 DW +h w9 Zg EW :J >9 FW GW 7w @Q l9 jh #a %5 Vm HW Gs q5 _9 w9 PR Ks %h z9 ~t dw Qv jh {6 %h wg %h wg m0 Im wg 8m &h %h z9 IW Cg &t `a q5 3m 7m Cg &t ]5 JW e4 }9 'S KW d9 wg LW mg Ym =t Gm q5 #0 wg }h q5 n5 o4 o4 eb n5 pb Cs d9 MW 05 =Q |h 34 X0 =a hh  6 }h Um V4 |0 >h NW e5 m0 xg )t va Xm hh 9m !h 10 9m 6m kh tg ]5 ga ug H4 Um T5 OW PW ^t QW RW SB TB z! SW gM TW bT UW VW @1 q  WW K  jt 8] a~ XW wF H[ J. Rz /B 5s #^ YW ZW `W  X .X ",
"}^ +X 1B @X #X $X @+ ef Nd aO %X &X G) $g Wn ed *X ;3 Kq +A =X hI -X eA a  ;X >X ,X aQ #i 'X )X &i *i 1i !X QJ >i {i >i >i (i Jk Dk >i Wt zl [i }i Jk ~X [i >i Jk >i {i .j Ui xt Zt <i 1i }i (i Ui Ui 1i >i #j 8i {X Et -i Ei pi fi ]X Ai ri Dt Et 9i Kj KJ Ot ki bi oi Ji Ji pi Ji Ji ri ji Kj Bt 7i qi qj Oi pi bi ji /k 7i bi ji Gt 7i du yi zi pi ei 7i pi pi ^X eQ ci Qt Kt 8C 4C %j si Ki 3C TJ /X Xi Si ci Di (i hi zt ~i |i oi Xi <i Ui }i Xi 7C 4i Ui 1i |i .j +j -i Xt .j }i Ti -i )i `K 7C 1i )i >i Zt ;i Cl Ui 'i [i >i Xi `i +j ]i Xi .j -i <i  j Yu Bl )i {i }i ]i (i >i .j }i .j <i >i 5i ]i Ki Ti Hk (i (i 2i [i -i 1i Qi Vi @j `i (X ]i zt [i !X Si .j [i |i Qt Oi ~i -i _X :X .u <X [X 's l{ -. }X 5S |X AJ 1X 2X b[ -. Kd 3X Pf r( 4X 8/ P; d! ~4 0  o, [^ F( Sp 0N Fp 5X I; ",
"6X 7X 8X >m 9X B1 0X J. 9  aX w; n< bX cX rr N' dX nH eX fI fX gX hX iX ej jX f^ kX lX mX WC VC pj Dj pj nj vi bi pj Dj xj mj .k bi Kj Wj rj Bj bi Dj qj Wj mj Dj Ej yj xj xj yj mj Cj vi yj pj xj Bj vi nj Bj Aj xj nX ,k <K oX `j Fj Tj ri Dj Wj yj Gt nu Bj Zj ri 'k Bj xj qj vi `j ri vi yj vi au pj mj OC nu Qj Sj pj Wj vi nj nj ti lj 2K pj Dj pj Bj vi Tj pX gu &k HQ .k qX Bj pu Cj KQ KQ vj wj QC rj ni mj Wj Zj 8u rj ki ri vi ji mj pu nj Tj tj xj pj lu mj nj Wj Sj vi vi oj Oj ri Dj Hj Ft Dj QC Vj It pu xj Aj Fj vi pj 3K Aj #k ,k Ej qj mj OC uj Fj `j wj xj nj vi vi vi Wj nj Aj pj Wj [k yj .k vi Cj nj qj xj Dj WC |k Zj Ej `j [k Fj nj yj pj eu pj pj rX ku pX Dj qj sX Qj 4C tX 4k y' XQ +( uX 5S iK &p vX wX xX q. 9{ yX zX >p V) 0  N0 .g n( ,{ AX }P BX CX DX EX FX GX ",
"HX %p IX !G JX 8d %; DF |) {K KX y  D! LX MX NX +) OX ^o PX Ih QX RX SX S[ TX ;R UX VX 'R WX @j :i ,i Yu ul Al Jk :i Dk Pl XX Vi Hk zl zl `i Pl :i ul Jk Dk Gk Jk @j :i +j Dl Tk Ik @j yl @j Ik Ik HD Bk YX ZX VK 6D `X  Y Wk =l .Y &v rD -v ,v +l (R hD +Y $l #l ,v !l :R yD @Y fD )v #Y lD <l $Y kD ]v rD %Y -v &Y LK *Y GK $Y GK &Y =Y ^l OK .l #l 2v xD fD JK -Y 0l nl AD BD 0l al ;Y 7v Fl >Y Gk hl ,Y 'Y al vl YX ml ol Gk Tk Ik BK Fk @j Ik pl Ok @j al vl pl ul Ik `i Ik Hk il Mk pl ql ol ql xl )i :i @j [i 6D `i Zi Fk Ok Ik &j Dk Jk Tk Pk Al Zi  j Ti <i [i ,i yl Ck Ik Dk 6D ul Gk Gk 0v ul zl Fl )Y @j ul al Pk ml nl Zi Dk Jk !Y Yi ~Y hv @j Zi Zi Nk Gk +j il LD 7v ND Pl hv {Y jv ]Y lv J) ^Y /Y (Y _Y |, iz :Y <Y Op M' v; b~ D. [Y Z- }Y [^ Z- |Y )+ V/ 'K L/ 1Y 2Y 3Y 4Y p; ",
"5Y 6Y OV <n 7Y Lb 8Y 9Y 0Y aY bY %  l, 8z I( RT cY =  dY eY fY Bz gY }L xo pG hY iY jY kY lY Ag 9m q5 54 16 9m {h 9m %h wg Mm Rv mY nY Rm oY d9 q5  6 24 Gs m0 og Bg  6 {h Pm dh 20 tg vg ih g5 ]5 g5 /E nb }5 pY 4J !b %Q qY 7h sL rY rb }E 1a sY ja .b tY Ha 3E @w km uY vY wY Ha xY gL Ha 0E yY za 3a Ga M} zY n4 AY BY CY DY EY vm )a FY qL ha &b %t =a -b GY <w wL i4 <w Zv i5 HY !b 4J /6 sg v9 e5 IY sL d9  a tE aw %h qg Lm Ym Om wg aw wL :b d9 yg JY eb 74 #6 #6 |h zs KY LW `a ,a wg 16 &> MW Wm fh g5 (6 ah 9m qg Xm sg og 4L %h 16 Im >a !h Es d9  6 Qv t9 {h vg qg xg {6 Rm Qv yg |0 n5 :4 g5 VR qg 9m 7J d5 d9 |0 9m  6 fh Um %h Vm LY mE i4 MY :b [4 6m NY J9 3h DB OY PY U4 zL QY Je {y ow +( RY {) SY TY UY !G VY [: H  yH WY AH -[ <. _. =H XY BT YY 4q eF r~ pM ZY `Y  Z .Z ",
"66 +Z @Z #Z $Z %Z &Z *Z yv 5' =Z e/ e< -Z p! q; +, D  ;Z ^q >Z ,Z |q !G 6n 'Z @F )Z !Z RA N' u  Z- J  5  E_ C~ O. Z. )) F, .. ,{ 4  V  jn J  $) f  |. C{ .. o  Z. v. t. g  f. xS $) t  z/ Y/ Y. $  E. l) q! L' ): V' =| [[ p~ p~ Xf p  >. sf u  .] v| V  ;. y( _> 2/ :  p. fo .. ~Z 1_ [{ J  g  <. w  E. $) Y. '+ {Z +. 5  w_ g  [  )> )) b; N' 9. F. :! w{ .. f. .. h) Nb Af `o '  in 7{ .. -. 7  p  Bd 8/ '+ 42 8  3  '. &, L/ g  |. Z. =} 9.  + zH 2. ,> 7{ J  t  C~ %  |. }/ j  .. U  O! K. ,. g  do V  Jx z. J  B. B. @. 7{ @. 4  w' U  e_ ,{ 7. t  K  8. 8. $) 1/ 9. Z. z  E  O.    g  9. +. -( O! >. K  H. |_ _> i_  ~ 'f |. Z. .. 4  &' 2M q> Y. 8. t. [1 %. @g t. 2. ,. t3 O. 4! e' .. AS ]Z ^Z /Z (Z qn _Z :Z <Z [Z `z On V] }Z }/ dI #; /' X. |Z 7  '^ 1Z 2Z C, v> ,} 3Z 4Z 5Z [L 6Z ",
"7Z 8Z 9Z yT 0Z aZ 2( 1: bZ cZ @+ ze d! P[ pS w] f  *> dZ eZ %L fZ UE 3x gZ hZ iZ jZ 1M ). 8. |. c' N' I_ w  T  C. g  '. Z- B. w' +. 4  &' B. B. @. 7O g  .. f. w' 5  f. Z. Z- .. O_ *  u  u  Y. )> p! >. 8j c' T~ &  )4 K. Xn h  [e p  sf ;  >. r_ 4  B_ w' w' Zn }) 7{ f  [1 )} C{ b; 2. t. o  <. WF H. h  z/ C~ _. u{ ;< O0 K  :  T~ Fh E, :. :. &' _. b~ w  C{ H. C{ `[ x. O0 ;  n< Z- t. _. I~ Y. _. @. q> o  3  }e 8~ v  n< 5  $) b; Z. y  4  '+ Y/ 4  q> G        t. Z. w  t. 2. |! )} ZB K  u/ N' 8  =. -( C{ f  o  w{ [[ 9{ b; .. gn b{ 5  kZ Zn e_ C~ #s B. %  .. i  g  H. J  O. i1 u  J  yf '+ L. 1/ 9. |_ J  >( +] C[ 8. h  @. g  y  g  .. vd +. @. Z. 3  [< Y/ N' nq w! ,> C; >. f, y( y0 lZ mZ 5M nZ oZ pZ {Q qZ rZ sZ tZ 0>    s) Wn |f vd uZ }I vZ wZ F! x. u  8g )x vT xZ yZ %r ",
",> zZ AZ BZ CZ DZ EZ FZ 4' GZ HZ    -. B  n{ ,+ M~ B{ ]q IZ JZ KZ tk LZ MZ NZ OZ PZ ,  t. .. t. +M 4! c  &' H. 'f .r 8. w  3  Z. C. 3f O. g  y  >. g  X[ .. w  .. g  g  t. f.  ~ g  Y/ g  .. f. =} j  [  2. q' u/ a; S} s) p! C0 t. sf v. O. =. %. *  _. O. w  F: O. c] d; 8. r' 3  L; Y) [  _> y  .. @. h. M. t  M. >+    Y. C[ Z. e  wr '> R> y) O_ 7! o  w{ Z- z/ t. U  4' c; x  <. G, H. ,{ 4' '+ @) w{ .} 4'  + hn  g Y/ +.    y  Z. h  t. w  'f $+ [  3  H.  ~ _. 7{ .. t. t. g  Z. w_ ;+ M. 2. E. b; 5  Z- t. E, )4 %  ;  B. C. t. p  ,{ F, v, T) v. &' n] ,. }/ Z- 4  Z/ ,, v. 9. gF C| h! w) b{ 8  C~ +. w' T     sf 5  )} t  C. t. >. f. @. d^ .. g  f. o  U  @o 3. J  9. 7{ q> b{ d; .} g  XF QZ RZ SZ TZ UZ aH VZ WZ <o XZ Z/ A/ p( YZ p. @) U  ZZ `Z <<  ` .`  ; o! +` @` `B #` $` ",
",] %` &` *p 8M *` !) B/ =` -` b| ;` [: K. *> W, KA ~^ >` ,` '` )` !` ~` {` ]` FT Dd H. Y/ Z. 4  7{ }/ ;W i^ Y. }/ j  %  F, B. N' ax g  l) 9. C~ f. g     |. C{ t. Z. f. Z. f. t. f. 2. t. )V 2. u. Z. c' E' =} Me q< c' %  ^` Y) h  2. )> C{ o  @. j  h. .. %  7{ Zw e] [~ '+ t  9. .} ;+ m] $  z/ C{ w' g  2. $) 8  9. b~ v, H. b{ t. V' )} f  X- _> ~^ j  Z- 7{ #s ). e! ,. 3t <! o  f. v. s  Z- B  C; U1 )) F. :j p' zH 5  7{ f. @. '. wd .. B. U  i1 .r z/ j  tf t  Z- d; @g B  f. %. .. K  u/ 8j &' jx 8. B~ W  'f 8. $  N'  ~ '+ h) '. gn l) w     %. @o $) X3 v, Z/ 7  =. H. [  P^    [! Q{ Z- I( 9. )> +]    )> t. o  '+ =} Z. *  i  @] t. gn K  g  Z. t. E  Nd x. j  42 w  o  %  g  4  q! @. K  /` (` {y _` :` .K <` [` Ee /  }` |` 1` 2` &3 4^ {: 3` 4` @1 L. ]; 5` cq 6` 9t 7` 8` uR ",
"9` ,1 7d 0` a` t3 Z- XZ b` Z  c` i! d` $) [F Lo o, sT e` f` g` h` i` j` k` 0c 8p ep 0p _d 6c }d ap ^d l` 9p nc ^d _d ep ^d }d 9p 7p _d 6c ep 7p 8p 0p ^d 7p ep 5p ap }d 8p nc _d _d ap 0p 7p _d }d 6c 6c Ty 8p 7p _d }d ^d _d dp jp Dc ^d _d _d ap }d 0p Dc 7p ap 6c 8p fp ip 8p 4p 9p ap 8p 7p 0p 7p 7p rp bp ep jy ep }d 9p 9p 0p vc ep _d kp 9p 9p _d }d 9p 7p 8p 8p 7p 6p pp 0p _d }d 0p 3c 7p 8p nc 8p ep pp !d 7p 0p ^d _d ^d }d 8p }d }d }d 0p ^d 5p ap 8p 6c 0p }d 7p _d Dc 9p vc 6c jp ep 6c !d 9p _d ^d Dc 7p pp 7p _d _d ap 7p 7p vc pp }d _d ^d <d }d 0p gp 0p 7p 8p 7p ap }d 8p Dc }d $q 6c 7p 0p _d 6c 0p 6c 9p 5p 8p pp _d _d 7p _d 0p 8p 8p ap _d ep ep op jp bp 5p 0p 7p }d 6c ep 0p lp }d Kc <N ;U m` n` o` p` q` r` s` *H A  R; t` u` v` w` (x vR .g x` 6z b. y` :g z` GG A` ",
"B` C` D` E` F` b{ G` U[ }) [: H` I` J` K) K` $2 4| L` M` 8Q N` O` P` Q` R` S` T` ^d sp 6c ip 7p 0p dp ^d ^d ap 5p vc 7p !d dp ep ^d }d 0p 5p Dc sp nc ep 7p 5p ^d 7p 0p 5p 6c pp 6c _d 9p 0p 5p ep _d Dc 0p jp 6U }d 6c 7p 4p _d }d 8p 8p ip 5p jp 7p _d ap 0p 4p _d jp Dc pp Dc rp ^d dp dp vc jy ^d ep fp lp rp 8p 8p ip kp ep 0p vc 9p kp 0p _d dp 6p vG 7p 7p ep pp }d 0p 7p 8p Dc _d }d +q _d dp 0p ^d }d 7p ^d 7p 0p _d 5p 7p 8p bp ap 7p ^d }d jp kp ^d 7p pp _d 7p 7p }d ^d 0p _d }d Dc jp vc }d 0p ep 9p }d }d }d 9p Gc Dc 6p 8p <d dp 5p 0p 8p vG 8p ap 0p ep kp 7p }d }d }d ep dp 6c bp Uy op !d ^d ^d 5p op jp _d _d 7p 7p ip 5p 7p nc 7p ^d 6c _d }d jp 5p 0p ^d jp }d _d 7p 5p 8p 3c 7p _d }d U` V` W` X` Y` ^B Z` ``   .w~ %r KG !, Tr x; C] . .+ .@ .pr Bu '+ 4. # .$ .% .& .* .",
"= .- .; .> ., .' .) .<< T1 _. t. *( ! .%1 p^ G1 ~ .[| { .=z sn nt ] .^ ./ .hW @x td t. E_ $  p. )> ]  bK *D 9: u  |_ gn +] Zn &  4> o  C0 O_ N' g  [[ =| 1< E. .> Y  Hx z; e, .. Z- T  g  w  T  ;. *  C{ g  3  t. Z. 2. jx ,, 4, ,{ !) C8 .. |) M~ X| o> f~ %f [e w_ v~ C  M. x. !q ^; [e Cd ;+ Z. U  L/ Z) C{ '+ ( .@. Z. >. M' )> |< >. 8{ v] t. 7! B_ =. +  _ .@f x) M. x  <! u. S} h  'f e_ b{ >. :  )) 1H 4  U  3  j^ Y. .. g  g  .. .. E. .. U  Z. w     4  3     ,. hn }e _> Y  : .2Z o  1/ (g _< u  h  ce Z. f. _> vd u. Z- < .8{ $; @o i  42 [ .C; Bd y/ X. $  0z $+ a{ +] d  ]{ #  it wd } .[{ Ad FU I. E  7  B. B     '+ a  7. f  o  xf %+ hn O! ,+ *. J  2. Y/ [~ 4  %. g  |e *  *  T] P^ 71 | .1 .8H 2 .3 .4 .5 .6 .7 .8 .uw [! d  8] 9 .0 .a .b .c .d .e .U1 ^. f .g .h .i .lP j .",
"k .dA l .m .n .o .[  x_ p .Af K  8. q .K3 r .RI e! s .t .u .v .w .=M x .y .z .Fz  W A .|; Y/ wd Y) [. e_ C. 6< E. 9. }/ _. (. 3  C1 Z. g  @o e  }e Y. +. :. d  Y. C  hn E. #  p! y' .. Y. g  O. s. ;. =} 9. 2M @  7. '+ 8  9: =x s) e# Q  [{ n( Z. v  x. B .Tf u) 6O ae :j C .wk D .E .%F g{ =. &' a{ |f i1 $) Q{  ( ]  t. 9{ $) V' &' u  _. x. x) F .Nz ={ 6O G .L) #o H .$  p. x. '+ )4 t. K  _. b~ $+ %. :} sf |; F  hn v. )> g  .. @. g  z/ %, g  8. >. Me [~ '> z  K  H  wd t. ). w] 8  =| g  Z- +. w  |. j  $) 3  _> .. f. << %) r_ q, t  Q8 #  :  N. 9; 7{ w' G  8: ;x f. I_ V( Z  #. x< $; _. w{ a! u{ x~ *. w_ 0x 8j a~ O. &, b~ k: hn +. .. &, I .J .!^ d; F. <. >+ O. 7. 7{ w  42 3  f. -r K .>r L .M .N .O .P .Q .R .S .T .U .@o E~ k. ^T yC V .,u  D W .u} i6 X .Y .Z .)L 2} _M zX ",
"F) ` .yG  .....Y, CR <F $) s! F: F  }  +..@..u} )}    ;B #..$..%..&..*..=..CO -I -..;..z0 H. z/ c  >..@o @. [e h  <. w' O. e! =. $) b; f. t. <. *  E. E_ g  8: E. C; I. &' M) L' 2M b  5  $) 7{ bo 3. )> wd ,..   hF 9. Z. V' m< '..,/ =} sr f! F. :! Nd @+ %_ {: )..K) T2 /r -r A .=2 !..0  ^^ ~..&) U1 =[ t] Zw P  =. L) g  )> :A KA (I qr b| Vq 3A {. %s m  =[ a' H[ CN b~ Y) || w  2. h. |; C.  + _. p! ;. _. kn _. F     5  .. >. g  Z. o  g  7. f. 3  cn y  -( E. w  .o !) T  ,+ Ed xH 8. 6< Y/ [[ u{ .. p! f. _> $  f. *  Z. D{ g  p! 4; 4r C1 ,e 8  B. w_ @. w{ >+ 7. a; +' Z. w> u, [I M' w  K  7!  ( A~ F. ,. 4  [  d^ o  w  [: %  h  K  f. ,  X- Z  /' 4> j^ F, Gx B. `. fo }) 3  `. 3u {V {..TO ]..^../..,g (.._..:../y '{ <..[..}..|..1..2..f> .2  ) C. 3..4../. {; qe F0 Xl 5..z| ",
"bt 6..^m 7..8..9..0..!; a..CT 8/ 4  G  3  v! hq b..T] c..d..e..f..rw g..mf yA of h..i..wI j..Z- _> N' h  _> >. 8. [1 g  u  u  w{ _. 7O E. E. [e J  Z. >. ,{ i  =| '{ U  b{ Od W- cP  r    $) 2. w_ )> [1 &' k..A. 5  B. +| g  M' L' uv l..Z/ R  `' h) @+ c] ,> _> c' 0x 4' B) f  3  1: ML I! 2{ }~ m..y2 n..If 2P o..>s p..q..r..Of s..t..u..D2 x~ Nd s| lO v..r' v) u{ i: w.._. Wn $  =. t. @. Y/ E_ fn w. $) [1 w  F: in C{ u/ j  g  Z. >. 5  ,{ 4  -. 7! $) 7. C| g  ;W [{ _. t. +. |_ =| 3  3  8^ $) B .EI j  s. (. C. Z. Z. )> H[ s' )4 8  _. 7. x..N' .. l. A. E, p  $) a! +. P! O} }e y..v; E, i  y  .. g  %  <. (. Y. wf L. *  U2 v] r  +] t  [1 C{ >f yr R> L; *  m] '+ *' 4; g  D! z..A..B..=g C..D..E..F..jf G..gx ]x H..,u Z' ;' f. I..^M fo =| K> J..@+ ux v} !) q, K..L..M..Ow N..",
"B| 2t O..R .Ru P..0  p_ &6 97 Q..R..S..T..B  [~ &4 J/ U..V..W..Tp +z X..gA Y..Z..`..|z  +.iW .+.#h kh d5 vg q5 Xm wg ]S )5 c5 ug As pg d9 q5 o9 ug Cg xg As 9m Lm d5 Ym 10 !h wg J9 wg og j9 #0 vg 6m c5 Ag jE #0 {S ++.@+.60 K9 Jg #+.xW q9 29 L4 PP Ng lB $+.%+.&+.70 Y9 _0 Os G9 ;7 ;7 *+.k9 =+.)J _` -+.B6 ;+.E7 >+.,+.;8 {J '+.Ps !9 Rg Zs Mg {9 =6 )+.K4 >9 )+.!+.)t @Q ]7 rg >a *h $t  h %h ug %+.70 Vm AB %h nY }4 dw Qv #0 {6 Cg  6 jh }h %h &t %h ;h &h QR zB f4 |m sg ~+.%h {+.qg Cg 24 =Q SR _h T4 /6 a4 ga o0 dh Lm Xm ]+.)h ng 2h Gs  6 [h :b ^+._w Em d9 5h >a m0 }J IP MY ca /+.#6 (E pb -h Ag As 35 =Q Cg )h /9 10 qg bh ~0 Xm _h 2w %h Pm 9m  6 tg ca :4 ug d9 (+._+.^0 :+.<+.PB [+.}+.|+.bJ 1+.2+.3+.4+.5+.Qw =e v_ T  6+.7+.8+.9+.0+.<v a+.q5 b+.<. x  $  4> c+.d+.e+.f+.R: ",
"gN vO g+.2W )G ,M h+.i+.j+.k+.l+.m+.n+.o+.@n ]  {. j' p+.q+.r+.s+.!D t+.a~ u+.v+.vs DJ w+.'X dQ Qi ~i ]i Vt [i (i Jk {i ,i 4i 2i  j `i zl ]i (i Ui ,i <i ]i )i `i Cl >i )i 1i {i Xi Ek x+.|i Ri Ki 1i 4i [i Oi <C ei di si pi y+.li z+.pi KJ <C oi di pi hi A+.Jt pi si ji bi si Mt gi wi ji Wj qj Ai Ji Bt A+.Ai (k Bt ri Bt Gt 0i 7i Gt xi Fi 8u nu ji hi Gt ji B+.C+.D+.6C |C E+.6i gi oi Pi &i 2i F+.hi Fi ci Xi 'i Di &i >i ]i [i [i [i Ui (i Pi Xi )i [i oi 1i (i {i Ni Qi ]i 1i [i )i -i  j Xi ]i Cl Yi <i Jk Vt )i xt Ki *i zt  j zl >i Zt Ui ]i Jk zt Fk ,i >i .j Qt zl (i #j Ek YC {i Yi }i zl .j 1i G+.Xi fQ {i Ri Xi si -i ~i Rt `i {i Wt |i #j Ui (i Yi (i }i Ui *j Xi hi Ui H+.hQ aC bC I+.J+.w, [[ K+.L+.aH M+.N+.ft t< sr u, _' O+.P+.Q+.R+.S+.T+.U+.C< V+./L W+.X+.Y+.(o My _W ",
"F> 2y Z+.`+. @..@.+@.@@.X; #@.$@.%@.&@.!! *@.=@.hd @; UZ -@.;@.>@.,@.UU 3u '@.G! )@.!@.wt WC 8u tj Cj mj pj bi nj mj Ft bi tj 'k vi rj nj vi xj Bj mj pj vi Cj Dj mj yj fi yj ~@.4K xi pj yj vi yj Aj rj ki yj Jt Nj Jj Nj {@.]@.~@.0u wi pj Dj ki yj bi 1k pj Vj qj Cj Aj Qj Dj bi xj mj pj 1k xj >k vi ri 'k wj nu wi bi vi bu bi Fj Tj Tj vj Sj Sj pj (K Jt .k ^@.:K {k iu Rj @k vi }k qj su su Yj vi Qj `j Ht wi nj uj Zj vi Bj Dj Fj Yj /k pu bi Ht vi pj oj au ri bi rj mj Ij xj mj ri au ri nj lj pj pu Tj ri (k xj nj Cj Bj mj lu oj ^k wj Fj Vj tj .k 3K tj wj {k fi pj Bj tj Wj eu Fj ki Jt Aj QC eu vj vi vi Fj Wj Aj Tj 3K :K du Sj }k {@.vi nj xj ki Cj Bj pj rX wj su .k ki &k At =j /@.(@.B) XQ Z~ _@.:@.n` <@.[@.`l 0' e< }@.|@.1@.#@.2@.3@.4@.^~ 5@.6@.7@.ce 6Z 8@.9@.UB 0@.r{ ",
"~{ %x a@.JN b@.c@.d@.Z~ e@.f@.g@.h@.i@.j@.j. k@.l@.X) m@.jU [T n@.|q [` qT nS o@.2D p@.q@.r@.Dl @j :i Bk :i <i .L yl  j @j Xt Vi `i ul 6D +j ul sl Ik  j Dk @j Cl @j `i +j sl Nk Zi @j @j yl Ik ul Dl Ck jl s@.t@.ev ev  Y @v =l .Y lD hD *v *v +l OK hD u@.&v wD .l {v _R $v ]l 'v &v eD tD ~v $Y v@.4R mD w@.FK ;) >v Zk }l [l $Y x@.{v 1v OK PK QK y@.z@.,l QK A@.YX B@.bl dD C@.Ik el D@.9v DD Tk Pl `u 3v vl E@.jl jl nl Mk pl pl GD Gk Gk @j il Zi Gk Zi  v rl yl Il Gk Zi @j ul Ik GD al yl  j wl >i :i :i :i +j @j Gk Fk Gk ol +j Hk <i Zi Tk Gk Gk Dk Yu `K Ui :i @j @j Dk Fk ul Cl @j @j Ik ND hv F@.DD `u @j nl Ik vl ml Al Jk  j Fk *i Pl Ll Al Bk Tk al :i Ik Pl fl DD G@.Nk Pl H@.I@.J@.K@.z_ L@.)+ M@.mN N@.O@.P@.Q@.2. ;Z R@.0~ S@.T@..{ U@.V@.W@.W- X@.Y@.c' Z@.`@.`U  #..#.9] ",
"+#.@#.##.Fn ss $#.[X %#.&#.*#.=#.-#.y* ;#.>#.,#.'#.w> KV E8 )#.!#.BZ ~#.{#.]#.^#./#.(#._#.:#.<#.9m c5 OR ih g5 vg og %h  6  a Zm w9 z9 Bg *Q q5 vg o0 &t [#. 6 qg ^h %h vg }#.9m 9m 20 9m mg g5 20 dh |#.0h Xv 1#.2#.3#.am qY 7J .w 4#.5#.6#.Qa Ja -b VR #S Ga 7#.im  S qY 8#.Pa Z0 9#.8E 2b pm vb fL km 0E 0#.(b `a j5 a#.b#.{b p3 c#.pL d#.Wa -5 e#.`a @a j5 #b JY /6 Am <w ;a f#.>S NY d5 FB /9 ^0 a5 g#.>t og eb zs )5 wg ih [h &h 16 mg pg ~0 7h Pm pg h#.5h 74 i#.#6 ca aw _w JP {a j#.#t yg Xm {6 t9 7w og 1J ah c5 xg Xm )5 jh Es %h pg &> >a m0 &t d9 %h e5 t9 xg %h xg %h j9 k5 Tm )5 aB Fm Ym |0 {a 0B qg _S eb mg dh og %h yg Rv }h }4 k#.ng Km Jm g5 &> mg 7h |0 |#.As l#.9w Km m#.lw mw n#.o#.JT p#.q#.CE r#.s#.t#.u#.v#.w#.x#.y#.&#.z#.A#.B#.L] C#.D#.iV `z E#.F#.Oo G#.H#.I#.J#.",
"K#.L#.M#.eA N#.O#.P#.Q#.R#.S#.L3 T#.U#.V#.W#.X#.Y#.Z#.`#.+A AV  $..$.g..+$.@$.#$.Uw S0 J+.O_ _> o  ,  @. E_ 2. &' y   ( 9. o  w'    U  w_ w. 2. f  *  f. +. i1    C{ g  g  .. xS $) H. Z. Y/ u  E, 8. F, [{ w> @' yd 8. L/ q< N2 7{ p  v. sf 7! C{ q> L/ h  p! CU t< 4> }e A. t. bn 1_ n] 7. p  _> o  E. f. +]    p^ +. g  w_ r' Yo [e ,{ ;. V/ o  fn {/ $$.9{ g  t. q> /; %$..; 7  _. _. 5  [~ C| 2. C[ 8/    h  8. 8. ,{ C| Z- f. Z. Z. '+ V  u{ [! 2. ,. d; J  %. C~ %  C0 Y. %  wd U  T~ M) jo z/ Xn |! Q  z. ,  '+ 4  Z. +. C~    O. 7{ 9; B. ,  t  o  %  Y/ 2. f. o  .. %. 7. w' H. Z. o  F  4  $; [e M. @. Y. u  c'    u  j  '{ 9. a{ B. O. fn Y. +] g  b; p  F, z/ H. _. B .w. :  P) 2. AS &$.*$.on @x qn qk =$.-$.;$.bf >$._B ,$.'$.)$.!$.~$.{$.]$.^$./$.($._$.:$.s, F( dC <$.[$.}$.gG ",
"Qo |$.1$.1t 2$.3$.4$.5$.6$.7$.8$.9$.0$.a$.b$.c$.+y iq d$.fM e$.f$.8S g$.h$.i$.cF j$.k$.[{ 8. *  c' H. s_ E_ w. t. >. 4  9{ B. 4  +. E< 8j H. w. C{ |. Z. H. g  4  5  z/ C{ +. g  ;W %  Y. Y. <. z  V' z/ #s c' Wn yr s. N' |/ s  %. g  sf  r g  c' H. 4' '+ 7. A. I_ _. K. j  >( g  @] z  4  +. _> .} t  h  Z. @. w{ ,> '+ J  Z- :. ck h  4> 4> $  &' 7{ H[ ,. p  v. Z. w; 7  J  A) n< .. g  U  Ad |e >+ t. t, w  r2 r  ck C; [: t. '{ X[ Z. Z- &' w' i  H. o> w! >+ O. t. 9{ K  t.    V  8j C1 K  42 jx j  =. 7{ $) f  o  4  Z- g  h  @. u  q> 4  #s E, F  t. w'    h  Z. j  2. )> ,{ >+ gF u  &' IT B. |. f. [[ <. 7. y) <. a! *  h  .. g  g  wd .. K  +. g  Z. %  $  3  p  E' F. `[ ,. $) Y) $, l$.m$.n$.o$.p$.q$.r$.s$.t$.;H u$.!B v$.w$.'_ x$.y$.z$.r) =: A$.B$.C$.D$.ek Me E$.F$.G$.i` I; ",
"O, H$.I$.nQ J$.K$.L$.M$.N$.Y< O$.P$.Q$.R$.S$.T$.U$.V$.BC W$.X$.Y$.dg Z$.8o Dx `$.ao y) Z. Z- 1/ 1G  %.c  &' ,{ +] M. 3  K  |. C{ '+ x. w' Z. y  g  .} [e @. V  +. |< g  5  f.    f. @] Z. +. Z. >+ E. ]s p  %. R> p. N2 s) 9: C0 f. +] $) &' =. t  E. _. E  v  t< O. *. _. 8. g  3  6{ Y, m] |e K  t. r2 j  i  t  C{ 5  w' Y. a! Z. Y) a) io s. +  f  Ed K  w  Z- t. Z. U  4' b[  %.sf o  $) nq  c ,. Ad _.  ( k) H  Ed v. Y/ |; H. @. y  ;. f. K  w  j  h. |. 4  t. U  d; g  E_    2. t. w_ s. %     ;. L. t. Z- 5  [< }e %  m~ '. 4  g  2.    @. i1 r  $) )) !) d; u  F, 4  N' p! 2. o  e_ w_ :A aI F. 8  Z. 9{ 4  T     _> _. J  2. t. C{ Z. f. o  d^ |. t. @. +. |! y) hq $^ 9. U  F. v| ,. 2. z/ .%.QZ Ox +%.@%.tR #%.$%.&x GE e. %%.&%.*%.=%.-%.;%.>%.,%.R$.'%.)%.!%.6O C| e+.~%.{%.]%.8r ",
">P Ax ^%./%.lK (%._%.:%.<%.[%.}%.|%.1%.aJ u/ 2%.3%.4%.5%.6%.zO (n 7%.8%.9%.0%.FT ,  z/ 3  9{ '+ >+ |e f  `. 'f |_ 8. 3  V     f  %. .. )V V  Z. @g Z. ,{ Y/ '{ g  .. 2. t. @. t. f. $) @. o  g  H. .. f  BU ,{ g  u, Z/ b; 7W 6{ L. g  p  f. o  +. X[ Y/ Z- E_ -( Nd w! (.    %. vd g  Y) [  4> g  Z. 4  +. %. C{ 8  Z- 8/ o  B. h) g  ,, &' q' ,  _> Y. j  Z- ,. &' [{ d; b~ <! <! K  g  H. h  y  7  |; e] '+ B_ 3e s, e# t. |! Z. Z. O. C{ g     >+ F  j  1_ tf Z. $) l) in g  B  f. $) [[ Z- L. )) ,  %. 8. fo 8{ Ed %  S^ %. w' 4  t, &' u  Z- 5  4  p  @o H. A) K  N' x. v| p  y( *  1/ q( 8e F, 7/ y  %. 3      ~ 5  +. 4  u. f. 8  3  +] >. _> w  Z. Z. t. H. Zw n] |. E. w  Z- 3  t.    1^ .. (. a%.b%.c%.d%.e%.f%.yG g%.h%.i%.j%.k%.l%.m%.n%.}%.o%.g} p%.p. q%.= .1< 4A r%.s%.t%.[g u%.",
"#o v%.ro w%.Fy x%.y%.z%.=. A%.B%.C%./| !B D%.E%.H| F%.G%.H%.I%.7f 0@.J%.k` cc Dc Dc jp }d K%.3c ^d 7p jp }d _d 7p 4p _d Dc 8p 0p 5p ep 7p 5p 7p 7p }d 7p 7p ap lp ep }d 7p }d 8p 8p 6c 6c 8p 0p 6c ep 5p 4p 7p jp 9p 6c 0p up #q 9p [d _d 8p _d kp _d 4p ^d 5p ep 0p Uy 6p Yp 7p L%.6p 9p 9p }d 7p jp kp 0p kp jp 6p jp jp _d _d 0p 7p 7p ^d sp _d 9p 8p }d }d  q 0p }d pp rp rp 7p ^d 0p kp 6c 5p 4p 0p pp @q 9p _d 9p 0p fp jp 6p 0p jp vc :c jy Ry 3c ap 8p 7p }d op 6c pp 7p @q 0p ~d ^d 7p ^d l` nc qp pp }d Dc vG 6c 8p nc 8p 9p M%._N 0p :c vc ap bp #q 7p 7p 8p jp 6c 7p }d _d 8p ep 6c 9p Cc op }d vG ep kp ^d 7p nc Dc ^d ap 8p 7p 8p ap lp 7p }d 7p 7p Dc 8p 0p 8p ep 7p 6p 9p }d _d @q bp }d vG +q N%.;U xT O%.P%.Q%._) R%.=C S%.~| Vf A%.T%.U%.V%.^O W%.X%.P. Y%.Z%.`%. &..&.]q +&.",
"D> @&.#&.$&.!z =  %&.&&.*&.=&.-&.;&.U3 o2 >&.>p Jz :A ,&.'&.)&.!&.~&.{&.]&.VG rp vc rp }d 6c 0p 0p ep ^d ^d 5p 6c pp ^d Dc 0p }d 0p 0p 0p ap 8p ep 7p _d }d _d _d 7p 7p 7p }d 7p }d fp 6c 7p 7p rN Dc 8p rp _d 7p }d Dc 5p ip 7p 6c vp 8p 5p 0p 8p Sy fp _d 9p jp ^d 6c 8p 0p ep fp rp Dc ep 7p 0p 0p 7p 8p op _d jp sp 0p jy _d jp jy 3c 0p 9p kp 8p rp pp vp 8p ^d jy 5p 9p 6p _d ep }d ^d _N ap ep 7p gy ap 4p ap _d 0p 6c _d _d ep 8p ep 0p _d 7p dp 8p !d 0p 9p 6c 7p dp 6c ap 7p nc ep ep }d 7p op ep ;c kp @q }d 0p 0p 7p _d 6c vc }d 5p kp fp 7p 6c 0p jp ^d ^d dp 7p nc _d 8p }d _d }d ep tp 0p @q 7p $q nc 8p 7p 7p kp _d 0p np !d 7p }d dp ^d _d }d pp dp 6c 0p ^d sp Dc op Dc _d jp pp 0p 7p uc ^&.V` /&.(&._&..R :&.<&.[&.L  N; }&.|&.1&.2&.3&.4&.5&.6&.7&.4q 8&.P8 9&.0&.a&.b&.c&.",
"d&.e&.f&.g&.h&.H_ i&.Dv f@ j&.k&.l&.m&.n&.c  ce 8e -r o&.'O p&.q&.r&.UN ig s&.t&.P, C. *  $  r  >. K  bK $+ V' _> Y. _> _> r  &  4! w  i  K. `. g  o  h. f, *  Mb Y  4> i) ,, Z- 9. J  f. [[ 7. ;. '> g  .} 3  5  g  %. r_ p! $+ @o ). '+ 2. Md [{ w..U1 a~ w! '+ B  Ad V, o  7  u&.VA $) t. r  C{ U  i1 fo 8. 4  `' @. y  g  $, B. p  g  _> [~ Z. Y/ I. G  Dd $m m  y' 3  Z) bo 4  s> ce F, m~ q> Z. )4 B. ,+ 4  _. =| _~ 3  f. g  Z. g  g  E. >. @. g  Z- O. H. 8. '+ _. Y. r  u  }/ D0 8] +. f. @] (. |_ s  h  Z. t. _> u  '+ Z- '4 Y. 8~ O0 *  $+ B) 8/ [~ x_ k: $  'u O! &' hn %; O! #  j. g  p[ M~ @) r> 4' J  7  '+ n] B.    %F J  N' 9. a! V- 3  $+ [{ do J  H. 8. 9;    O_ 5  |e X[ E. $  3  71 v&.w&.x&.y&.z&.A&.B&.C&.cj !! Z. *E $  D&.E&.F&.G&.H&.I&.J&.kq K&.L&.M&.N&.O&.P&.^o Q&.",
"Or R&.S&.T&.U&.y{ 7. Y/ x  $  V&.W&.tf  ) 1Z (B B8 5/ X&.Y&.fY w .rP Oq Z&.0q `&.ow U. |; Y/ >. Y)  *.[[ C~ E2 h  K  Y. _. -. 8. !> Z. g  @o Y) p. }/ F  }e <> 8{ !m hn [  Y) 9: Zw 9. sf z/ 4  }e Yo a{ 9. 4  }! E  >+ S^ 9: O! s) |)  c 7  :A @. b~ 7  p^ D, Re M! f{ .*.+*.@*.4O #*.b: g{ &, )} 5  $*.co Z/ q, B. v] .} C{ t  p! ,{ _> U  x. J. |) 0{ I! `) 9] nq `[ Y  4> p. x. a{ s. g  Z- _. v  j  %. 7{ L/ o  Z- +] >. g  g  f. y  5  g  %*.t. ;. H. 2. [~ 3  p  w  &*.2. 9{ (2 +) 8  Gd t. o  F, K  ;. ;. 2. 7O u  p  9{ << b~ `. e# %. +g Y) r  c; [: U  t. &, q' *< t. I_ <> f, C1 1| 8~ 7{    @( #o **.~. x. L) [{ ^; O. jn v  A. 8{ o  2. B  ;3 =*.@+ vr w_ d^       T  |! o  }e (g .} de -*.;*.>*.,*.'*.)*.!*.~*.{*.nA t^ ;. id r_ U  G{ o_ ,{ m; ]*.F   T B{ yr lJ ^*.e+./*.Yc (*.",
"P- _*.#&.=~ :*.'. ,> <*.[*.J[ t) T~ }*.c  @. w; xX @; |*.mP 1*.ik 2*.3*.]P 4*.5*.6*.7*.z0 >. f. 4r 6  H. f. %. Yo 8*.'+    v  =.  ~ [  2. g  Y. E. '{ l) t. 8: '{ ,> I. jn M) L' u. b  Z. %. U  7{ u, E  9{ ]o 4  o  9. t. $+ e  }g 'I O. B) @+ =. :! 1^ =^ r1 :I A8 K) hr H! Ue OH fN 9*.f{ 0*.a*.b*.XM h^ }! Zw _~ =. 7  Z.  ~ `e `2 c*.d*.8| nr u~ *. e*.`) u) v  b~ #o u{ C1 Wn _. .} [  F, 1/ Af V  p! L. U  w{ vr &*.g  g  .. g  g  .. Z- wd w' M. 8  :. L/ O. L. K  A~ ). ,{ M~ Y/ |1 8. }e Ed e_ f*... v. C{ Y. 4> f. Y/ f. g*.g  p! I  h*.Y) i*.*f B. w_ t. e! 5  f  ;+ n! f. ~( c' s) p! o  9. sf H. M1 fn 7{ 4  *  =| @g 9. n< %  E. K  z/ w' ,  f, j*.4> P. K  1/ w' f  X. k*.8  8: ef l*.m*.n*.yV o*.p*.(f q*.r*.SL s*.Rh 8/ f  t*.x> p! p[ u*.n, v*.H1 $) @. _> X- r+.w*.U..x*.y*.",
"S' z*.N+.t+.A*. *.|e .^ .p yr B*.m] 3/ m! ~+ C*.-. D*.E*.F*.G*.H*.[Z Yr Zr yA vI ZV I*.J*.z0 F, }/ O_ *  Gd 1/ %  *  )y _> <. d; _. 8. E. E. g  T  .. g  7. *f 8. E. ,. =. :P p~ W. Wf t. 2. %. 7  ,{ *  T  %  x  t. u. b: .] vw `] uv g! K. H. `' _F f! Nd i: |e r_ 7  (^ sr 8: %  K*.L*.M*.2{ R^ N*.D .O*.P*.PA f] b_ q3 Q*.ye R*.S*.T*.U*.V*.x~ *. [{ b: V, 8j EI `[ %) .' 7{ fF r  b{ 4  tf GU i1 h) 4  v. j  _. n< in g  h. %  f. g  g  Z.  ~ g  (. W  2. %. =.    r_ jn |! @. i1 Gd -x |. 8. d  $) +| .+ lq R> (. t. $) @. p  v, U2 ;+ j  5  H. O! `. WM .g Zn $  +M g  a! |; Q{ 3. p. |n m) :. Y. Z- g  5  sf /W -. |e d. j  3  p[ (. E, 8. t  s  f. r  d. 4! 8^ h  j  C. [~ l. +o n( z..W*.X*.xV .B Y*.[s Z*.`*.MH  =.hz .=.Z1 (A Tr +=.@=.#=.$=.). %=.d} >G $2 !< &=.(T *=.Ao 'F JV ==.",
"-=.;=.qy :&.>=.,=.s. 6e G) 7  '=.)=.U1 <> j; L  @  g| 1*.*N r^ !=.~=.sz {=.]=.CP z .^=./=.(=._=.&> xg fa kh lh 9m 20 Ym pg 20 Cs 7w 1m d9 ng {6 d9  6 ih Om g5 kW Jm :b MW Ag %h dh c5 og #0 #0 Cg Gs q5 Rm Mm ug :S ++.:=.Gg 90 <=.[=.xW 0w OP a9 Ls -9 }=.:6 Qg Pg _9 Ys U9 ;7 .0 !9 I4 |=.Z9 Tg 1=._` C6 Ts A7 2=.`7 3=.~J 4=.5=.Ps ;7 6=.7=.8=.w9 Zg +9 a0 9=.`9 @h )t `s a0  6 n5 0=.a=.b=.Cg ug *6 c=.d=.^E %h 6h *0 ,t 54 jh ~h {h  6  6 ah wg 16 >h Wm d9 wg 6h ah Cg ih %t vg )h yg Cg Im g5 e=.ob T4 /6 pb q5 xg 20 c5 MY 5a +6 20 /S Gs %h Ym 20 f=.;t fa g=.9h 2w vg Rm {6 74 dh OY 6J Nm hh ah #0 xL 35 24 h=.Um Qv 2h og i=.V4 74 e4 og ug 10 og LB 9m g5 #6 zg ga H4 j=.T5 k=.;Q l=./t cO m=.)Q ur n=.o=.p=.o` q=.r=.q. s=.t=.8/ F; %; 1f *> u=.v=.ms &. |e <F ~/ ]m RG w=.x=.y=.",
"z=. R A=.B=.C=.3. .4 l) h~ `2 Qe :{ M~ O, _> Q{ s> O} D=.E=.zO 9F Bp F=.mq G=.H=.I=.J=.K=.L=.M=.Tt Zt }i -i (i (i (i &j )i {i `i BK ~i {i +j (i }i .j Xi [i <i <i 2i {i {i Ri Ui N=. j Xi ]i Ui .j Ri 3i Ti 'i 1i ei <C Ai Gt nu ji O=.ji ci di Et P=.bi Fi Ct qi Yj Bt ji wi bi HJ ki ni pi Q=.gi ii 0i bi Gt JJ qj mi Bt Bt ki Gt vi /k Ft Fi Ct Ji <C ci 0i oi ii mX Ki *j |C R=.Et 6i Ji Bi Yi }i 6i Ni 9C Ki -i 'i Di &i Ui 5i Ui Xi Xi (i (i Di *i ]i Ui [i :C 4i {i [i S=.QJ %j Zt -i [i `i [i (i 6D >i zt Bl Vt #j [i Ui >i [i Xi .j 5i Xi Ri [i N=.Yi `i :i >i @j =i ]i .j ~i .j PJ (i Hk >i {i PJ -i 9C Ti (i (i [i Xi 1i >i !i T=.Hk )i zl QJ [i [i (i Zt (i -i ]i 8i 'i <i (i Mi U=.V=.W=.X=.*W I/ (. Y=.Z=.`=. -..-.+-.@-.#-.z0 $-.@. q< y  %-.&-.>3 H_ [: #+ }P *-.=-.&M <g --.YY ",
"bt zM ;-.Sx ~G >-.0{ 0x D! ,-.8> AX T  C  Jn E  r  PO '-.)-.!-.Yh cf iX u| '@.8P ~-.!@.%i su ju bi ri Fj Bj qj vi qj Sj Fj oj Tj bi wj xj xj Qj pj Sj /k vi nj ri qj (K O=.!k xj oj pj xj eu vi ;k rj bi `j Bj ;k !k [k Qj wj HQ &k tj Ht nj Sj fi yj Gt ,k Fj {-.qj Sj Kj `j ii qj wj wi Cj wj pi 4K tj vj uj wj 1K pj vi qj eu Wj Ej ni Sj au Tj 4K Vj xj Aj Tj +k SC {k ]@._k ]-.nj }k vi WC su oj ku pu yj ni mj bi 8u Sj vi bi Sj pj vi pj wj fi 0u vi vi nj Vj Cj Kj Aj Bt oj xj pj 4K wi ri Aj ]k Ej Wj Dj ^-.xj Uj nj pj vi UC VC vj QC `j 4K Dj ri 'k /-.tj }k {k ;k Fj vi vi au nj ;k Aj oj vi [k vi ni vi pj ki nj vi qj _k 7u lu /k QC QC nj vi Wj vi 4K (-.vi Jj xj |k >k [C {@.Qj Mi _-.:-.{.  D +( }p vh <-.MI [-.oU }-.'N |-.1-.V  R> 4t ZZ F( J~ zC z_ 2-.3-.,  4-.5-.6-.|p 7-.",
"vF >o ro Y#.8-.[, Uq +(  ~ $  Ne f! N_ 9-.Vf u. 2. 0-.oC RG a-.cy b-.c-.3/ ;> d-.UX Vu e-.Xu Tk :i Bk `i +j Gk ,i ~i `i ul _i Zu ~i ,i 6D >i @j @j yl `i Gk Gk Gk ,i `i {i Ik Zi ul `i ol @j Ik Zi pl ul f-.ND DK `u ev @v Wk =l .Y :v hD +l ,v BD OK [l fD pD {v FK ^R }R yD -v fD 'l g-.!l ~v [l eD  l }l w@.OK h-.$Y &v 'l [l $Y i-.{v j-..l 6l 8l 2v k-.}R 3l l-. v ml 0D dD bv ol m-.WK 9v F@.Gk av +v bv tl Zi GD jl xl @j Zi Ik Gk @j Gk Zi ml :i :i cl B@.Zi Zi Yu :i nl Gk cv Zi al ql Gk cR ol >i @j Zi >i zl )i @j Mk Gk Zi ,i ~i Jk Gk Tk Cl Zi Al Jk ;i :i .j Ik @j Fk Ik :i Cl pl @j Ik Cl Kl jl UK Cl dR Ok HD ql dl @j Gk Jk <i Hk Dl zl @j Zi Ok pl Bk dR ND Ml n-.Zi Pl o-.p-.fR q-.#L '@.*[ ~, r-.s-.<-.oU !D t-.u-.E. (' .> k) g  Y) v-.@+ :  m{ w-.x-.R( +R y-.z-.Qb A-.PS ",
"B-.IN |q C-.D-.FZ 1| H .[~ <. 8. wr .> e. A/ ae E-.F-.G-.H-.rk 7f Fy I-.(' u' J-.K-.L-.Y*.M-.Ag 30 [h Qv p9 g5  6 ca Gs %h zs a5 '9 z9 Rm ~h c5 ug %h ih Bg Cg qg %h #t %h vg 9m 9m tg vg 30 d9 n5 dh Dm N-.O-.d4 P-.!b VR uY 7h ;a +w Q-.jb Qa Ja R-.S-.Ca lm T-.3E  S U-.V-.aL 0E W-.X-.lm ~b ka Y-.Ua rb dm Z-. b pL cE ib `-. ;.dE .;.zm Ja =b +;.am @a R-.hE _w ~0 va Cm n4 i5 5a hb db @;.|m #;.54 $Q a4 2w _S Mm Mm  6 &> ng Ym p9 og yg ~0 hh ng )5 Ta NY Ym ]5 ]5 Jm zs ~5 pg $;.%;.%h &> &t j9 $0 &Q g5 8w m0 qg mg yg 30 %h 30 %h yg &> &;.ah &> >a o0 bh t9 9m  6 c5 m0 j9 [#.Qv ]E 74 Ym :4 J9 {a 9m qg Jm  w c5 74 g5 xg &t Um {h @t *;.>a va dh Xm sg 20 fa Eg Ta e5 `m =;.wL +n QY mw -;.;;.d< ({ 5I >;.%x ,;.WZ ';.l; yr g  t. B. .*.K  *  y; s. >+ );.!;.~;.v< {;.];.4V |Q ^;.",
"tZ /;.pF (;._;.r( :;.%+ Z. vx o, aI w] de ;< b: j{ %) <;.Ln {N %U gs [;.6n Sw #$.};.|;.an K. _> +. E  5  9. @. &' 2.    +. G, ,{    U  jn )) $) ;W |. Z. @. |; g  $) g  .. Z. .M ax H. M. 8  u  4> b; M. s| L' Th M' 8. K  S} K. 5     f  Y. Y. t. o> Z- L. 6] W  n< $  r  >f Z. jx p  7  H. t  +] o  |. g  }/ O. p^ Z- 1/ [{ H. 8.  ~ E  E. 8j M. G  1;.in .. 5  f. F. /; ,> f! M1 ,. 7{ g  (. 7  g  a! v  '+ [1 *f 3  4  =. |; 2. [1 Z. '+ y  i: [{ )> [[ 7{ jn $) C~ Y/ Y/ W  Y/ t. U  P' W- _. g  oq |! I. !) &' B. ,{ r2 5  1/ '+ O. _. (.  ~ ,{ H. F, %  3     f. w  t. g  7.  ( '+ t. K  K     M' >. V  @. <. }/ c' &' d^ j  f. L/ 4  B. w. w! Y. Ed C{ E. t  w  Z. 2. w{ x~ u. E, xr 2. *F 2;.#n on 3;.0~ qk 4;.TD tC iG 5;.6;.p! x> (. h  Xo C  vd d; O} sy 'K N; 7;.u{ 8;.9;.% .Jh 0;.",
"}^ a;.1, .-.b;.c;.w/ L. k  h  t  8y Ph !+ d;.7z &< ,, ]N >g {N ds e;.f;.g;.1L jY h;.RF n] M. 8. `. 7. @( +. O0    g  4  +.    O. +. 5  &' &' '+ >. i  g  >. Z.    t. t. f. w  .. ;W Yo 7! d^ Y. $) p! $) &' `. 9! L  %, 3z Uq [1 $) f. }/ [[ Z- q' w' 4' &' J  k: }) 7{ O_ %  J  %. 42 H.    +. u  >. 1_ Me Z. 2. _. b~ '+ $^ 9. cn BR $+ T] E, E, &' y  V, U  1/ p  C~ w; 7  )} } .U2 .. Z. 7{ .; 'f 5  Z. F. 9. j  ~> p! o  co 5  '{ b; .. o     &' Y/ O. F. b{ 4  4  @. >. o  C{ %. >+ T  #  F, j  c' Y/ jo jo C{ v. v, C8 Z- .. b; 9{ d^ w! '+ 7. y; -. f. 7. B. *  Z. 3  >. >. J  =} Wf <. w' 1H '+ j  p  9. <. )} Dd u  b[ *  b; f. g  f. Z. g  F, w  z/ g  =| $  Ed R  r_ =. u{ 7{ 2. #  $; i;.j;.k;.l;.m;.eO n;.o;.c-.p;.@d Z_ F1 3> N2 O. w! w{ f. M~ z. $; #r N3 N/ ,  q;.r;.s;.t;.<1 ",
"6V u;.gY v;.sP 5> _. N1 :  3  @o *  x/ >P *| Z  e! i^ P| w;.g` =y jG rM OF x;.fT y;.X- Z. K  g  p  L  x  8j 7. +] l) '> o  j  Z. a{ L) =} Z. g  .. Z. 2. Z. +. 5  .. Z. g  Z. w' t. Y/ >. f. g  O. E. [1 H. 7. p. s. N2 6r $+ 3  Z. C{ ax O. =. >. *  |! O. U  9; H. B) d; h  g  Ed p. Y) $+ Gd G, t. 2. %  +] $) H. vr O. Y. b[ Z. e  wf 9O #. E' f  d^ F, _. K  Z. t. _. (^ s_ fo vd E_ g  J  jz _. p^ _. 4  I.  + i  &^ 8. .. 4  y  @. E. z/ V  Z- id *  %  4  g  ,. 7{ @. o  B. 2. 5  S; p. 3  |< h  *   ~ K  C{ bq s. 8. (. 7{    t. %. 4  +. o  $  1_ $^ !) U  |_ +. '+ r_ 9: $) Z- [~ x. W, g{ =. 8. g  Z- u. &' B. Y  _. &' $) 2. Z. f. t. [[ u  l) f. g  Z- |! k  g! J  o  _. G  &, jo H. $) z;.Nx RZ A;.B;.C;.D;.1, +d E;.F;.|! f! |) .  C| U( 3  j  &, 6] @, c# G;.H;.nM I;.J;.<( GX ",
"x! {L cj ve K;.#+ L;.M;.N;.$s  ( Z- m. Kd K) (: M~ Md O;.P;.p+.bj :o Q;.R;.]` S;.4. .. Y/ @. a{ _. |e T;.Z/ |_ u  h. M. [[ H. O_ >. f. .. w  t. Z. t. .} |. +. C. C{ g  g  g  @. f. >. t. y  +. w' t. f  @o 7. [e j. K. *  U;.C1 E. z/ N' r2 w  F, 42 %  C{ ;. 8/ @+ b{ (. 5  $) w  f. e  8. 4> g  t. 4  f. p  .} 7O F, V;.E_    b{ f. $, O0 8: E; Y. Gd *  |; >+ J  ,+ 7{ [[ u{ u{ |;    H. E. L/ x. w{ 4' '+ q> :j x~ zH 5  8/ f. |< a{ >. g  4  '. Z- |. g  r2 Z. t  l) 7{ F, M1 g  p  t. o  8. 7. 8j >. io A. vd 7! 8. )4 t  7. =} :} '+ u  o  g  4  p  X- g  n< 9. O_ L) b{ 2. V' 3  Z. S  Q{ l) Z_ e_ 1_ sf w' %. C~ F,    &' g  3  3  3  .. +] G, H. g  g  &' Nd B  ;. h  K  o  8. [e C. M~ Z. F  W;.X;.Y;.MT y*.Z;.`;. >.<Y A)    @o t  @] ,. m; H  (T h^ qn .>.E' +>.>} @>.RS #>.hI $>.",
"%>.&>.@H *>.=>.->.Y> ;>.>G >>.,>.b[ '>.>( P; z. l) 4. `3 )>.!>.[L ~>.{>.]>.^>.jp ep 0p 6c ep 9p 0p 6c 9p 7p 0c lp _d ep up jp .q 6c 5p 7p 0p 7p 8p 0p jp gp 7p ep 8p 7p 7p 6c 8p }d 0p 7p ep 8p }d lp 6c />.8p _d 0p Dc Dc }d ep ep ep pp }d @q 9p dp _d ;c 7p 8p Dc 6p !d jp ^d _d pp 7p ep pp hp lp ep rp ^d }d ep 7p 7p 0p jp 9p 0p :c ap }d 9p kp 7p 0p hp 9p <d kp _d vG ip 0p 0p 8p 5p 3c _d (>._d pp }d ep _d ip pp _d 0p ep }d 7p @q ^d 7p _d 6c rp Dc Dc 8p 7p 6c ap _d 9p 6c ]d  q 6c }d Dc 9p ^d op _d op 6c _d 6c kp 6c 7p 6c op ^d [d 7p _d ep 8p dp 0p nc rp ep _d }d ep _d 7p uc ip 6p ^d 0p }d 8p 9p ep dp 0p jp 9p nc _d ^d kp _d vc ap 0p ^d Dc ^d 7p 0p 6c 7p 7p 0p 6c ^d }d 5p nc pp ep _>.:>.<>.[>.M{ }>.|>.1>.H; d. 8[ 2>.(1 #  Tr C  (T 3>..D 4>.,I    A( ^o Ao dJ 5>.6>.",
"aY 7>.8>.Iu 8X G} 3. 9>.rt ,, 0>.$z Nd 7  F. @. 8. r_ kA JF a>.tU b>.2U c>.d>.Gc 7p ap 6c 5p ap ep 0p }d _d 6p [d ^d ^d 6c qp 6c 8p 7p <d 8p dp ap 8p Dc 0p ;c !d _d _d vc 7p }d 7p 0p 6c 5p 7p bp ep !d 8p 7p 5p xc 9p 0p ep 8p 7p Dc _d 0p 8p _d !d op !d 6c ep _N jp 8p 4p 6c tp 0p 6c jy 9p Sy ]d 7p 9p qp op kp }d 7p vp 9p }d Dc }d  q 4p ap 7p rp op }d gp 8p ap }d pp 7p _d 6c 5p nc op ap sp }d ^d Dc lp nc kp Dc 5p }d }d nc 0p Dc }d jp _d 0p ip ep 8p ip 7p jp lp 6c 5p ^d up rN Dc 8p jp 9p ^d }d 5p dp 7p nc 6p rp _d np kp :c 7p _d rp _d 7p _d }d 5p _d 8p <d 8p ep 0p }d }d 9p ep +q fp 0p fp Yp 7p _d 3c _d 3c ^d <d 6c 8p 7p dp Dc vG 8p 6c 9p dp 8p 9p _d ^d Dc 0p vc }d pp }d 7p 0p 4p ]>.e>.f>.g>.h>.i>.*>.1B W' 7! ,  4> }. j>.e; i  .} k>.l>.BT D. f{ O( Yc m>.{N n>.PL ",
"xO -u o>.p>./x T, ,K (: q>.r>.s>.&, t>.p  g{ (B A. e) u>.JF v>.w>.x>.y>.wU VN ;..Y- z/ %  4> p. g  F  o1 8~ 6] |e u  |e 8{ >f d  $  E_ Y/ f  c' Z. w  8. v> [  Mb b[ >f yH s  @g +. ,{ t. Z- &' E. 3  C~ g  3  g  |< [e c' 8~ M' y) ,+ 4  C{ @  z. .' I. Ad v| B. B  +| z>.Z- w_ K) Jd H. @. R> Z. 7{ w  i( 8  u. `' +. f. t. M' $) g  1_ Iz (. f. +] k) F. @o O} q; {. %  X. v, )) K. Me @g (. b{ g  $     A>.=} _. %  k: [_ t. g  .. t. Me j  f. g  C{ o  B. O. +]    7{ |_ R> Y. Y  +  8] Z- 9{ Y/ [~ 0. [1 42 @. g  Y. <. '. 9. n. u  Hd +  h. 8~ *. E! v] D. X. :. Z  M' w' Ed B>.C>.#  i_ .. s' z. D>.;{ 4' J  x. 4  x.    '+ Ad T  M) w  Y  H; 3  $; n] y' T  >. 3  Wf 4  f  C. hn E. ;. $  8. D! 6H E>.F>.Sd G>.H>.I>.ZO af  + Q{ .D J>.>/ Y) z/ O_ B. o  o~ 4| Wn w( 3u kA Lq &L & .K>.",
"o[ L>.lk ;H f%.i( M>.g~ 2. ={ '+ N>.s, O>.J  P>.YA Hq _L Q>.R>.7f so S>.(e _e :e <e td Z- Y/ [e #  ~+ F  t. r  j  o  <. 7{ e_ 8  !> g  t. ,  Y) }e |e +. T] %; d^ H  Y. E. 6{ O! x) F, u  5  B. p. [  O. C; B. t! ,{ 4  8. M' ^  1e |) 4' &, >{ @. H  7  :! e. w) 2e p' 3e n{ @} t> J! d{ x' =.  ( 4  c; i1 z  q,    (. f. xd t  6] 4e _> 7{ q! @+ |) f] t~ 5~ 5e z. 6e c; $. ;+ x. &' )4 t. +. U  b~ [  r_ C; +. Z- -. u  >. p  g  wd t. t. @. :  @. Y/ g  Z. F  Y/ >. +. 7e g  @. z. o] 8. <. +. @. vd o  %  b' t  3  Y. t. .. << v  q' 8e 2. X. #. p. b[ n< U  )) F. K. 9e .. I_ <> 0e e  >e 8~ _. w' G| `[ ae {: 7  M1 z. +| 4  7  C  P. _> F, f. B  O} be Nd |! =. _> =} C. ,  8/ .. ce 8. .. o] T>.m*.U>.he V>.zO |r fd W>.X>.-. [{ -C x  <*.8. M~ T  4  YA A~ j~ Z. H` Y>.Z>.gk 6q 5} 8r ",
"~{ `>.iP  ,..,.1. +,.a{ @,.#,.b{ O} oI $,.%,.5r u{ &,.*,.=,.cA g .-,.;,.Ge He Ie Je Ke Le @. g  c  3< 7. t. $) E. _> 4  =} C; =. p  [  $) H. W  [  Me 9. t. M) X[ b~ 4' w' K. }  w' Ne X[ 2. _. C8 Id J  g  D!  ~ +. o  t. $, B8 Oe G1 4  *. !^ =. Ad B: Pe Qe {. Re K) Se Te Ue Ve We Xe Ye Ze f1 &) 4' p' |) *. 4; h) 7  .. z/ `e  f .f b_ 8| w) M| *. +f @f w) 8/ b~ -[ i: 6{ #f V  C{ j  9. @. N0 7{ $, 42 7{ _. U  o  g  g  g  g  f. f. @. F, 7. g  Ed $f Z- =} L. o  %f O0 )} s| Y/ &f 3  !> 3  v] E! M. $+ Z. Gd $  .. *f t. =f    $; 4; I  #  -f *  =} w_ 7{ _. 7{ W- C) k. '> ;f i^ B! $+ Z- Z- Gd B. 7  C| _. 4  [  u  F, o  n< 8. h  Z- g     ,  v> a) >f c  E_ @.  ( f  ,f d' 'f r_ )f K .:s =g >,.,,.',.),.!,.2B ;H L>.b; @' ~,.{,.N  '..m< %. K  f. w, *G :%.:  ],.&K ^,.pZ sQ 1Q ",
"/,.(,._,.~#.2g 1_ :,.6_ w, M1 -} <,.,M [,.},.g  w; r, |,.+~ 1,.%U Fo 2,.mf nf of pf qf rf (| o  sf c' j  sf @. %  '{ 1_ <. _> C8 >+ 8. j  tf >.  ( Z. H. 7. Y/ 8. [1 U  :} uf vf wf [~ t. 2. t  w_ )} 3  7. *  xf .. B. yf .. v. @' zf O} M) 2. `' =. f! x) Af u  N' 3f I. @+ z  i  Bf Cf ={ Df Ef Ff Gf Hf If Jf ]^ Kf Lf Mf Nf Of Pf Qf Rf Sf p' B) 7  Jd _. w' Tf -[ v  Uf d; /, u/ Vf .. p  3  Z- A~ C8 t  @] |! n< v  2. L. j  t. wd g  9{ &' C~ Wf 'f 2. %. :} Xf c' =} =} .. Z- }/ 3  3  %  Yf '{ a~ v) X[ Zf (. .. v. 2. v. *' `f }e Y/ _. &'  g c' l) .g +g :  g  $) }/ @g #g y) a; Z  $g $  <. Z- E< .. 3  Y. [~ W  L  [  8. (. (. >f j  g  s  Z. s. ', 4! %; [1 h  5  F  I  Z. =  %g 3,.]V 4,.5,.6,.7,.8,.*=.9,.0,.a,.b,.+' c,.Lu d,.B  9z BR O! E, c;  *.j< [~ r_ e,.f,.g,.h,.i,.I2 ",
"j,.is k,.l,.m,.7. C, d~ 9e <U $  4z n,.o,.F. B) u{ ~. p,.,` q,.r,.s,.t,.X/ fg gg hg ig jg kg lg Q5 mg fa ng q5 g5 og |0 pg qg rg sg pg c5 tg ug vg wg xg yg qg zg d5 n5 m0 Ag Bg |0 qg c5 m0 10 #0 Cg d9 Dg Eg m0 _6 Fg Gg Hg Ig Jg Kg Q9 /5 Lg W4 Mg Ng L9 Og G9 Pg Qg Rg X9 X9 '9 #9 Sg .7 Tg Z9 >0 Ug Vg {8 f0 Wg y6 D7 {8 Xg Yg Zg ;7 ]7 `9 `g q9 u9  h a0 .h +h @h #h $h &9 %h &h *h =h |4 -h zg 84 !9 z9 ;h >h ,h =h 'h )h !h ~h {h Cg Cg >h %h sg -h ]h &h wg z9 10 ^h /h (h {h sg p9  6 16 _h :h n5 _5 <h nb [h }h |h c5 sg 1h )h ng 2h Cg wg q5 #6 3h 4h eb 20 5h [h q5 6h %6 7h pg 8h 9h 0h :b mg ah bh ch dh %h eh fh ah 20 gh ch J9 hh ih o9 jh og vg kh vg ng lh d9 =h /9 mh nh oh u,.TO cO v,.)Q 5~ w,.hf !,.x,.y,.ss h> p. 6] ,V tr ur 4, *  D. X. {. o  M_ [: [F z,.A,.B,.C,.{; ",
"D,.E,.F,.G,.gd t, &G .  $) x> >f ~, H,.f! !/ Z. y{ @+ I,.J,.K,.L,.F,.M,.Ad  i .i +i @i #i $i %i &i *i =i -i ;i >i -i >i ,i 'i )i !i ~i {i ]i ]i ^i >i /i (i >i _i {i :i )i ]i )i <i >i [i }i |i -i 1i 1i 2i 3i 4i 5i 6i 7i 8i 9i 0i ai bi ci di ei fi gi hi ii ji ki 0i li mi li ji ji ni oi pi qi ri si ji ti ui vi 7i wi ji 0i pi xi ii ti yi zi ki 8i 'i Ai ji Bi Ci Di Ei Fi Gi Hi Ii Ji Ki Li 1i Mi Ni Di Oi Pi 1i Bi Qi ~i =i 1i Ri Si 1i (i >i Ti [i ]i Ui (i [i (i >i Vi ]i Wi Ti Xi Ri Yi Ri 1i Zi `i Si )i |i  j >i >i .j Si >i +j Ui >i .j >i <i Ti `i @j Ui .j Ii (i #j [i >i |i {i `i >i {i =i Ri &i *i ]i |i &i Di si >i &i $j _i ,i %j ]i #j [i &j <i Xi >i |i *j 'i [i }i =j -j N,.XJ cC *W l{ v] O,.,g P,.O..+d Q,.R,.o6 {^ !< f! B/ t< cn 5t m{ M~ S,.|f 6  T,.#P e+.jf U,.w> ",
"V,.W,.JU X,.Y,.>+ !  (: Z,.l) Z. &' 9: `,. ) Qo g  p<  '..'.+'.@'.#'.$'.ej fj gj hj ij jj kj lj mj nj oj pj qj bi rj sj ki tj uj vj wj vi rj xj yj zj Aj Bj Cj Dj vi Bj yj xj yj Ej bi Fj yj pj bi vi oj Gj Hj Ij Gj Jj Kj Lj Mj Nj Oj mj Pj Cj qj Qj bi Qj oj Rj Sj Tj Kj Uj Vj Wj Xj Dj pj wj Yj tj vi Sj Zj yj `j Tj Cj bi rj Aj mj ni lj mj Dj  k Sj nj Bj .k +k @k #k $k Zj %k nj &k qj *k =k bi yj -k ;k Tj >k ;k Rj uj yj qj Dj Aj bi Bj ,k ri 'k  k Bj Ej mj tj ki rj Tj )k !k vi Fj mj ri pj Tj ri wj Fj >k `j rj wj ~k nj vi Zj pj {k Nj vi Sj >k 'k ]k vj `j ^k Aj pj Aj /k qj Aj pj nj rj Bj &k (k ri ki Ej nj bi (k Vj _k :k Zj 'k wj <k nj oj Kj bi oj vi Aj [k }k |k uj pj &k 1k Mi %'.&'.*. *'.{o I;.1*.='.fJ S- -'.ZI u  *  d  42 [[ -s u{ ,. 5| 2| + .   ,{ ;'.`Y >'.,'.''.)'.",
"Z_ !'.~'.y,.{'.b~ T. PO W  B  O0 o     O! |e  + G  *'.]'.^'.)K /'.('._'.N^ vk wk xk yk zk Ak Bk Ck `i Dk ,i Ek +j Fk Gk ;i Dk Vi [i {i +j +j @j @j @j Hk Ik @j ,i Fk Jk :i :i Bk Kk Lk Gk Zi Mk Nk Ok Pk Qk Rk Sk Tk Uk Vk Wk Xk Yk Zk `k  l .l +l @l #l $l %l &l *l =l -l ;l >l ,l 'l )l !l Zk ~l {l ]l ^l /l (l _l :l <l [l }l |l 1l [l 2l 3l 4l 5l 6l 7l -l 8l 9l 0l al bl =l cl dl el fl gl 0l Ok hl il jl kl ll ml nl ol Ik Tk pl ql rl Ik sl tl Zi Zi pl Ik Ok ul Gk Ok tl @j Zi vl ol Mk :i wl xl .j )i yl :i zl ]i Fk ol Dk Zi >i  j Al @j Ik ,i yl yl *i <i )i )i `i Gk ol Mk Bl Cl :i @j Fk Dl El Fl Gl Tk Hl nl pl Il Il Nk Jl Gk :i  j Tk Kl Ll @j Jk Ik al @j il Ml Nl il Ol Pl Ql I@.:'.lv <'. / q. ov ['.}'.<` ;H |'.<~ ;. i^ (: || ,  Yn y~ 1'.d,.x> 8e q! ~s 2'.3'.4'.5'.6'.Do ",
"/,.7'.8'.9'.b;.4> W; vf c' L. 3e |. w' Z. Y  &< 9{ e  (, qk 5'.=N 2N 0'.B; (m _m :m <m [m }m Ag og kh |m 1m qg %h 30 %h {h 2m 3m _9 4m ah 5m q5 q5 6m 7m 8m  6 9m vg }h  6 [h qg 74 {h 9m 9m og ]5 |h 0m am qb d4 lb am .b bm d5 n4 cm _a dm em Wa -b fm gm hm im jm km lm mm Pa nm om #b pm Z0 qm rm hm km sm tm um aa im vm wm mb p3 xm #b ym ha *b  b =a i3 zm U4 35 Am ~5 Bm Cm Dm Em Fm /6 sg =) Gm Hm @a ng  a pg pg %h Im 20 ng yg %h yg W5 Jm [h Km ~5 eb Lm n5 n5 ca Mm Ta Mm %b Nm {h 16 1m {6 h5 Im mg (6 2h ca vg 7m p9  6 dh  6 24 yg >a ug Om Pm 10 Qm Rm xg c5 og Cg (6 Sm Tm /h |5 :4 q5 74 n4 g5 tg eb 7h Om dh qg o0 yg Um  6 Vm Wm #a /6 g5 :b Xm c5  a Ym *b Zm `m  n .n +n a'.b'.o$.c'.k; n) d'.ex  z 7G eg b,.[~ v-.O; O. 8. o; 9: e'.o( lM ~_ |) )1 >  f'.~Q g'.gM h'.i'.",
"j'.k'.l'./m .K B{ m'.q> Dv n'.g  }_ E. :  U: c) >. )+ o'.ag p'.Ou yT q'.6n 7n 8n 9n 0n an bn |_ l) J  f. 9{ @. &' g  '+ o  Z- &'    |; w_ 4  g  O_ |. g  f. e_ .. t  Z. Z. g  cn $) )) C{ 8. 8{ $. h  |; [{ )1 dn M' j  C; c/ en U  p  2. +] Y. t. fn +. h  6] gn a! >f p. _~ Z. 8: 2. 7  J  >. hn V  %  g  }/ O. Ad 9. Z. B  $) b' 2. O. E. 7. o  =. p^ |! t. f. g  b{ /; a' =^ x. ,. in Z. [~ jn t  s_ v  4  ;. 8. 3  B. =. .. Z. *f C{ O. Z-  + [{ $) v  kn 8j >. t. *  cn |_ 8. Z. >+ O! `. 7{ .. *. 7{ o> 7  w' '+ 4  C~ Z- g     &' _. (.    4. g  Z- 3  Y/ $) t. Z- t. 4, ,{ >+ H. t. o  Z- O. $+ 2. w  g  u  u  Z/ ,{ u  tf C{ E_ O. '+    =. u  M. Z. E. 2. w  g  >. _. s, &' Q8 E} .. r'.]Z s'.+x t'.:/ u'.^*.v'.w'./%.!*.-f ,p 8/ Z. b~ Y, -+ )+ yH A8 x'.#' y'.p~ Xn z'.A'.K+.B'.1Q ",
"D,.>N C'.[;.D'.C, #e :> >p E'.L. Y. p. F'.G'.1f h_ H'.qH I'.J'.5o J$.K'.Qn Rn Sn Tn Un Vn Y/ *  %. $^ C[ C; &'    t.    L/ 4  a{ V     8j    )) .. Y/ .. g  t.    t. @. g  w  Z. 8: '{ u  8{ vd t  $+ $) J  i^ Wn L; 6< K. Xn M' 2. >. +] [~ t. f  '+ Yn 4  t  Zn .> _. O_ b' 7. .} ;. t  &' Z- _> .. z  h. xd Z. _. %) =} `n C; Q8 O! *  T) T] $  T  w{ v] 5  g  %. 1/ w; s| w' [: n< l) g  7{  o W  ,. 2. q> o  8. p. 8~ w  U2 +. $) '{ g  9. H. 4  %  O. C| =. O. H. 1/ 2. K  g  H. C; J  Y) o  E. i^ Y/ =. 7{ %. $) +. 7{ L/ Z. 42 5  W  .o  ~  ( $  i1 Z. 7. w' Y/ +o d^ %. v. T  a{ F  Y. E  '  w' [  f. F, Y  7. @o ~^ a! E. b; +. C{ g  .} f. 9. +. @. g  %  :. %   ~ 4. b{ #o 7{ %. #. p! y0 L'.M'.5M ,T N'.O'.|r (;.P'.Q'.%. !  y) 4  a' g*.f! $, T. y) c! hr h~ C| Dd bj Z3 R'.S'.T'.",
"U'.HS V'.W'.X'.D. 43 q .Y'.5e d,.V*.-[ Z'.HT v] m| iH `'.+A 0W r[  ).LZ 8o 9o 0o ao X- +. @g f. )> r. m. ,{ jn ~^ Z. j  F, 3  f. 4  n] '+ 5  f. f. g  t  Z. V  g  Z. >. Z. ..    .} Y/ Z. t. Z. O. E. h  )> f  r  :. k( 1| M' 3  t. Y/ 2. O. w! [e E. bo w. U  co O. do Xf |. v. Y/ s. m< j  _> w  y     8. Y/ $) g  _. '+ hn o. C{ Y) r. 3  s. >( r_ Y. v, eo K  t. g  _. t| |f fo Ed E_ C. &' 4' go ^; 7{ 4  ho C  %  $+ io +. 4  .. @. E. >. w  w  X[ 8. *f H. t. jo d; g  9. B. $) t. [{ :. %  t. h  X[ t. 9{ L/ $  ;+ 3  (. U     Z. %.    +. [[ :  g   ( Md bo sf 9{ u. z  V' p  o  [[ x. W, e/ b{ +] Z. w  r' B. '+ _> U  &' 2. C~ Z. g  .. 9{ _> z/ 2. F, w  _. +  +  T  o  U  F. w! C8 z  >. .).+).@).#).B;.tU $).`;.%).&).s) >e +^ .. t  3u t3 +( (: Wn C| -. A~ .; d{ *).=).-).;).>).",
"{< Cv ,).').;N )).M1 BR gf !).JE }Z ~).{).w  B. +*.]).^)./).sU bj ().Ro So To Uo @o $) 3  2. w. U  u  O_ bn sf d^ 3  3  Vo  ~ N' $) >. Z- w  g  g  @. t. '{ @. t. g  t. wd 2. f. Z. [e @. |; t.    g  O_ N'  ( Z/ }  q' ;. Wo #  X[ $) H. @. Xo L/ E. j  Z. 8. 8/ !^ h) H  7{ t  L/ C{ |n Yo $  Z. Z. H. .. H. 1_ h. *' '2 +. 4  A~ |. ,, &' Z/ E' u  Y. j  i1 4  ,{ z. _. v  s! m~ i1 g  $) h  .. w_ U  8! J  A~ Zo x~ S  1/ d; g  Z. =} .. @.    U  G, j  C{ tf z/ H. v, w  g  S;    $) V  K  h   ~ &' >. 3  c  'f Y. +] ;+ z/ 7. O. t, O. gn v, K     H. y) 2. A) vd 8: `o b{ >. $, *  @g |)  p 'f .p Z- 1_ 3  O. z  @. F, &' &' .. %  Y/ +] Z. Y. o  .} C~ t. E  x) w_ |. u/ E_ C; 8. t. 4  q! C{ -. W;.X;.{y _).P> 5j 4j @X tO nG <U n'.K` k  D  Y. w_ 7. z; R> (. o6 id ~Z :).<).tR [).r{ ",
"%z U&.}).|).1).Cf o..K*._. N' D. /B z  2).3).4).+m %. 5).if vh 6).7).ey 3p 4p 5p }d 6p 7p 6c vc 8p <d 9p }d 7p 0p Dc ap 6c 6c _d ^d _d 7p 7p bp ^d cp }d 7p 9p dp }d 9p 8p 0p }d 8p ^d 7p ep _d }d fp nc ep 7p ^d 6c bp }d ep Dc gp hp 8p ip vc 6c 6p 6c 3c 7p jp 6c ^d vc kp jp nc nc lp ep jp mp 7p ep 0p 6p 7p Dc np 6c op kp 6p <d _d kp 9p 7p }d pp 8p 9p dp ap kp pp qp _d rp op 6p nc 5p ip ^d sp 0p :c pp 5p op kp 7p tp ^d 3c 6c 3c 8p 0p lp 7p 8p 7p 7p }d 7p up ip pp }d qp }d 7p _d pp vp ip 5p 0p qp }d ^d !d 8p jp 7p kp }d ^d _d kp }d 5p 7p ep pp 0p 7p ip bp 5p ^d }d 9p }d ep !d ip _d 6c 3c op }d 7p }d 7p ap pp _d vc 7p Dc 0p 0p kp 7p nc 6c 8p dp ap 5p 6c _d rp lp 6c ^d 7p _d 0p 8p :N 8).9).@E 0).ss a).yT /; t! b).0;.e) id j^ U  ,. w. $, q< b[ (L c).d).e+.e).f).K` ",
"Dn g).h).<V i).E. :. [~ EI B  G, C' QO O.  ' Q  c; &r Gp j).B,.k).l).m).Wp Xp op 9p }d bp tp ip 6c 0p nc _d 7p 7p 0p Gc 5p 7p ^d 7p 9p ap ap 5p 5p }d nc ^d ap 5p op 6c nc 0p _d _d Yp 0p qp }d hp }d _d 7p 0p nc 7p 9p ap jp 0p dp 8p 7p _d ^d 9p 0p ;c 0p 9p _d _d kp }d _d _d 6p np 9p }d pp tp 7p Zp kp op gp 0p 8p 8p jp kp 7p kp 0p }d qp ep kp 0p 7p ep 8p `p }d dp 6p rp  q ep }d !d .q fp _d ip 6p 9p pp jp 5p +q 6c 8p ap }d 8p }d }d 5p ep 0p nc 6c ^d _d 5p vc }d 7p 5p ]d pp dp 7p ^d 6c rp @q _d #q 0p 8p 7p rp nc ep _d !d 7p }d 0p _d 7p ^d op 6c _d ^d 0p nc ap 6c 8p jp Dc 6c 6c rp 6p 9p $q dp _d _d }d }d vc 0p ip 7p jp _d bp ep lp 5p 0p 9p bp ^d ^d 0p jp kp ip ep 0p sp _d ^d pp 6c n).o).p).q).r).s).hs t).u).v).tr P; X- R> 4. it z  Nd h) G| w).+] UI x).y).z).A).l{ ",
"B).C).D).#&.E).F).DF 9e %. Af .. B) Y  @. w' H/ EI u, G).j).xZ H).I).}z 0q rd aq Y- C~ 8. $. ~> g  (. o1 8~ 8~ Y. +] Y. u  :. &  bq w  Y/ &^ Dd >. 'f Y/ cq L. dq c; :  eq O! l) |; )> t  Z-  ( L. h. Z. t. %  r2    p  f  O! M' @o s| &' .. w~ Vn M_ t| a~ F.    x. b: b~ F, 3f fq gq %. Z. ;+ f. w  L/ fo 3  O.  ' .. g  z/ $+ $)    t  Y. -. z/ 3  4' h) >( hq iq y' jq kq %) w. j. M' vd -. b{ g  E, 4  Md 4  w  8. fo Y. .. t. f. g  .. j  .. .} g  |; C. w' j  '+ kn Y  #. N. 9  g! 8] L/ Z. +] v, _> j  lq 2. g  Y. hn B. 9. &4 Gd ,, Dd 3  8~ *. b~ [~ D. j^ $  K> 8~ B. 3  %; #] a; *> g  U2 M~ mq O,  c N' M1 H. B        >  O. f  Z- Y  H; hn p! nq oq J  .} h  [~    E; @. sf *  L. /W 7O O; J).K).L).ez M).N).O).P).Q)./; p  de 23 4' ++ R).Y  Z/ *V i: S).U1 *. }  @T @` T).U).(: ",
"V).W).cf hs kk d,.#,.y) &  f. g  B. o  @o +3 e/ Oz X).Y).Z).!>.Bn WV `).Pq Qq Rq <e Y- +. 3  )> #  ~+ Wf .. s. h  w  Y. ,. e_ T] Y) >. t. E; 3q :. Gd F  6< %; 8{ C  <. j  Y) m] Sq w  u  t.    )4 |. O. L/ w' r] R  O. Y/ 9: O! s) Tq B_ B  Uq Z. H  7  d{ e. Vq ,2 0  :j n{ (3 t> Wq mq g{ w! O.  ( I1 (. )> P! w. e_ .. 5  %. yd )> u  U  B  B: Xq %_ Yq e{ Zq `q z' Y  4> 6< 7  4  R> Z. C; d; v  j  c' U  |; K  e_ |_ %. %. f. g  Z. t. C{ $  Z. %  >. g   r 8. 2. Z- [~ .r >. Vn +r 3  <. Z. y  Xo 9. 8. ce g  Y/ _> @. t. @r b~ 2f #r 2. x  Y) $r C[ [: |! B. =. 8: %r g  #| d  &r C1 *r M' U  B. c; w; =r *. B  7  e< Ad '+ &,  + P. u  L/ g  7  ^1 (: B) e! F. u     '+ J  U  Z- $+ i  Z. Ue |I X*.IH  !.)r 'P 0Z .!.+!.@!.i. {n D! 8. #!.u' q2 HN $!.O_ *G U1 h) m~ #  %!.,x &!.*!.l_ ",
"=!.TY [Z SL -!.qn t3 ^s 3  9: %. '> U  l{ O! '4 P. z..=E 7k ;!.>!.yu ,!.cr dr er fr gr Qh 2. wd G. G[ 7. f. $) j  bq '+ O. b~ q> 2. L. 2. .} _> E. m] G, t. 8: $+ v  Q  J  q' w>    Mb g  >. >+ 7{ i^ J  g  W, '+ 9. |; C~ p! 3q b] G1 O. y' Nd =. :! oq @+ Qe {. g{ W] hr ir Z> Ve -/ jr 0  kr lr mr U1 nr @  Nd X  =. B  C. >. n( or pr qr B< u) rr sr tr ur g{ vr C  w; V, #  P' ,. f. E. K  g  V, C; p! E. in _. 7{ 9{ 5  @. t. .. 2. Fd K  -( ,{ g  8. 4> Z- 4  h  K  h) Vn ,{ M~ 3  wr Y/ }e %  (. v] t. 8~ g  7! 4> Z. %  @. 3' F, $+  ; l. Y) m) 8. O. n] t. 7{ _. c' xr k. @. w> p~ >e 8~ Z- K  Gd 4  7  fn _. 4  s  |e w  Z- n< [1 h. +. g  &' +  cq yr i( B~ w  f. '+ Z/ zr #| 8. K. '!.)!.*g =g !!.^f ~!.)&.{!.]!.X,.AQ ^!./!.-+ ks 5z (!._!.H[ 1_ :!.wf Gd <!.k] P! ;o %R ,A 7f [!.",
"B-.}!.|!.uk T- u{ C; A| o6 h  8. 2. !) C~ 1!.c) 4q 9~ 2!.Y&.1n 3!.4!.5!.Zr `r  s .s +s @s z0 V  <. f  j  7! f. Y/ h  t  <. Y. 5  7{ M. ce *  $) $^ C{ H. #s 8  8. '{ U  fn 8j j. 8^ ]  9{ g  t  B  Od 8. J  h  ~^ Z. H. :! .. O! $s s2 S} K. p  `' =. @+ sr i: N. M) B  Q  C' K. |. %s gj &s &/ j: Ff *s =s }~ -s ;s >s h: L~ ,s 's O~ )s !s ~s x~ C' `q @) _. )} .+ a' E! 8! U  9e ;+ =. @. t. +] w  C| '+ $) C{ 8/ 9; C; t  id 8. L/ Z. >. 9{ 7. g  Bd u  [e 1_ fn t. #f w_ w{ @. w  8{ Ed 3  |.  . 2. {s e. X[ R> 9; t. $) .. z  (. U- }e +] U  O0 ]s %. g  .g x  $  $) g  9  F  Q{ *> }e K> Q' [< _> l) @. f. i  u  (. N. ', h. 8. ^s co cn 8. p  [  .. >f /s S^ &  [  '{ -( vd c  t. n( (s 6!.m*.7!.8!.9!.0!.0N bg a!.N{ +!.b!.c!.p6 D) x> *. &=. P 3! d!.<F J; e!.f!.g!.O} K< h!.i!.)O [, ",
"j!.8K rz k!.l!.|; y; Z- [~ b~ c' y_ k< .g %  x) q, m!.&R h,.mN n!.ne o!.X/ us vs ws pf xs kg ys &> 9m 7h kh d9 30 d9 Eg zs og ah As Bs ng Cs jh vg Ds %h Es c5 c5 Fs ng #0 04 }h dh g5 q5 10 2h Gs %h rg 8m Xm rg (6 Fg Hs +h Is Pg Kg Js Ks L5 `8 Ls Ms Ns X5 70 !0 Qg V9 U9 G9 Os Ps S9 &9 Qs Rs >0 Ss d8 Ts Us Vs Ws 98 {8 Xs F7 X9 Ys a0 Zs `9 `8 ]7 Ls <6 >9 /0 @h gh `s  t {h #6 .9 .t +t Cg rg )9 W9 Vm Ag !h *0 H4 @t &> 10 (6 Cg  6  6 #0 |m As  6 %6 q5 #t $t 2h  6 p9 %t  6 94 &t {h &t Ym :h #6 *t /6 =a d9 %h :b qg 30 =t fh #a #0 -t %h [h #a 3h ;t eb e4 e4 [h rg %6 {6 |h |0 `m #6 >t d5 Bg vg Om va 74 {h ,t Qm 't og )t Es Fm Jm !t 10 #0 6m %h  6 9m n5 >a m0 ~t 94 %5 {t ]t p!.GI JH q!.TB @f r!.KF s!.oU t!.u!.v!.{{ w!.wf fF B  (. nG x!.Y) c. L3 uv LG &  (q >g N| +` YY ",
">| y!.4!.sz _) &4 o. fo $) [{ 7{ G. z!.ck a; E} v, Nd A!.B!. e 1x C!.D!.a~ qt rt st tt ut vt wt &i Xi +j .j xt [i [i ,i :i ,i )i <i  j }i |i .j ]i Ri Yi {i Ui Hk {i yt {i ]i ]i Xi zt Ki =i }i 4i -i (i >i (i }i 6i 6i Ji qi li Ei At Bt Ct Dt Et di ji Ft uj 0i Kj Ji Ji Gt di ci gi xi Ji (k Ji Ht ki si It 0i Jt Gt wi mj ki pi Gt Kt Ct wi Kt Ji di Lt Mt pi Gi Nt *i pi zi Ot Pt Qt Oi Di Rt Ii |i Ki Ti 'i  j 4i hi Qi Jk |i Ri ~i (i (i (i -i Ni (i xt #j ]i -i ;i >i St >i Et Tt (i [i Yi Ut Vt Zi  j >i +j Vt <i `i ]i &j ~i [i >i si Xi {i -i [i Yi >i `i Vt }i ]i }i [i Xi 1i 1i Wt  j >i zl |i -i Xi  j (i {i Xi Ri si [i Xt Yt Dk +j }i =i [i xt ]i Ti ]i Ri |i 6i hi Zt (i `t  u aC <X E!.F!.6_ (. G!.H!.7d I!.J!.A*.IV J) 8^ T~ K!.m] &2 b! 4  4  ,u F. q< .( L!.`3 eS oC M!.F} ",
":n .N Fy &x OI K  [{ @. t] e; '4  r f! C{ zC N!.x| {I O!.[( .~ lA P!.$D 3u Ul mr 4u 5u 6u 7u 8u 9u 0u au oj bu rj pj lj Ij nj .k wi wj Aj Wj Uj vi qj vi vi Tj ri Dj Wj yj xj Bj oj pj nj Bj Cj Bj vi Bj nj Bj xj Nj [k -k [k cu rj pj lj qj pj nj Aj gi At Aj du wi Dj Bt rj Pj Wj Uj ri vi `j vi ri eu Pj Tj wj Qj Sj vj Bj qj rj oj ri du mj Dj Dj Bt vi (k .k fu gu hu iu ju @k eu <k qj *k Zj mj ku Qj xj lu mu Bj Zj Ht nu Fj 'k bi Fj mj wj pj eu Yj ki pj Dj Bt Aj Wj Sj /k wj Dj pj Ej /k Ej ou Cj pu Dj lj wj `j qu oj pj mj lj /k [k pu vi ri vi Rj Vj ru yj pu `j Cj vi ji Jt xj vi vi nj yj [k Wj Cj ki Aj pj vi Bj 'k .k su Zj au wj cu Aj vi Wj pj vi pj vi cu Kj _k 7i nj Jj yj 6C Q!.R!.*.  D ]g S!.p'.RL ZH lf Ju o  e. a[ !) i^ T!.Zn _. z. l] o..U!.Nd p; hq V!.W!.+e X!.Y!.",
"Z!.`!. ~..~.+~.u&.(. A~ d_ @~.m< l{ #~.,u x~ ef $~.%~.&~.*~.=~.-~.;~.>~.U> Su Tu Uu Vu Wu Xu Tk @j yl ;i :i Yu Cl Ik Dk >i Fk Zu `i zl @j Pl :i :i Zi `i Jk yl Jk @j >i +j @j Zi `u yl al @j rl pl Zi Zi  v Bl .v +v il @v #v $v %v &v &l *v =v !l -v .l ;v >v *v ,v ^l ,l $l >l 'v )v !v ~v {v ]v ^v @l {v /v (v _v Zk Zk :v <v [v }v |v 1v 2v +l 3v 8l Wk 4v 5v 6v 7v vl +l 8v dl ql #v 3v 9v 0l 0v av pl bv ll cv ml dv Dk ol @j Gk Ik cv Zi @j ml al :i Ik nl Ik Fk :i ol Bl Tk Zi ev ol 0l ol Fk Dk >i ,i nl Hk zl :i Gk Fk Fk Bl rl ~i Gk Ck Mk Gk :i ql Al >i `i ,i :i Fk Gk ~i +j Pl @j @j sl 0v av  v Yt Tk Ik Zi rl nl nl al Ok >i Zt $j fv Cl sl Zi Gk Ok nl Tk Pk Fl gv @j Ck hv iv ,~.'~.)~.]+ 2> ~, 3Y :T `_ !~.|>..d 6e =} =. o6 C  -x O_ [{ *. y) %. k; B) ~~.OG 9N jU {~.]~.^~.",
"V] /~.(~._~.:~.<~.x} [~ d, C8 J#.Z> ,+ 7  oV _u ,K c{ !L 6k [~.}~.rv 0'.Jv Kv Lv Mv Nv Ov Pv jh 9m [h Qv fh %h #t 24 vg %h Bs Rv Sv Vm 8m Tv Pm ng }h &t d0 {h ca jh  6 o0 [h Uv |h q5 20 %h 9m Ym 9m Vv Wv Xv Yv lb .b Zv `v  w .w +w #b @w @w 36 #w Zv $w _a %w jm km &w *w =w -w ;w >w 2b ,w ka 'w Ga Ga )w !w ~w $w {w ]w ^w /w mb s4 zm 1a -5 *b ^a @a (w Da _w Bs :w <w %b @b [w }w lb |w 54 c4 j4 1w am 2w |5 zs pg %h qg ng 20 yg ca &t Am ]5 c5 )5 3w Fs 4w :4 e4 kh 5w Cm zs um nb #t &t 1m 6w Sm 7w og 8w q5 q5 dh Om 7m wg 20 Cg &> &> 9w Cs &t Cs {h Im 0w 9m jh tg vg {6 {6 )h &> aw bw 20  a %b tg ih 64 7h 30 Jm og  6 cw dw %h z9 ew #a Bs fw _h &> qg gw Mm _w /9 hw iw jw kw |~.1~.2~.o#.+( m_ 3~.4~.o;.5~.+d vO [: W  vd C. w! C' t] |) x. jn Y/ A' =} B*.6~.7~.eG $x 8~.9~.",
"0~.a~.b~.c~.0Z d~.t_ e~.G  E0 f~.D  (B '+ `d 2{ fo Z/ I,.g~.h~.i~.j~.k~.Rw Sw Tw Uw Vw Ww N' Y. |; >( 9{ 9. C~ 4  g  u. Z- +. w' 4  +. ). )) [e O_ 3  g  f. e_ g  $) t. t. C{ 4> t  $) t. %  _> :  E. Z- ). Xw Yw Hd 8  o  p~ u, _. 2. t  <. _> >. b{ +. L. p! N. [: 4! )4 +g g  Z/ >. x. J  g  <. Z- '{ t. }/  ~ p^ +. g  L) [e *  )> ,{ [1 ,{ o  fn a~ ,. f. .. .. G  /; H  B) w_ _. w{ .. v, 7  >. N. b~ '+ j  Y/ 8. u. q> o  g  |. C{ a{ o  b~ ). p  b~ y  J  2. t. %  hn Ed 8. +. 7{ Jo Z/ >+ @. Zw |! 4' z. B. B. 4  .} K  t. w' )) _. [~ 4  @o $) w  sf 3  %. C~ w  .. g  8j B. 4  5  r2 w  B. y( t  9. g  _> =| c' J  <. [  @. C; B. 4  '+ A~ Y. 3  Z. E. 2. +. Z. 2. _. x~ O. >f -f t. l~.@p -F m~.n~.Z~ o~.p~.q~.`E so r~.a> bM Z. Z  [e n] A>.8. g  i1 K` U  s~.|) 8: t~.@` u~.=N T. ",
"v~.%B w~.x~.y~.z~.A~.(: g  =. S  {^ g{ J. o{ H. g  2^ B~.C~..J D~.E~.F~.4x 5x 6x 7x 8x ). 8  *  8: O0 }/ Z- w' '+ C~    +. B. 4  L/ H. w' 4  E< .. %  Z. .. 5     t. 2. g  K  @. W- [1 _> Ed Y. >. vw H. J  `. ]{ .2 C) c' n( '{ >. .} Y. e_ F, N' O. k) '+ 7. m. }) _. `. *   ( t  [  >. w' Z- <. Z. [e h  Z. t. Jn b~    J  l) :. O! E. 4> [< $  O. 9x v  7{ 5  $) 1/ u{ x. 7. [: A) y  +. U  b: <. t, @. v| L/ 8. ;+ p! C; co t. $) j  .. o     '. %  '+ =} fn O. '+ g  @. o  g  2. 7{ ,{ :{ E_ [  f  i  =. 7{ 2. p  |; >+ K  t. h  C~ _> w! '+ J  :. [~ +. ,  ,{ i  >. 3  $) t  T  O. F  W  7. 0x =} h  g  o  Y. J  4. 8{ Y  [  j  C{ g  g  5  Z. K  w  t. ax 3  $  8. 1_ >( F. A| >+ $) #. 9: G~.lZ H~.I~.,T AF c+.J~.MI K~.a` V; ! .j  )+ m) V/ 9. g  2. w  T  8] Vn !(  ~ L~.mP z).M~.<: ",
"%z N@.pT vX N~.;. =[ U1 8/ |) w] O~.o> PA @o 4  '+ >e CX }s <g P~.Q~.R~.Cx Dx Ex Fx ,  C. K  >. z  ', P. Od w' Ed Z. |. 9. M. C{ O. B  O. f. g  g  @g t  2. L/ Z. .. .. f. Z.    Z. 3  g  Gx g  '+ $, *  p  c' Hx !> K. 6r b; %  t  Y/ %. '+ fn z  L. ,. '+ 7{ Ix  ~ y' 7{ 3  >. Y/ ;+ Y) 42 Y. e! .} f. Y/ j  2. g  7{ J  Gd l; z/ #  W. h. ;+ c_ K. hn o  jo K  g  Z. d; (^ o. fo |_ o  f  E  Jx w{ a  w{ g  I. ,> 3  p! Y/ F, 4  L/ M. '{ C{ .. [[ E. h  +]    f. _. 5  t. F, C. $) t. L) s. +] +. Me %  g  Z- '{ >f p. 3  i1 Kx O. @. p  &' K  o  4> t  )} ,+ w  u  C; 4  K. 8~ 2. L/ (. x. n( <{ =. *  .. Z-  ~ T     |_ _. &' g  t. z/ 5  f. E_ i  .. H. f. o  |! @o Lx >( K  _. fn =. -( %. z/ S~.]Z mo T~.U~.7f jI 1, [` @d :q D. V~.z  {} p> Me z/ C0 Z. J..7  },.6< W~.X~.-G Y~.<W _! ",
"C* J8 Z~.W'.oF L  $+ h  C{ 8j |[ @,.j. q> %. ). .+ P! `~.^q !-. {..{.+{.;y >y ,y E' 5  8. wd '+ _. 0. @o f  +] ~^ Y/ 8. w  B. c' z  y  w  9. 5  C{       j  .. t. Z. +. t. 1/ t. Z. $) g  +. @. u. z/ 8: @o '+ [e S} c' E. ~; m< j  H. g  .. r2 v, E. %  .. *  C; f! A~ (. a{ t  9. g  'y Yo $  Z. Me O. .. %. 1_ *  o  s! K     F. f. p! ,{ Z/ +  8{ u  8. E_ a{  ( ,+ _. b~ u{ z' o  g  '{ )y L/ B  kn 4' ,{ I. +( x~ [! C. 5  f. @. 4  f. f. O. _. l) i  >. i  g  Me w  5  L/ 7  t. 2. @. l) j  ,  J  t  P^ Q8 vd }/ %  S^ .} @o 5  !( >+ <. *' vd &' $) ek t  F: K  Z/ 7  F. >. 6] 8. Z. t] P! Z- Z_ 5^ 2. 3  =} >. f. V  .} &' g  3  8  3  .. u  Z- t. Z. -( 7. C' jn j  j  L/ F, 3  g  7{ jn B. (. !y BS o$.@{.g!.jI *u #{.)z d} y{ K1 ${.g| O  cG 8. s. $+ it %{.2  c; a) &{.W!.}u *{.{; ",
"se _) ={.-{.;{.>{.3> u  )> ,{.tV '+ h' w  k  O! C{ *  !=.'{.){.!{.~{.{{.3p fy 5p 9p kp 6c 9p ep rp _d }d 9p 7p @q ap _d }d 7p }d 8p ep }d 7p Dc 6c ^d ap 7p rp lp 7p }d 7p }d ap ap jp 7p 6c 5p ap 7p }d [d 7p Dc 8p uc ^d ep #q 8p jp 9p ap op dp 0p 7p }d pp _d (d pp 9p #q 7p ap pp 9p ep 0p }d 8p 9p 5p !d ap gy ip 8p 7p }d 8p ap 7p ep pp gy ip op pp 5p 9p _d 6c ^d hy pp ^d _d _d }d 7p dp }d vc rp dp Dc pp 8p 7p _d nc ^d _d 6c Dc nc ap _d _d 7p }d iy 5p }d jy 6c }d 8p _d 0p 6c Dc _d 0c sp _d 0p pp 7p 6c nc nc 7p 6c nc ky ap ^d kp jp 8p 3c 8p ep 0p 5p }d hp 7p }d 7p ^d Dc ep 6c lp _c 7p 7p 6c 6p ep 6c _d 8p ^d ^d 0p 7p 8p 8p rp ^d 7p Dc vc 7p ep rp 0p ep }d 0p lp _d }d 6c 0p 7p _d ec ]{.^{.rJ qP o` bf /{.({.4O _{.:{.z~ E~ JE q(    e  y  bM 3  Ed L. <{.[{.8F }{.Kh ",
"|{.1{.2{.3{.4{.=| 5{.G1 >e F; 6{.#( w8 7{.&' i  8{.9{.0{.a{.GR Q| b{.c{.Py Qy $q xc 7p 6c 7p ^d ep 7p qp ^d nc Yp Ry 7p kp 7p 6c fp ^d qp }d ^d }d }d ap 8p }d 8p 7p 7p Dc 8p 5p 6c 7p 0p _d }d kp 6c 0p 9p ep 7p ^d 7p }d ap 7p }d nc _d Dc _d @q $q 7p Dc 7p 7p _d <d :c }d ap ^d 7p 9p 0p pp .q 6c }d kp Sy gp Ty sp dp gp lp }d 7p }d 7p 7p 8p _d fp 8p }d 8p ip kp bp 6p Uy _d ]d 7p 0p Vy 6c 8p nc }d ap _d }d _d _d ^d ap }d 8p ep ap lp vc }d 7p 8p 7p }d }d ^d vc 7p 6c 0p gy }d pp ap 6c 0p 0p _d 6c ;c 7p ep mp qp 5p 8p 7p ip Dc jp 5p 0p 0p !d }d _d nc 7p vc 5p ap nc ky Wy ^d ip 9p op 6p ap gp 0p 0c 5p <d 8p ap ^d 0p 9p ap 7p 6c 6c nc dp 9p 7p }d _d 9p rp 5p 8p 7p 6c ^d kp 0p ep 8p pc d{.o).e{.f{.qP mR g{.h{. T i{.j{.!( 0~ k{.l{.$( *_ t. ;+ v] .. ,} J  +e m{.Pu n{.H8 ",
";| #4 &B hz |r o. H. a. 42 Y) o{.p{.J: q{.>P (A 8d >} Z>.Pb 1,.r{.s{.:H |z 1z sd )' C{ |. :. p. 2. F  '4 9: $; |e sf 2z sf 4! <> >f C; i  j. 3z g  l) Y/ 4z h  l; o. $  C] 6] Z- e! B. g  l) &' [  8. 9{ @. Ed @. g  $) z  p! 5z @o [{ w. f. t! M~ l( 4' :! A~ 4  7  :! b~ |; jn 3' @) 1_ g  6< @. _. E_ +g 3  '+  ' 5  Z. .. 6] >. Gx %. |_ *' .. Y/ I. F. 6z g! uh {. hn m. C  w. s> 42 l) F  o> g  E, B. z. '+ ,. Y/ P. u  .. .. Z. @. +. h  g  Z. t. L/ >+ 4  C0    V  u  7z Y. C[ +  -  @g f. i  (. sf ;. [1 g  M. Gd 8{ w. C; &4 Y. b; Dd 3   g *. 8/ e_ J_ fo :. 1< $, a{ 3  8z 9z 0z q< 2. A: [{ a  az (^ J  7  B. 7     B. +| E  8: [[ 9  y/ h. V' 7  Nd J  z  E. ]     N' g  _> 3  [  4> P^ ZN t{.u{.v{.Sd w{.x{.yu y{.WD H~ H, _. w_ s| z{.AI A{.1! C[ &   ~ I. f. `A B{.C{.pk D{.E{.",
"Tb F{.G{.[n 2t Gd H{.i^ (O @o zr I{.J{.DM l; K{.L{.Yw M{.N{.N| 5X O{.P{.Dz Ez Fz Gz Hz L/ Y/ [e C1 J_ Iz .. #. |. w  Y. e! v] *  #  '{ t. E; Y) ;+ N. 9. ;+ d  |e i: }/ *  Y, yd Xn e! u  f. O. 7z Me '+ L/ 4  S  V/ 5  8. $+ Wn {n t! o> w_ O( g  ,> 7  h) Jz Re ,2 Vq o( i{ Kz Lz J! Mz w) F. 7. a{ a! -. [e Q{ O. [~ f. f. 2.  g Dd |_ U  0x J. |) Nz Oz @f N~ [{ 3t }/ 4> C) n] >+ ;+ t. L/ 7{ a' b; c' V  9{ 9. e_ |_ >. %. z/ >. z/ f. g  $r g  3  %. g  v, 3  t  +. 9; f. g  ,+ Pz P^ Gd g  +. o  K  8. E. 6] 3  }/ C. 2. Qz C  O_ Rz t  x  #  Zf |f t< e!    w! Z/ *< g  y{ d  Sz p6 =x 9: 7{ &' b[ -[ x~ *. '  4e z. b: O. jn ,> X. <. V  @g B  p> H~ f! Jn q> <. '+  (  ~ w{ w  h  Y/ g  o{ K .]V Q{.R{.S{.Aq T{.|q 9k .R Q  U{.V{.J  ,+ t  a! %( %1 ZZ D! W{.}/ ,2 X{.Y{.Z{.6q `{.x( ",
" ]..].+].X,.@].C; K. K&.q' JL 0> #].$].dX .> g2 p' +  %].&].$#.*].c-.=].cr dr ]A ^A /A (A wd C~ l. d. J  C. %. E. |_ ,{ w' b~ =.  ~ j  >. g  Gd h  h  +. .. K. Me _A t| w' W- )1 H. d' wd $) 7{ _. p~ @o 1/ :A >+ w  Z- Z. 9: :{ <A ,/ 4  ~. yf =. d{ @+ @+ 0{ c]  ' |{ hr [A -r G) =2 jr 0  Ze }A &) (^ `' t! do 4; =. 7  t. 1_ =  |A 1A 2A |~ g{ 3A *. 4A ur  ' v  v  5A C; :{ T~ _. g  s  w  t. e! U  9: X[ vr w{ _. Z- z/ t. +. 9{ .. t. Z- @. ,{ g  Y. r  K  w' s  9. w! z. O. Md -x 6A C0 }e 3  F  v  g  V' f. u  $  f. =| t. I~ g  8~ d_ _~ #  ,e |. B. 7  y  U  7{ %. R> n! >. Xw W- m{ 6] w  Z- Y. w' x. =. _.    E. 7! o  e! co 8. [1 9. f. ,{ @o 'u a) cn x  o  g     K. j^ I_ *  O_ 3u -].u{.9A ;].>].,].[~.'].)].!].|X x. >{ $+ vw Y/ W  t) V- 63 ~].{].U2 8. t! ^  ]].{U ^]./].J[ ",
"}, `>.pF Rr (].F. $, Sz |-.H| *+ p~ _].E| hn xH (' }g :].<].[].}].Pw T&.xA yA zA AA BA CA DA 9. hn c' j  u  +. 8. [  g  <. _> V  7{ +] h. E. g  &' g  f. w' |. 8. j  '. w! &' p~ L  Bd Z. 1_ H. B  ,{ %  ,{ *  x  t. 4  a~ Z. 8~ EA FA O} %. $) GA >< =^ do b~ =| W- x. 4' C' q' 3  7r HA IA JA KA LA MA NA OA -s PA qr ff QA X' RA SA TA !s UA 0  *. !) :! |! J  v) A| a' /; d; || :. A~ z/ 5  Y/ o  =. w' g  b' _. t< b~ p  h  8  f. C~ Me wd 7. w  ]  Y. $) p  F. .} c' 7  |! f. +. }/ Ed %  %  i) >. VA WA |. s. e_ g  p  .. t  [~ [: :. h. 5  &' vw c' .. X  X. :  2. 2. a! F, XA .  Zf 'u Q' r! sf Z- .. .} %  W  (. <. d. '{ *f YA [~ $  8  $) j  >. $  6  :  ZA $+ j  '+ F  4; Z. c] `A |].FI qh 1].Y*.[s ,` {N ~O 2].3].4].}e T) T] z) Ko %+ 5].r  7> m< }^ + .M~ L. H. 6].7]. K 8].9].",
",G xu 0].wA fs 6X ;p Z  $+ ^: G, yo K` >] ]! 7;.cI a].gP b].c].qK yG 9k bk 3B 4B ws 5B 6B 7B 8B gh 9m fa ]5 q5 qg kh 20 7m 9m #0 Qv )5 [h 9B 0B vg mg mg 16 ca d9 aB :4 10 Bg  6 74 ih 9m *5 {h  6 {h [h 3m bB 't cB dB Ls eB fB gB hB iB jB Lg W4 -0 kB lB mB Qg f8 '9 ]7 U9 V9 nB Zg V9 Z9 Tg oB pB e8 A7 qB d7 Wg 58 rB sB tB =7 Q9 W9  t `9 Mg q9 L4  h Ys Fg @0 uB fh vB  t vg lb wB .t  9 #t Ym xB yB zB AB ah z9 =h BB cw ah ;h  6 Zm  6 CB Cg ih xg AB rg %h *0 't o0 pg !b DB %h Im >h /h :b EB :b <h FB Za ng jh |h 9m g5 Am GB 10 {h !h wg n5 #6 bb ;t db Ym HB ga c5 Rm %6 J9 |0 IB JB Ba hh  6 }h &t ~0 dh }h j4 sg ug tg KB V4 |0 Ba LB 2h 10 o0 {h g5 9m 20 MB 10 }4 Rv N9 NB OB d].qh aJ e].f].g].4o h].iM -n i].2t j].&{ k].[. N> l].m].n].9` o].p].z/ 7. 4> Dd BC JF YE q]..4 ",
"r].s].Iv t].&p /,.b| u].)( v].`' D  z} ', w].c; ,, x].y].z].A].B].C].N+.+| ~C {C ]C ^C /C (C _C Tt Zt >i .j Ui -i (i >i ]i >i <i !i  j zl }i :C ]i (i <i ]i ]i !i Ui {i yt Ui 'i ~i *i +j ]i ]i si Ek 4i [i (i Et ei <C Ji 0i ui pi At Ji Kt Dt ji pi 8i hi ti qj Dt Ai Ai bi qi mi ji Ai 7i [C bi qj Bt Gt ni ki vi mi Gt xi bi ni ji Gt }C Ct |C Bt Ji ci bi 1C Di 6u ii Ei 2C 3C 4C *j 5C Ki Rt ei 6C Bi Ki 'i &i 4i 7C Tt ~i Ii [i *i [i .j 1i >i *i ]i >i Ui 1i Xi )i Ki 8C :i ei Xi Ui .j <i [i [i zl Jk Yi :i Vt zt >i 4i >i Xi [i Cl ]i Yi xt #j <i <i Jk @j Ui ]i 5i )i #j zt >i |i =i >i #j )i |i Ri Xi Yi Ri [i Zt Ki 'i Ri 9C 0C Gk .j %j Ui <i >i {i <i (i )i :C Qt oi Ti oi Mi -j aC XJ @u #u A  e_ D].cs T| E].F].G].9. 8~ +] ;. ;. 1f O  [: H].2).H! I].U  p. J].K].P;.gM L].z| ",
"M].N].O].P].+K    O~ .I ww Q].5N 5~ &' R].d  y  p^ UI wh 9;. '.S].-n T].)f FC GC HC IC JC KC Rj mj tj oj tj qj nj tj 'k ki Cj Ht Bj wj xj Wj Bj Aj vj pj vi ri Sj mj Wj Wj xj Aj nj bu pj nj xj `j Yj nj yj nj LC pu [k xj <k MC &k >k Ft pj mj Kj yj qi yj Bj .k 'k bi `j yj Cj bi rj Sj ki }k nj Bt wi pj ti ,k NC Sj pj Aj pi bi oj .k Sj vj Dj nj /k nj vi OC PC fu QC RC su SC pj Nj pj KC 8u /k yj -k rj uj Cj bi uj .k ki vi Tj qj oj tj Wj vi Dj Bj ki Fj oj /k Bj Fj mj bi nj zj qj ri Dj nj uj tj LC Sj 'k `j xj `j Ij Yj Dj 'k mj TC xj qj Dj mj lj ]k vj [C wj ki Fj Aj Hj UC vi [C tj Bj yj &k bi Tj qj nj pj vi Bj Sj VC |k lj 'k ku cu vi Yj wj eu Fj nj vi Lj yj WC Sj nj XC 1k H+.3k `C *. jt :j U].V].dA ot W].Ee {=.p. }! Vf C' Md X].w] 8N (I Y].h[ Z].4' W&.`]. ^.oJ .^.+^.",
"@^.#^.hX <) XB t< pS #; $^.N) y! U1 Op 6e +] @' 3z +r yx %^.dJ &^.!M c-.N3 v! 1D 2D 3D 4D 5D Bl :i Zi Al Gk `i Jk @j Jk .j ql Zu Jk .j :i +j 6D yl Bk Dk Dk Yu :i Ik Cl +j Bl Zi Zi @j Fk Al Ik @j Nk pl 7D 8D 9D av @v Vk 0D aD bD <l cD 3l 8l dD eD +l fD gD hD /l }l iD ;l jD ,l <l kD lD :v mD nD [l [l .l oD {l pD qD rD rD }l sD tD uD vD #l .l wD xD yD #l 6v zD  v AD BD ml cl vl CD DD ED Zi hl Vk bv vl il Il FD ql nl Zi yl pl Zi Gk Zi pl 0v @j ol GD Zi Ik :i Ik Ik @j pl HD ql ql Dk Fk nl {i +j al )i >i +j @j ID Ik Pl ol Si *i Cl ul `i Fk Ik JD *i xt Yu Gk @j ol Ik +j Gk @j Tk Ik ul Kl zD Qk ul Ik il Gk nl KD Mk Mk <i Hk Hk hl Kl Ik rl Bl pl Tk Zi @j LD MD ND Pl Nk OD jv *^.=^.h~ -^.q. I%.;^.>^.,^.Yr '^.6g *V )^.z  P; dq |[ p~ f> !^.,  0~ Kb T' ~^.{^.]^./*.^^./^.",
"4X (^./y ;H _^._. #] '+ :^.h2 {. RU j*.[{ A~ ,{ 6] T. <^.Ln [^.}^.gs |^.n~ ,E 'E )E !E ~E {E ah og q5 |m Im ]E vg d9 {h >h pg Zm q9 ^E %6 2h [h vg vg 1m Gs Cg qg jh Cg {h d9 J9 ca 20 og 9m 9m |h d5 /E (E 7, _E :E <E ;a 2b |0 .b [E }E jb |E 1E 2E Ca $w rb 3E im rb 4E 5E 6E Z0 7E 8E lm rb 9E 4b ]w 0E aE bE Bm #w cE dE eE vm fE 0b zm la -5 gE !b am -b hE Cm 35 7m _w %t <w Vv am J9 iE bh ^0 #h 5a HB c5 eb pg 7m  6 |m ng Fm &t qg fh ~0 Jm d9 )5 U4 *a 4w :b |h 9m jE Cm jw `a kE  6 &> pg 84 t9 )h 9m y9 !h g5 og lE fh jh |h mg ih Bs mE vg GB d9 vg DB nE d9 >h og %h %6 %6 Zm 16 dh 9m &h :b oE Ym 9m eb fa LB /h og vg &t Rv %h }4 pE qE 35 Xm :b rE g5 eb ]5 bb |m s9 sE tE uE 1^.2^.3^.4^.+( _q ];.$x i).a@.5^.6^.7^.do *C t  E. ~~.X' 8^.!I H8 C. A. I_ ;3 i~ 9^.^].0^.`x uR ",
"QE h>.Fq N+.a^.Zn K> =. y{ b^.j. v< F  O! <. .} :  G1 c^.FN d^.e^.qy @X .F +F @F Uw Vw #F K. u  K  J  @. l) t.    t. B. o  Z- &' B. w  w_ w. >. `. 8. 2. t. i1 g  g  2. C. g  >f 2. t  @g +] Y. $  b; l) Vn $F L' $+ Yo Z- S} q< _. z  >. sf _> f. =. +. E. p! |_ A) $  ;+ x  5  en '{ M1 H. [e _> o  $+ C{ <. B. %F Xo t. L) %. E. z  7. E. E  |; =. B: |! t. z/ @. A~ 8! N0 J. B  C8 7{ f. v, B  p  9  C  )) s  3  8  O. C| |; .. M. |. 4  F, C  nq R  b~ _.  ~ 2. C. *  hn +] <. 1/ w{ ^  N' C; g  y' d; &F ). ,{ &' O. f. @. -(    4  7{ e_ B. @o %. +. jq M. p  t. o  z/ t. O. &'    .. +. +. t  p! Me w  .. <. Gd r_ B. Y. m] t. Z- '+ O. B. Z| |_ 3  g  E. 2. +. t. 2. 7{ Vq    fo &{ g  f^.g^.^Z +x @x ;C qk 3+.h^.O).BZ i^.j^.n! R> u. >e x8 G  Nd k^.l] {/ eU Z' l^.#m m^.n^.o^.p^.q^.",
"hK {L AJ !].D).d; i'.J  F. X).4> r^.|{ x{ E, $  x{ C_ s^.t^.{N u^.1$.v^.aF bF cF dF Fx eF i  3  K. &' 7e E_ T  O. t. B. 9. O. '+ ..    8j B. O. t. C0 g  C{ t.    t. f. Z. w  g  c' ;. 'f }/ Y. 2. 9: [e  ( Z/ fF L  7z Z/ O( h  [e >. u  gF g  N'    8! '+ 7. k: y{ ,. f  L. E  g  h  $)  ( o  u  Z. )> *  H. 2. 7{ b~     ( 9. $  9z X[ y; $  $. 7. ,.  + U  t. 2. Z. #o B  J  [: [: K  t. d; Ad Y. ,. g  :} o  %  p. 9: K  co t. 2. X[ g  L/ B. =} Y/ 4  =. &, '+ 4  @. .. Z- t. >. 7{ J  Y, |; [1 O_ 8. b{ 7{ 2. >. +. '. v, Z. E. p  |_ b{ =} J  T) 9; g  &' w' 8. g  3  1_  ~ )> '+ e_ Y. J  M1 4  h  Z. hF W  J  @o u  Y  h  j  g  .. .} >. >. w  F, C{ f. 3  E, 8. g  +  =. u{ ,. >. #  9: w^.x^.y^.z^.dx A^.B^.C^.ot u!.D^.;N , .$  Y) E^.P> U  F^.G^.u) g> H^.'; O> I^.J^.K^.L^.M^.I; ",
"N^.O^.Bp 9k Ub Vq N2 p. E. P^.$) ]g 5Y n> $+ |_ K. 8r Q^.P;.}B R^.E).S^.OF PF QF RF SF t. |; g  >. 6  y; &' T  [_ 9{ 3  9. %  g  >+ B  )) @. @. +. f. %. Z. Z- t. t. .. >. g  B. @. |. f. g  f.    *  h  %. c' }e }e K. =x p! j  @. |. %. u. F. >. E. ,. 4  U  ;  &' TF |! 3  $) 3  R> :{ 42 _> L/ g  z/ 8  @] t  Z. w{ u. Gd }/ g  #  L  3  7z X- O_ }/ hF '. |; g  g  7{ 4' G| UF <. E_ H. ,  I. |! Ad |! ,{ VF b~ 3  9: %  +. 4  y  Z. *  .. o  .. E. [  8. 4  f. _. U  C. l) w. p  Z. [{ p. +] g  j  L. g  e! Z. $  s. Y/ [~ ,. >+ WF H.    9. Vo $  2. 7. ,+ 7{ u  o     `. $+ [e @g [~ 7  W, u) o> 8. 2. o  4  J     |_ _. T  2. C{ t. @. t. Z- <. .. $) y  L/ _. c_ *> w' o  7{ q> b{ d; $) g  T^.U^.V^.#).W^.Kq 8k B&.=u X^.Y^.Z^. + `^. /.&' g! ./.61 +/.@/.]H #/.x< $/.%/.&/.X$.*/.Cq ",
":n =/.&B hz -/.;/.z  Q8 O_ K/ M' d' vJ >/.@) 8| h^ m{ ,/.g,.Xc nN '/.)/.:G <G [G N' g  io    -( 7{ u  z  N' |e Ed 8. Y/ [[ w' O_ $) C. |; +. Z. Z. C. a{ P^ g  @g g  g  5  Z. t. C{ >. f. y  g  u. C~ c' @o    2. u, c' E. t) C1 j  2. >. wd o  Z- E. ;. >. 8. _. @+ fn co ,{ g  o  g  6{ b; }G g  .. w' f.  ~ 2. M. Z- v  Z- O. t| 4  9: J  f  Lx u  P^ =| w  v  7. L) ,. ,. w; u{ w  @. >. j  o  7  ,. 4' O. ]z |G 0] [! 5  5  g  y  '. t. C~ w' 5  K  +] $) 3  Z. 1G w  w  Z. n] t. )> L/ Z- [  w' J  %. 3  j^ <. <. 3  a; 2. ,{    F. B. _> K  ..    g  k  %. U- v, r_ x. &, 2. $+ |. @. t! l] l) .p o  t  8. 4  %. f. l) O. '+ @. 8  =| *  9{ Y. Z- t. +. t. J  *. B  [1 ;. V  @. %  t.    ,+ .} 9; !/.~/.#p {/.]/.%D ^/.//.(/._/.Z. [, Z@.:/.1{ f~.l_ </.[/.}/.#].|/.Q> 1/.2/.RS gP 3/.uR ",
"B` x{.4/.YI 0F !> -C ,{ Rz V' .. 5/.o, g  6/.h^ 2` 4. 7/.lt 8/.9/.0/.tG uG bp }d dp _d ep 7p pp 9p ^d 7p up nc 7p 6c 9p 5p pp jp 0p 8p 6c 6c pp _d _d 5p ap 8p 6c }d 8p kp }d 7p _d }d Dc gy _c ^d cp 7p 6c _d 4p }d bp 9p bp nc ep jp }d 7p 7p 9p 3c }d 0p ap }d +q _d }d lp 7p pp _d dp 0p 7p _d ip 0p 7p (d 0p vp ep 8p 6c 7p ip rp Dc 7p dp ^d dp 0p 7p jp ep 8p 7p pp op pp _d rp 0p _d }d _d 6c 6c 0p 8p }d }d 7p pp 0p _d 7p }d 6c lp jp _d op nc 8p 0p ep 0p _d jy nc 6c 8p ap ^d Dc ^d 5p nc Dc 8p vG 6p }d 7p nc kp }d }d 7p @q rp ^d jp 0p ap Dc jp ^d vc kp _d ep 0p 7p 5p qp ep }d Dc _d 6c 9p pp op 8p }d }d }d 7p _d 7p lp ep 9p 8p 9p 0p ep _d !d ep kp _d ep }d rp 0p kp pp ap _d ^d sp dp wG N%.a/.b/.F{.c/.bf d/.$*.XM P' e/.(! j]._> _x f/.g/.n  h/.Y^.B; 7> i/.j/.k/.l/.NT ",
"f/ m/.+K ;H ~M q; DH n/.E  o/.ce >< EZ |{ Q{ #^ Y  p/.q/.RG )&.r/.s/.m).Py VG ^d Ry dp _d ep 8p 3c pp nc ^d 9p 9p 7p ^d ap 7p 8p _d _d ^d _d ep ^d ip 9p ep _d 7p rp 6c jp ip 0p }d 9p _d }d _d 5p 6c _d 5p }d 0p ^d dp }d kp nc _d }d @q ^d 7p 6c 6p 0p }d 8p ky <d 7p ^d 6c dp 0p gp mp Dc 7p kp kp 7p np fp 7p pp 7p 0p 7p ep pp 8p }d ^d 0p 9p lp tp 7p kp 7p ^d ]d dp qp jp 7p jp 7p _d 0p 7p 7p 7p Yp rp 5p 5p <d 5p op xc 6c _d 6c nc sp Yp 6c 5p Dc ^d dp 9p !d 4p 8p WG :c 7p 8p 5p xc dp 0p Hc }d ep }d 7p 0p ^d 0p Gc lp 8p }d vc 8p 7p qp ap 7p 9p ap vc 0p 7p 6c gp ep 5p }d 9p dp }d rp op _d $q _d }d 7p 0p kp ap !d ^d _d nc 8p dp 0p ^d gp jp 7p 8p !d 7p 6p ap ep nc _c Dc _d Ty  q ap ep Xy t/.Zy u/.v/.w/.x/.RX d; J  b: O( y/.z/.K> u{ ,] A/.C; B/.C/.D/.vy !-.8,.|j E/.F/.",
"66 G/.R- H/.I/.%F #g w) ,> g  *> U~ cX J/.e_ Wx M^ L. Yc j).wy Bn K/.:H <H rd [H 2] @. 8. Q8 s. g  9. s; L. 9: }/ _> <. N. :  <> $  9. Y/ O_ f  g  Z- Y/ 0^ *  I_ s_ $  V( O! F, Xf J  Z. w  7. m] 3  g  t. S^ g  g  p  f  p! }H 4. ,+ &' .. |H 1H (^ 8! %F C8 4  0x a~ b~ wd '  2H mq $) @. )4 @. 7{ F, X. '> T  `' g  2. .. p! $) f. >. =| v, M. 3  ho =. [/ 3. uh 3H 3  |e v] &' j. 8. F, F  b{ g  $  t. ). 4  |! h. A. Y. Z. f. f. t. .. *  f. f. wd Z- O. 4  M. 4  _. P^ ;+ |_ 9  D0 U~ Z- wd Y/  r vd id h  g  2. <. u  B. o  4H 8{ p! c_ %  O! oq !m [~ N1 P. $  K> V' u. %  r. 5H Y) j. t. G( q! p^ T^ G_ >( &, 4  7  u. ;< a~ uf O_ @g }/ n. +] 8~ ). *. w' $) 3  [[ 5  O_ Z. sf h  42 Q8 'f 71 L/.E>.M/.N/.O/.P/.Q/.R/.S/.)) 9{ XQ T/.z: s. H} :. U/.V/.J' ,1 W/.X/.Y/.6q Z/.QS `/. (.",
"H' .(.]r +(.Ju p^ {_ I^ 1!.|| 3u F-.@(.#(.$(.%( c) %(.=E {) Oo &(.P'.x .vH .s wH Gz e1 E_ |. $) e  xH F  g  C) [1 K  _> _. [~ +] p6 .. t. Dd 'u ~> u  vd r  yH u  V, Bd L. 3q 6] *. .. |_ Z. B. ;+ h  )) Xo &' zH    O. 3  p! #] x, AH .' x. W, C{ C  7  a  D, M! e/ ~[ d< n{ (3 BH C( v~ w) G  &' O. Y  -. $) XA &' ]  g  @. t  vw `n |_ _. w_ f! D  CH ={ uh N~ M~ 6e b[ :  s. C|  ( }e .. o  _. 8/ |. 8: 7{ Z- Z- (. u  >. t  t. g  |< @. 9{ }e Z. C0 $) H. Wf %  2. K  (. g  g  t] w] 3  Y. Z. y  Z- 9. 8  *  >. 3  Y. t. 5  [^ H  K. DH $) c  Y, C) a! -} C; jn G  O_ EH 2. Mb d  v> Y) H1 9: w{ 5  a! ,> ~[ B) B  7  [{ +| &' B   + k: <. @g g  yf .  FH sr |! G  }/ 4  u. 7. U  o  E. Y/ C{ de -*.*(.=(.JH -(.I{ ;(.$4 >(.cf :;... )1 ,(.RV Tf u2 '(.k] L! Qz /; )(.!(.~(.%H {(.3~.Jh eN ",
"Z, ](.^(./(.((.p1 _(.:(.O( <(.K_ t. [(.yC (^ ,; 9| }(.zo |(.1(.2(.Qr 3(.*I =I -I ;I >I ,I y  g  X  6  $^ C. >. L. |_ &' &' %) F. )> E. >. .. Gd [  3  F, f. K. ;.  + N_ R  O_ c/ '+ d' F, %. C; .. i^ nq WF n(  ~ v  L/ +. $; 0z JE 'I B. *. yf Z| d{ f! {: q; *. w) D{ L~ )I !I f# ~I {I x~ %s lr ]I B_ ^I [! Zw 4r C| B  g  t. |/ /I (I _I b| x' p1 :I %s 8y `' b~ E! ,> b~ #  Wn U  Z. j  L/ C~ _. 8/ y( E. C8 v  7{ 9. Z. g  Z. >. g  t. l) .. #s t. 3  m. F, >+ s  F, =. [{  ~ e< 3  /' 8. }e hn [~  + |< 9: g  d^ $  .r Y/ z/ H_ 1/ 9: X  4; Y) &{ @] H. [{ @. 7{ d; %. )4 c, g  w> <I [I y( Z- y  u  -( e< =. d; '+ [  W  Z- +. n< 8. 8  C; f. ,{ E' v> 6  $. x  w  2.    f  }I #| 8  Z/ 81 l*.{..4(.!!.5(.6(.0N 7(.!C 8(.9(.M  s> m| 0(.+>.&2 h_ a(.*  ]/  ) @. ^[ J. z] S'..'.!j SS b(.",
"[^ , .c(.O..d(.e(.q> f(.g(.,2 v; d_ G  c) h, RV }V h(.i(.j(.U< t~.k(.l(.uI G^ vI 0q wE wI ,I Z- _> V/ ;. _> >. Y/ j  z  _> <. 5  _. E. E. tf [e J     f. ,{ Y/ *  8. U  q> T  u, yr [~ g  2. p  0x &' io ,  ;. X. f. B. Jd .. V' c/ FA +  z  z  w) A~ B) Nd v  |_ O_ x. jo =^ K. 3  7r gj 3r xI `2 LA yI zI AI BI ]^ qr d: hr /2 CI DI |^ Lz 4g H_ Xn ,+ Ad _. &' @) w; b~ /; ,. 9! }e A~ .. g  *  @g h) '+ $) ;. 5  s' b~ %. j  +] wd t. f. g  E  f. |_ u  1_ .} =. g  `. B  7{ g  9. sf 3  3  3  8z $) b: EI b; ~> (. C. [e >. t  7e `f p. %  7{ 7. [  O_ C{ O[ c  :  %. )> o. w  8e w, C) 4z 2> 4> Y. K  t. tf 3  |_ e_ _> 6  |. 8. [: K  >f 3  $) b; @. :. /' cn d  h  M' 4  [~ 4r g  >{ %g m(.n(.9A HI o(.4) p(.2+.q(.pT r(.s(.k; z! t(.u(.Hq Yb mK *< v(.#+ <*.L. '+ WA X) @T w(.x(.y(.z(.",
"A(.B(.C(.rz D(.E(.K^ gA 2~ F(.5> <x vx /: R~ G(.S} b~ H(.fM M@.I(.J(.|>.X/ #J $J %J ig 1z &J lg #h 9m d5 [h rg qg 9m dh )5 c5 Cs ih :w MB d9 ah ng wg qg Xm qg c5  w n5 #0 #0 vg 9m g5 9m vg #0 0B q5 q5 k5 35 *5 *J Fg Y9 x4 Js =J hB -J *6 ;J >J Mg Rs Ns ,J '9 (0 70 a0 Q9 G9 W4 U9 #9 'J Tg kB )J !J ~J Ts d7 Vs D6 D7 {8 {J ]J ^J !9 a0 /J (J _J .h +9 :J L4 -0 B5 {0 `s <J  6 >a wB [J  9 Cg {h h5 G9 'h }J %h zB ^E |J 1m #0 1J %h }h %h  6 jh &t  6 05 Cs #t z9 10 Cg 7m am %h /9 yg wg Im Ym `4 d9 2J /6 (E [h  6 Eg qg og 3J bh d9 10 jh CB Lm ]5 D5 D5  w ]5 4J &h c5 5J %6 dh ca `m 6J @a 7J }h %h ih va 74 }h eh xg #0 mg KB i4 74 hh 30 vg *5 o0 %h 9m qg 8J mE q5 H4 a5 ^0 c0 9J PB /t cO K(.L(.5~ 'P :@.1).mR M(.N(.o@.O(.P(.|P 4; $  1_ B  1. '4 co q' Q(.ho t  X&.B!.R(.os S(.",
"I8 .K Sr vA T(.U(.V(.W(.v< ~; X(.X; E[ Y(.Z(.S. `(.'I  _.yJ ._.U).AJ iG {/ ~C CJ st DJ EJ FJ GJ Yi {i ;i ;i )i [i #j ,i `i 4i Xi Jk Hk (i 1i ]i Si 1i *i ]i Ui Yi [i )i xt ]i [i Ti Xi [i 1i |i HJ Ui )i (i 1i [i di %j 1C 1C oi li IJ xi 7i Dt JJ Bt <C ii KJ gi ki Ji ji wi ji oi Ji 7i Ji pi Bt 7i Gt Bt LJ pi (k ji ri ji Gt ni vi 1C uj Fi ii pi bi ii ji qi Di Ci Xi Kj Ct 8C Et 8i li Zt MJ NJ OJ Ti Xi ci Ki si &i Tt zt xt xt <i Ui .j ]i *i zt {i <i Ui ]i Vt ]i <i yi [i PJ Ki -i (i >i Xi QJ )i :i Si Vt zl &i ]i (i <i RJ  j xt {i Si 1i [i Xi Yi *i {i )i Ri =i .j Ri -i .j |i 1i Si [i SJ }i Xi Pi Xi -i ]i *i Lt HJ [i Yi Vi >i {i :C }i <i Ki TJ ~i -i (i zl 6i 4i Ti oi UJ VJ +_.@_.#_.R*.$_.(. %_.&_.*_.=_.-_.;_.8] >_.W] ,_.K^ n] E  *  '_.sf C  (: 8~ A/.$  )_.!_.z` ~_.{_.",
"cZ Eo ]_.bN ^_./_.(_.G} TS __.<< :_.<_.[_.}_.|_.1_.:y ~) xy 4o 2_.)G UU 81 <2 {K ]K ^K wt kj lu Cj tj Ej tj Kj nj Fj Tj vi Fj ti tj Uj nj yj Aj vi mj tj vi Cj Dj tj Bj yj `j Bj pj pj Bj (k fi vi Bj LC eu bu wj /K {k wj ^k iu #k qj Tj Ej Ej `j qu /k Bj Kj uj Cj Dj yj (K ri Wj rj Vj vi wj [C Sj rj ri Tj wj Dt Dj Hj vi ;k Aj Cj |C lj mj mj mj bi Fj vi mj _K :K <K [K 8u }K Bj }k vi |K ju /k }k ,k Uj ti ni (K uj .k wj nj Dj Wj pj tj 1K pj Ht Bj xj pj 'k 2K yj ji Cj qj `j tj pj mj Sj vi .k mj `j Vj >k `j xj Aj Bj ki mj OC Cj pu wj pj au mj 'k 3K Bj yj -k Bj 4K (K qi bi nj bi Bj vi Fj 5K yj Sj ki vi Ej Wj yj Sj 6K _k 8u ri wj Jj nj Yj yj /k ji bi vi ,k wj *k xi fi TC pu 3_.4_.X] *. 9~ d< Lq 5_.G/.6_.7_.8_.9_.zH 'n K{.mK =[ ,>  U  . 6{ |. Z. 0_.a_.m{ _L b_.G!.c_.d_.",
";/ e_..R hx f_.g_.a: h_.i_.n] = .j_.yH k_.L  B  b) l_.m_.n_.f,.wQ D).o_.uK vK wK xK yK zK Xu {i `i @j ,i Gk Al Jk @j >i +j Dk AK BK ,i 6D 6D Gk Bl Fk  j Dk :i +j rl &j {i +j Zi Zi Zi Gk Ik Ik @j il Zi jl CK DK CK Vk xD vl AD EK &v hD !l (l #l kD `k ;v &v *v |v cD fD ^l FK $v GK nD 4l &v |l HK ,v [l IK JK KK LK &v mD 2l MK )l hD NK /l 5v OK PK Wk fD QK RK xl nl 8v !l FD Mk SK TK gl UK Zi Pl VK WK XK nl ml jl ql Fk Pl Zi Ik Gk Ik Ck Il yl +j pl vl Ik ul `i Ck ul yl Gk Ok rl Ik @j xl wl Ui `i Tk `i {i Cl Ok ql Fk ul :i YK :i Nk ev Jk GD @j !i <i -i )i Jk ul Fk _i :i 6D Bk @j al Dl fv ZK FD @j Ik Il Zi  v jl Ik Dk `K *i  j  L av sl @j .L Gk Gk Zi Pl WK +L Pk Ll hl Ql p_.q_.)~.<2 #; 5> IZ r_.)D s_.t_.u_.X| @+ v_.In }! P. dM ;' s2 A; (D W. %.  o L) 2!.Nw i!.w_.x_.",
"O, fx y_.z_.OV V/ A_.B_.C_.D_.E_.H[ Z/ :  s. 9{ gH (3 F_.7].),. $.hX G_.*+ Kv |L 1L !E 2L 3L Ag 9m q5 Qv As 4L m0 LB o0 }h 5L Cg '9 Vm Rm 't ng ng {h ih d0  6 q5  6 DB %h 2w Ym 30 qg og og qg #6  a [w pb 6L :h :E `a .w 7L Em .b wm #b 8L @w /a _b .b ja zm @w 9L 3a 0L aL *w {b bL cL dL rb eL fL gL ~b hL iL jL kL lL mL nL oL fE pL `0 qL rL *b oE sL j5 tL ~5 ~0 V4 Ta n4 uL 5a vL e4 f5 xg =) #h .n b4 c5 eb Mm 7m wg 16 4w Ym 16 vg Xm [w ob d9 )5 D5 aB Ym ob Ym ca wL Sa zs .b nb Bg &t sg %6 84 gh vg 6w 10 qg 9m yg fh !h 74  6 /h &t #a 10 &t lh %h DB Ag og d9 vg Cg {6 {6 Qv 16 aw n5 20 |h {a g5 mg d5 eb mg aw g5 %h &t Cg Bg *0 Wm [h 35 ih g5 xL xg hh aw o4 /9 IB yL .n zL 1S b'.-;.%n a[ H_.7].:Z o;.I_.J_.K_.L_.q  '4 hr g( M_.N_.9  &d O_..! P_.>^ 5> O. Q_.RG p+.R_.S_.",
"T_.DE 9(.jP U_.V_.W_.X_.Y_.Z_.~; {< gn Dd `_. :..:.C .+:.m>.yx @:.&A 5n YL ZL `L Uw  M RA K. 7! Z- ,  @. Z- C. B. .. &' L/ o  r'    w  jn '+ $) f  8  M. 5  o  f. )> g  t. C{ .M '{ %. '{ 8  u  $  Y/ +. 3f )1 c/ $+ h. L/ it u, 7{ p  t  _> Gd .. q> o  E. V' [_ ^s $. Zf k: .. K. 1_ z. H. .} sf Z- Me f. u     :! o  1/ [{ +M jq  ~ E  E. $^ o  ><  o 7{ t. g  g  q> /; v  f! x. ,. w{ z/ [~ .o g  Bd v] w' b' 8. 3   ~ &, 9. .. r2 |. u. +. a' !) t. b~ 7{  ~ 2. g  8. 3  d^ C0 g  5  P' 8: w{ z/ *. ,. b{ ). J  w. w' .} l) t. B. 4  U  [~ u. ,  )y Z- %  8  >. g  V  C{ z   ~ O.    f. +. K  '+ p! v. F, t. _> Y. N'  ~ sf ;. f. w  4     5  F. Y. 3  g  Yo $) L/ @. g  w{ f{ H. 4> V( C. #:.=F $:.m~.%:.T{ &:.]) *:.,N =:.-:.B( bt 4_ X  {< ;:.>:.Gd ,:.8  :/.':.Z. <F @; b&.gk :@.kt P: ",
"w/ _V ue ):. ).!:.~:.{:.]:.^:./:.$  (:.w; w{ _:.::.<:.[:.3o }:.Tp |:.1:.[M }M !E |M 1M q! 8. 8. O_ [e b[ |; 8j H. 2. 4  F, '+ 4  9{ C. )} 5  '+ 5  8. g  t. Z. O. g  t. Z. +. @. K. $+ u  Gd <. %. 6] >. O0 Z/ =x .2 !> K. W, X[ $) 1_ _> |; Z. bn 2M b{ 4  ,{ }I l; ,. N' %  ,{ H. 8. H. '+ +. Y  g  t  j  C{ t. Xf b~ B. &' Z- T] #] b; cn 4! :  J  _. v  _. @. 1_ f. `[ x. 8j  r p[ o  C~ _. @) sf V  g  q> Z- 8  $  O! |; co 5  $) E. f. Z- a{ H. %  >+ C| =. '+ 4  2. g  9. Z. )> in E  Y) 9. Me Z/ 3  b{ _. >. g  Z- d; hF Z. *  p  _> b{ =} t  T] (. l) 7. ,{ Y/ @. 8  >. t  J  a{ K  |_ E  M1    b; t. i1 sf &' k  +] a! *  '{ f. t. t. C{ g  o  +. Z. .. 8  $  3  1_ >( F. -} -( %. m< 9: 3M 2:.3:.4:.,T 5:.3~.hP 6:.7:.B[ 8:.9:.Z] 0:.t< D; x; >F A8 a:.8_ b:._~ c:.%r t~.Q>.d:.l/.l_ ",
"e:.)D f:.I-.g:.h:.d` Y2 i:.:j b~ .  E' f. j:.PM k:.'4 l:.rn m:.<W ne n:.sM tM Ex ao 4. t. |; Z. p  ', P. )} ,{ u  f. Y/ 9. C0 Z. '+ B  '+ |< Z. g  g  $) @. y  g  @. g  f. @.    f. i  t. t. f. 4  E. h  [e `. p. }e i^ >e $+ 3  Z. M. g  H. b{ 2. [  |! B. '. [: O. sr _. *  4, +] }e e  [  _> L/ g  z/ |. 8. %. g  _. w' 7! c; C~ #  wr *  }e y) N' _> y  C; |; z/ g  8/ t| 9  c  |_ 9. >. J  G  w  %F 7{ 4  B_ ,> Y/ b; 8. F, 4  y  .. |. Z. 9. L/ b; ce P^ O. .. U  ,. t. L/ O. t  f. x. ~> Y/ f. L. L. t. o  C. $. p. 3  -. 4  t. t. $) '+ .. o  $. g  O0 ,+ V  _> L/ 4  K. ,, p  Z- ]  x. O( `' q> +] z/ y     ,{ '+ _> _. 7. >. g  9{ f. .. L/ u  Z. g  f. Z- ,. Dd O} )> o  _. q> A~ ,. z  >. o:.p:.SZ A;.q:.r:.~O s:.,@.O%.y| t:.~ .u:.S( V*.{K v:.w:.x:.v< V] y:.b: @+ Yc F..z:.sQ y*.",
"In rJ A:.B:.C:.&< C| 7r Z/ F. >x H. L' ~~.w, (  ;> B{ $P j/.D:.3n :> E:.UM >y VM +  f. '> .} 4  ,. <. f  O_ 7! d^ 3  8. o  w' f  p  Z. V  +. f. .. z/    i  g  Z. wd .. g  Z. wd Z. p  g  Xo t. u. g  O_ $m 4   ~ s> c' E. a. p. [  $) t  .] Z- 9. E. %  .. (g _. @+ F. [~ 2M $) y  f. Y) E. 4> 5  g     g  t  [e 'f l) H  o  t. v| y  6] 7. K. Dd |_ Y. 3  9. 5  7. 7  _. b~ #o *C |; WM z  j  Xo C| ,. b{ B. =. k; 0  |) g  5  t. t. B. g  g     |! Z- h. g  C0 wd 2. Z- XM Z. B  @. t  Z- Z- E. ,{ ,{ t  i  A. _> <. 3  ~> .} E  t. q> 4  Y. y  l) >+ t  y) $) 9; Z- N' 7  b{ 1_ 8~ +] C~ |) Rz 9. YM l) %. |. 4  %. .. ..    w. Z. ;. i  3  .. +] L/ 2. Z. t. J  y' 7  h  $+ G, V  3  Z. '+ Vn @. [~ F:.3G G:.`6 H:., .I:.J:. I K:.a! H~ X  3` }] |  L:.M:.N:.n> O:.x) h) W, P:.Q:.8/.hI [!.",
"66 O^.AJ `H C!.8{ }e hn a; ;. #o ^; 1f ce /  R:.S:.T:.U:.EL g6 +E H:.j` (N uc 8p 8p ]d ^d vc 7p 0p 7p 6c kp op :c ip _d _d up ^d rp 8p }d ep 7p }d ^d 8p 0p nc 7p jp 8p vG (d bp }d 0p 0p 6c 6c Dc 9p }d 3c lp ap nc up }d up #q 9p ap 7p dp 9p 5p ap 8p 7p 7p bp op lp Gc dp nc _d Yp lp kp 7p 9p _d jp 7p mp _d  q 7p kp 0p 7p 0p 7p ep }d 7p Dc pp fp ep jp np 7p 8p tp jp 9p 7p 6p ^d ep 7p 5p 7p 3c _N dp 0p 7p 0p pp $q }d _d lp ap nc ep _d Uy 8p sp  q nc 7p 8p 6c 7p 7p 7p 4p .q 3c _d 6c jp kp _d @q rp }d 8p nc _d 3c rp ]d 7p ^d 7p 5p nc 8p pp _d jp qp ip 4p 5p nc lp Dc 6c 7p dp _d ^d $q nc <d 7p Dc pp }d vc #q 0p ^d 0p 5p 8p 5p lp ^d nc _d ^d bp 6c 6p }d 6c }d ^d 0p 6c 7p :c .q Dc 0p :N N%.V:.wP }N nA W:.X:.Y:.#( d,.g( Qe 5] M_ MV 8. >P Vq )/ v) B: Z:.ex JF `:.`~.7-.",
"J, lQ  <..<.*:.<. W. A. 8~ QO I  u  )+ 3/ Z- 3u +<.r) @<.#<.aj $<.%<.&<.pN qN !d }d lp #q 6c 5p }d jp 6p :d 4p }d 7p _d }d }d nc 5p ep _d 6c 6c 7p ip dp 6c 8p 0p 6c nc 6c 0p 7p }d 8p pp vc 9p #q ip 7p lp ]d  q ip 7p _d }d _d nc }d nc _d 8p }d ^d op _d 7p 8p !d jp }d 8p 5p Vy qp 9p Ty _d 7p 9p 0p rN 0p pp jp kp kp 7p 8p }d cp 0p 0p 7p kp kp 7p op kp ^d ^d mp sN rp rp gy jp }d fp Vy nc 9p 0p <d tN _d kp }d 6c fp 7p ^d _d bp _d _d 7p Dc ^d ap }d 7p 7p 0p qp Dc vc rp 7p 0p ap Ty ap _d 7p 5p nc pp _d pp 0p 7p op }d gp jp }d 8p 6c !d 0p 8p }d jp 8p ^d jy ep _d 6c 8p ep _d ep }d fp op 7p +q dp _d 9p 7p ap 8p 0p ip lp }d 9p bp 0p 6c ^d }d jp mp _d _d Sy ap 5p _d 7p #q _d 7p 6c fp bp *<.=<.-<.;<.><.-M pT ,<.'<.)<.E. *. Q  :2 76 g  53 x  E, u/ v] !<./M ~<.if ,g #~ |T ",
"{<.kR ]<.^<.u#.n! $  42 9: 8. zC k] >f B{ 5T /<.D: YY (<._<.7` ~>.:<.9q |z VN @x WN 4  3  >f $  v. (. &+ $; p! }/ =| u  8{ $  3> $  |; C0 Z/ %. f. *' 3  v> L. XN s_ T) (< 9: F, YN #s g  K   ( h. 3  Z. g  Y/ g  C. $) K. O! M' @o Md B. 5  M~ z. Nb b{ @) h) O. w_ b: v] V  7  W] a  f  .. :  C. _. F, x  8. 4  Vq g  t. t. p! %. 1/ [e Y. v] t. 3  4' q> X- O} `) y' 8. }I b~ O. j. *  w  -. =. t. L; B. n] 4  G_ io Zn 'f f. >. >. @. .. E. f. >. wd Z- u. 4  '> 4  in 7! ~> _> N. ;3 ZN F, g  3  7e sf [  L. 9{ .. _> W  '+ K  `N |e  g +  tf vw Zw H  F  '4 |e $. %r b; 4  3  G[ #]  O u, 5  X3 ). ^; r>  c 8j 7     w_ w' B. p^ $^ `. y  o. .O Y/ p! n] Zw J  $) 8. F     N' g  u  io $+ $. .M ZN | .l=.M/.<<.[<.}<.|<.1<.2<.3<.u  lq v  +' #d .' 7  d_ 4<.fo [> y| 5<.6<.<].j).r:.7<.$>.",
"8<.9<.0<.a<.5;.y{ Z.    `. 6] A) e] b<.K>.>).c<.i: #; :D }x d<.1x e<.f<.Dz .s Rq }O td E_ 8  jx C1 ~+ [~ >. 6< E. w  _> U  (. Y. #. r2 g  @o |O ~> u  Z- s. %; 7! Af }/ m] Y, $+ Xn Z- <. g  O. p. *     E_ )) `e H. w' Y/ b' 9! 1O |) k) 7  =  t.  + jn {/ 2O Hy h' s, &[ h' 3O 4O 5O :! =[ F.  (    Gd (. p  Q{ O. (. g  y  %. vw @o u  w{ x. =^ S  iq ={ 6O @3 n] s! Y  4> p. jn )) R> >. L/ _.  + h  `. _. K  l) %) _> >. t  g  .. .. 2. g  >f g  7O [e 2. e_ 8. $) 9. H  -( 4  ,+ 8O 9O 0O y  @. F, v, Y/ j  2. Y/ <. wd @. aO H  %. Rz [e Z) #. }e N. ^s _. g  G  O_ -+ H. zC %; f, f, Wn 9: w{ O. I_ H[  ' {: B  L) z. a~ O. x. i: X. }/ F, g  x. Yw (: Nd d; b{ <. w' B. bO w  +. *  Y/ C~ g<.K .FI h<.]f i<.j<.k<.l<._,.m<.n<.XN t' j*.p} 2  Jd /; b  [~ o<.x. 1~ p<.q<.r<.eG $x %U s<.",
"rC t<.[Z 0K u<.wF |) j  .} Ed >. .; w  s. v<.w<.x<.y<.z<.O| A<.B<.yT *.._( CO DO EO FO R) @. g  ,} r. 7. Z- t  M' Y  '+ '+ e! =. $) [  >. g  =| E. [1 Z- .. O_ E. v  k) J  K. q< =} d' 5  2. _. _. en E  U  n( 4  y  Z- f. v. #  uv G1 O. sr .; fn a~ Nd {/ GO .I Pe !q D< Te de HO P} IO t3 JO f1 &) Q  e/ r] 3H c  w! jn g  p  n( KO LO A/ MO `' u~ {. NO ur Hy _. ,> w;  c OO X) 7{ f. 8  9. t. H  jo 8~ 42 w{ 7{ U  K  g  Z. f. g  Z. f. o  C{ w' t. 3  T) V  4  h  Z- A~ ,+ J  [{ cn x_ *f #. cn ]  E! C~ y( g  u  r  >. Y. g  K) f. yd 4; c{ Y) ,e 8. jn &, t. _. 7{ O_ R> {+ f. :p s> PO QO l) Xo sf t. &, w! _. H. '{ d^ E_ o  p[ io b; o  2. ,{ Dd K> L  $  +g w  1/ 4  %. fo q[ P^ c' 3u C<.D<.xV !!.E<.VO fX %B 0V F<.G<.H<.%) I<.I> u  9{ y; X> Qz X( J<.K<.5  }) S  L<.n^.eC g .M<.",
"aZ N<.ft [;.O<..^ P<.(. f  7. &' b~ hn T( Q<.R<.FM S<.T<.U<.V<.O` }o g..{P ]P zA ^P /P (P _P Xo Gd Z/ $+ <. $) 7O h  %. u  d^ _. e! 3  %  %  H. J  @. t. %. |. 8. E. .] :} :P .  a) ]  t. 2. %. [{ J  M. J  [1 y; f. 4  @) g  8~ `] >} u, <P t  e/ G  f! Xn '2 u  O_ B  I. Nd N' C0 tr [P ^O B3 }P u8 |P 1P ON 2P 2P qr I' 3P 4P 5P Pf 6P 7P 8P 0  9P Vn :! 5  8j e. <! ,. mK jo #] }e .o t. >. +] F, h) =} >. ;. '. A) bo g  h  tf f. C{ 2. .. ,{ g   r sf $) p  F. Z. %. n] >+ M. +. <. P^ 8  io R> $) .; .+ E. s. ,> @. 1_ t. .}  r (. r  %  _. #s &^ O_ l) I1 j^ $  t  .} b[ w  t! sy 0P Z  aP bP _> Z- 2. t. *  |e -. [_ W. [  3  [: e_ E, |. $) E. +. 4> cP $  d  E. lq O. F   ; Z. O( D_ dP X*.QW W<.X<.Y<.jU w,.{Q =R w~.Z<.`<.%+  [.P/ x, F;.K; ^M d^ u% .[.+[.n6 B) {. P:.n_.nz @[.mA ",
"f/ 1).1, P].#[.$[.c' B  7. 42 3   ; $+ w> u} (D @3 tT ~m %[.M..L].f&.|>.#z BP CP DP 0q EP FP ys GP kh fa c5 vg c5 c5 ca zs 9m zg /9 )5 d9 ng 10 d9 m0 og sg qg kh HP Ym #0 8m vg dh 9m qg 2h #0 %h mg q5 IP JP 2h (6 Fg Rg KP K9 LP MP K9 NP OP W4 PP Tg x6 QP yB !0 q9 RP Ps a9 SP X9 Ys TP Ng Rs UP e8 VP WP f0 I7 XP o8 YP ZP `P [6 +0 00  Q /J q9 I4  h <J .Q x4 Z4 +Q @Q <J }h #a *h z9 +9  6 ng )9 {9 z9 g9 %h *0 =h @t &t  6 %6 %h Cg vg  6  6 24 %h %6 ga xg Vm #0 >h 16 !b }h bh p9  6 sg :b #Q :b }9 m5 Ba 4w %h aw n5 9m $Q 54 2w ah jh Cg >a 20 ~5 ;t Jm n5 7J ng q5 t9 IP Jm dh `m JB %Q db {h  6 bh va 74  6 7w &Q *Q qg )h :w =Q ob c5 ah 10 xg {h qg c5 ]5 mE ng  9 dw b5 -Q ;Q &[.*[.'Q v,.TB 6O !Q Xh %x Q,.rP iz =[.T  ,} -[.;+ u! a> 4; =_ ;[.>[.'B R1 R> 4> `~.3o wh ,[.7] ",
"9> '[.*u 9k )[.3' O^ _. U  i  R:.m> 53 ![.~[.m! {[.][.t~._Z ^[./[.|D ([.VA h: {C st aQ bQ cQ dQ Qi ~i (i )i ]i (i Ui .j (i (i :i Dk *i ]i Ui 4i ;i [i ~i {i .j JD >i yt zl ]i Ui [i <i .j Ui (i [i Zt .j -i 1i Et <C %j 1C gi li bi ai mi Ai ui 8i di fi yi Kt ki pi ji ji gi /k si /k wi Ji Dt si Cj pi ji Gt Bt ki Ji qj Ai ji vi ki wi du Bi ni 9i Ji wi ji ji Ni eQ Di <C zi 8C %j oi si [i Qi ]i 6C Ni Pi 4i [i fQ Ki *i -i |i [i Xi `i 4i 'i Zt ~i -i Ui Ri ]i >i (i Ki Xt SJ =i &i }i 4i <i [i Ri :i *i *i +j 6D >i [i {i <i Di -i )i .j Ki -i Xi Xi zt Jk +j `i ]i ]i Ui 4i <i >i :C zl )i gQ zl }i Oi [i Xi .j (i `i [i JJ -i Yi MJ Al Cl PJ 4i <i )i -i <i [i 4i ]i <C -i Ni {i UJ hQ +_.bC [X 's {^ [~ kQ D]._[.}D fJ :[.<[.q2 v] #,.[[.}[.uV f1 w  w> |[.1[. . 2[.cq `].(f 3[.kt F/.",
"4[.O^.gx p;.@].h  y  /; :! G) I. 2P T] `N 5[.ck 6[.7[.$x 8[.9[.0[.a[.b[.)f `! gj ]K BQ CQ DQ _k tj tj mj vi Bj vi nj ni Bj pj Zj Jt xj Bj Kj Bj vi Sj vi bi ri mj ri vi Wj (k yj pj mj Bj Bj nj Aj Kj vi xj ki (K QC XC xj &k EQ Nj Ej mj Sj pj nj yj pi Qj Cj Zj pj wi xj xj 0u bi Uj Sj tj xj Aj Ej bu ri Zj [C 1k Dj /k qu bi bi Cj ti Ht Dj Dj pj bi tj yj Tj FQ :K GQ HQ ou }K tj qu bi _k IQ Aj yj }k wj uj mj Fj su JQ Kj pj Sj ki vj tj QC nj Pj qj bu au Sj mj bi xj Pj ru Bj 4K mj vj ni pj 'k ji wj Sj .k wj xj vi vi vi ri KQ bu 5K `j Yj Sj ri ju Ht mj `j #k yj Fj pj Bj Aj nj vi vi nj xj [k wj Sj bi vi bu vi Ij tj LQ *k .k au -k wj Fj Bj ;k Fj pj pj Bj <k ki 7u ni Wj hu Qj c[.MQ d[.|/ 2^ 3e vu ){./;.e[.f[.g[.h[.j>.|; :n i[.K&.j[.N*.>/.k[.l[.8! =( H. T/..A +T 0t m[.<1 ",
"HN 6I n[. ,.o[.BT p[.@o &, Ad )< -/ q[.2. /! r[.q> W[ s[.t[.wh c_.}D u[.N^ /B ;R >R ,R 'R )R Bl ~i Bl :i Jk BK .L yl Jk `i BK !R <i .j :i +j Dl Cl Cl ~R BK Gk .L `i :i Bl ul Zi Ok ul @j Ik Zi Al Tk Bl zD Ol {R Ol Tk ]R xD ^R /R ;v hD .l 8l !l (R 8l _R <l OK OK hD :R <R [R }R |R 1R ~v LK 2R 3R 4R [l JK 4R KK 'l 5R ]v MK 2l _v mD =l 8l PK *v +l xD iD +l 6R UK 0l 7R BD dl Zi 8R Ml 9R 0R 0v Ol aR bR vl pl nl Il cR Ok Tk Zi ql Al ul Ok `u Gk Ik Ok #v dR @j Gk Gk @j Ik Bk Il Dk Ok @j ql eR >i >i Dl (i )i >i yl Hk Fk cv Bk YK Jk Nk ol ul Dl Dk Jk <i |i +j yl :i Fk ql Bk Pl @j yl yl Dl Nk jl 0R il ul pl ol ol GD al ID Al Yu $j {i VK Il Gk @j @j Bl Zi Pl 6R gv Tk Dl Pl Ql I@.v[.)~.`! #; ~, w[.x[.y[.z[.$E A[.j{ N. 'u 1. 2` B[.C[.D[.b~ t] >2 :U Ed E[.q| &R :g yx F[.C, ",
"G[./~.H[.I[.(].P. $_.c' p. $^ nq y{ K^ >. u~ {o k) J[.K[.Z3 L[.bj ro M[.JR KR LR 1L MR NR 3L k5 vg d9 OR ih ca 0B 30 {h  6 :w a5 q9 PR Rm ~h q5 d9 xg qg QR %h c5  6 wg  6 m0 |h 9m q5 og mg 30 :4 Jm 0m b4 RR SR TR *a %Q UR aB VR [E zm @w WR XR _b Va $w Z0 YR im km ZR aL I3 hm om 8E `R  S .S +S km Ga {w @S n4 #S $S %S &S *S dE &w =S Ja ~a ha  b =a -b Ya _w 2m -S @b um ;S >S ,S 5h 'S /9 b5 &Q wL Ba mg ,S pg pg wg ih ng Ym yg %h yg )S :b rg Bs U4 5h Fm JB !S HP zs @b Km n4 ~S mg qg 7m (6 44 eh J9 {S #0 og 20 ih 1m 0B ]S q5 yg fh ng #0 ^S MB %h bh t9 o0 %h Uv vg ~h /S /9 16 dh d9 20 74 (S qg qg Jm _S c5  a qg #t &t dw }h h0 :S kb 7m yg 74 yg LB db |0 o4 <S `m [S }S |S vE .x N[.o#.+( !; =,.fV K_.Fy O[.P[.M  9; z' E. H~ jJ `<.-| *] #] R,.Q[.:2 xH R[.S[.T[.8/.U[.{; ",
"e:._f vq hz V[.@1 W[.l) ;+ .  wd X[.Y[.Z[.k> RT `[. }.7` ,x .}.+}.p` .: rS sS tS uS vS wS O_ <. G, )} f. E_ y  B. f. '+ w  l) w' t. w  =}  ( >. O_ |. f. .. G, f. Z. 2. .} f. xS $) t  z/ Y/ u  $  *  9. e< L' L' $+ 8. |; it j. 7{ g  2. u  <. t. =. +. j  $; W  U2 R> a; X. @. q'  ~ 7   ~ %. 7! 9. [  2. Y. '. p^ Z- g  jn  ~ L. t  yS j  @o Z- q> v) |! t. g  f. t, 8! b~ >  L) _. '. @. K  C| %. _> ,> O. L. Y/ 3  '. F. o  Z. |. .. O. w  C  nq 2. C; C; T  H. .. 8. tf u  8. g  U  O! c' 7{ g  Zw V  I. n] @o >+ t. Z. Z. >. w' >+ U  -. T  @o $) o  Y/ |. >. .. w  f. %. r' w.    f. 9. K  4  O! p  +. g  kq _> f  B. <. E. |< F, O. B. =} fn Ed 3  f. C{ 2. |; f. .} w{ 0  J  T) zS @. @M mn @}.+x @x tF [u 6k #}.$}.%}.&}.k*.t*.p  D! K3 t. +/ *}.=}.w] w) -}.;}.e/ V  >}.T[.,}.sQ A` ",
".^ 9G %I (;./Q '}._F ;{ @o it I_ F).)}.!}.J( :  xq H. =y eS dJ  $.Fy s:.[M $T %T &T *T 7  *f h. O_ ,{ G| l) bO    g  >+ 9{ ))  ~ 9.    O0 '+ '+ t. %  Z. g  Z.    g  f. C{ l) Z. O_ j  i  W  Y. .}  g )> T  8: =x 8^ )4 N' 71 [  >. p  sf Wf g  K. B. 4' O. ,{ j^ }[ v  c' u/ >( 2. '{ g  ,{ v, _> C. >. ;. g  @. w{ b~ '. O0 Z- S^ ^  '{ 4> 4> Hx 7. '+ b~ _. g  g  .} N0 n] 7. co `f o  t. U  b: 7! _. t. G  Z- Y/ R> $; o  F: 5  v. s  f. o  u. w' i  '+ ]z =.    =} 2. .] F  g  1_ d; O. #  w  42 z  '> b{ kn [e $) 9. _. [[ >. @] g  d^ b{ B. )} E, o  C~ ,{ '+ 8. t. Y/ >. [e J  '+ K  Y. J  L) 4  lq g  K  Ed 7. y) +] G| h  s  f. >. @. C{ 4  K  o  t. C{ 8  :. %  z  i_ =T w; _. H. Y) $, ~}.{}.]}.4:.^}.xQ /}.(}.BM _}.:}.<}.4' [}.E  1. K3 Kf }}.a*.z{ x~ |}.1}.gj `! as 2}.JF n{.3}.",
"4}.5}.SE 5n 6}.H].-[ H[ %  E. k. Xf <} l{ 7}.c~ 8}.9}.yx 0}.a}.b}.XB LZ dT eT fT gT @o .. 9. 9{ p  hT fo 8j J  +] '> j  E_ Y/ t. O. '  >+ WM @. Z. t. [e .. w  9{ g  .. @. t. H. g  i  g  .. t. 4  Fh E. 2. K. T] }e iT 6r $+ +] g  j  2. u. q> t  b' in O. _. A) g  W, U  3  [e P^ p. e  [  <. o  f. C{ 8  +] $) >. U  w' 8{ a! 2. 6{ 6  io )4 X- z  d^ w  U  G, g  @. 7{ e] @( Z) sf G, t   ( 4' '. mq e!    (B vr +] M' 8. 9. 4  .. r2 E. Z. @g F  '{ jT 8  w' @. 7{ _. Z. .. B. g  g  Od ;+ %  g  b; L. t. Z- H. 4! 6< j  [[ _.    g  $)    w  K  E, $) &' ). |! Y. l)  ~ r_ 9: t  o  e_ B  O( `' h) 8. F, |; '+ &' O. u  V  #s H. y  +. t. t. Z- i  Z.    f. Z- d; >( 3. J  l) 7{ A~ w! _. t  )> T^.c}.@).+%.d}.e}.y~.@].V[.f}.g}.h}.q! 8! W; i}.j}.Jz vJ &, w] k}./j l}.B/ m}.n}. V rI mA ",
"o}.jI nA p}.q}.r}.s}.Dn t  O_ Y  U  ,e t}.t:.@' u}.v}.UZ FN w}.)O x}.y}.;y >y FT Dd g  i  |< 4  U  <. Z/ `. <. |_ 8  3  L/    7. $) >. +. L/ g  t. z/ H. *f Z. g  Z. t. Z. @. @. f. 2. .. Z- Z. 4  g  O_ >( a{ 2. q< K. h  t) Y) [  $) )> .. Z- o  *  *  f. j  _. Nd GT (. HT 2. F, f. :{ Yo $  f. f. O. @. $) H. sf y   + +. H. t| 5  $+ )} 3z +  _> |e Y/ Z- 7{  ( !) 5  ,> u{ u{ o  C{ $) E. w  IT 5  B_    G  JT x~ |) @. 5  t. @. O. C{ g  4  U  Z- 8  2. i  g  t  K  7{ g  0x 9{ >. +. o  E. w' J  1_ Y/ X. _> u  8  R> >. J  '+ =. 4  u  i1 l) w. 1_ X- )> U2 w  f  x. =. >. 8~ S^ @. [! Rz F, t} o  g  ;. B. g  g  o  B. 4  g  [  %  8. .. u  Z- g  .. t. 7. J. 7  42 E. o  y  hn g  &' Md Z. 9; a%.z}.A}.B}.C}.Cy wn !C D}.E}. ' [{  T o@.F}.   l; [~ 8y C| e:.e:.A{.C< pk G}.wh H}.W[ ",
"2/ I}.J}.K}.L}.5/./,.M}.M~ 8. Y  (. .} l, 1: J>.I, -^.N}.,x pO O}.3!.P}.*U cc ep dp _d nc dp 6c ^d sp dp jp 0p ^d nc vp _d 8p 0p 6c up 7p ^d bp ^d nc 7p }d ^d _d 8p }d 6c _d _d ip Dc 7p nc }d kp 7p 5p dp ^d 8p 0p 6c ep 7p ep 7p }d ap kp 6c 7p lp ep ^d 7p }d 5p _d fp 7p 6c 8p ^d 7p 7p ap 7p nc jy ;c _d up 7p Ty 9p 7p pp ^d 8p }d kp }d Dc 0p ^d jp 8p pp 7p ep lp $q _d 5p _N 7p 6c pp 7p up :c 0p }d _d ]d 7p _d nc nc _d _d 6c 0p pp ap ^d 3c 6c ep 0p 7p pp 7p 7p sp 6c ip 8p }d 6c 8p ap ^d Ry ap 7p nc 8p kp 6c 7p _d pp }d $q ^d }d 7p 5p nc 8p op 7p @q :c ep ep ^d nc 7p 9p ep ep tp }d Ry _d 0p 6c 8p ip jp _d ep 7p ^d }d ep nc pp 7p Dc 5p }d up 6c 7p 8p }d }d 0p 5c 7p ap 5p op vp _d Q}.R}.[N S}.T}.U}.V}.W}.p^ ^: *. X}.3u Y}.7P M[ p( C .d{ /j r` A8 Z}.F[.ay zw i,.`}.",
"&2  |.ix =u #4 *4 .|.x; L)  *.u  -( g  f, #  B  e[ I_ pO +|.@|.#|.~&.$|.3U 4U tp 6c 7p 5p 8p 0p nc np op ^d }d Dc fp 0p 7p dp }d op nc 8p ep }d cp ap }d kp dp vc !d 8p 7p nc _d _d 7p nc 6p }d }d 5p _d rp dp jp }d ep jp Dc _d }d _d ep pp 6c nc _d fp 6c 7p 8p <d pp 9p 0p ap +q 0p 9p 5U lp gy ep 8p 0p 6p rp ap Dc 6c 9p up ip _d 7p _d 0p pp 7p 5p tp dp rp $q cp }d 9p _d rp jp (d 0p _N rp jp gy ^d ^d }d gp ap _d 7p 9p 7p 7p 7p 8p Dc _d }d pp rp @q 6c rp vc _d Yp ^d <d $q 6c ap mp }d lp _d 6c 8p }d 5p ap ^d 0p ^d ep _d lp 6c dp ^d 0p ^d kp ^d dp 6c 0p 8p ap gp _d 3c up jp 3c 8p Hc 6p 0p ^d ip 7p ap }d @q ap 7p rp }d 6c 0p Dc hy 7p 8p 7p _d jp 0p 6U rp _d cp _d nc 7p 7p 0p l` ^d 8p %|.V` e{.&|.*|.kf =|.-|.Mb B  ;|.T/.)B 6>.={ >|._3 EI 7r k; ,|.'|.)|.!|.~|.{|.hI ]|.",
"^|./|.(|._|.:|.|o #~.f! In t< yd ~+ a! %. <|.[|.}|.Jn SY E8 eV ||.1|.2|.wU xU yU kJ g  3  cn p. g  F  m> $, 8~ u  Y. _> _> E, i) E, F, r2 K. %. g  F  3  4z h  b  o. Q8 zU 8~ o  l)  ( Z. w  )> E. 8  @. f. h. @. g  1_ %. p! vw i_ Md w. @. t! eF (^ U1 ^; F. ,{ A~ VA !m [[ 0x lO :! H. M. u/ wd jo K  AU E.    `' f. g  f. 6] p  f. %. |e H  @. 8. (^ =. BU *> LS {. %  k: !m '+ S} E. Z- -. =. g  4>    !) -( >+ *  _~ vd .. Z. Z. t. g  h  Z. g  g  o  -( w' Y/ k' _. kq ;+ }/ CU 3. 8] y  .. |. [~ 8{ b; [  f. .. W  'f ,{ o  bK Gd 9: X- 3  e, Xn  + Bd xH c  :  DU $+ '+ 8  d  EU Y, u, 9{ [: ). >  FU U1 $^ 3f 4  7     u. mq 7. Z/ L/ s_ n. 3  b; 7  *. 7. $) Y/ [~    O_ p  8{ h  h  :. S^ [3 L/.w&.QW 3|.4|.|, 5|.yN 6|.(B 7|.-C ,2 |! 12 I; WE 8|.[V 9|.;C 0|.a|.J) b|.c|.d|.e|.K&.",
"~} f|.g|.7I h|.i|.z0 j|.vo Q  k|.8^ +  e_ %N l|.I..m|.Z .n|.o|.p|.WV [O Pq <H #V $V kJ E_ Y/ 2. Y, J_ (. t. $  E. +. <. _. e_ j  p6 C{ C. Dd :{ $  Ed E_ r  d  N. ,> Y. j  :{  g y' Z- +] Z. O. p. Yo =} K  '+ |) J  B. 8  b' ]{ =x r] %V 7  Uq t.  + &, B: &V  ' h^ ~[ G{ *V =V -V ;V >V e/ Q  r' O. Y  K  1_ *] &' [~ C~ f. 1_ vw w' }/ U  M1 Nd @  ,V g3 6O 'V Od 5A 9  S^ r! B  B. p. f. l) >+ b~ |. N' 7{ Z- 9. e_ +] $) %. g  .. g  g  F, >f Z- *  >. g  e_ Y/ )> E_ [~ f. t. !) w] Y/ <. g  l) )V w  3  @] p  8. Y. .. .. Qz  + z  !V 1_ j^ u/ r  @( t< U  w' b{ r_ 'I g  }) %; Z  #  S) p! kn =} o. z' ~V f! M1 '  [{ @) =} w_ C; k: <. V  g  L) Yw FH =^ V  b{ sf    '+ T  U  |; [  3  Z. +) 7A q|.=(.'Q N .r|.s|.t|.u|.v|.%1 '. oI w|.k; Rz lJ e> j}.x|.6X () SV y|.%=.z|.A|.B|.O}.#H ",
"/,.C|.PT iG XS [< 8. D|.E|.F, <! Xn ;+ F|.,] G|.U' W&.SI @` :@.H|.I|.J|.iV jV kV lV mV (| t. g  _~ a) ,  @. %. L. Gd '+ 4   + =. )> b; g  t. hn E. j  E_ 5  `. b; v, I. ,{ `. (T B. y{ 5  z  e! V  3. V/ Z. Uq '+ |; .. C. ck 0z nV *< O. *. .; w! a~ .; f! oV pV aI 3' <| qV +) G) rV {I Ye T' nR Cf N_ `' @  *. 4; F. &, >. 2. >{ .P (I sV #_  ' tV sr ;A @f uV 8/ b~ #o ,> :y X) 7{ g  |. o  5  8/ |! 8~ h  ,. _. _. Z- 5  t. .. g  2. @. w  2. $^ g  io 4> G, jn j  o  q> ). w' q! 3  ~+ %  r  8  [[  + g  v. C{ Y. m.  ~ +] wd |{ Z. p! P  j^ Y) &{ Y/ 4  7  C~ >+ '. N' ;+ n! t. c/ vV 6r ck 9. o  sf w' A~ F. 7{ =} [  P^ Z- i1 9; 3  h  L/ .}    +  Z  Q! $  j^ l) g     N' fo I_ Ed c' )f K|.1I L|.UO aA bA M|.C` Oh !F 5;.@r Q{ N|.i*.Z/ k; c  Y( f~.m. O|.Z_ d,.P|.KX ex ,` 1,.]U L2 ",
"66 {Q pF Q|.R|.*. a; x' S|.T|.k: ;L $d U|.A) 1_ ([ p< `W F..d|.w>.f}.Yr XV `r YV ZV `V  W ,I V  _> %. u/ Y  g  |. ;. $) Gd |_ 7{ 7{ 3  h  j  2. J  Z. g  7. Y/ *  Me V, b{ uf i^ 6  K  g  $) )> C| 7. %  7. E. x  .W 4  a     Hd }  }g 3. z  H. `' h) C' B) 8/ u  N' &, B_ y. W- i  7r ML t~ JA +W @W #W $W `2 %W ^[ b_ &W L~ 4P *W Pf =W 0d -W p' *. [{ a~ _. )} 0' 9; H  e] 7{ 9e r  h) y  g  8. Z- Vf a{ t  j  w  U2  + g  L. %  .. t. g  f. &' f. [~ =| g  H. =. t. f  L) U  t. Z- <. GU 3  3  i) 2. {/ :! [  #. (. g  v. C~ 1_ Wf -[ %K +] U  ,{ p! ;W t. ,} Zn 4> g  2. a! F, XA O} ;+ Z  m) 4> Y. 9. wd z/ Y/ Y. (. _> 6  ce 8. dq (. >f 8. t. L. Z. >f ', :. %; h  42 B. [~ ,} g  =  >W  B V|.W|.Cr X|.Y<.8,.Y|.S}.Z|.<` N@.h~ y) .. 8j K> j  >~ F' [e Y  Tr C' J! `|. 1..1.RG a-.rG v#.",
"OS  y +1.!F f%.@1.)> l].sT #1.|F bM g{ $1.mv %1.,K z| yZ &1.6f *1.tk 2, dW eW fW gW ig hW iW jW #h 30 eb kW tg c5 qg lW Eg tg #0 |m Es c5 og 2h d9 Bg xg Xm c5 n5 d5 4w 2h mW wg dh 9m ih {h o9 Cg #t q5 nW zs *5 oW  0 Gg pW K9 qW rW Js sW tW `8 75 uW vW H9 q9 wW `8 :J xW ]7 nB .0 Sg yW k9 k9 zW $8 e8 Q7 s7 Wg D6 AW I6 BW CW Zg #9 )0 DW +h w9 Zg EW :J >9 FW GW 7w @Q l9 jh #a %5 Vm HW Gs q5 _9 w9 PR Ks %h z9 ~t dw Qv jh {6 %h wg %h wg m0 Im wg 8m &h %h z9 IW Cg &t `a q5 3m 7m Cg &t ]5 JW e4 }9 'S KW d9 wg LW mg Ym =t Gm q5 #0 wg }h q5 n5 o4 o4 eb n5 pb Cs d9 MW 05 =Q |h 34 X0 =a hh  6 }h Um V4 |0 >h NW e5 m0 xg )t va Xm hh 9m !h 10 9m 6m kh tg ]5 ga ug H4 Um T5 OW PW l=.=1.-1.SB )Q ;1.'P >1.6I ,1.mR tn H[ o> AH B) &, $_.p; &' M. m. :! @+ ~{ '1.G[.--.|(.d:.'M 3}.",
"`Q !T -L )1.(U +*.[{ <. S,.$N Z].5e lU !1.;C ,-.K) l, `3 fM ~1.xP oU P].a  ;X >X ,X aQ #i 'X )X &i *i 1i !X QJ >i {i >i >i (i Jk Dk >i Wt zl [i }i Jk ~X [i >i Jk >i {i .j Ui xt Zt <i 1i }i (i Ui Ui 1i >i #j 8i {X Et -i Ei pi fi ]X Ai ri Dt Et 9i Kj KJ Ot ki bi oi Ji Ji pi Ji Ji ri ji Kj Bt 7i qi qj Oi pi bi ji /k 7i bi ji Gt 7i du yi zi pi ei 7i pi pi ^X eQ ci Qt Kt 8C 4C %j si Ki 3C TJ /X Xi Si ci Di (i hi zt ~i |i oi Xi <i Ui }i Xi 7C 4i Ui 1i |i .j +j -i Xt .j }i Ti -i )i `K 7C 1i )i >i Zt ;i Cl Ui 'i [i >i Xi `i +j ]i Xi .j -i <i  j Yu Bl )i {i }i ]i (i >i .j }i .j <i >i 5i ]i Ki Ti Hk (i (i 2i [i -i 1i Qi Vi @j `i (X ]i zt [i !X Si .j [i |i Qt Oi ~i -i _X :X {1.XJ ]1.^1.s .9; /1.^q y[.A*.tC TU |; W} .I q! f! zH Z  3  e_ 8  .} v  N^.(1.gN _1.w;.:1.I#.<1.",
"V) [1.R- YI T{.}1.>2 <! |1.11.21.31.m< cI 41.51.o> z. 61.71.a>.81.91.SL _: 01.mr ]K a1.wt DQ Zj vi au pj Ej Aj bi nj Vj nj Cj Tj bi Kj nj xj yj vi Dj ri vi pj Dj pj vi Aj xj vi tj pj tj yj nj nj ki Kj Aj vi rj wj hu wj #k b1.wj ru Sj ri Ej Yj wj qi Dt Bj lj Dj qj yj xj ri Bj wj Dj Ej `j Wj Cj mj Dj ju Kj `j Pj /k pj nj nj nj KJ 'k Dj mj 'k pj pj pj Ht pX c1.Qj ]@.Rj d1.nj pu qj IQ _k xi Qj xj rj |C mj vi 'k ou LC Bj ri oj 9i Dj Nj pj Tj Bj mj vi Ht vj xj nj Sj /k rj oj Ej ri Cj vi ti Cj Uj Sj Ft xj yj Aj 4K eu vi 3K vi ,k wj nj vj qj Tj KQ nj wj pu nj vi yj ri bi Bj nj vi 4K vi -k vi mj bi Yj Aj qj ;k mj LQ su lu au Qj [k ru Yj bi pj Bj Wj vi cu ku e1.mj qj {k Qj f1.tu 4k *. ([ 3e ZW g1.h1.~g %I iS |{ q, *. _. '+ io +] 'y =| 7{ S^ E_ i1.j1.k1.l1.m1.n1.kt o1.",
"RU 1).iP p1.q1.F[ g( z: '^ r1.NL (/ s1.t1.JT u1.*} C| ^^..'.v1.|( 4].yG ls w1.x1.y1.z1.A1.B1.Pl :i `i `i ul Al Jk Fk rl Pl XX T=.Fk 6D 6D `i Nk Cl ul Jk Dk Gk ,i @j :i ,i sl Zi rl Gk @j @j Ik @j ND @j GD C1.VK 6D  Y Wk Wk =l D1.>v rD 8l `k !l (R wD +Y &v #l /l !l E1.yD @Y $v }l F1.:v )v $Y v@.|l [l w@.(l {l ~v >v :l mD mD !v `k yD 8l QK *v QK xD }R *v +L 0l Ik kl BD dl nl ;Y C@.9v G1.Fk o-.aR bv Il tl ol  v ol Fk Tk Ik Dk yl @j Ik HD Tk yl H1.;Y Ck Hk Zi .j Zi @j cv rl Il Dk yl ql Ik )i )i ul 2i zl {i :i yl ol Al @j I1.)i Tk il rl Tk Hk Xi YK >i :i Ok @j  j Dk 6D Cl Pk Ok Zi Tk hv C@.Qk Ck ul al tl FD ql Gk Al Jk Hk Yi J1. L @j Ik Al yl Ik @j Ck K1.gl il av  L {Y fR @L )~.J) ;; M  L1.M1.O^.B[ }o {L .. 3z a) w  f~ `' j~ N1.Md w) O1.&' td P1.Q1.R1.S1.}p 1x T1.",
".^ a;.Fo U1._..V1.3| G. x'.5N f! Mb o}.D{ gj /2 Lx F. dY lt W1.kU pF /m xo X1.Y1.Z1.`1. 2.lY .2.|0 [h Im 16 9m rg c5  6 Cg Km a5 mY Vm Ag *Q d9 [h  6 &t #t {h og Zm {h {h d9 g5 Ym tg q5 qg g5 Ym aw =t =a }5 pa +2.@2.#2.qY Mm ;a rY hE }E Fa ym $w S-.VR $2.%2.@w 3a qY 6E &2.0E 7E Ua 2b rb *2.fL ~b {b =2.(b .w -2.;2.c#.DY >2.p3 ,2.'2.Ja ha q4 %t =a _b )2.=b 2m !2.<w Zv _w >S !b 5h |w fh c4 +6 Hm sL zg |0 pg Mm  6 24 20 ]5 30 xg pg ~0 J9 20 )5 ~5 db :b e4 _h |h zs KY  w Bm nb wg 30 7m IP 05 &Q MY LY ah og qg Om fh %h og vg 1m 7m zg #t cw d9 xg bh ~2.og  6 xg {h j9 IP Tm 7m |0 n5 #6 dh .w 24 c5 {2.HP d9 |0 20 {h Im Zm jh }4 LY 9w 35 aw :b &> g5 _S dh Ta /9 ]2.^2.(h +n /2.(2.#p o#.a[ !; t[.$u ox _2.:2.xu G. :  /L 7: 6! g  gA |.  D .. <2.B: E}.iI ;2 C,.VL [2.}2.1( ",
"|2.-u 12.K~.22.c  TX 32.{. t3 /; 42.Q  v~ b: 5~ [  [{ 1p /1.}( 52.D). F 62.72.82.92.vS 02.Z/ _> Z- T  4  E_ .} =} Z. B. i1 +. w' 7{ e! w_ &' >. %. M. .. +. e_ t. $) t. t. f. xS $) t  2. Y/ u  $  h  .. s| K3 !< 9: %  o  it u, Xf 2. >. Ed <. t. b{ o  ;. O! <. [: :  p. fo 9{ r_ $) 7  w' 2. Gd 9. j  .. vd 4  >  w  5  w_ g  L. t   ~ X[ ,{ w  fn p^ w{ M. f. @. w! 8N 8/ `o {Z |! 7{ y  e_ w_ .} a! b~ C. E. 8. Ed '. &, |; g  tf E_ =} K   + ). 2. v  e! w' %. @g 3  Y/ Gd 8. t. w  ]{ c' V     *. 7{ Jx 7  )} B.    f. w  r2    O. U  (. &' ,  8: y  Y/ 3  7. |< E_ t. p  E  =} 4  g  Z- Z- )) p! >. Z- H. u  <. O_    sf X[ C{ E_ t. '+ u. F. 7! io g  [1 $) +. g  $) _. x~ &' 4! B>.f. f^.a2.b2.c2.d2.c:.h .e2.f2.g2.h2.i2.A) h  ,{ Z- j2.Q] +^ =. e  k2.'u ', rC l2.m2.n2.o2.rQ p2..4 ",
"4[.we q2.r2.s2.t2.u2.v2.wf w2.x2.I) B. u  w{ g  @. J_ y2.z2.A2.B2.=>.C2.D2.Rn iZ h;.*T q! hn 8. W- t  I_ +. >( 4  t. '. Z- B. ,{ 9. O. 8j    &' Z. %  g  g  z/ w' 5  z/ C{ w  .. O_ h  u  u  Y. 1_ 9: [e )} jx || 8^ s. c' Xn h  H. +M +]  r g  iT '. jz w' ,{ A. y{ in f  s  @o $) [1 2.    Z- <. C~ >. j  )y f. w{ a'  ~ J  F, :  fF $+ E, :. :. Od V  H  U  g  g  C{ #o x. 8j [: << Z- 5  _. I~ <. 7{ l) !( K  %  p. $; C; p[ t. v. X[ >. Z- O. B. %     =. G  B. &' t. Z. K  g  $) |! O0 ZB 9. %  jx 8. =. d; Z. f  M. U  o  >. $+ Z. gn F. 4  #s E, [~ f. $^ 4  %  +. |. [e H. N' O.  r u  &' M1 a{ h  C~ K  u  )} @o Y. a! 8. '{ @. 2. t. C{ t. o  L/ t. f. +] 4> Y/ $) @o b{ `[ C; [e C1 8~ $o iF E2.o$.F2.G2.H2.I2.%E J2.Cy  ~ $) v. X  @) >( ^. X) ;L W. T[ _x K2.i! D| L2.M2.6-.}].J/ ",
"N2.-~ |q !z O2.!` yH 3| *E Dh O8 `. l; c^ :. @. a! Op P2.Q2.R2.S2.4T T2.8o U2.V2.W2.y) t. l) WF |< [<  ; J  w' d^ C~ Y/ w  Y/ Z. B. [{ 4  g  Xf g  g  $) @. V  .. g  g  g  g   ~ z/ %  Z. 5  Z. O. j  b; z/ K. )4 p. N2 x< p! i  .. +] $) O. =. >. L. e! B. ,. co B. ~. d; *  xd GU s. #. s  |_ w  t. r2 8  3  H. M. 7{ w' u  c; g  W> k< 8  Zf y) f  sf o  U  o  g  g  U  B_ b[ P. +] l) g  ,  U1 E< @) '.    I. Af cn  g 8. +.    y  .. L. @. K  .. b; ce 8     y  _. _. t. t.    g  g  x. p. Y/ g  m] id t. 'f    Zn :  8  -. >+ 5  t. 2.  ~ M. v, >f >. &' ). _. u  F, )) N' $+ $) w  [~ x. :A w) q> 3  f. K  ,{ J  B. u  5  )} t  C. @. z/ @. Z- G, .. f. Z. +. 5  BU sy E  9. a{ h) t| 5  )> >. X2.X;.ZF A;.Y2.Z2.`2. 3..3.+3.x  v] |e !).K. C[ w  &d ', g  W. &=.@3.7y #3.$3.j<.% .%3.v#.",
"&3.*3.s(.5n A*.0| g  =_ `  +R l; =3.03 I  M' $) }/ T, uR -3.;3.>3.,3.'3.:G )3.!3.y) g  =| g  C8 _. hn bn `. u  |e %  3  K  '+ N' >. g  @g 9. C~ @. g  J  C0 f. C. Z. t. g  @. t. f. 2. t. Z- f. B. g  Z/ +  4  >. u, i^ [  ~3.Y) L. t   ~ Z. Z- e! M' %  z/ Y/ _. Nd o> ]  =} g  9. 2. ~> [  :  Z. g  T  f. g  2. 8  K  H  Z- B. w! @. $+ )} c' y) Gd W  %  Z- d; &' ,+ ,. ,. 3t *C o  @. %. [  F, {3._. U1 '+ >< +( A8 r] t. _. f. @. jo g  f. w' 7{ C; +] 2. +] WM p  Z- 7{ @. M1 t. 2. @. K  L. jn 8j 1_ 3  B~ [_ u  8. r  %.  ~ O. F.    gn l) +.    p  nq .} co K  Z/ 7  F. H. M' C0 t. |) Rz Z- ]} o  t  sf 4  )> t. o  '+ O. Z. 8. +] %  H. 8{ 9. g  g     E  y' B  j  42 w  vd 3  5     s| C~ f*.2G BS ]3.^3./3.(3._3.:3.<3.4^ ;+ (. +. #. V' 7{ xf j  $. (. 8d [3.}3.m| Y$.E8 c|.|3.#; ",
"F) 13.Pw 23.OI 33.O*.~~.1. YB -[ xH M  %. 9: 3  >. p .LS 43.53.63.73.83.93.03.a3.b3.D% c3.B% d3.e3.-4 f3.7* g3.h3.i3.+& j3.k3.l3.7* c3.e* l& c3.m3.D% '& <& n3.'& o3.g3.p3.H&.5$ 5$ 7$ q3.5$ l# W# W# d% r3.j3.s3.0& t3.a* l& G% u3.d3.j* :& v3.l& w3.L% e3.I& x3.S& q* q* :& y3.t* ~* {* z3.A3.B3.g* a& A3.}* C3.D3.E3.F3.8& 8& Q& G3.$& H3.I3.J3.K3.L3.{3 E3.w3.M3.K3.N3.O3.P3.Q3.T& `& C& R3.J& R3.`& '& (& K& S3.v3.z% @* E% ** k* k* 0& T3.:& U3.-4 V3.W3.9* X3.m& g3.c3.Y3.k3.** Z3.e3.k* `3. 4.l3.7* z% l3.d3.D% .4.T3.B% 0& 0& K& E% [& e* K& k3.0& 9& +4.i& @4.T3.j&.a* [& #4.l& $4.j&.L% )* a& #4.m& (& %4.l& (& &4.0& e* l3.Z3.c3.B% l& *4.f3.#4.e* 9* V# A% 4& #4.h* K% =4.m3.-4.;4.u& T% K& S3.>4.,4.w'.'4.)4.!4.~4.,( #  x> d  6< &  E. _~ W  N> L  Y  {4.c  P^ ]4.^4./4.e2.(4. D ",
"i[._4.tC *e .K ,+ T' E> ~x %. .+ 1Z '+ %  :4.:{ 8~ 7. g<.<4.[4.}4.|4.14.24.34.44.54.D3.64.74.84.94.04.a4.b4.K3.c4.J3.I% d4.:* e4.,4 f4.g4.h4.i4.j4.k4.l4.m4.n4.o4.p4.q4.M3.r4.s4.t4.u4.8& e& w3.3* (& v3.v4.K3.w4.x4.p4.y4.z4.74.A4.B4.64.C4.D4.~& E4.F4.G4.H4.I4.J4.K4.L4.M4.M4.N4.O4.P4.Q4.R4.S4.T4.U4.O4.V4.l4.W4.X4.Y4.Z4.`4. 5..5.X4.+5.@5.#5.$5.$5.%5.#5.$5.&5.*5.=5.@5.-5.T4.#5.;5.>5.,5.'5.)5.!5.~5.{5.l4.]5.)5.^5./5.j4.(5._5.:5.z4.D3.54.<5.[5.}5.o4.|5.]5.15.25.~5.A3.35.45.C4.55.65.75.[5.85.j4.95.05.E4.A3.65.]3 G4.h4.a5.j4.44.G4.b5.c5.A3.d5.e5.f5.C4.g5.h4.h5.~5.]3 C4.B4.]3 ]3 44.i5.j5.f5.h5.@5.k5.l5.m5.J4.~5.~5.n5.D3.b4.z4.o5.p5.q5.r5.E4.l&.s5.h4.m5.t5.u5.v5.w5.x5.e4.f4.y5.z5.A5.F&.d5.B5.C5.D5.E5.F5.G5.H5.+g E. 4> m. ! .v> P. e_ x_ QO a) <*.1Z _< Q> I5.eY J5.JV K5.",
"Y[.L5.bW M5.0Z sf GF <~ a{ p  <. `f d! :/ 2. N5.O! }e k< a| O5.P5.Q5.R5.S5.T5.U5.V5.W5.k% X5.Z$ Y5.Z5.`5.V=  6..6.+6.@6.#6.$6.%6.&6.*6.=6.>% c$ T# -6.;6.T* Z# J* B- >6.C# ,6.W# l# '6.+= I# S$ J# )6.!6.~6.{6.]6.^6./6.y@ (6._6.:6.<6.[6.V* != }6.e= |6.]$ 16.R= 26.36.46.56.66.76.86.96.i% 06.a6.b6.c6.,- d6.O# e6.f6.g6.j$ ,6.h6.i6.j6.e- k6.l6.l6.-$ 8$ n# ,% m6.n6.s3.j3.o6.p6.46.X5.P$ c$ q6.r6.s6.t6.u6.v6.w6.x6.y6.z6.O# /% A6.B6.g% C6.D6.E6.F6.l6.G6.H6.I6.J6.^$ l# K6.`# g$ E# L6.M6.N6.O6.^$ Z$ l# i% g$ t$ g$ 6$ 2% /$ 46.>% P6.Q6.O# -6.D$ R6.S6.T6.U6.q3.N# V6.q# D$ n# d- W6.4$ S* X6.Y6.Z6.`6. 7..7.+7.@7.#7.$7.+% %7.|& &% &7.C6.W6.n3.*7.o6.>% C# l# |6.=7.-7.;7.>7.*= !$ Z$ ,7.'7.)7.;- !7.~7.{7.]7.^7./7.(7.0(.F; 2. 6  .] s| &=.   *' o  42 ud i1 _. #/.4< _7.:7.W1.<7.C! ",
":o [7.4n }7.jI !O }) ,{ C; o  a! i1 W{.@) `b 7z C] xH }/ y; ~( |7.17.27.R5.37.l& 47.d3.:& l& 57.67.d3.3& K& 77.87.97.07.a7.b7.c7.R3.d7.e7.f7.F$ d- V3.`3.w& g7.h7.L& n& L% +4.a% i7.%7.j7.k7.%4.l7.m7.n7.z% v$ +- ,$ X$ '% z& Y$ o7.p7.H&.F6.f$ a6 q7.b3.C% r7.s7.t7.u7.4& v7.E& T% w7.<& x7.y7.z7.(* A7.B7.`3.$* ;* C7.h3.R3.D7.j&.{* E7.k* F7.k* e* S3.q& k* G7.H7.I7.N% J7.K7.P& L7.q& M7.d3.N7.L% w& O7.P7.E% Q7.R7.S7.T7.a6 U7.E&.V7.W7.X7.Y7.F3.Z7.G3.P& `7.C% g3. 8..8.+8.o& #4.@8.#8.$8.9* s4.%8.C& v4.Y3.c& l& &8.J& i& *8.K% L7.=8.-8.;8.c3.m7.>8.,8.a% K& l3.%4.d3.'8.)8.8& e& V# !8.Z% L% ~8.>8.d* {8.]8.'* I% ^8.,8.4$ /8.(8._8.R3.T% d4.B3.:8.B% Q7.Q7.e& '& <8.[8.}8.|8.18.9* T3.E% 28.g% 38.48.58.v- 68.>= 78.9[ Jq 88.'[ 8  s3 98.=  h' D' D, 9. h  L/ L/ o}.08.t;.O .a8.b8.>).",
"66 c8.9S <V d8.e8.g^ M[ t3 _. _> w) f8.BT g8.m~ #  P' 9{ || uZ CR h8.C+ i8.O$ j8.k8.l8.m8.16.Y5.:6.n8.o8.p8.q8.r8.s8.t8.{$ u8.v8.w8.x8.y8.A& e| J] <= z8.v@ A8.B8.C8.&@ D8.E8.F8.G8.H8.:- I8.J8.K8.I8.L8.M8.N8.O8.P8.Q8.)# @# R8.S8.F@ T8.U8.V8.W8.X8.Y8.I* Z8.`8. 9..9.o# +9.<- @9.n- #9.$9.%9.~6.&9.*9.=9.-9.;9.s6.>9.9@ ,9.K# w8.'9.E@ )9.+@ 8+ !9.~9.{9.]9.^9./9.(9.&6._9.:9.w6.p- <9.R= [= [9.}9.|9.z8.R= 86.19.29.2% 39.49.59.69.79.~9.O# ($ a6.89.D6.k- }= 99.09.s$ a9.b9.m6.c9.e% d9.f6.e9..9.f9.U$ g9.h9..9.i9.w6.j9.k9.y8.[9.X= l9.m9.n9.o9.8+ p9.q9.X+ r9.s9.5+ ;- t9. 6.&# u9.v9.W= }9.w9.x9._6.y9.r- z9.86.@- A9.B9.+=.C9.D9.P$ P= e- E9.!= F9.f6.{- Y= G9.)7.]$ H9.I9.J9.Y8.s$ e= K9.P* L9.c@ M9.N9.b+ O9.P9.Q9.8. )1 3/ R9.^~.;( D0 #,.f*._3 l} (j 4' <. g  S9.T9.U9.(f cs M~.V9.",
"S' zM /Q ~A W9.B( }2 X9.wC Y9.E. O_ }^ tZ T] ,2 J  J  U  x. w} bM }[ P  Z9.;! 8e `9.,e ~+ %. Md 6! }. 4> ^1 Lx q,  0.X/ #; q, Z] h, .0.;! #!.j>.+0.(. O. 8  Y/ @0.`  _> *  vw #0.$0.]! bP c' s> =3.Z- )).*. %0./B ! .6{ u! g! @o 8  c  <! +g M^ '4 6. &0.*0.=0.-0.d} ;0.>0.,0.'0.9Y )0.!0.R> g  E. <. $. 3..p. =C `; ~0.<3.{0..*.]0.^0.[  $  (' Z' q~ |1 dI /M /0.(0.z' 5> L  _0.!  ~+ 'n :0.p! +] X[ W( ^. <0.(D ,>.[0.}0.|0..Z 10.20.,_.f~ C| W( E} &{ -> 8z k: j^ G> 30.m! 40.6;.a. u2 (' 50.r. Gd *+ 60.70.80.<:._Q 90.00.a0.8^ r. n! y{ DF b0.#!.c0.J; qT d0.ZB e0.f0.g0.&r E. b' $) *  b: Bd RV [[ H> E~ #. 2>.n. v] 1_.h0.i0.j0._> h> %+ k0.Hx vf -^.R. *, Bd v  t1.8  l0.m0.q. bK 0) n0.$  3q <[ y, zC H<.+' [< Z. 0' Ad 7. wZ $2 o0.C, &{ C~ X- Xn M_ d! p[ M_ w/ p0.q0.@P Lq 02 r0.-N ",
"#z s0.6:._,.t0.|{ u0.z: 7} v0.v  W( RV Mb S1 e{ jo u, 7. j{ n< V  Y  w0.{: x0.y0.b: a! $+ (: z0.fn p. Q{ jt 6>..} b! G! A0.B0.C0.D0.E0.E0 w) Z/ U  =^ 7  9. c{ 3  _! [{ F: b{ [{ -^.T1.Id X| A. 71 TQ 4  F0.%. j. _. >+ Z[.G0.b9.H0.)~ 6] ;2 I0.x{ J0.K0.Vl g| L0.M0.N0.bM O0.|| i1 x> P0.)1 BR e1 k) 8| W, b' de Q0.Xx R0.S} :o }r S0.T0.wZ 0_.fo >f '  0' c; 5g ,{ /; (| 5T tT $+ u  S  |) )> %.    H[ v, U0.V0.W0.R].l; >e X0.Y0.Z0.`0. a..a.7Z `. t! >. S^ f. +.  ~ K. -` ^T B: +a.7r R].@a.*] ;` Z, e{ H! x> o  @g 8. O! 5  4> v. f. Z_ #a.$a.%a.&' C0 k< tf -  +R &a.*] x( *. :A ]o J  Y/ b~ (| b< + .   Z- |. M>.u3 gq *a.=a.-a.*< Z) %1 f! P> ,{ f  Re t. ;a.l} .> f8.>a.,a.w' b{ 'a.$+ T  0  =[ 42 8. b~ 8! TF `. W. v  t~ 9; F-.)a.!a.K! _! r' s_ ~a.By i. a! {a.;[.f .J;.]a.^a./a.Zc ",
"u%  d M+.(a._a.:a.&4 <a.NV Gm [a.i-.}a.]8 |a.0  ~_ L. K. Xo 7{ !m M! 1a.I' +  2a.3a.ud W~.L&.Y) 4a.x> O} 8~ &{ vk y, @' N|.w_ 4  5a.6a.#s uV &*.w  %V f~ 7a.fo P> R: <. e{ 8a.9a.0a.aa.t) ba.!U [F ca.da.*` 0  `. w, w, ea.fa.ga.ha.ia.ja.ka.la.ma.na.C[ oa.w` pa.qa.[: ,2 ra.m< C] ,{ x  UF sa.[I <{ 9< ta.q! ua.t  j|.<*.zr %2 Q{ v-... va.h. E, Wn L' w{ wa.Rh u> Od ht xa.Ef )t ^8 ya.za.I6 :4 j   *.Aa.Ba.&/ B{ ([  ~ FH Ca.Da.Ea.Fa.Ga.Ha.Ia.Ja.y) F, 42 L. +. >+ g  Ka.]  %r [}.La.Ma.8I x0.jo J) %g 0' *G sr U1 b~ `. r. F, i*.d_ Na._: U  Y) yd gU 3  &' Y/ J> Oa.c<.Pa.Qa.'K G, Ra.xf Vl d; HN y~ 0  fn Sa.&/ 8d s' j{ )< F}.x_ +] g! ;X P[ y_ Ta.C0 %g nK Ua.V .Va.Lo F; _p P. Wa.I  Xa.A  Ya.b{ M. w  ]z EI ;e _D Za.`a.f:  b..b.+b.@b.0a.{S R7 #b.$b.[a %b.&b.n, 4] *b.L< =b.kt -b.",
"`^ ;b.').vX >b.D  ->.j; ,b.'b.Y*.)b.W! !b.~b.{b.]b.N. ,  _> [[ #  #g w{  ) Y> ^b.6Q y; ,M /b.!o 4] (b.j, 4. Zf >f :{ Jb _b.8~ e,.A) :b.b{ A. 8! o; W{.$,.kJ 2H <b.([ [b.}b.|b.&2.4[ 1b.2b.3b.4b.o= h- 5b.6b.C] 7b.8. <x () o^ 8b.9b.0b.D&.4@ ab.bb.cb.db.eb.fb.$d 5V .  .+ ~> 8^ /L C] fo l|.+) gb.1f O_ Iz -[ hb.3> ib.-} a~ jb.p! .  kb.D< 71 N1 E} lb.=x p. mb.o, M| W, [b.nb.ob.o(.pb.qb.rb.sb.tb.3  ]#.o{  [.ub.Z. BT BT z8 %  h6 vb.w` wb.JA *}.g( v  O. j  $) @. Ed 8/ t3 g| f. ->.6P xb.6O 7{ v:.9. lC sr #,.#o -. j{ C. B. '+ =  #,.^!.x{ yb.(  U> Y) .} X  C, 9] u) Z/ t. S).A) WM .. )4 yr 8/ ^[ zb.ZN >-.C* Ab.S, Q{ 6O Qh .' Bb.oS w~ hr {: [e h  7j :  Cb.s]. (.Db.Eb.PN N^ fo f~ ;f u; %. A| P. [     n! O, Fb.#H |> p1 Gb.g/ Hb.Ib.Jb.Kb.+<.Lb.Mb.Nb.-%.a! #3.Ob.Pb.Qb.4} Rb.6^ ",
"Sb.h^.fd !G Tb.U1 Ub.Vb.'~ )~ !~ ~~ {~ ]~ ^~ /~ Wb.p} 8~ c  d_ g  w|.do {H <*.vf Xb.ZD N' $  c) uh v> Q] Yb.m. C1 )+ k< Zb.`b.%K  c.~x Z_ 8^ #| H> .c.+c.g( B) z{.@c.#c.T:.$c.dk %c.&c.*c.Y' &0.=c.-c.J= ;c.>c.,c.'c.K` -< `!.)c.,, >f !c.Dn ~c.x%.{c.C  ]c.)  ^c.de f> ^> Zn 9{ f, Y) /c.(c.9^.O(.0' m] lC _c.yH :c./:.,, 6  <c.9: S. 0^ 0{ [c.XD -` }c.|c.1c.0> i> 8: 9: 2c.3c.4c.5c.$@.6c.7c.8c.9c.0c.E~ ac.bc.o{ |2.[: .. 42 Z  {p cc.dc.8! _! Q. _j w  G  L) do q> >( O. q> f. )[ ec.fc.4  2.  ' 9| -e E. gc.9. w/ *  z  v  8. y_ @f /. x/ 5A Z:.&  4! 33 h  r  hc.]{ U2 C/ t) i) V- << N/ E. e' +o e_ #o $F #  ,] A8 ,{ N1 ic.$  S; *. y  1_ 9{ I  Wn ./.jc.t. 1  kc.f1 lc.lb.mc.L2 6r J  zC || s) /   + Z/ H[ 8{ D[ o; nc.oc.pc.! .qc.rc.'~ )~ !~ ~~ {~ ]~ ^~ /~ sc.tc.>~ uc.vc.Xl <p wc.",
"b ._) xc.yc.zc.+. 5P Ac.T{ U{ V{ W{ X{ Y{ Z{ f  Bc.Oh p. Iz O. g! 3}.#  dM >A H_ r) U' {, Cc.$2 ,> Z- (T #0.K> < .>f w] hr Dc.L2 [~ a1 RV B; Ec..> $+ N8 (: Fc._].*< t] Gc.Hc.O, Ic.Jc.Kc.Lc.wP f! [  Mc.Nc.Oc.Pc.Qc.Rc.Sc.Tc.Uc.J} Vc.9O l; -/ Wc.* .Xc.Yc.F#.9P Y' Zc.T  `c.L) @. c   d.F/..d.5Q 4; <~ +d.L^ c; M^ q: E} @d.i. id J[ [2 #d.$d.d_ ,, @o dI X  eU d  %d.&d.m^ 9| *d.=d.-d.;d.>d.,d.O_ 'd.)d.w' !d.$2 :j ~d.jX 2~ fF I/ {d.$.  o 63 L{ |) Y( q( h' .I m2.~[ .] 7e b: rr %g <. ]d.(: =  ^d.%1 ,3 y) r> /d.>u :. _> =. D/.8g G: JT a[ (d.}! y< ;} 4> >. Kh /, ,z =a.}; ]! ^T 6  &4 *  _d.S[ $  :d.&' q~ Ux 8. <d.]  N  I^ #( vK $  6] W' *  ^G x< ], bI [d.}d.La.Y  |d.1d.6r !^  ; 2d.'!.&' 9. [1 3d.A. ,. 4X 4d.5d.6d.7d.8d.9d.0d.T{ U{ V{ W{ X{ Y{ Z{ f  ad.='.bd.cd.if dd.ed.fd.",
"F).gd.XI hd.id.~, jd.kd.A^ B^ I] C^ D^ L] E^ F^ ld.:&.md.}e 9. nd.$) ;' bM z. 4. iq a1 z. ): v> od.Y1 Z- }e Q' E} pd.D: ;V qd.9&.-e rd.sd.{1 Q~ 4q ,  td.1Q 5] ud.b0.vd.1Q wd.%= xd.yd.!` 5].4  zd.E3 O^ M: q~ #0.Ad._@ Bd.Cd.Dd.N;.f  E. p. g  u| G0.Ed.Fd.Gd.Hd.W] Id.Jd.Kd._c.f*.l; +} Ld.Md.Nd.Od.&1 Ob.Pd.lC -| ,+ _> gn $c.p. h~ 0' @, Qd.E} Zf =x m) CR aO jq Rd.Sd.Td.Ud.Vd.Wd.A#.Xd.Yd.Zd.F^ `d.YT  e.u| x> `> EI .e.1..+e.(O F .i1 -. [  P; q<.**.+*.n( #( v~ @e.>2 u~ #e.$e.%e.n. 8e :/._> wP z< j[    &e.=[ (4 '( +  x. Jf Jb e# Q/ 5  b| p( OG D{ w{ D[ ;] c) *e.Iq =e.bM &  +^ j2.B} c. V> q| g  A] Ra.u{ c_ f  H[ V  _; ~..-e.1| N' 0  ;e.DN 5> 8[ >e.,e.Y  &) FZ ./.p^ 'e.v> K! )e.F. 8. g^ 7/ a0.x> ls t:.rV !) !e.@a.fF ~e.cC A^ B^ I] C^ D^ L] E^ F^ {e.H/.]e.]m _Z hf ^e.x0.",
";:.[7.Fq /e.(e._e.:e.<e.9( 0( a( b( Q] c( d( q/ [e.}e.fo V- s) J].;. (. ,. ]  L  xH vk nH g  :  -> D) x  4. 0e m] 6r |T T_ (] 9-.|e.1e.ma.n< z!.2e.Q; s .3e.W. 4e./, 5e.Ea.v- 6e.7e.V  ~} 8e.9e.0e.Yq ae.O. be.ce.de.ee.fe.>e }/ v(.ge._~ o. &' U' he.8s ie.je.yo Oz qC $] ke.le.me.p  ne.0  tZ +^ '3 8^ + .sf <> Eh y) fo oe.^^ L~ pe.qe.re.Ph Pp se.&' /' C] te.ue.x  ve.we.xe.!$.ye.ze.43 Ae.Be.Ce.De.Ee.*. g  l) )1 2; Fe.Ge.He.6t Ie.F  7{ C; :{ X) ~' Je.Ke.2e b~ .' Le.TA )| Me.Ne.Oe.Id I^ 0> }/ Pe.[  P> v] t| !) Qe.wC l] {: g  Y) n> t. z| @o BI 0*.Q/ {3.'y Re.{< jJ pK uy q~ CR w).-Z vw B! ed }; [~ F: w_ o> c  i. *} Se.M_.OS -r ~(.Te.~: Ue.Y  O|.%b.Ve.We.:  gj 9! $; cP N;.d[ 3  f(.Xe.:^ HX I, '4 x!.|Y h{ d, W. Ye.n1 Ze.`e.9( 0( a( b( Q] c( d( q/  f..f.Y  GM ,x ~Q  4 +f.",
"NM j6 @f.23.#f.c; $f.%f.$: %: &: g] *: =: -: ;: &f.*f.=f.>, J  ', W0.E, Y. l; _> -f.@+ I; C1 sf O_ |n O> <> O  #^ l].;f.>f.,f.'f.)f.!f.~f.)4 {f.|. ]f.f~.8] ;; k] <{ Z:.6s ^f.n1 wJ P>.jC L) /f.u. .2 J) (f._f.6  :f.;+ <f.F;.h  86 b. eF *< o> 1! y=.6r [f.[[ }f.#  l, |f.1f.Y/.Y> L0 ~+ PN E. X. 2f.c' t| 8N '. H. ~ .({ 9~.dI h^ 3f.4f._> 5f.6f.X2 u, 7{ >. a! >F t..7f.8f.$: 9f.&: 0f.af.=: -: bf.cf.df.c' $  )} H. $  d; ef.ff.9: ]  b~ e! Q  x) ~( iT e/ gf.E  Q  f! hf.if._} |! ,u jf.kf.4' Te lf.vd 4; s  h2 9< C| mf.d_ )+ Re.nf.e, q. C| %, >e D/.} .T1 v] d' bM 2. 61 5O of.w> [  7  $+ |< ,| d .pf.vK s_ qf.Ca.-, W> ./ rf.sf.;3 t% p  e> tf.r; uf.WQ *' db._  1_.(1 vf.wf.H> xf.yf.zf.6Z c*.Af.$3 [: F) 0_.Bf.j].3     Y) Cf.Df.Ef.$: %: &: g] *: =: -: ;: Ff.Gf.a{ ~Q Hf.If.pC Jf.",
"Kf.Lf.Mf.Nf.Of.w  /*.Pf.W< X< Y< Z< `<  [ .[ +[ Qf.Rf.B).#; #!.41.}. &{ Sf.s; w  BU T( Z/ [e f  w!.Zn Y  L  6! a. `N Tf.Uf.Vf.O9.Wf.io j .Z:.'+ @' Xf.X^ ON b .ZB s| Yf.&+ C| *. e> Zf.I  a) y  fo `f. g..^  ) m; s> nH }I $' S  .g.T1.9. 9  J< v] W. +g.lC 8N {n @g.8^ #g.$g.m| %g.q, t. ,+ j  t  wJ || o  Bd ( .w_ ^: h' R| ;> &g.*g.+] =g.L) i%.'  8. O. '+ g  +3 X}.B!.-g.X: =%.;g.>g.,g.'g.)g.!g.~g.AQ vr h  yH i) q< K. o6 ,+ w' Gx w  @. e/ g{ '  B{ {g.]g.^g./g.(g.E1 R:._g.|e #o :g.BI <g.[g.}g.S| 5  6O 5V |g.1g.2g.wq j2.3g.p: eF $  e  'y pS 0(./+ &+ :. 9  Jz c' c/ 3  4g.mr k: w; o~ y*.%P 5g.6g.WH 7g.{D 70.K. g!.8g.Pd.9: 9g.m! 5> L;.|-.a. J_ .+ 0g.u0.>( Zn O|.d~ ]M ag.Z  bg.cg.q} F@ dg.eg.RV fg.D| ;3 z| a{ 5  e_ N1 Pb gg.W< X< Y< Z< `<  [ .[ +[ Qf.hg.)I .1.'O d:.ig.K>.",
"<~ jg.<Y u|.kg.U: lg.mg.d} e} Y! f} x[ g} h} s. ng. d og.i! :4.I^ t! vw U  Z- i_ +*.a  O} M) ;L Z. 21 ,, K) Zf lJ ]. -e.E} &^ ^> jb.pg.t] 8~    J  M<.qg.cI Y' bO co Qo $. @. 41.rg.4| C] dI $. p[ ]> wr 0f.UL a*.=^ P. ~, e/    !> Y) sg._. B. Iz ~] tg.A  #( !..hn H> $2 z. ug.Nd 8W F, w) d; e~ 8e Ed _> >. t] 4' ,V vg.YA S~ wg.9: x| z  xg.c{ ,{ @o ,{ g  g  R  w' yg.zg.Ag.Bg.Cg.Dg.Eg.y[ Dr }e Fg.Gg.&, Hg.b{ vV Jr Ig.E. Dd O. z' [~ p> ur PA M| Jg.nv q< ,s Kg.$X Lg.Mg.Ng.Og.g3 ^d.q< j' !n Pg.A_ +  x. 9f 0> Y^.Qg.D  ~V Le.^z (: )).&, m! Rg.Sg.W~.Q' L  O' N> e_ L, {, L  Tg.A3 &4 ur Kh Ug.]> Vg.$L Wg.+> X' '+ E_ Xg.X) Yg.[< _~ q. c, 8/ }e P' >} : .f/ >P Zg.]o b{ t1.v> `g.F!  h..h.+h.6W Zb v} $  @h.#h.[[ w_ Y. 4' 7  J^.$h.d} e} Y! f} x[ g} h} s. %h.&h.y; .~ *h.=h. 4 w> ",
"u-.-h.0V G{.&p ;h.x` >h.~| Z| `|  1 .1 +1 @1 #1 ,h.h, 'h.f~ K) .g.)h.,  f. n< X}.9$.A8 !h.A| K. PM t3 3  '  ~h.Gd B. {h.t] d. 4> *> ]h. + 8. 8~ ^h.it ~, V> Wn N2 _> ^|.|! fn D> (. k)  + j  ,/ s! d< S} B) >. 9| /h.7  g<.ae w; &' k; |) (h._h.:h.A0 <h.V[ ef :! tc.l) `A Q8 [h.{o U> }h.f  T  y) 2. 2. .. z  cn #^ |h.1h.d1 Ve I,  ' h  2h.=. jX 3h.@+ |; 7! [e f, g  4h.5h.6h.h) 7h.8h.9h.0h.wa._| ah.MV o  x) B2 +3 3. _. f. p! [1 $*.mq bh.ch.@h.}P IA B  PS Kv .  dh.eh.IL fh.gh.hh.z, H| ih.jh.kh.>. U2 lh.U1 mh.nh.}V oh.q_ B: @f L' @+ S' ph.|-.W) $;  ^ qh.x} dX y' rh.&  sh.th.uh.t1.vh.Y) {; pf.w' )3 /: 1o p' n> {o y' .  ~> 2q p  j^ C{ g  '+ +. 4> wh.q. xh.z/ X- yh.s! =  |. Z  zh.K: 2> w_ 3t fn ). &4 [: 7. K  y  M~ B  Zc Ah.~| Z| `|  1 .1 +1 @1 #1 Bh.[< p! z<.Ch.Dh.Eh.C_ ",
"8> D;.Fh.:( Gh.w/ (: `_.Hh.Ih.Jh.Kh.Lh.Mh.Nh.Oh.#,.2! f[ fc.Ph.Qh.e/ ^|. + @' PM ;> g  n] :/ u) >e =3.$  Rh.8N {; O2 Sh.Th.U1 q( 1Q 9{ Uh.@. w> c' .2 o< en '> !) MU b~ B  8d Vh.m. o~ _> !^ 6] =( Y  W. <! 4Q 3  Wh.uh W2 t| 1{ Xh.t! Yh.x8 @+ *}.Zh.<2.h( X).}[.I_ z3 `. dc.`h.s. :j <b. i.4  h  #  t. 9. o  R> .i.+i.E3 @i.zR ~s F. F. *'.;; %_ J. t| s! '+    h  :  i'.Q] #i.$i.%i.&i.*i.=i.-i.;i.>i.F( a  O( C. q> :  Z:.7{ p. x_ 8^ {} ! .J[ O! ,i.1V fo 'i.)i.!i.~i.{i.HX ]i.V( ^i.30.K  /i.&=.LE (i.o1 O: d  GF 0d f: t| =x ,  k  $+ _i.:i.w_ t% p! <i.wf.DR e' Cn $_ [i.*G |1 }i.+=.g( 9: 8e {n g2 5s |i.(. z. 8. _> $+  ' 9x w) t! p  C. 7{ >+ >/ O. Tf *. ;p _. D! |! ~+ y) *. C  =  6< &{ 1i.2i.=. (] >P &+ t  Z- <. uf 5  E_ ge.Q; 3i.4i.5i.6i.7i.8i.9i.0i.k. Z  ai.Ob bi.X&.ZE ci.",
"di.ei.fi.PV gi.BT hi.ii.,:.ji.ki.x5.j&.2% li.`f A2 p_ mi.ni.v8 f: l; l} JO ~V F: nS x].oi.hF <  Z- bK Y) 6! U- vV pi.W( i[.9| [[ 1_ qi.co ,| +  8  42 !< j1 33 &, B_ t3 b3 >C bK ri.u  z} N' si.ti. c.ui.4z D< 4  Gd 9P x) |! vi.%) wi.xi.d; e~ C' yi.Qh zi.-Z 66 u) [{ Ai.;p ae ek Bi.c] -. b~ u  8g.c_ f. |! p} Ci./].Di.Ei.}^ rT Fi.x~ K. {n T~ C{ N. E! mq y  <. jx l{ Gi.M( =- .4.Hi.E3.Ii.Ji.Ki.Li.,u Mi.BI <. 9  nG u}.$+ <. L; f> Ni.1> Oi.Pi.Qi.Ri.Si.Ti.Ui.Vi.Wi.Xi.n<.Yi.}. 4<.Zi.`i.b3 z0 O_  j.v] K  .j.t) fF _< E! ;. X- CU t. *, #o P} jX c  _~ (. $  z| +j.aS @j.+C #j.Gd $j.9$.FH E0.6f.fo *  v, *> u~ .| %j.9: -A p~ !V .D ,.    b; z/ C' s, j~ &j.~[ *j.=j.0~ k. i^ K. t. =} 8. 7  t_ -j.6~ +c.tZ [^ 3  [1 z/ (g 6  Zn Y  :^.<U ;j.>j.`7.,j.B& e@ n. Z- d  _  V<.ag _Y 'j.]#.",
":F &~ ,<.y{.*~ )j.u{ t) l{ E; L2 !j.K. EI 63 u  ~j.{j.q3 ]j.^j./j.]g.!..(j.JO 2H _j.-( E' 6/.:j.t3 j{ ty ce b; B: m! <j.u  -3 C8 D{ 4  K` e/ z_ B< {].B  q, c[ K! 9< ,{ Q[.[j.D< }j.|j.=[ 1j.G{ J>.2j.S, 1( 3j.f/ t  4j.7. 5j.d,.(. 6j.7j.P> @o Op Tf Y] fq r. x' =r b  }{ 8j.3X q; U  g  p; y  U1 o] @o w{ ,u w_ 9j.^T 0j.aj.bj.b<.cj.dj.,V ej.7  B  F. @f BI 2] fj.gj.D< v) Yq 8j {; D0 8| hj.ij.U- c:.&) M| |j..^ *G /. l{ =_ >f jj.u! q< |_ Ob.9}.kj.lj.M~ ;p o~ s3 <c.mj.O. |) ck x. 5e We.QI nj.dq ]^ }P T} G! oj.h  (j o. pj.y) ~' :/ O, 8. n( qj.~_ |  rj.#_ JA XQ sj.tj.A~.uj.r>.vj.wj.xj.yj.U. 2] 8] K*.zj.i~ OH 2H Aj.`) J( y_ ,2 p^ K) e. 9y Bj.Cj.Ze Dj.9g.o@.Af Ej.Z1 [b.@f w_ Md z. a~ 0' |) Fj.^T Gj.M! 3f @+ b{ 4' F. [{ /r @f ,V Hj.Ij.k) I, K) j{ :d.M_ 8j d[ Jj.RM Kj.<, Lj.",
"V^ 7d O).Mj.Nj.y4 Oj.@Q Pj.Qj.Rj.n5 6L Sj.+n Tj.Uj.Bs Vj.'0 Wj.`9 Xj.vW Yj.Zj..t ,0 7J `j. 0  k..k.+k.@k.cw m0 Ag Qm #k.$k.gh %k.LY n7 #0 &k.*k.=k.-k.NY ;k.>k.~h ,k.'k.)k.l5 Z4 !k.~k.{k.]k.Bs ^k.Rg /k.(k.Q5 _k.:k.<k.IB %h N5 [k.}k.1J Jm j5 p5 Qv T4 [4 ;h J9 |k.1k.zg '6 }J |w 9w 2k.3h 3k.<4 1J _b ob kh zB xg 4k.pg 95 :+.5k.{+.6k..t %6 *Q 7k.1J #0 dw C9 LP 8k.9k.*0 0k.QP 1J ak.*h bk.ck.i3 ]5 z9 dk.ek.fk.pg gk.hk.=b ik.(b bk.qb jk.}S Qv 24 kk.lk.mk.=0 /6 Ta nk.ok.:S ga D9 ^0 lk.pk.q5 04 90 'h qk.N9 rk.Vj.m5 ys sk.tk.ng uk.G5 Mm 24 As [J 'h /5 X9 V9 $0 Y8 vk.GY /0 wk.@t xk.yk.zk.Ak.[J Bk.(S y9 |m Ck.74 Dk.C9 Ek.#0 kb _+.c5 Fk.Gk.hw ob |J Hk.iw Ik.Jk.Kk.Lk.79 _J .k.wg #t o9 t9 h5 65 !h qb %6 Xm xg Qv q5 .2. 0 *5 aw Mk.Nk.D4 ~k.Ok.gk.Pk.+6 [4 .h Qk.Rk.Sk.Kj.Tk.M<.",
"V .Uk.Vk.Wk.Xk.Yk.Zk.N7 E7 `k.U7  l.(7 .l.B6 +l.@l..8 E:.#l.$l.%> %l.&l.*l.=l.-l.*l.;l.>l.#7 ,l.'l.)l.=l.$l.P7 !l.8, Vs [8 ~l.{l.`k.]l.^l.TM /l.c8 #7 !l.(l._l.:l.zW 87 $8 <l.[l.}l.|l.1l.v7 2l.S6 ]l.!l.3l.-+.4l.5l.Z7 ]l.G7 6l.^8 7l.N6 d8 8l.9l.}7 o8 P7 P7 ]l.0l.al.bl.y}.cl.j7 E7 o8 _` dl.el.fl.C6 gl.hl.`7 `7 il.O6 jl.kl.ll.ml.nl.ol.hl.S6 XP N6 pl.S6 /l.w7 X7 %> ql.al.rl.sl.Xs  l.78 tl.ul.vl.wl.7=.>a xl.K6 -+.yl.zl.87 Al.#l.Bl.#b.4l.y6 4l.Cl.Dl. l.XP El.B6 Fl.Gl.Hl.P7 Il.E:.Ws z6 58 Jl.Kl.|7 {l.Ll.|7 Ml.J6 Zk.Nl.z6 Ol.!J K6 I6 ~8 Wg Pl.Ql.D6 Rl.Sl.Ql.y}.!J tl.a8 Tl.P7 Ul.Vl.Wl.Xl.Yl.Zl.`l. m.69 .m.+m.@m.w7 O7 il.z6 #m.#m.97 2=.$m.y}.Vs )7 Hl.%m.&m.*m.=m.-m.;m.>m.78 ol.Wg O6 4l.rB Y6 '8 ^J ,m.58 {8 M6 gl.N7 'm.)m.{J S..!m.~m.I6 57 8, 8, {m._7 ]m.^m.-]./m.(m.K` ",
"_m.]' :m.<m.@0 Ng [m.}m.SP |m.05  9 9m 1m.#+..8 Ys 2m.)6 }h 3m.[6 4m.5m.6m.7m.l8 8m.9m.xB }4 =+.0m.am.bm.cm.Z9 xW q7 dm.25 em. 0 Qg fm.=) Fg -0 Y9 Ys gm.hm.{S 04 g9 &Q jh `8 DW im.lB zW jm.km.C9 RP <J a9 j0 X9 Ps q9 %9 _0 W9 .9 lm.mm.HW nm.(9 om.pm.X9 Q9 )0 FW qm.rm.Hg @0 Z9 X9 ]7 Tg <8 sm.tm.Ss um.yW _0 ]7 _0 vm.<J wm./+.5J f8 .7 Zj.Zg $0 xm.*6  0 dw 6w ym.'0 ;+.=8 zm.Am.Bm.qb k=.9w Cm.vg Dm.Em.Jm Ks <4 *6 Y9 Zs qm.w9 %k.*5 Fm.mY %+.Gm.Ls .h b0 a9 Ys ^J Hm.;7 Im.<6 Jm.Km.%5 ,7 ^J w9 }J i0 +9 Um h5 QP 4m.k9 !9 59 /0 Lm.;+.Vg ul.,7 L9 +h Mm.Nm.s5 =9 Om.Pm.Qm.%9 om.Rm.fB H=.Sm.Tm.&9 Um.Vm.$0 %h (+.U9 Wm.G9 Os Xm.V9 a9 Ym.C9 c5 Zm.`m. n..n.4m.+n.p7 @n.#n.pW DW $n.O5 kB T9 X6 %n.Gg Y9 Og mg 0m.Js Rg 90 Rm.W4 #5 &n..9 +7 $6 *n.5m._9 +n.9k.Zg ;9 =n.-n.;n.W2.>n.p! ",
"4~ N0 ,n.'n.)n.!n.=2.JY ~n.{n.]n.^n.Ca /n.h4 dE V-.(n._n.^w :n.<n.[n.ym =b U4 ob mk.}n.=b #2.pg -2.Aa $w |n.1n.2n.gb 3n.4n.5n.6n.7n.8n.9n.:n.0n.an.%b bn.{a cn.ja dn.4u .;.en.ba Fa zs Jm fn.]+.gn.hn.in.db b4 in.&a Fa jn.#S kn.Ma p3 ln..b mn.nn.Ha Kk.on.um pn.pn.Wa fm `a eb 5h am qn.}S Za Z0 rn.hh am N-.JY fb am Fs *b Ta tY ;b sn.tn.Kk.-5 *b un.s4 vn.wn.xn.Jd.yn.zn.An.Bn.Cn.Dn.-2.pm En.w8 C2 Fn.(w Gn.Hn.In.-2.20 hh Jn.Kn.rL [w %Q $a #S XR J9 wa ^b Ln.xm tY Mn.Nn.Kk.|5 sL Bm ;a On.ja 'b hh Pn.Qn.jm nL Rn.!b h#.Sn.<w Tn.Un.ug Vn.1h Wn.Xn.!b tg `0 `a pg 7h Yn.ga Zn.|0 `n.`a  o.A9 .o.+o.@o.#o.$o.Xn.fb %o.&o.=a (E .b `a .w $;.*o.-w =o.p3 -o.-w @o.HY ;o.>o.,o.'o.i3 )o..n ha n4 tn.!o.Hm ~o.{o.@a ]o.^o.am 74 0E hm cL Z0 Kg.vm /o.WR (o.sm WR _o.:o.<o.[o.Za }o.=] Pz o~ ",
"G| eF </ )e.|o.,V 1: v:.1o.2o.3o..3 !..R[ c<.%F v-.4o.5o.iq .f 6o.uf 7o.`2 8o.#_ dk 9o.0o.ao.+W 1A KO ( .%s !..1A G! }A bo.d: Cj.tr ,V co.do.#_ eo.fo.7r i~ jr =] g3 ,| b| **.-s ao.Ef jr A2 =s go.qt Cj.,-.`2 =W q3 ~..w3 A2 ho.bo.j~ io.u0.j: e~ !^ x~ 5j.q; D .jo.A/ >s =j.6P a*.ko.+W :: 7r 4_ 5~ rr vi.$g.7r lo.}P mo.;X '}.>5 no.t..$g..P KA jJ $W gj.mo.TA oo.=j.2P !) Id Y] po.,n.~..qo.ro.=  W, ww so.to.uo.z{._u k^.vo.L~ Q[ wo.jr {I p_ %s qr xo.{K ++ j[ 0{ tx :^ y< yo.=s >u zo.98.q; Ao.y< +f G) IA Bo.Co.Do..P mr Eo.c<.1] 9< .; <| '| Fo.Q[ Go.Ho.u0.A/ qr Y2 pr 7r p_ _} KA 2P ww p] Io.JO e{ 6P mi.Jo.Ko.Lo.[V ON Mo.A2 .3 .3 `2 `2 Co.p( 2. e~ '  Mo.No.Oo.=[ M! Po.B3 e/ A2 ]g.Qo.-s Ro.+_ So.PH To.Uo.}~ Vo.qt qo.w) v-.Wo.eF ;f n{ b| Xo.Yo.Zo.9>.`o. p.K! .p.V/.z' '  -, "};
