/* XPM */
static char * wall9_xpm[] = {
"64 64 2 1",
" 	c #93CA8B",
".	c #A8D99C",
"                                  ..........................    ",
"                                  ..........................    ",
"                                ..............................  ",
"                                ..............................  ",
"    ....              ....      ....    ..............    ....  ",
"    ....              ....      ....    ..............    ....  ",
"    ....              ....      ....    ..............    ....  ",
"    ....              ....      ....    ..............    ....  ",
"                                ..............................  ",
"                                ..............................  ",
"                                ..............................  ",
"                                ..............................  ",
"                                ..............................  ",
"                                ..............................  ",
"                                ..............................  ",
"                                ..............................  ",
"                                ..............................  ",
"                                ..............................  ",
"                                ..............................  ",
"                                ..............................  ",
"                                ..............................  ",
"                                ..............................  ",
"    ....              ....      ....    ..............    ....  ",
"    ....              ....      ....    ..............    ....  ",
"    ....              ....      ....    ..............    ....  ",
"    ....              ....      ....    ..............    ....  ",
"                                ..............................  ",
"                                ..............................  ",
"                                  ..........................    ",
"                                  ..........................    ",
"                                                                ",
"                                                                ",
"  ..........................                                    ",
"  ..........................                                    ",
"..............................                                  ",
"..............................                                  ",
"....    ..............    ....      ....              ....      ",
"....    ..............    ....      ....              ....      ",
"....    ..............    ....      ....              ....      ",
"....    ..............    ....      ....              ....      ",
"..............................                                  ",
"..............................                                  ",
"..............................                                  ",
"..............................                                  ",
"..............................                                  ",
"..............................                                  ",
"..............................                                  ",
"..............................                                  ",
"..............................                                  ",
"..............................                                  ",
"..............................                                  ",
"..............................                                  ",
"..............................                                  ",
"..............................                                  ",
"....    ..............    ....      ....              ....      ",
"....    ..............    ....      ....              ....      ",
"....    ..............    ....      ....              ....      ",
"....    ..............    ....      ....              ....      ",
"..............................                                  ",
"..............................                                  ",
"  ..........................                                    ",
"  ..........................                                    ",
"                                                                ",
"                                                                "};
