/* XPM */
static char * wall3_xpm[] = {
"256 256 255 2",
"  	c #5A0BAB",
". 	c #7C07B4",
"+ 	c #9104A9",
"@ 	c #6A11C0",
"# 	c #4C22C7",
"$ 	c #3F28C4",
"% 	c #601FCF",
"& 	c #332FC0",
"* 	c #9E11BD",
"= 	c #9B15C3",
"- 	c #841BD1",
"; 	c #B711B0",
"> 	c #9519CA",
", 	c #283BC1",
"' 	c #1D40B9",
") 	c #B015BC",
"! 	c #7D24DB",
"~ 	c #5232DE",
"{ 	c #4737DA",
"] 	c #6B2CDF",
"^ 	c #3A3DD6",
"/ 	c #154CB8",
"( 	c #9726DC",
"_ 	c #0B55B3",
": 	c #3249D8",
"< 	c #264ECF",
"[ 	c #872FE5",
"} 	c #CC23B0",
"| 	c #5142EA",
"1 	c #613EEC",
"2 	c #4747E4",
"3 	c #145CAF",
"4 	c #A62DDB",
"5 	c #C727BD",
"6 	c #B62BD1",
"7 	c #1D5ACF",
"8 	c #9335E5",
"9 	c #B12FD6",
"0 	c #803CED",
"a 	c #0869B7",
"b 	c #C031D0",
"c 	c #325AE0",
"d 	c #4255E8",
"e 	c #1B64D0",
"f 	c #C832C9",
"g 	c #1368C8",
"h 	c #0071A7",
"i 	c #0273B5",
"j 	c #7A4BF5",
"k 	c #2B65DD",
"l 	c #AC3FE6",
"m 	c #6653F5",
"n 	c #5A57F3",
"o 	c #7051F6",
"p 	c #9C45EF",
"q 	c #E139AE",
"r 	c #D23CC8",
"s 	c #DA3CBD",
"t 	c #1276CC",
"u 	c #E73CA4",
"v 	c #0E7DA7",
"w 	c #1B79C5",
"x 	c #4769F1",
"y 	c #5266F3",
"z 	c #3470E9",
"A 	c #2576DC",
"B 	c #B74AE6",
"C 	c #3F6DED",
"D 	c #5E64F8",
"E 	c #9554F6",
"F 	c #C848D9",
"G 	c #AC4FEE",
"H 	c #008AAF",
"I 	c #0A86BA",
"J 	c #1482CC",
"K 	c #0E85C7",
"L 	c #BD50E5",
"M 	c #8D5DFA",
"N 	c #0091A3",
"O 	c #7C64FD",
"P 	c #2382DA",
"Q 	c #3D7AED",
"R 	c #DE4EC7",
"S 	c #AB5DF3",
"T 	c #3581EA",
"U 	c #C857E1",
"V 	c #D555D5",
"W 	c #8E68FD",
"X 	c #F054A9",
"Y 	c #527CF8",
"Z 	c #0A98B9",
"` 	c #BA60ED",
" .	c #2292C3",
"..	c #7D71FF",
"+.	c #1994D2",
"@.	c #E959BC",
"#.	c #AA66F5",
"$.	c #EE59B3",
"%.	c #F559A0",
"&.	c #9B6BFB",
"*.	c #DF5CCD",
"=.	c #6E79FF",
"-.	c #2692DF",
";.	c #C364E9",
">.	c #0BA4B5",
",.	c #0DA5A8",
"'.	c #179FCD",
").	c #A871F8",
"!.	c #D068E0",
"~.	c #3C93EB",
"{.	c #BF6CEC",
"].	c #B270F4",
"^.	c #6D86FF",
"/.	c #16A6C5",
"(.	c #4993F1",
"_.	c #DD6BD4",
":.	c #5690F8",
"<.	c #9D7CFC",
"[.	c #8982FF",
"}.	c #E86CC6",
"|.	c #CF71E3",
"1.	c #678EFC",
"2.	c #B977F1",
"3.	c #EE6DBC",
"4.	c #2EA3DD",
"5.	c #F36DB4",
"6.	c #F86EA4",
"7.	c #39A1E4",
"8.	c #DB73D7",
"9.	c #429FEB",
"0.	c #AE80F6",
"a.	c #15B5AE",
"b.	c #C27CED",
"c.	c #E675CA",
"d.	c #9987FD",
"e.	c #20B3C5",
"f.	c #CB7DE7",
"g.	c #6C98F9",
"h.	c #F277B7",
"i.	c #9F8AFA",
"j.	c #8991FD",
"k.	c #BB84EF",
"l.	c #D77EDC",
"m.	c #2EB3D5",
"n.	c #FD7D98",
"o.	c #20BBBD",
"p.	c #EB7EC4",
"q.	c #8298FE",
"r.	c #63A2F7",
"s.	c #E380CF",
"t.	c #15C1B1",
"u.	c #3CB2E0",
"v.	c #25BCC4",
"w.	c #18C3A8",
"x.	c #B18FF4",
"y.	c #4CAEEB",
"z.	c #F782AC",
"A.	c #F083BD",
"B.	c #9B97F9",
"C.	c #CF8AE2",
"D.	c #5DABF4",
"E.	c #84A1FA",
"F.	c #BD92EE",
"G.	c #959DF9",
"H.	c #31BFD1",
"I.	c #AA99F4",
"J.	c #DC8ED6",
"K.	c #C894E6",
"L.	c #75ABF8",
"M.	c #E78EC9",
"N.	c #AF9CF2",
"O.	c #EE90BC",
"P.	c #F691A9",
"Q.	c #22D1A6",
"R.	c #D597DA",
"S.	c #63B8ED",
"T.	c #9AA7F5",
"U.	c #4AC1E1",
"V.	c #86AFF5",
"W.	c #BDA0EA",
"X.	c #5BBEE8",
"Y.	c #7AB5F2",
"Z.	c #DF9BCE",
"`.	c #3CCEC7",
" +	c #B4A7EC",
".+	c #E89CC3",
"++	c #A1ADF1",
"@+	c #4BC9DC",
"#+	c #ADAAEF",
"$+	c #ED9DB9",
"%+	c #33D5B8",
"&+	c #CCA4DE",
"*+	c #F29EAD",
"=+	c #38D4C3",
"-+	c #95B4F1",
";+	c #48D0D1",
">+	c #77C0ED",
",+	c #D7A6D4",
"'+	c #C4ABE1",
")+	c #53CFD8",
"!+	c #E0A8C7",
"~+	c #BAB1E4",
"{+	c #70C7E8",
"]+	c #A4B9EA",
"^+	c #93BEEC",
"/+	c #EBAAB3",
"(+	c #E4ABBF",
"_+	c #F1ACA2",
":+	c #D7B0CD",
"<+	c #C9B3D9",
"[+	c #6DCEE1",
"}+	c #89C5EA",
"|+	c #B6BCE1",
"1+	c #90C7E6",
"2+	c #A2C2E6",
"3+	c #7FCEE3",
"4+	c #DBB6C3",
"5+	c #86CCE4",
"6+	c #D1B8CE",
"7+	c #6CD7DB",
"8+	c #E1B8B9",
"9+	c #4BE5B7",
"0+	c #63DCD0",
"a+	c #C1C0D7",
"b+	c #56E2C5",
"c+	c #B0C6DD",
"d+	c #E8BBA7",
"e+	c #9DCCE0",
"f+	c #C9C1CF",
"g+	c #4EEBA8",
"h+	c #88D5DD",
"i+	c #D2C2C4",
"j+	c #D8C3BB",
"k+	c #C0C9CF",
"l+	c #81DCD5",
"m+	c #C8CAC7",
"n+	c #AFD1D4",
"o+	c #94D9D7",
"p+	c #A4D5D5",
"q+	c #CECBBF",
"r+	c #DACAB0",
"s+	c #B9D3CB",
"t+	c #7DE5CB",
"u+	c #73EBC1",
"v+	c #A4DCCD",
"w+	c #C1D5C2",
"x+	c #92E2CC",
"y+	c #CCD7B1",
"z+	c #AFDEC4",
"A+	c #8CEAC2",
"B+	c #A0E5C2",
"C+	c #7CF3B2",
"D+	c #B9E2B5",
"E+	c #AEE9B2",
"F+	c #9AF0B3",
"Q 4.4.>+!+P.M.Y t i e O G 0 G $.s ^ a A s.}.c z _.{.D x n 1 0 W y ~.+.~.].V p E *.@.p g w C _.3.!.y Q (.q.b._.{.<...Q z ].5.6.5.=.H N >.D.K.l.p.A.l.~.Z '.-.V.J.J.|.G o D T -.:.;.R b 2 +.L.f.0.Y e e c G L p D z z =.<.K.B.J H N Z J.z.z..+g.D.]+|+>+H.5+Z._.4 i N Q.j+o+)+/./.>+4+*+$+.+z h v /.c+*+.+^+m.H.c+!+$+M.!.#.[.~.(.J.}.#.7 e 0.{.#.O T -.T.s.].P J z M f.J.$+z.M.~.I i d G G U V U U L &.C i v I M.6.l.b.O j U @.*.D A i i _ s.O.-.N H l.6.6.$.0 < c T q.|._.*.V V l j #._.8.0.P  .I P l.h.6.}.m 7 g g -.D.^+V.(.g.",
"Y.)+0+l+m+(+&+z g a 7 1 ] ! 4 s } @ , 2 *.F : Q _.L O d : % = 9 E r.H.m...9 8 l r s > & _ Q l.3.V o g.g.D.<.!.F #.o c : G @.X X #.>.a.w.=+]+K.p.h._.Y '.e.H.o+,+K.M - 8 M Y 7.7.m 6 ) = L.X.B.0.C e ' ^ 8 9 ( ] ^ d =.x.f.[.J N ,.>.~+z.z.!+>+7+s+s+l+b+0+e+j % ' ,.g+F+C+9+t.=+t+r+r+q+|+e i  .;+z+j+4+p+b+9+F+w+4+J.G L 0.D.X.K.f ( & 2 #.G l p D ~.Y.k.S k a c G s.$+/+$+.+-.v i : 4 4 9 f f b b l d w Z >.4+z.J.0.d 1 b s s 0 < 3 3 & A.$+H.,.N #.X u q - ^ 2 Y L.x.V f 5 ) = 4 B V *.L k w w k L 5.X r ~ , ' : g.e+o+X.y.D.",
"o+7+0+7+k+!+k.Q t 3 e n 0 ] l R f - $ ] r r ^.0+c+K.L.T e { = f F &.y./.4.I.0.E 9 ; . # d 3+k+Z.!.#.q.^.g.q.I.L G ] ^ : l R X X R '.w.Q.%+7+]+M.$.r ! 7 '.;+0+|+#.2 ] 9 B O y.m.+.] ; s |.:.q.=.c g g C E B [ ] ] j S #.G p e H ,.>.^+A.P.$+e+5+|+|+q.T Q Y A g t =+g+b+`.o.a.o.x+j+d+k+^./ i '.{+f+!+.+R.3+u+u+B+<+G p f.<+h+@+y > . % 1 L E l l o Y [.0.M : / : ;.p.A.z.O.J.P H H P &.0.b.U f f b 9 o K o.%+D+8+:+V.z ^ ( } s > $ / 3 d P.*+0+a.,.C s u X ;.Y L.3+3+>+&.9 b ) 6 9 b f r ) # ' ' & 6 q q } % ' ' y K. +>+~.~.g.",
"7+X.y.D.F.!.p k w K J 9.9.E.c+i+|+x : % 5 @.J.A+C+A+b+v. .e ( 5 5 F o -.)+h+X.(.j - = 6 !.f+v+n+#+B.O ^.[.++++++O { $ d p s X X q W o.t.%+;+>+f.r 6 - ] D 1.1.y | { j ` !.b.>+;+o.K l q s [ [ ] : e J y.g.q.E O n ] 8 4 4 ( 2 i N a.l+/+P.$+>+Y.0.E # $ % O >+b+9+%+=+m.y.'.>.v.p+8+4+G.7 ' w m.S.W.8.*.F ;.d.E.E.D ] F p.:+7+e.I 2 ( 8 0.{.E E G E D O S j ' / m J.p.5.5.5.s.7.>.a.v.c+k+1+O 0 6 r _.W.@+`.9+F+q+n+[+'.g 1 s s - $ / i e+P.P.3+t.a.>.r %.6.J.L.n+t+b+;+X.g.G F F 4 = ; ; =   , ' & 6 $.X q - , : [.0.{.M d c D ",
"X.7.T Y E L l d J /.v.7+0+x+D+E+u+e.i ^ s 5.z.y+F+C+9+a.,.I n b R f p =.3+5+[+;+4.C [ r @.M.&+]+q.^.o O <.#+]+3+-.7 2 Y ..F X X u b T e.o.H.~.0 F b p E j % @ @ ] 1 d.C.C.l.W.)+t.v.:.s r - - - % c -.U.}+>+:.=.A { 4 8 ( 4 ] g H a.b+j+*+p.[.Y D % & # 9 J.s+C+g+9+Q.=+H.m.o.`.p+(+Z.x e e ~.U.S.q.L f f F 4 p 0 ~ ] V $.3.[. .>.m.V.I.]+B...#.2...D O E | e g q.R.s.@.$.X $.g.>.a.=+l+2+~.d E |..+8+w+0+;+H.e+6+c+S.Z /.D.J.*.8 c J `.t+z.6.b.a.w.Q.[+%.%.@.I.a+n+0+;+@+S.^+W.k.=.] * ; * @ & w X.k+8+/+J.] < d E G p % # ~ ..",
"D.-.-.y.q.b.].D -.m.0+l+t+B+y+D+=+,.Z -.}.6.P._+D+0+o.>.N Z P |.}.V K.#+N.B.>+b+%+e.:.8.3.p.V l D n o E b.&+c+X.+.+.(.S.D.F.5.X u s 0 +./.e.t ] F !.W.E.& $   . = ].F.F.f.U F d.a.a.'.U f ] ] 8 p =.D.7+7+(.Q D < c p p p 4 [ < t +.l+8+P.R j | { $ & { *.A.!+n+%+w.w.a.`.o.o.=+h+&+U { 7 A (.y.y.1.O !.*.V ).W n | 0 f q q = : K )+7+]+#+q.g.d.k.[.Y ..M =.+.'.^+l.;.r q u u 9 g H v.7+1.: c G p.8+r+z+0+ .e L _.G d t  .u.|+f.W Y u.b+b+M.X R I w.Q.Q.p.X u }.Z.'+X.m.7.1.]+]+|+;+a - 5 ) 8 D X.t+D+r+r+o+z z ~.=.E ] % % E B.",
"Q ~.9.(.g.<.&.O :.u.@+7+p+s+i+|+P H Z e.&+n.n.z.{.d / i v N m. +s.M.f+l+Y G l.l+=+a.m.<+.+l.4 b p | 1 G 8.J.&+y.'.m.[+7+7+e+M.$.q } 9 ~ e I i | *.3.&+'.3 '   ; s *.{.2.p 4 f r ~.N Z ..U O y S ].j.-+e+@+'.T d : x M M j p j 7 g 1.~+:+c.f - # # ^ c j.Z.P.p.!.y Z ,.a.`.=+o.v.X.G.j { : 1.g.~.9.D.}+a+<+R.K.L.9.Q | ( s q ; - ] ^.X.>+..j.X.Y.~+V.D.^.&.d.y.e.U.x.#.U s u u ) $ g y.)+K < { 9 5.P./+c+Z i / 9 r > @ $ A S.]+S E ..L.7+;+e+h.@.! >.t.w.y.$.u 5.@.!.D k e m F.~+k+`.,.-.V r f G i.|+6+(+!+y.t (.9.:.2 ] % E C.N.",
"1 d k 2 j E G M ^.y.X.3+}+c+<+[.< 3 I H.<+6.%.u = # & ' a /.e.T._.p..+@+P &.*.b.4.>.H.k+i+B.j b 8 1 j ` _._.U =.4.m.[+l+0+7+#+R s } ) % 2 e v 7.*.@.*.w v a   } u q F G ] . ; s ] i h =.|.W D ..L ;.N.E.7.'.'.t 7 1 p j 0 S ..4.'.L.K.&+;.- @ @ ! j r.1+8+/+R.G ~ < K >.v.`.a.e.U.r.=.c C Y.L.7.y.h+v+z+z+n+ +B.(.J 7 W c.@.9 - > 6 G 1.M W.e+h+e+3+U.~.[.0.1.u.U.>+^+#+l.3.$.r ] C Y.@+Z g & ) X %.5.L a h a E 6 @ @ - W Y.r.M 8 p 0.E.@+A+i+{.@ & i ,./.M.6.5.s F % & ^ 8 _.Z.6+H.w.9+p+k.9 9 9 6 s @.r # 7 =.z c ^ # - f.C.x.",
"] % # { [ l #.x.T.V.{+3+p+n+]+C g / g 4.q.s q q ; # , < A '.m.:.!.$.@.d w O V b d K X.<+f+D.Q G l j [.F.l.*.V E Q ~.]+h+;+)+>+#.f } f ( 1 < I H.#.R s k v H _ 5 u u @.S : % 5 q = / 3 M !.o j E G F U S z A K  .K # = ! ( F 2.X.e.S.W.W.1 % @ - B k.c+v+r+8+]+Y 2 ^ < 7.m.m.e.v.@+X.~.T G.5+[+U.[+v+z+D+B+l+L.D 2 g ~.|+j+m+r.| > f f M &.:+c+3+c+{+4.+.q.I.r.y.X.e+l+l+n+.+p.!.j j.]+@+N I _ ( u X u f / Z Z :.W m 0 U C.T.(.c [ 9 !.{.++B+B+4.&   , I e.q+/+3.*.6 ~ & # B 3.A.Z.g.9+g+9+X.1 - = ; 5 } ; - ~ m : < & % B _.l.#.",
"C < 2 q.++&+&+|+B.E 0 p S #.1 & / / ^ { | ( 5 q q - < z u.H.=+;+ +}.@.p c % 6 ) % 7 D.l.f # ~.G.W d.a+n+s+a+K.].Y y.n+n+)+U.y.Y G R r 4 % # ^ P Q s.p.1.H N Z I.A.z.z.M e k F q ) < J j.U n =.E 2.|.|.p | < 7 < 3 e 9 [ #.}.*.O /.;+p+E.< $ ] ` Z.q+E+F+E+D+l+)+J < 2 y.4.+.+./.'.7.P ~.++]+S.9.}+c+s+B+o+S.7.7.z d E.:+8+~+P e ] f r 9 C.!+|+>+e+)+H.'.r.x.>+X.Y. +F.T.]+&+*.b 0 0.&+~.N ,.,.~.$.%.%.R Y t.,.:.j.9.>+<+'+G.Q e j F f F l.(+l+a.>., % ^ [+8+Z._.V 9 ~ < C ,+O.A.s.K.B+g+Q.,.K n 8 b 5 } 5 = E y A K K ^.!.s f ( ",
"C -.5+v+A+B+n+1+T ^ @ = 6 4 % & , t e # 0 l b q u ) 2 ^.>+0+9+%+U.:+A.D '   + ; ) 0 g.o @ * !.G.G.a+m+z+z+x+5+j.[.++a+e+u.K A Y 0.!.9 - # # ] D N.(+.+T H N ,.z+r+r+i+g.+.)+#+*.b | +.U.i.B.Y.B.K.W.d.1 { ^ ' ' & T ).{.&+F.G l ]+A+u+e.H +.c+i+d+r+D+F+C+A+)+v.Z K =.L.P g t '.m.'.P :.#+G.~.~.T.&+(+n+y.Q ^.H.e.7.]+!+J.8 < 7 d 9 *.*..+(+|+T.a+[+v./.D.b.++U.X.L.&.L b.` ( * *.R.a+C Z t.Q.%+j+P.6.5.&+t.,.-.<.L.e+c+T.^.A A C p b s @.@.C.`.w.,.g j s+a+_.*.U p | y ]+f+.+}.s *.K.m.a.a.v.U.Y.[.l r q s k.^.y.H.=+;+1.9 ) = ",
"% D c+f+v+l+h+D.J t 2 B U l n z 4.e.o.m.L.<.0.@.X r ( G I.3+m.Z U.<+R.< / & + } } f o < $ f s U F.,+4+w+c+>+D.Y O p V #.A g z Y &.l 8 ] 2 n  +e+#+M._.d h N o.y+r+r+c+)+;+b+U.#.9 - | Y.p+5+D.Y.k.` 1 2 { : ' 3 k O <.F.;.L 2.&+6+v+b+=+9+g+F+D+r+d+8+'+^.x d g  .H g.m < < c X.=+t.m.r.G.i.X.@+^+R.M.k.P Q 0 ^.v.b+x+a+].] < P ~.K.$+(+8+4+}+^+C.D w '.-.x.{.g.X.[+[+2+i.j - *./+r+x+7.m.=+w.%+w+*+6.5.}.'.,.v.T.G.x.).W C A -.(.n 4 5 } u 3.X.t.,.a.v+D+l+T.!.!.<.^.V. +f.9 * ; } 5 ]  .a.a.e.(.Q q.C.3.$._.<.r.u.4.+.4.[.L 8 ",
"= V J.&+ +++L.z g g c ` U G O D.U.v.`.t.@+Y.B.J.5.6 . f _.q.e g y.<+I.3 _ , . } u s p c ^ = } s s.p.O.R.&.n d 2 ~ [ f = $ : 2 n o p l W ^.c+w+0+D.V f { i H m.8+*+:+E L.;+v.e.1.] - 9 l.a+X.r.g.=.0 0 | 2 < e w  .D 2.].p b *.J.<+c+l+u+g+g+C+E+y+4+|.- # # % { t w x ^ , ^ W ~+7+t.>.u.i. +1+7+S.2.*.G Q g M |.h+b+0+(.| 1 Y @+u+z+8+8+8+.+d.r.o 1 : g Q W 4 E T.Y.3+[+T { 4 5.*+j+@+g -.m.>.`.c+.+$.$.R C N a.X.=.E 8 l m ~.u.4.z j 9 s X 5. +,.,.=+E+F+9+7+|+,+|+3+l+5+D @ . + ; } ; 1 v.o./.7.>+v+z+6+M._.k.r.4.'.4.y.D.q.M ",
"9 R @.V #.E n : / / 2 {.;.2.0.T.r.u.e.v.H.X.V.<+*.@ = s s 1 , ^ <.|+:.i h _ - $.%.5.K.P g 8 $.5.}.}.@.9 ! % # ^ 1 M p . @ { 2 o M &.{.b.|+w+w+m.g - ) - a v -.c.X b ( F E. ./.+.c j F $.8.C z D n M m x z k e P '.y.I.&.E L R $.p.R.~+e+A+C+b+p+&+|.! # # @ - ] < g : & , ] ;.K.E.'.Z 7.G.f+v+b+m.O r F d t T.Z.c+)++.7 | #.c+F+C+F+w+!+.+U 0 D 1 % # ^ ^ % = b 2.M [.Y e , 4 X 6.@.^ , ] : J '.++_.s q q 0 I /.-.C ~ ! 9 ` L.U./.'.9.M R %.6.8.H H 4.k+z+=+`.o+k+k+o+t+0+ .'   + ; q u R ~.>.'.U.v+z+B+z+s+|.f.G.y.4.'.4.>+D.g.",
"{.*.s r 9 [ % : / e ^.R.&+W. +T.D.X.H.v.;+0+o+c+O & - q q - & % V &+m.H N N ^+*+*+_+n+e.e.e+8+A.R *.r = - @ @ 0 ..T.~.~ [ o Y q.q.B.b.l.<+f+I._ ' @ ; * , h K F s ; b s p Q +.'.m.D.f.@.f ] 2 n O O O r.~.P k z 9.)+{+r...G s $.@.V L L {.C < j b ( % # # [ G D e a e < 7 j _.l.1.J  .~.'+8+B+b+t.7.;.b j :.c+6+n+m.a < j _.8+D+C+C+l+K.U 4 ( | ^ # @ # $ @ ) s L 8 l 2 / e l X X ;   $ @ % < -.V.0.V q q 9 t J e < { - F l.#+U.`.=+`.S._.6.6.r / a { 3.l.P ~.2+<+|+|+o+`.N h / ( q 5.6.$.o  ./.3+a+a+f+n+3+i.|.0.Q P P X.[+X.>+",
"^+f.*._.B 0 ] d g P ^+f+k+N.N.++V.@+;+=+b+b+0+[+-.g 1 q q - & l p.8+b+w.t.Q.C+y+d+d+v+o.t.B+y+~+F V 9 ( @ @ 9 !. +1+H.u.++++>+>+^+L.2._.R L % ' '   ; 5 ~ I e.L._.r _.@.B d P u.)+)+}+U 9 - ] O o j ).q.P g < 2 =.V.7+@+y.O V q q r 9 9 = # # [ 4 8 | : o k. +D.'.>.e.'.J j.s.Z.X.'.H ~.R./+w+b+w.o.1.L S G.f+i+]+K I e 0 $.6.$+p+;+-.O 8 - = 0 < , $ @ $ % r 5.f.M p 2 P m.Y.$.q ;   # - > j y.5+^+d.*.u R e t e 7 ^ 8 *.3.'+7+=+=+=+o.c+z.%.) ' / % q f { O ;.!.{.b.k.4.,.,.a.x+d+d+d+O.M g '.>+N.C.!.2.=.=.;.E 2 7 C V.Y.X.D.",
"3+p+4+f+T.g.g.Y -.y.|+i+p+L.F.I.^+>+0+9+9+b+7+X./.>.@+p.@.! d f.P.d+C+g+Q.g+C+y+d+$+=.g w K.&+9.0.l.#.1 | E l.M.,+#+u.U.Y.q.q.V.D.D.j.#.b = $ ' / # } q b ~.=+t+c+R.:+R.` j D Y 9.U.y.n - ( l M m p L j e g 7 o ). +e+;+e.Q l s q r B p ! # ~ G k.x.1.~.^+6+c+>+u.t.9+a./.D..+(+[+o./.-.M.*+!+@+a.,.7.).S b.Z.Z.Y t N  .m @.X $.6 : < | 1 m k.G.+.I e : d d./+*+~+^.W ^.)+9+9+]+5 ; > ~ 0 U W.p+l+7+S.f.5.@.c a _ e < G 3.h.$+e+;+v.m.=+A+j+p.( / _ 1 @.s 0 =.].U F F B n H a.9+F+y+r+r+-+c 7 Q g.q.#.L U 0 0 l ! # ^ D &.[.~.(.",
"p+D+D+z+l+[+@+X.'.U.'+!+^+S.j.{.0.<.V.;+=+=+H.y.H.=+9+p+J.<.g.Z.*+_+E+Q.Q.g+C+y+.+b @ & & ) } M |+K...D D ).J.s.C.).c c ] ! ( E [.D.L.[.E ( 2 I H 4.l.$.@.I.7+0+o+<+:+'+1.d ~ 0 M :.P c ] l U E D 0 9 0 < g 7 =.&+f+]+y.'.w 1 s q s V &.=.y =.J.<+e+y.S.}+6+|+y.~.0+9+t.o.>+!+!+>+/.H '.Z.z.*.m I Z '.j.S !._.U o P >.>.+.V u q ) # ^ o #.c+w+x+%+t.a.@+)+z+y+d+Y.k p |.n+u+9+v.0 b b &.B.Z.6+n+o+;+u.I.p._.c 3 a e e 0.O.z.A.I.~.+.e [+B+y+a+x 3 Z >+!+_.0.++2+N.).F 9 ] g e.b+B+d+*+8.2 ^ ^ 2 O q.j.k.|.O 0 ( ] % m [.&.W D D.",
"z+w+D+x+l+@+X.H.m.u. +M.B.~.D 8 = 4 4 j 9.m.e.U.[+%+b+t+c+q.g.M.n.6.!+w.w.Q.9+o+W % # & , 4 q @.&+<.j 1 % 4 R R U j < , # @ 6 f L q.(.Y D p W /.t.9+B+(+A.C.Y.3+3+'+6+]+D.P C O #.^.P P D k.C.j.x 1 B M e t k F.:+<+r.T K K z V $.$.}.x.r.(.V.&+Z.++~.1.B.'+]+u.g.e+=+t.t.0+!+p.o 3 i 7.,+3.b ! / K '.D.j.U V !.O ~./.,.v.j.R s ) ! 0 B.R.q+y+x+%+t.t.H.o+D+y+f+c < 8 *.p.Y.>.H < L *.f.~+:+Z.F.B.-.P &.3._.7 g a g T <+$+P.3.p ^ ' { !.:+s+g.7 g o.A+k+K. +|+]+Y.1.E = - { P X.c+M.s * % $ # - 9 0.}+2+~+D.z [ ] 0 B.V.q.O W ++",
"B+m+<+>+y.y.D.u./.~.x._.E z c # . ) ) * p Q m.`.l+;+b+0+>+y ^._.X %.X -.a.a.v.7.: ~ 1 ~.m.o+/+$+l.j ~ $   ) } s f 0 e / $ - b r *.S D | ~ ( B Q %+g+C+B+a+'+]+>+Y.'+6+e+m.m.@+{+1+y.m.H.{+'+K.r.P D U b.-.K C !.s.b.D.4.'.>.m.W.h.h.3.|.O y ^+&+J.&.T Y 2.,+a+H.7+'+4.t.w.9+p+L % , / (.a+|.( % $ g 7.X.y.d._.J.++S.+.>.o.@+&+c.V ).F.&+Z.*+f+1+H.>.>.-.<+8+6+| & $ = s s ( / 3 : F *._.J.Z.|.p 8 ^ < p 3._.P t t P >+f+4+$+!.] # , % 5 s ;.^ & { 3+t+3+#.f.#+d.[.C 2 % > ! n ^.G.d.. + * # { - r }.a+e+++~.K D 0 b.&+3+X.^.I.I.",
"e+#+#.O y y Y C t A <.U p x e ' # * ; s U <.L.l+7+X.=+)+u.C ^.L $.%.u - h H  .w e =.|+B+C+F+E+z+E.d $ & @ ) q $._.).t I A j *.}._.8 { $ # > r U 5+b+u+t+n+|+-+y.r.R..+-+u.;+b+t+t+[+;+`.0+}+F.g.K Q U V z h P |._.l.^+0+=+%+b+p+!+A.c.l % l &+F.;.E C :.f.p.C.X.@+=.2 e.%+Q.;+c & & { |+n+d.o 1 d C q.S.X.>+:+(+e+U.t '.e.0+s+f+<+n+c+]+,+A.s.<.A h h e _._.0 , ' $ 6 q q ( , 3 Q !.}.}.s.8.B 0 ] ^ c ` 5._.+./.K ~.-+,+(+Z.&.: & & # 5 q f & , l Z.>+4.O _.].M j d : % 4 l W q.N.+.' ; q | 7 0 s $.s.^+^.: J (.<.Z.&+^+U.D.#+G.",
"O j 8 ! | | ~ # & d d.k.<.z g i k ].c.h.M.~+-+}+y.D.)+;+v.-.Q d.c.X u + & i Z /.v.o+w+z+C+F+B+t+)+w ' & @ R z.*+q+o+'././.{+R.s.F ] { 2 2 l @.}.f.-+[+7+Y.W 0 n y !.R L 1.X.0+t+7+u.~.4.`.@+-+g.+.A l 6 # t H.c+Z.4+f+t+9+9+%+7+6+p.V ! ] !.V p l ( o D G } 5 ] ^ # ] n m.o.>.i _ : W.4+v+[+y.(.D.D.r.[.S.o+w+:+2+/.'.'.H.[+|+6+k+z+o+e+m+.+!.j < _ _ < b r ! g Z -.&+$+3.8 7 '.b+s+(+.+:+N.[ [ M u.)+]+p.s 1.t.H 9.W !.*.V ] & , , { F $.r x u.|+Z.E.u.7+K.G =.1 ^ 7 z {.U k.B.G.t N K.q ( A :.r q q I.Q ^ Q (.B.l.l.).9.U.^+++",
"=.O j [ 0 d Q c d =.K.'+V.u.'.e.;+p+4+/+!+#+V.Y Q q.E.u./.+.x 0.s.*.; + @ c 4.u.)+v+f+6+a+h+++T.K h i e l.P.*+*+(+X. .I m.@+|+f.&.O C T ~.#+O.p.V ;.[.1.z 2 ] 8 ] 4 5 5 G <.G.D.7.w z =.Y.)+h+:.J t ^ ( 4 W {+]+.+M.'+c+b+%+t.=+k+K.l ! S b.9 9 ( > p x d 6 } .   . = > 2 w Z Z H y.f+(+c+0+;+7+@+u.r.=.F.f+w+a+++4.Z m.H.u.b.s..+s+t+x+w+W.l ] ' _ / 2 B r b ^.o.=+z+q+~+..:.[+t+v+a+.+R.Q { 9 8.|+0+;+W.@.8.Z H A m b R F % & & : =.:+(+.+n+0+t+~+i.1.S.1.#...c 2 ~ m E B {.d.q.Q t.9+9 r 0 g @ } u } , { j d M ;.F 9 j E.^+>+",
"D.y.Q o M [.X.m.m.Y.K.&+]+;+`.o.b+o+k+!+l.).=.| =.g.=.T t J C #.V V 9 b 9 y A Q g.j.f.!.l 8 0 % 7 I o.9+E+d+P.h.V ] _ g z g.d.` ].j.D.D.X.n+:+f.L B 0 m d d j ] % ( 5 s f G p j k g k m S G.U.A g g y k.F.[.=.0.8.s *.|.:.Z v.0+}+G.D E K.N.E p 0 9 U y Q W 9     + + ; = 2 K Z e.)+a+!+&+7+0+`.m.4.(.=.f.s.,+~+E.t '.@+m.4.O *.5.M.p+x+l+Y ] % , / g Q 0.V r S 9.0+s+f+]+S.S.X.r.j.C.l.U { ^ b R V =.T [._.F e H t n F }.L ^ & $ o <+r+r+y+x+0+0+>+Y | ] M ..O C < ^ ] 8 V _.b...D ;+%+~.6 ! 7 ^ } u } @ 1 ! 1 #.;.L 9 4 ` b.++",
"0 Q -.y E #.g.4.m.(.b.s.K.r.'.'.@+e+f+K.U G | o <.L.:.A t w Q &.;.F 9 F 6 j c Q n 0 9 9 ( - - [ Q v.%+g+C+q+$+3.b - , g D o 0 B 6 S =.r.S.2+W.G p 4 4 0 c C n 2 | G c.}.V B E M c e : ] 9 B d g _ t 1.K.x.1.^.&.G f s 5 ! c  .m.r.^.1.N.&+-+Y W M U V ..z n # &   + ; } ; > ^ K e.U.~+R.C.]+@+H.e.4.-.D 2._._.2.n c u.m./.+.Y _.5.h.J.^+y.g ^ $ & ' < r.++2.F V =.>+a+|+2+>+[+@+9.d.|.!.p & ~ F R f - % ( f f ^ I I T l.p.E ' ' 1 C.j+d+d+6+5+)+;+U.P : [ l E Y A g P D b.Z.s.#.o p T./.K 0 E K K l u q b [.j &.I.I.).8 4 b b l ",
"= 4 C T W {.E Q P ~.#.V b ~ < c D B.I.0.G p m &.{.O C e J J -.<.;.` S L b ! ~ 2 $ % > * > - 9 V N.)+b+u+t+v+Z.U 8 % % T P d j 4 b 6 #.q.V.-+[.j p p G E n z T z r.'+.+s.U 9 l j c e ' # 9 ) % < e A g.W.x.g.:.O 0 U s ) = - d P (.r.V.c+f+}+S.Y.r.k.V j c < ' / ' + } u q ) ! n -.u.I.8.V ` ^.9.'.'.J x B f 5 4 % 1 O k w t x l.5.$.r 4 ^ / ' & $ & | T.T...U V p &.f.C.#+}+[+m.4.^.G B ] : D ;.V = . . + } 5 ] g t ~.K.8.m e g j.(+/+$+p.V S ^.D.4.K e % 9 F M z P -.D.&+<+b.E 1 4 l i  .G.<+;+t.@+p.5.}.d.D F.|+2+r.n ( ) ) = ",
"= ) ( y j.).! ~ 2 C o = * . # # [ B L E p l O L.E ] # ^ A w ~.g.G b.j.<.( - ] & & # - 6 9 L l.s.b.=.9.4.g. +F.S M | M g.9.~.Y E L F !.I.++L.=.o M ].b.W n n Y :.2+c+C.U ( > = > ~ / / ^ ( 6 - ^ k Q [.k.x.L.7.y.T.c+).( > = - m j.Y.^+k+f+>+@+l+7+S.].0 : < 3 h h 1 $.%.$.f 8 1 C r.L.).U 6 8 d e t e c [ b ) * - 0 ] { < e =.s.p.R 6 = @ & / ' & @ L K.^.=.G b 4 B V V U I.(.-.+.z p G &.9.L.N.p $     + q } = < A ~.K.!.m g u.n+4+A.V 5 ) * > 1 e i a # b f 8 2 c C q.K.f.&.o { > f A e.v+w+7+t.%+k+z.}.0 M J.<+3+m.P 2 = * > ",
"> ) 6 l d.y # % % ~ { @ . .   . = 9 9 ( ( 9 U >+c # % ~ : P Q Y 0.l.#+D.1 0 1 k A C W l.J.,+6+&+S j ~ 2 D #.].)...Y i.^.7.4.9.^.{.|._.f.B.g.T g.N.W.x.O n 2 1 &.x.i.M ! @ . * ) - , 7 : p B p 2 k x M ` f.V.[+l+v+A+)+~.O l 9 S 0.x.]+'+K.G.5+l+;+@+q.n ^ : i ,.t.u+d+*+O.!.p p =.^.g.=.G ( ( ] ^ / ' ^ 1 4 6 6 9 8 | ^ : z q.Z.M.!.] ( [ : _ _ , 8 _.f.g.Q ..F B ` U F f L O z e k O l.k+7+U.Y 2 , ' $ 5 u u f | -.U.]+].O ~.l+p+&+6 6 ) * * ) * { a w < 9 5 4 # { o E L B p | < p R n ;+s+c+~.'.;+z+!+|.E k.s.M.e+H.Z P ] = = ",
"> * 5 V S k < % ] ~ & & @ . . * ) ) = > = b *.[.t : o 1 2 T 7.D.]+R.~+m.C M j.u.;+0+x+w+q+m+a+V.Y 2 ~ ] p G L G 0 M M j Q T 7.:.#.!.|.!.#.D g.3+e+2+E.Y k 2 ! l B E 1.C d ] > ) = # , 2 8 L W D z Q E V 8.F.Y.3+s+o+%+=+@+q.].;.` ;.k.2.U p W.]+m.m.7.k c d y.w.Q.g+E+r+i+B.[.#.=.1.=.=.O j [ % $ ' 7 c O ).;.!.l 8 m e z g.2+i+:+#+D.^+V.4. .Z /.|+:+&+>+u.S.I.2.F.;.B F F j A g Q N.4+:+y.A d c w Z ;+s+*+A.*.].^+l+l+^+B.V.3+{+1.0 9 ( - = ; 5 ( e I +.M F B n ^.^.O L B &.^.y.e+*.9 q.x.j $ c >+B+s+|+T.|+!+.+~+v.v.Z & - . ",
"= f R @.` 9.e.4.=.2 7 g c @ > b r F ( - ) s @.]./.m.:.C =.r.7+0+v+f+a+e.'.]+n+l+b+b+B+z+s+c+x.d.~.e x m p G B 8 [ 0 8 0 2 C (.D.j.|.8.!.G E T.e+^+^+y.~.P e 1 l F |.2+0+`.U.E.E - % ^ 2 G 8.0.Y ~.4.>+K.s.|.<.0.f.{.X.=+v.u.d.G l F L E - ) r G Y -.-.w k ^.e+=+Q.C+E+q+|+g.D.B.W Y D ..O x n { ^ < Q r.^+^+~+I.j G d.(.7.>+s+q+k+~+e+l+t+`.a.w.9+A+w+k+[+;+[+}+ + +W B *.!.<.y.m.y.'+!+l & < y S.b+9+C+F+y+i+&+K.~+o+t+7+X.V.q.g.:.(.&.M M E b r b d +./.D.K.K.>+[+@+[+2+&+'+e+7+b+x = L 0 # % p ,+q+v+o+5+s+6+Z.K.@+o.N _ @ . ",
"0.s.p.@.s.o+9+9+=+P P `.%+m.]+6+4+&+^.=.U 3.h.R.`.%+u.y.V.e+B+u+u+v+c+'.=+z+s+l+U.X.}+ +k.M E E Q -.~.:...S G [ 0 [ 0 p M E.>+)+[+W.l.k.&.` R.2+L.G.y.m. .+.:.2.J.!+f+t+%+%+;+D.m n C r.a+6+^+D.[+0+u+B+k+x.M [ 9 f l T +.'.Q 0 4 f F O ~ ) } f j c e t z W.a+;+t.7+|+F.&.O q.g.D n n o M O x z c A ~.>+e+1+2+^.x f.F.Q 1.|+w+w+c+<.k.W.>+v.=+%+9+A+v+2+{+@+)+{+]+E...].s.Z.a+;+v.X.F.l @   ] |+E+C+g+g+A+w+a+F.C.l.K.Y.U.y.Y o n g.{+Y.E.}+Y.x.V b o P 4.U.<+K.e+l+t+u+A+v+c+]+Y.'.K <.f.m 2 o Z.(+!+x.j.#+|+b.V _.g.>.N h 7 ] ",
"B+w+&+}.z.q+C+g+Q./.U.A+g+g+F+E+E+A+t+0+c+$+*+(+u+Q.t.u.}+k+z+u+u+t+3+u.u+x+e+(.k D M #.p [ ( 9 1 k ~.y.r.j.=.M M W #.S k.2+o+0+0+l+a+~+q.b._.).q.i.E.m.e.e.@+|+4+4+:+^+;+=+v.m.T r.{+x+D+z+l+l+t+C+C+C+A+U.2 % = f f ] k P -.y 8 r _.q.P 0 s } [ 2 x t (.R.,+m. .T O 4 p &.B.^.Y x n M W o n c k Y g.]+^+V.^.n q.<+&.d j s.4+n+r.1 9 b l 1.m.e.e.S.B.<...9.y.[+}+D.(.&+!+8+m+;+e.+.| #   @ _.r+E+C+g+%+y.i.S p G 6 6 8 Y Q d % ( F.3+7+p+t+7+S.S F E ~.X.7+p+|.J.p+t+C+u+t+1+=.1 & 4.x+p+U.y.2+j+(+|.[ ( 9 4 ( 5 s &.H N N m.[+",
"u+t+^+}.X h.n+%+a.,.o+w+=+g+C+F+E+C+9+b+x+j+/+$+^+e.,.4.x.J.J.^+)+@+D.Y.t+0+X.A c # ( = ! j p l 0 O ^.D.S.E.=...W j.G.N.,+6+]+Y.S.}+]+^.n 0 b b 8 p &.D.m.e.X.~+J._.F p n t K +.u.-+n+z+B+v+{+>+'+c+u+C+9+e.g # > r f - | | : < 0 }.p... .4.F s 6 0 { 7 9.&+l.t H -.C 8 b b p x y.m.(.M j | 2 | C r.Y.]+++D.C M k.k.2 : p 3.O.]+'.k - ) f 4 2 g g d ] p G =.q.V.>+)+[+<+$+j+s+m.K a e < { *.P._+d+0+H h < E 0 p E B f b ! ^ , | V *.{.G.~+Y.H.m.1.U 9 M g.Y.r.j R 8.f+x+0+9.c k k 0 f+D+h+H.H.c+<+W.o ~ 8 B ! ! r u r e N ,.m.3+",
">+[+y.( } u s e v Z >+#.] y.>+<+f+l+`.=+x+i+.+r ( , a t j f 5 b M z n #.]+U.'.+.g ^ % > ) B i.k...q.q.1.r.Y D M &.].W.n+f+F.M | 1 0 p 1 # ! 6 = = f U j.-.K P W 4 ) ) = @ # : (.[+]+<+6+a+L.c | > r }.o+o.H i : 9 _.U E y : & # {.O.c.G y.;+1+l.B j # ] <.F.` 2 e.v.4.Q ( ) ) L #+;+e.Q ] O 2 1 W ^+o+3+Y.(.P 1.).[ # ^ G 5.5.C./.I n 9 f > % & 7 c 0 {.x.d.^.<.F.l+;+#+O./+e+ .a _ -.H.)+4+P.z.*.$ ' ' n ).i.N.2+1+j.[ @ # % d.C.V 6 4 9 9 1.4.u.^.p G &...d 0 r q p.B.t , ~ =.;+3+:+|+Y c C <.f.#.y ^.F.B.O B.K.R 5 # v H -.[.",
"W D _ $ ; u q   ' _ Y ~ ! 8 8 b *.S z 7.L.|.L = > # , , % = 5 r 4 ~ ~ 6 F m e w a 7 # ( r r U l 8 M O O x d D W #.;.J.f+}+g.D { ~ E E 2 ^ 1 6 = 9 R *.S k t A C 1 4 * * . @ [ i.S.3+f+6+]+z < $ > } q ) , i v K &+M.f.0.(.K J q.!+4+,+'+3+b+u+l+}+(.k M ;.;.E o @+e.'.'.A l r s V Y '.'.1.q.z D {.'+e+{+:.c T S.r.C y x {.3.X r < a , 4 9 ! 0 n 7.u.1+<+W...j G !.x.4.V.O.z.i.I v +.r.z y.<+z.5.9 , / & 8 ;.x.K.&+>+X.~.c 2 E f.k.i.M L L U ].y.@+)+l+p+1+D.A d F $.$.p t t T.'+[+7+F.0 c ^ ~ {.K.I.q.>+#+O O 0.<.L b [ 3 v 4.g.",
"O d 3 / + u q + $ d ^.C 1 ] - r R l 1 2 m l 4 ( - # & & @ ) 5 5 = @ % = ) ! # _ a t d {.U F 9 ! 4 G O =.n d m W &.U }.Z.2+9.c ^ p W.L.T c n 0 9 _.s._.E C -.4.(.r.1.1 ! - 4 U k.T.|+'+C.o , ' & % 5 } ; @ / H )+a+l.;.&.C 7.v.l+q+j+w+z+x+u+u+u+b+v.H.D.<.#.2.2.9./.e.v.m.(.B s s p 4.v.0+@+m.y.'+6+c+U.e ~ 0 =.Y (.u.u.T.}.@.f $ 3 < 9 V ).B.Y.[+0+l+e+1.d | G l.L y d.p.$.( g H e.'.c M !.3.$.9 ' 3 7 G V U |.|.#+7+;+H.y.T.b.f.x.V.B.f.J.k.E.{+l+B+t+7+m.'.7.K.5.@.9 c u.^+#+^.T 1 ! ^ , [ *.s.++E.G...| 0 G G L 9 1 g Z H.[+",
"q.y.Z h $ u u } j >+[+m.P Y G.M.M.b.y c O M j [ 8 2 7 ' # > ; ; * @ @ = ) > % < a J D.B.2.L 4 ( ;.f.++7.z d D <.<.G $.A.-+K / ~ U R.Y.+.t d E C..+.+&+).(.u.H.X.D.y.7.1.=.{.J.R.++..G ( # & , ^ 0 F r f ! z v.0+Y.B B G j Y S.v+q+j+q+n+e+5+3+[+m.e.v.U.Y.~+I.0.O -.H.v.e.4.&._.}.J.7+b+u+=+=+0+m+q+l+/.w ^ ( l 1 W X.0+l+W.R f ] K +.F.s.F. +e+l+0+l+X.(.z =.K.R.W D .._.@.4 & g P +.K n F @.q 6 , a -.d.F b r _.,+o+%+=+;+Y.I.|.{.).B.W.f.2.<.B.#+++L.T A K @+c+J.*.9 | y &.E 2 ^ ~ ! { < j @.p.k.=.n | | 0 B S p 9 l e v.b+t+",
"^+@+,.N  .5.%.5.J.c+0+`.;+u+A+w+w+1+y.~.g.j.g.q.#+y. .K A 0 6 f b [ o G 6 ( - ^ g 4.X.1+G.o [ b *._.#+7.w T B.T.g.<.5.h.).t i d }.M.1.t t x b..+!+Z.F.[.1.y.y.4.~.D.7+;+>+c+:+&+=.n ] % # # : P q.f.*.V l d.@+=+`.=.L G 0 W G.k+i+!+f.8 8 - ! ! { c 4.;+l+}+d.j ] ~ Q '.e.e.Y.,+/+8+p+b+b+)+`.b+w+w+0+,.Z t p 4 p f.a+u+9+7+2.b S 7.H.e+_.|.K.|+t+u+b+;+m.4.Y.<+&+=.g.++:+.+&.: , ^ < e 2 9 R s b n  .H.D.p = } $.}.&+9+9+Q.H.V.0.` B ].k.;.` E E l 8 1 ^ ^ x Y.-+K.!.4 % ] [ ! # : C q.(.m.e+.+A.).D 2 2 | E |.<...S S =.7+u+u+",
"B.y.,.a.w.8+z.h.}.Z.o+%+u+F+C+E+z+0+m.-.g.2+3+l+n+y./.>.e.[+|+<+a+#+^+V.0 - ( % C S.7+7+9.d ] b R @.!.T K D.++^+>+^+O.3.0 g Z y.J.}.O t t C K.p.}.V B p j y A k y 0.5+U.{+c+<+G.d 2 { # | x r.[+[+-+f.6 9 B d.@+t.m.d.E 0 p |.Z.R.B @ . + . . + + . ! =.X.r.C ^ @ ( 8 y +./.[+4+$+.+N.D.7.A 4.0+z+w+0+a.a.o.u.).f.!+4+B+9+=+D.b.f.r.u.y.#.V *.M.f+0+9+=+v.H.Y.&+#+5+h+v+y+D+=+Z / # $ & 2 {.}.*.R &.m.v.m.k % } u $.5.n+%+t.a.X.Y.q.).!.` #.S W ..0 ( ] ^ n ..^.B.b.p % % ! ! ! 0 q.o+A+u+C+u+s+J.M d d n D #+&+I.r.I.{.).2+o+t+",
"l W >.t.Q.D+$+$.s $.<+b+u+3+o+n+++-.t 7 &.&+c+l+D.P  .o.%+u+B+D+z+l+D.z ^ ] [ [ &.B.^+y.K g ~ V p.3._.^.7.X.]+]+>+Y.J.R 9 Q /.H. +V 0 g J :.b.!.R f l 8 8 j x c n ;.<.~.S.~+W.[.k < { o [.L.5+[+u.r...[ 9 f V <.'.'.Y o ] 9 V _.l #     + + + . + ) ) f E C k < { 8 4 0 x T V.R.}.s ( # & # E ~+w+6+u.,.t.%+%+{+<+(+$+<+H.v.7. +F.g.P C B.{.*.p.s.I.X.'. .K g.K.:+v+l+s+r+D+%+,.h ' & 2 N.f+<+l._.U L.m.Z i , r X %.5.s.-.Z >.X.S.r.j.p 9 ;.k.#+>+S.[...^.S.Y.++^+r.| ~ ] [ ( ( ` &+w+E+C+g+9+l+d.o 2 2 o 2.f+~+B.V.q.E L f.N.V.",
"9 U -.w.9+C+k+V s 5.O.t+=+x p l ! & ' ^ B *.f.^.c C u.H.b+u+B+z+^+(.: & 2 j M ).2.0.<.C t K C (+j+8+f+>+@+[+1+B.Y y ` r f ..m.;+Y.B 0 k -.:.].!.V V S j.I.^.c c D b.L g.}+c+]+:.A P C p S d.j.:.(.1.1.q.#.!.V 9 : / 2 ~ ] f R b % & , $ @ = = - = 5 } s 9 | e P y.j.S E 2 c M U f ) .     - f c.l.].O K a.w.%+@+|+M.}.U c K -.N.'+D.P ^.2+]+M.3.V 8 # , ' < ..Z.4+]+L.C.A.J.+.H H K 4.l+z+w+n+~+f.U 0.-.H H +.Z.P.z.6.r ^ a K Q D n D 0 b *.Z.k+l+0+)+{+3+l+t+B+t+;+4.C j M j B V M..+6+5+H.m.T n 2 ^ n &.J.:+B.d.[.Y m 9 r L W ",
"F *.q.%+g+C+u+L.*.%.6.F.H _ ! ( ! $ ' n !.*.U ~ ^ j 1.9.S.5+}+E.C 7 ' { E d.F.-+B.d...x -./.x+d+r+q+k+{+@+U.D.y 2 ~ l f r U D.H.+.1 8 Y m.~.i.f.J.l.&+k+h+X.+.T j.k.;.x.|+p+{+4.m.;+v.:.` G p n (.Y.}+l+h+~+b.E < g c 2 0 F V L ~ ' 3 -.1+s+|+-+T.C.c.*.b j Q u.=+0+S.n 2 2 o l > . . . @ 9 @.*.V F 0 2 +.e.o.v.++|.V 9 2 t ~.K.W.-.K E.n+o+<+8.9 % # $ & ~ ;.M.J.E 1 9 s 5 & i N o.A+A+B+n+1+E.#.U ` x K >.=+q+_+$+5.6 % < g z d o | o !.$.A.,+}+)+7+7+o+v+A+C+u+%+/.J ^.d.=.E R @.@.*.E k e & ~ 2 y E.N.,+&+[.O O Q c ( 5 f B ",
"f.@.l.t+g+g+9+`.0.X X 6 ' I ^.S m k -.[+c+<+<.~ 1 E 0 m o M W D T t  .D.].F.|+e+>+q.^.1.X.0+F+j+M.f.#.C Q 9.~.z : 2 G V r r G -.K { L x.m.4.T.<+,+R.!+a+1+u.'.-.=.#.L ;.R. +r.S.7+9+%+=+Y.E G B.V.3+e+o+l+3+e+h+=+9+`.7.r.C.c.|.y -.m.u+F+F+u+0+l+n+a+K.` #.O T.7+b+=+-.k | M 1 % @ . > b Z.J._.V 9 ! ~ 2 J  .e.g.G U !.E.u.y.F.{.Y +.F.,+}+2+I.0 { : c A ^.s.p.L % # - ; ; @ _ >.=+l+E.T.V.^.D E U G x P e.9+D+O.3.R l ~ ^ 7 ~.7.D.x i.K.p.3.R G =.g.Y.2+a+k+B+9+a.H +.Y.}+X.D.|.$.3.*.p : / : j [.^+h+p+4+F.y j j.(.g 1 r R L ",
"]+_.3.4+A+9+Q.a.~.$.u * @ ;+0+3+>+@+0+t+z+z+X.k O j ] ~ 0 8 E i.X.;+9+9+g.J.f+1+X.r.^.[.^+x+A+k.* ) = - 1 D T A P D.++0.b s f x a ^ _.C.y.-.#+<+K.Z.M.K.r.P t g n 0 9 r V L O q.e+u+9+%+o.(.f.|+}+}+2+E.L.1+n+B+C+g+Q.%+0+p+6+&+L.u.7+z+D+C+`.0+t+v+c+++&.8 8 ;.W.0+%+o.K C ^.c < { 8 F p.4+<+f.B 8 ! ] 1 C J e.-.W s.!+e+;+4.[.` n -.T.*.0.B.q.Y (.X.@+;+0+|+|.! # # % f s l P H.u.e % B 0.y n E U ;.y T S.A+u+4 r s 9 | d D L.)+)+U.e+|+Z.*.r 9 [ E <.N.K.R.a+H.Z H '.1+v+b+0+2+.+A._.j < g z I.]+n+v+A+v+=.2 G b.~.K y *.}.K.",
"3+b.$.q 6 =.>.,./.V 5 > *.&+)+7+l+[+[+5+z+t+e.J Y y ~ % ! = V C.Y.0+b+w.=+4+,+j.Y c | G |.K.7./ - ) b L #.E x 4.0+l+h+r.T.J.*.% _ T p.V ^ z {.U U *.V U =.J K K d ! > ) } ; = L <+p+t.o.>.-.|.l.V.Y.S.1.i.K.Z./+z+g+Q.g+u+A+B+v+[+X.l+w+4+~.+.l+A+l+j.1 # @ * 5 Z.n+=+t.t.b+)+u.v.b+A+m+$+.+]+j.8 ( ] 0 M d z m.'.T.!+!+~+/.>.r.S o :.5+C.B G E ^.E.S.)+0+;+1.[ ~ { m ..R.A.J.S.w e / Y Z.N.d | 8 U |.=.1.x.F.+.: r q V ^.~...].G.@+b+o+|+c+a+f+#+d.` F.c+<+Z.&+u.,.,.;+n+a+C & [ _._.U ] , g y.a+k+a+<+v+b+'.k G U C I -.8.h.C.",
"[+Y 9 ; } 6 < ,.>.y s $.Z.L i.}+)+m.D.&+6+>+/. .D.u.A 2 ] F @.*.` 1.T /.9+x+i.m 2 : 1 L F 9 # < m V s.C.^.n W 1+t+b+;+q.c+n+=.^ d S.k.8 % y &.L F f } r 4 c w I g # - > ) ; } q 3.x.'./.I g L V {.N.E.^.O S 8.h.5.S.w.Q.b+t+v+[+4.y.2+c+0 # d.6+l+4.e ^ & $ * X 6.'+`.%+g+g+=+@+t+C+C+C+k+}.L n 2 - 4 8 j y 1.u.H.p+4+Z.G.7.o.m.^.E d.2+Y.n G ` &...E T.S.'.A o M g.E.c+6+(+,+u.i e d n+a+Y 7 ^ 4 *.8.^.1.M [ ^ k V $.}.j.+.(.M f.2+0+X.N.:+q+D+t+@+-+!+6+I.V V Y /.o.;+3+P ' $ ; q *.L 1 x T T.&+#+G.f.J.Y.K t W !.E.'.m.<+$+J.",
"H.'.| 5 s 5 D Z >.u._.$.R U L k.D.m.U. +f.E w '.3+v.e.m.g.C.*.r 6 0 1 ..b+@+C 2 ^ d =.2.L ] # # E _.}.U j m x.'+^+U.m.1.R.++y.-.Q j.&.O =.V.]+++#.l f 5 ) % & / a < ] - > ; q u $.V -.N v t G *.8.k.=.2 ] F p.p.@.( t >.e.g.O n T L.j.n ~ [ <+,+1.J t -.'.'.'+z.%.3.>+%+9+%+e.m.k+D+C+9+;+( > % ~ ] ( = 9 M ++U.0+l+k+:+|+@+e.m.4.=.b.k.:.Y 0.K.d...&.0.Q J 4.>+}+{+}+|+:+!+&+-.Z >.>+K.M ^ ' ^ L 3.s.[.z | ] { x B @.@.L T u.e+f+|+y.7.N.O..+<+U.m.e+K.p @ * 5 ( e I 4.g.w h J !.5.5.R.>+U.y.O U U i.k.!.2 / 7 I.!+e+e.;+m+q+n+",
"=+e.K G s @.b.Z ,.e.N.*.s F 9 b E Y ~.j 4 ] < 9.++4.e.o.;+^+].6 9 > - b d.e , # # 1 ^.T.=.d ^ ! b *.*.L j ).l.K.<.x g T 8.|.(.+.-.^.d.N.++^+^+r.x 0 9 ) * - $ < t '.:.m ] ) q u u s x Z Z '.N.p.J.N.T k j *.3.*.r > ^ J /.A m M S.[+D.{ ~ U 4+]+Q w '.0+9+g+u+4+X X U T /./.I 9.:+(+3+e.I & = > 0 o 0 4 F |.&+q.y.1+f+<+~+@+e./.4.r.).G =.9.W.W.^.D 0.].:.-.~.T.}+[+5+]+f+:+F.P v.=+b+1.| < 7 D 8.A.J.1.A c j Y :.E @.$.s.}+t+v+n+E.c Q B.c.@.V =.D.L.O $   + } ) ^ J +.(.+.>.t.p+O.z.!+x+b+v.Q B !.f.#+&.: / (.f+i+2+m.@+m+j+D+",
"e.>./.>+J.h.*.+.,.t.7+K.*.F 9 b 9 ] ^ # > > # x W Q H.b+9+u+7+j.] % > s ( / , # ] G f.#+>+u.'.y b q *.|.++}+R.!.j { ^ =.b.L 1 z -.Y.]+]+G.d...y x | 0 ( 9 9 m -.H.b+=+v.7.F.@.X u q l K Z t.t+Z.!+e+H.e.r.8.R r 9 > ! C '.'.(.K.n+0+e.t ..O.O...k A [+B+C+g+g+A+p.q ; . $ 3 i r.,+J.=.a 3 / - 5 C.>+y.).s.M.F.1 | {.l.f.U n J I P z j 9 G r.]+]+:.=.#.` =.P T #.#.q.[.2._.;.l | m.=+=+'.k A u.{+6+/+!+S.'.7.^+[+9.1.p.P.8+z+u+h+E.c : | p f s s 4 D n 2 ' ' * q s E 4.9.g.-.e.=+t+4+A.3.F.-.i e l R V G ] < 4.B+y+w+g.P g.!+*+<+",
": i /.l+f+M.r 1  .%+b+h+W.F.M 9 ) ] & # > = - j p &.h+C+C+g+9+`.-.Y S *.l g t Y d.F.C.'+3+`.t./.W @.$.p.k+t+h+O ~ { ~ d.{.p ] n ^.^+++B.m 1 ! ] 2 D E M ` f.N.l+u+g+9+9+9+u+a+}.u u f < g ;+u+n+4+s+=+%+;+d.b ) = = 9 0 9.H.)+a+k+@+Z /.7+i+V ! # o &+i+B+g+g+9+X.> + + . $ A Y.&+l.n w I Z q.A.(+x+b+7+!+Z...{ 1 U F 9 ( @ ^ / e : ~ 9 F k.<+}+7.Q M ].o 7 T M 4 0 ] ( ) ) = 9 ++0+a.>.9.S.0+t+w+j+w+l+o.;+x+0+ .L.$+_+d+D+b+U.Q : & ~ 8 b s r 9 ] | : _ 3 L h.h.K.m.K x 2 e 4.>+k.r } ) $ ' , ( f ) > > ( n+E+E+l+P 7 W p.@.b ",
"  $ y ^+#+G = > ] X.0+0+p+5+D.O l M A P W G 8 8 9 V :+D+C+g+%+t.=+;+l+f+#+/.o.=+l+|+R.R.]+)+t.a.m.*.5.z.j+t+;+-.c z [.x.O M M W d.<...| # % % ! 0 O =.].C.R.f+z+A+9+%+9+g+9+@+S q u 5 # { 2.{+}+.+'+;+%+t.+.! * ) U L !.}+0+b+s+|+-. .m.A+t+=.1 ] l V @.}.o+%+w.a.t @ + + = d.p+c+#+(.v.w.Q.u+r+8+z+b+;+a+W.T ^ W F.B 8 ! % ~ 7 g 7 2 b 3.!+f+Y.-.A <.S | d C y E 0 | ] 9 b V M.6+0+t.a.H.S.3+t+D+r+z+b+`.;+n+m.'.]+/+_+_+n+m.'.w g < o j 9 s s U p O C '.>.s+_+/+<+4.K < # % | ~ ! 9 r * # , z d.` 4 > b 3.$+q+v+m.K A W r ; + ",
"+ + f B ] % . + ; U V.[+e+S.J y 2.G.u.H.X.g.D ! b @.h.O.-+e.>.e.v.b+A+B+V.U.b+u+b+[+k.s.K.S.o.a.v.|.5.6.A.q.+.+.T D.{+q.j.V.3+}+V.O | # # % [ E #.0.B.k.C.M.(+<+Y.P P u.)+/.t 2 R 5.*.: 2 f ( G R R d.e.a.>.A l $..+W.Z.k+b+b+h+..: e >+D+9+`.7.C [ ) } q r 4.%+Q.w.,.^ b @..+c+|+d.E.;+9+g+g+E+r+n+e.u. +0.P e &+c+q.O j 0 m T +.+.T l.z.!+<+(.P -.E.W 2 d d ..q.L.D.V.'+J..+$+!+>+>.a.v.D.N.a+m+r+w+0+/.7.d.K /.n+d+_+*+G.+. .'.e.m.D.:.&.3.5.J.j.E.Y.H.%+D+_+$+I.K H i < 2 2 { ( V V > % d >+o+>+m L s.O.$.}.<.g K K (.! . + ",
"+ ; } ) @     ) q s B =.d.n < 1 !.{.1.4.y.D.P 2 b q q s = & _ g ~.}+o+7+d ^.l+b+=+v.B.s.l.-+H.o.>.=.$.%.u 4 : g ~.V.{+L.++~+v+0+@+-.k < ^ O F.]+#+++G.N.R.M.}.9 % & # ] 7 / / n A.z.M.P P ( > = 5 } ) 2 H ,.o.o+/+(+N.p.Z.l+=+m.< & o i+y+C+Q.=+'.7 @ ; q u *.9+9+Q.Q.t.n+*+$+x.o 8 B ).h+g+g+C+s+E.w 7.d.E 7 (.:+]+y.Y =.....~.u./.4.,+z.M.F.C A ~.Y.1.C d Y G.|+o+0+t+v+<+s.}.V ] / Z e.u.i.V p.$+'+'. .K d.T H.z+d+*+h.E e +.H.%+%+;+y.2+.+$+!+^+^+h+;+%+v+p.*.l e Z >.e.@+U.7.<.s.;.0 0 S W.^+7.x L R r 5 } = { P m.m.e & . ",
"9 s } ) @ $ # b q q } 4 o ^ , 0 V 9 ] n :.u./.4.).r s } * @ & c Y 0.x.e : f.n+b+%+t.U.R.J.|+H.,.,.u.p.5.$.9 ~ C Y.G.g.Y.++K.W.y.u./.'.J (. +<+e+}+++V.#+&+8.U - # & # = { t J ++/+P.l.< J 2 - = ; } ; > : >.%+A+j+l.0 s $.W.;+v. .T &+r+r+u+Q.t.>.I , + q u %.i+9+Q.w.Q.u+r+:+m ~ - b f V E.;+0+{+(.A 7.1.M 2 V.:+T.T c O j.j.r.u. .4.&+5.}.S d k :.S.9.9.C G.]+a+T.h+t+>+[.F r ) @ # A v.H.(.9 q q f c H e.>+D.0+w+8+O.r - { Q U.;+%+`.U.^+(+/+4+p+o+e+@+v.y.6 5 6 D e.t.9+9+%+`.X.|.l 0 0 B F 0 < : ( ; ) ; s ) ! D u.o.H a & ",
"'+l.F * - % ^.I.R s } r o : < 0 9 = > ( #.^+`.=+X.G r 5 * ! D (.r.<.0 ^ (.4+q+u+9+t.;+~+!+<+4.>.,.;+f+A.@.9 W Y.Y.D E V.^.B 9 0 Y H.v.e.U.N.,+|+L.q.j.#+F.b.E ~ $ & D G E H.b+B+d+h.= # < A x - ) 5 ; ) ( D.b+t+]+-   ; u }.[+t.,.;+q+d+y+0+>.Z H h _   } %.6.z.;+Z v a.u+D+3+A ^ ] 9 f 5 ) ] =.:.A -.U.:.n j W.J.O k x W ).I.Y.m./.H.c+p.@.4 ~ | d.r.7.4.9.T.a+]+++s+t+m.T 0 9 6 ( ..o+b+=+Z { ; q } - ~.=+0+l+t+c+_.f = > - S j.(.4./.e.^+(+*+:+n+h+3+y.Z K ] 5 R f.@+b+9+9+o.'.A O B.>+Y.I.L E Q K d > ; q q f = l ++o.N H P ",
"x+v+{+D G b.W.++<.V $.@.E 7 -.D.O 8 = b _.&+)+%+=+>+K.!.|.K.T.S.y.(.2 o <+8+4+o+=+t.=+k+Z.].A Z >.;+n+6+s.J.&+5+u.T L x.k ] * 6 G r.e.e.u.N.Z.j.y M S 2.].].E d c x L.-+~+p+u+u+e+p @ # ] ..4.Q B b ; ; } V V.u.e &   } X %.C.>.,.b+y+r+w+v.H H Z N v / q 6.6.%.: a _ (.c+a+9. .K [.;.B 4 * 6 B o Y r.u.4.9.E.W.b.n c x ^.W.'+#+7./.H.h+<+f.0 | M k.G.7.7.y.2+~+W.&+'+X.>.+.:.x.C.,+i+v+;+>.H g > s q r k.l+l+7+@+9.E 9 = = 6 U 0 2 7 P u.^+M.A.@.2...Y c w i ^ *.3.s.-+@+@+ .I i z :+q+l+b+0+e+c+)+`.v.Q F 3.@.b b *.J.'.,.a.%+",
"A+B+9+9+A+v+i.M ).R.O.@.[ 2 3+u+9+U.M V 3.s.-+`.%+b+]+'+k+n+^.D :.y.T E _.@.R 9 P a.%+l+).( 2 +.>.@+|+i+w+i+<+^+e.e.T.M A Q l f F d.P +.+.e+&+..z j p l G G 0 2 y 1.I.c+s+]+:.Y m 2 y D d.0.(.`.{+M > ; } } 4 ^ 3 / # q %.%.} : /.t+y+r+k+'.a.w.w.w.w.%+q+n.%.u   3 w L.].l ~ m.`.U.E 8 p ;.J.K...D n d @+b+u+p+2+S.A D F.s+e+1.^ < Q 2+n+-+^.1.2+a+e+u.m.[+o+]+&.B b ! 7 +.{+c+m+m+&+0 & _ i i D @.$.$.s.#+D.Y 7.y.9.).B L 8.` j | Q (.(.Y.l.R 5 ) . @ # & / c c.h.}.).Q e ' _ I u+y+w+[.E.7+B+p+U.e.a./.C.$+p.8.l.M.s.9.t.g+g+",
"A+z+A+9+b+U.Q ..C.!+!+!.0  +q+F+g+%+H.R.5.}.f.Y.v.`.{+i+i+>+A D T.u.'.x 9 5 } f G 9.`./.Q j W T  .~.'+!+i+c+~+T.m.e.u.=.~.7.g.b.c.).P +.S.n+^+g.~.1.W B L 0 ! j ^.{+n+6+]+~.k c m 0.E.>+{+G.B.7+v.'.x 9 5 } ; @ / w z *.X u } - =.i+j+4+=.P o.%+Q.g+g+g+C+*+%.u + , 7.9.d ! B G.v.e.P #.f.!+!+I.(.c 2 p K.l+u+t+B+=+e.S.!+i+{+4.t Q ++<+~+E.1.d.&+a+3+H.)+h+}+~.y 0 > ( j V.2+<+6+++g.< < e a  .{+Z.z.h.c.#.y y y (.r.1.M !.V S D O Y P (.V.W 8 = * . . @ $ & [.M.h.*.G 2 / / 7 Y.z+w+u.~.#+a+v+7+@+H.>./.&+/+R.|.c.M.Z.e+9+g+g+",
"t+l+3+@+'.P C B.&+.+R.].U 8+r+B+9+Q.%+h+s.*.V M k A 1+m+~+z T Y.^+m./.+.! r s R 9 1 e e C &...k t (.R.O.s.F.x.<.Q J ~.1.(.9.Y.~+&+0.D.m.7+2+^+y.4.y.r.B.&.j M 0.|+s+B+5+j.Q ~.D.>+-+E.++}+{+-+L.m.e.u.E.].f f ( d /.4.b.$.u } ; F c.3.f ! ~ k '.%+g+g+g+g+w+h.q ) ] (.T T <.f.x.u.o.`.5+&+:+J.0.z A c E V |.-+o+l+v.>.y.,+l.^.P '.U.e+]+).o 2 [ f _.x.U.@+y.:.T Q D ].k.++>+^+ +f.{...T +. .Z v.l+m+/+O._.G D g.O ^.:.Q W L F B O 1.O r.X.Q m G &.0 ! ! % # | W.M.p.*.8 ^ ' t 7.>+W.b.D S.c+|+#+L.X.e.Z I K..+2.L R @.p.6+u+Q.9+",
"l+t+0+;+/.I Q b.J.Z.f.E *.z.O.6+b+Q.%+H.#.f f - # o &+&+^.c Y #+e+U././.~.c.3.R 9 ! & , 2 0 0 d A D.C.M._.S E p { < C o x D.>+W.&+N.D.X.7+>+q.Y 9.:.g.Y.L.V.]+6+k+k+c+y.:.Q 9.S.3+^+>+^+T.Y.>+>+m./.m.[+e+s+f+]+L.m.`.l+l.} } } s } ; + + . @ ] 1.=+Q.g+Q.t+&+R 5 U D.7.X.>+W.~+7+b+9+b+k+6+F.O z A k j b r F ].W g g 2 F b ] : c 1.]+V.n | { - 5 s V ..A Q :.-.P ^.k.K.|+e+>+B.G l ] y P +.e.=+A+D+j+!+K.].d.(.:.E.D.y.:.0.|.U 0.L.1.V.7.e n S <.1.C 1 ~ ] #.,+!+J.B ! % ^ ~.X.7+T.0.O B.F.x.E 0 | e Z H R.M.W l r $.5.p.++H.=+",
"t+A+u+%+t.e.4.0.J.Z.0.O _.X $.p.V.t.a.>.n 4 ) - ] G 8.!.D k q.R.W.~.I e.b+k+l.L ( % # { | M p D T r.W.8.U p p ] # ~ 2 o M d.j.x.C.I.D.S.r.(.x m y d M T.1+h+p+k+f+~+M n y y :.V.Y.Y.^+L.=.j.-+}+u.4.@+t+E+E+F+C+0+u.=+u+X.] ; q q ; + + + ) * * b E /.a.w.%+e+ +l.}.0.u.)+t+v+f+v+u+9+9+t+c+V.^.:.-.~.D 4 b 5 ) - & ' % 6 b ! ^ | x. +S.4.T k 1 r s r 8 2 n D ~.u.{+~+<+<+>+D.Y ] 8 8 O ~.4.H.0+B+z+m+<+#+++++g.X.5+[+m.u.++'+&+W.L.Y.1.k 7 m f.|+l+;+u.r.E.&+4+f+W.O | ~ 0 G.5+7+y.j.j.G.0.j % @ . ] +.v.k+Z.g.=._.5.X 5.L 9.@+",
"F+A+u+9+w.t.e.N.M.J.q.1.|.@.X $.B w Z Z t j B 4 &.K._.F 0 y G.K.E ^ 7 4.u+l+<.p ] % # | M B.B.q.:.E.I.f.!.<.n ~ ~ ~ j M ..W E ` !.b.j.(.Q y d 2 ^ | B V F.T.]+W.W.1.2 1 o o W j.j.G.y n j G {.=.A -.{+z+D+D+C+9+o.-.>+`.>.t ! } q ; . + ; ) = * 5 ) $ a >.o.l+c+ +!.B W h+B+F+v+a+o+9+9+b+3+S.1.y P J A o 9 6 * - , ' ] V !.O x d.&+|+h+=+=+v.u.C.}.*.p | o E E.7+l+p+f+&+L.~.e | l ` I.X.@+;+l+o+c+~+W.b.x.q.g.^+1+X.4.U.2+<+|+#+q.D.T e < E A.4+t+b+%+`.l+s+q+k+^+:.k n #.K.e+U.9.j.^+1+S.A ' % ) F r.=+B+6+[+t+v+.+h.$.r =.X.",
"C+u+u+%+t.w.t.7+R.s.B.r.T.}.5.q ) # 3 I /.D.I.K.<+c+M ( ( p 0.&.% # ~ <.7+m.T n ~ ~ 1 W N. +^+D.r.Y.I.K.K.T.~.z d =.q.[.<.O 0 B V ;...x C c d d d m S f b 9 l U ;.T z O m 0 S &.W D 2 ~ ! 9 9 - | Y |+8+j+6+r.J w A E y Z /.-.*.q ) - = s F ( 4 5 ) @ ' I 0+t+7+E.l = f Z.w+A+[+I.x.y.v.;+[+Q c # { 7 A 9.^.S U {.'. .5+i+f+5+X.^+<+6+v+b+9+Q.9+x+f+&+..C ..x.]+o+l+x+c+]+g.P e x {.Z.a+[+@+;+@+>+++0.0.#.G p &.I.j.Y z (.^+W.W.d...C P K P 2.p.h.~+)+=+`.l+k+q+p+{+7.P T k.J. +-.A x.~+}+[+/.Z -.b.3.|+b+u+n+v+A+A+z+!+$.R ;.^+",
"l+l+7+e.o.a.w.=+n+&+I.Y.^+&+3.r * @ & g m.7+c+k+f+D.k ! 9 U #.n & # #.R.B.'.7.T T 1.[.x.C.K.d.:.D.E.++K.R.T.y.-.9.-+>+Y.=.d 1 F R V W C c z x d c Y &.B 9 = ) r 8.g.m.D.C m B l 0 ~ ^ ^ ] = = = ( #.Z.M.*.6   & , < ! ( ~.t.%+c+r ) > 9 q r p 8 6 = @ ~ D.u+C+9+;+^ . s X M.>+A 0 4 E T (.e 7 & # % ] ^.S.h+l+f+f+H.v.B+z+z+7+y.[.8.8.F.{+;+%+9+C+B+p+>+D.q.W.f+v+t+l+o+L.Q P +.Y.<+!+<+S.y.y.u.D.q.d.0.[.q.&.L G ] 2 2 E &.].S 0 ] 1 ~.e./.d.*.q V O -.4.S.&+!+]+y.4.4.D.W.R.#.7 c ` L #.g./.a.e.2+.+!+h+7+++a+n+t+l+ +_.*.*.b.",
"[ j n e i H t.9+x+c+B.q.G. +f.G ! % % 1 V.o+p+c+++C P x L V G : < W &+|+q.m.v.u.y.y.>+G.F.].E ..S.E.N.K.l.i.P P g.++>+U.~.z x ]._._.p k Q ~.-.T Y D.q.<.E 0 f $.A.^+`.H.4.D.M 0 0 ~ { ^ 2 % = b f V !.B >       @ ~ j L ++9+9+;+~ > ) V R r 9 0 4 4 - ( l.w+C+g+w.H % q X 5.=.e # 6 9 ^ < , e e : ] l ;.#+v+B+B+c++.)+v+w+v+4.g ~ b s r #.1.u.;+t+l+[+u.u.{+f+4+k+l+l+[+(.Q ~.)+l+k+4+f.D z Y :.:.1.B.T.~+2+S.^.! ! ~ ~ [ l l [ ] ! ;.e+%+t.y.` s s ( 2 C ..l.p.<.T 7.4.y.|+W.=.< k 8 6 f 4 Q >.o.e+(+J.[.C ).l.K.#+g.[.U R R 9 ",
"+ = @ $ , e @+9+0+>+^.E G b.f.d.Q d 1 ` K.++^+B.D C m.m.j.F 4 | Q  +,+a+h+;+;+H.m.Y.X.r.j...#.2.L.y.j.2.U 8 ^ : j k.-+u.'.-.L.W.Z.;.0 o D.y.m.u.S.L.S.V.L.L.R.h.h.&+@+e.H.m.:.M o y d 2 2 n G ;.V r b [ % $   @ - 0 ).!+m+u+Q.,.7 ( *.M.J.U 6 l S ] - 6 $.$+z+9+t.,.J @.%.5.=.3 : 6 b ~ : z -.e./.9.i.C.4+w+B+t+q.z X.f+m+{+w 3 { b r s F j y 1.^.[.Y ~.X.x+z+f+ +e+7+7.A C r.7+t+v+#+M | m m n O .. +'+c+j.S.u.d ] ~ 1 p G l 0 ] L M.i+=+w.o.g._.r 9 M C =.l.*.S O T 7.>+c+]+r.t P D 8 6 ) ( Q v.l+&+|.1 1 #.V V E o O #.V f = ",
"+ ; @ $ # 8 B.X.H.-.k 1 9 V l.W.@+H.S.F.f.I.++^.D B.b+%+@+E 9 0 [.'+!+6+o+;+m.+.4.D.:.D.T.E.q.F.d.(.^.E l - # # 4 _.F.y.+.u.[+2+W.&.E &.V.[+U.@+)+S.Y.1+h+7+|+O.$.r y '.H.H.u.:.D Q P e n [. +W.].f 6 0 d e Q ..G G Z.8+8+A+w.,.h S $+r+B+l+#.2.#.2 # ) u 6.Z./.N ,.,._.6.6.^.h t G F 1 n D.7+9+9+9+o+i+j+q+l+;+-.c d.:+f+@+Z i c L *.@.F p n D o 0 j j.c+z+B+e+ +~+X. .A n d.^+3+{+^.Y D m m 1 0 G |.b.&.j ..K t n O D &.#.&.O d.J./+!+X.a.a.U.k.|.l.G.S.Y.f.V G ..:.U.h+c+^+-.w +.S.g.p b 6 E D.Y.N.<.2 o b.!.F 4 M ).F.b.8 - ",
") ;   & ! 9 U q.-.e & 2 2.p.4+q+l+`.H.Y.K.K...y ..J.]+v.v.U.[.].F.R..+M.#+-. .'.y.y.:.T.T.>+}+]+G.X.D.D ] % { D C.A.|.Y -.u.h+h+T...M 2.{.1.7.@+@+@+^+|+^+X.1+'+8.R B n z './.u.D.S.m.4.1.I.&+i.=.` |.F.r.m.X.X.>+<+/+/+(+2+>.N ,.k+_+d+F+g+u+p+S.'.J 9 X %.s k H N ,.e+P.z.p H Z V.F m -+a+x+u+9+Q.b+w+8+f+L.-.t k F.4+q+U.v v v.w+(+_.;.B o Q x O #.~+w+q+e+r.d.].d t w D ;.b.V.y.r.y C x 2 2 E L F 9 - - ( : A g.g.Y.++I.x.T.++Z.A.C.g.>.>.e.V.,+J.` =.U.5+f.K.c+h+0+t+l+y.P +.b+0+;+@+c+<+|+L.r.N.=.Q T.c+]+W.F.]+n+n+L.2 ] ",
"4 * . n j V p.^+/.i ^ b.q+8+r+D+0+/.m.h+|+d.o m M U 4 c '.`.0+h+++K.s.*.8 d -.H.H.u.(.=.0.x.^+T.G.S.-.e % 0 [.e+s+<+S ..:.L.-+>+D.Y [.S p 8 W D.(.X.[+V.=.[.]+'+&+f.0 { ~ D ~.7.Y.@+v.e.9.i.#.W G.<+i+c+7+;+H.h+B+B+i+$+.+..i N %+E+_+_+y+g+9+;+[+%+t.P } u u > h v I z+d+$+p /.;+@+[ !.n+]+c+7+o.o.7+f+,+F.D 7 e Q .+8+f+ .a J A+F+l+{.{.p G j.g.q.K.i+w+p+y n 0 8 # : g y B F k.Y.m.A Q T c =.d.i.8 - - ( 4 ] S.3+o+l+7+2+++-+V.C.@.*.[.I H +.^+W.#.[ 9 K.o+~+4+w+l+t+A+u+H.+.>+u+b+0+u+B+B+l+y.S.V.^.r.'+k+h+e+k+w+z+t+u.g 2 ",
"<.I.]+>+S.:+(+s+%+t.=+j+j+r+d+s+=+v.H.3+>+Q n D ..{.4 o Y D.7+l+{+N.V b 8 o 1.u.U.m.A O S B G 0 ( % & , # 9 !.&+W.&.E [.C m p =.y.D.^.&.=.W l ] n W q.r.L.-+~+K.S l ~ 2 O =.C x <.d.4.e.'...]. +n+q+i+p+t+b+9+A+z+B+v+,+c.o g H %+F+r+*+$+(.a z B.4.I _ + u u ; & 3 +.8+/+!+T.@+e. ...}.8.I.&+r.'./.U.~+&+d.z e A q.M.A.` a i y Z.p+m.^.].d.x.<.g.[.J.A.Z.(.A c ] - % { k y 8 f V i.u.v.u.-.9.L.++q.y o M 0.f.K.v+A+A+t+0+l+1+-+Y.++s.*.9 g I 9.G.d.O j U *.].a+(+K.V.3+A+b+o.m.c+p+=+b+l+e+-+T ~.1.q.L.1.C.!.&.2.J.Z.W.:.w w C ",
"n+i+p+4.r.Z.$+6+o.t.Q.s+$+8+4+<+m.e.v.7+:.A C G.++G.&.M o j.e+7+U.^.8 b 9 p [.r.U./.m.(.M p ] % - @ $ $ ] F _.!.S #.].O c ~ = U V.u.Y x.-+y.d ! 0 p S G.e+h+3+r.d.&...Y.h+[+4.T [.j.X.`.o.S.,+i+s+s+:+f+l+u+C+u+o+e+V.].B ] 7 t X.w+j+O.f , ' j x.+.v i @ u u }   & ..c.z..+2+m././.D.l._.R.x.^.-.'.S.]+W.q.-.+.7.=._.R ( / h Y }.b.-.Y. +]+]+E.g.^.8.}.V O P e { @ @ ! x 7 ] f R !.Y.;+m.4.X.h+h+U.U.3+e+n+a+,+f+p+7+0+0+)+3+>+^+++b.6 = ^ K u.Y.j.D O k._.*.s.b = B ,+B+9+w.t.e+~+X.H.X.g.^.x Q g.++Y.(.#.B l U 8.l.0.~.+./.@+",
"F+p+^.c 1 R $.V z H /.B.h.h.s.S c 4.@+u.e c j.2+Y.r.1.m p 8.'+[+'.k ] ) f L ].T.u.e.v.4.Y j D 2 ~ { : d E _._.|.0.I.I.m < : L c.].A Y K.2+7.P | 0 B U C.#+2+}+>+3+1+p+v+t+`.e.7.<.~+l+=+%+b+m+i+a+~+R.s.W.5+;+@+:.n { ( B ] : c E _.R r > & & !.'+;+,.,.Z 3.%.q - ~ 0 @.5.h.0.z '.>.~.R.R.K.0.=.~.+.r.I.F.[.~.+.P Q U s l g >.@+Z.|.T >+c+e+^+>+y.r.|.}.*.M g 3 < # - b D P x V 5.A.]+U./.U.7+l+l+t+b+A+A+l+T.!._.#.<.g.9.7.S.S.r.=.0 ( 9 0 -.@+[+D.Q j.&+,+f.( > ) q z.4+=+a.o.D.B.z T D.S.r.9.r.^+p+X.u.[.F.2.|.}.s.'+l+=+9+u+",
"g+=+e g 2 V $.s ] g K =.*.q 5 = ] Q ~.g g d k.|+Y.r.T d p r _.^.J _ ^ 6 s r V b.r.4. .+.T O =.T g.X.4.u.]+R.s.l.W.#+E.c < C <+Z.p ^ O R.#+e t c E l F V |.F.q.E.-+c+c+]+^+m.Z P G _.F.)+%+9+v+K.F.2.;.F f l n < < # % B L n c : % ) ; ; . $ % *.p.u.a.w.Q.D+/+p.O o j @.%.@.4 ~ ^ g z l.l.B p 0 2 k C S G j d e k x l s F 9.%+9+c+E 1 b.<+^+Y.>+y.u.#+s._.j e a t c x.&+^+H.H.f+P.O.W.U.e.;+t+o+l+0+b+A+t+;+-.l f 9 8 [ n g.>+D.T C | l U S E.[+)+y.X.p+f+n+y.{ ( r 5.6.$.2 i I Y W d =.q.S.X.U.X.e+o+)+H.3+|+j.;.R @.s.n+u+g+g+",
"=+,. .+.4.R.@.5 - c -.~.;.5 ; ) 9 [ c g g Y C.'+X.y.~.k 1 s R 0 _ 3 c L R R R U m g g e c j j ^.^+[+;+0+h+~+C.l.C.B.1.A A -+w+N.$ @ 6 c.n , , C ..&.U *.*.;.E p l l ( ( ( d a g ! 5 5 E u.v.U.p l p 8 6 6 = @ $ & # E K.l.1.A e & > 5 5 6 { j @.$.l Z t.g+F+y+<+(.u.Y.s.5.s * @   $ % r 9 ( 9 ] # ^ | 0 9 ! $ , : ^ 8 R }. +b+9+0+x 1 V _.W <.g.y.S.^+,+K.Y P t t D.a+i+e+=+9+E+r+.+K.S.H.)+3+}+e+>+>+>+y.-.+.Y U B 8 l `  +5+X.4.A n ` !.|.#+}+@+m.l+B+z+p+m.+.]+:+P.$.; . & / (.1 y [.G.^+[+U.X.'+]+;+b+b+7+:.E r @.5..+x+u+u+",
"k H e.m.;+p+C.B 4 O 7.u.:.4 r r 9 ( ] e A 1.R.R.7+`.e.+.Y _.R [ 7 t ~.0.V V R F 0 < _ , { ] ( #.I.q.X.H.y.B.f.8.!.#.x c D.s+z+e , . } } # ' ^ [.V.-+K.l.8.l ] % . = + * = 1 t w { 5 } ) ! 2 A 2 4 4 l B 9 - @ # # 8 Z.m+~+x e g e n U R F 0 V.l.R * &  .b+A+v+V.=.1+@+k.$.b .       . } ) 9 9 ] | d D M 0 ] ~ : < d k.p.O.Z.h+b+t. .Q _.R l G G ^.(.++,+K.g.J a 7 T.<+,+N.[+A+B+z+&+|.j.~.T Y j.^.Y m j n e -.{+]+G.i.F.K.'+^+@+/. .r.F.C.J.K.G.(.X.o+z+z+{++.;+z+w+a+- . + . E @+r.}+^+|+2+X.4.r.0.f.e+u+9+`.'.n f u X 5.f.:.(.",
"% g /.u.)+3+V.E l ` r.7.-.j.l.V B 8 0 d ~.V.,+Z.n+b+t.t.;+<+J.[.A 4.u.L.U *.*.F ] , / ' % [ B U {.W y Q z &.{.|.!.G d ~ &+y+0+i /   q q - 7 V.n+p+h+2+<+b.1 # # @ . * s p.^+v.,./.p 5 ; = - ^ C p 9 2.2.W ~ # # ] _.$+f+:.: ' ' c =.K.J.;.` n+c+{.- @ 2 >+e+>+(.q.B.A M R ( % # # # 8 R R !.L M 1.r.y.L.q.Y Y k T >+p+4+$+c.0.4.>.>.m.|+|.#.].p 0 O F.K.k.x _ _ c ;.l.C.].i.]+]+T.W 9 0 ^ # [ E W y n 1 0 Y X.o+v+5+1+~+&+C.x.u.'./.)+e+&+&+{.E o [. +6+e+u.9.7+k+'+Y '   * s O.x+u+t+l+e+-+r.+.Q 0.s.:+A+9+t.>.+.B $.X $.b % % ",
"( j A z g.S.~.n ` |.j.Q T 1+a+W.p p E ^.[+h+<+p.J.U.v.=+b+x+~+1.~.'.m.u.&._._.B ~ , ' ' ~ B !.!.U W d : n E !.!.b.<.e o *+j+e.H v & u u r ^+z+z+l+l+o+2+n { ^ : c | *.P.d+B+9+Q.w.v.O 9 9 4 0 :.q.C.6+e+X.P & % B A.P.f.7 _ / < D 0.R.'+ +,+m+l+m.x o p I.G.r.:.>+1.7 D V p d d y z ).M.M.f.{.).E.D.D.D.Y Y z C L.e+z+w+l.6 * @ < J @+o+|+I.W 0 8 l ;.f.).k a K 9.f.8.f.S L B p 1 # > - & # 4 ;.[.T Q D &.<.V.]+e+[+>+T.b.;.B =.'.v.7+l+c+]+q.m ] l 8.Z.++y.y.>+d.E d t +.k.P.*+k+b+;+X.j.^.T +.-.0.c.A.k+=+a.,.v.S.A.5.q 6 % @ ",
"p 0 < 2 S j.A y |.C.V.P =.k+a+r.m p ;.~+l+7+-+V r ! A '.U.S.=.D z ~.y.m.q._.U p { ' / < o |.l.|.;.[.c 2 1 G U !.J.++4.p+/+!+I ,.t.Q./+z.z.j+D+A+7+h+>+y ^ # { ~.[+t+q+_+_+z+9+Q.Q.%+`.S.F.~+]+V.-+6+i+B+=+Z g ] V $+3.- : g +.4.^.].8.,+s+w+:+5+;+H.u.V. +0.=.^.>+7.K g.f.0.g.D.D.~.k.A.J.p G B E o m 2 2 | ^ 1 #.&+k+^+2   + + . ] G.c+^+1.2 ] - 9 V J.#+4. .`.b+e+&+&+T.M 8 ( % # - - : D l.J.++@+m.r.W &.W b.F.r.Y 1 8 4 9 E D.;+u+A+A+h+S.A | F 3.M.++9.u.@+g.E D U.b+z+_+$+C.Y z k ~ 0 O 7.U.E.c.h.s.7.>.a.t.b+m+.+}.9 % ~ ",
"[.^.Q y ].O P D.<+!+[+'.B.i+V.T d l *.J.]+y.T [ * * % : c d j 1 n Y L.u.X.k.B 8 { _ 3 < W C.C.{.!...e < | B V p.Z.c+0+B+/+f.A t.Q.g+F+d+_+j+i+>+X.r.c & $ # p a+B+F+D+/+z.s.4.,.a.t.`.7+n+k+o+X.^+i+8+z+t.N h 2 3.*+L - 1 ~.e.v.4.0.}.O.j+z+k.I.U.;+@+3+V.=.o ).G.y./.X.<+]+>+D.~.A <.@.b - 9 l ( ] % % % # # ! b }.C.C / &   + ; ; R F.Y k : ~ 8 F @.!+n+H.v.b+9+0+n+a+y.T o 0 ] | p p 1.3+a+!+'+U.m.+.D E E ;.].y < { ( 6 V f.]+o+F+u+u+0+e.K k !.h.p.W.D.>+0+;+>+]+t+b+B+(+}.4 # ^ : ~ 4 ].g.m.X.J.p.*.M '.a.%+u+p+Z.|.0 | n ",
"h+t+%+@+0.E y.t+w+i+D./.n+f+D.A e p R @.G C 7 $ . ) * % 2 Y :.Y =.-+5+)+)+[+V...x t /.u.2+6+|+#.6 0 e P >+|+J.3.A.w+C+>+9 6 [ K t.Q.9+r+d+i+l - C < , & $ j R.!+6+++#.R q 5 @ ' a a t 1.W.;.O C |+j+d+v+e.H v X./+O.g.G.W.V.;+=+=+X.}.5.$.M =.U M 7.7.x ~ n q.c+ +Y e D.&+#+D.Q c P 5+s.l S |.0.=.| % @ @ @ ~ ] *.$.V < _ _ & = } q $.Z.Y 4.H.)+]+R.z.$+~+9.m.U.H.;+c+B.n Q :.j.^.Y W ;.k.-+'+8.B % g K (.M &.f.b.Q -.9.G.C.p.M.k+s+c+{+U.m. .H U.k+$+A.f.X.h+r.H.b+B+A+b+7+L b - | | c S.'+C.E Y S.n+Z.F > y 4.H.=+>+( * > 1 1.",
"n+n+o./.C G ;. +W.I.~.)+B+c+4.g e O V R b 2 / < ] l 4 8 0.T.D.u.}+e+e+@+0+t+t+X.9.7.e.`.v+s+[+A ( 6 D {+v+t+3+c.z./+=+3 - ) 9 { J v.0+j+8+>+, = > & , $ 0 f..+,+i.c 0 s } ; . $ ' / c j 8 > > L M.$+O.M i h H v+y+Z.~+o+}+}+U.;+v.'.).q s 5 S [ 8 n g , ] L ,+v+U.t d <.f.0.~.t y B.o+^+x.<+<+~+r.e ,   @ ( 0 )._.@.F 7 i I +.c b X 6.Z.(.h+u+9+b+c+/+$+B.9.u.9.D.[+>+Y 2 j d.>+X.m.Y.~+F.0.).[ @ - ! x T O F.&+ +r.U.)+h+c+Z.A.R.T.m o n k t '.t+z+i+J.8.#+X.Y ]+p+v+7+e.'.^ = ) 8 d B.x+t+>+=.[.~+k+B.1 4 p c Y P t ' > s s.c+",
"V.1 , _ c 0 9 * ) r F.l+l+S.-.K P q.C.}.L | e P G. +~+]+#+q.g.V.^+++j.^.t+t+0+H.4.-.-.U.e+c+4.J ..F ).#+n+h+)+,+z.5.e i n U F O P '.l+r+4+T a ] . & & ~ B 8.p.Z.T.u.U.].f ) - { < A P C # @ 5 @.*.s 5 . , _ K 4+q+|+0.&.T.1+X. .w g ..*.@.V 9 [ G m t A m _.O.a+;+/.-.<.!.2.D.'.y.N.W.T.~+s+n+>+A / ' $ ( B ].).!.3.|.-.Z >./.'.~+z.n.3.G.2+7+=+=+p+(+O.N.X.m.U.X.[+X.+.A o ;.F.[+@+l+v+>+[.j ~ ] p 0 m x W R.,+I.g.:.D.V.#+&+_.F 0 0 ] % { T X.o+c+~+K.l.].y 1.G.x.0.x g w e [ 6 * l &+<+l+;+U.}+|+++..y ].S ^ ^ ^ 7 K p+j+j+w+",
"D , & 7 C n ] > 5 q *.#...T t w 7.Y.<+R.).=.7.)+h+k+z+x+}+j.E.j.^...j B &+S.4./.K P C r.N.k.< t D 9 F |.&+r.y.&+A.$.7 I r.W.f.[.A ~.c+8+|+7 _ & @ $ { j |.s.p.s.F.S.U.D.0.` ( % ^ c -.4.4.(._.@.f ) ) . & ' y p._.! ] 9 C.]+4.K a 7 ..8.@.f 4 l L [.P J D s.A.Z.;+,.'.=.|.l.g.m.u.G.0.0.J.i+v+@+ .3 / # F l.F.<.l.p.J.U.a.t.t.b+B+d+P.3.k.K.Y.@+0+3+J.}.{.Y ~.~.g.S.U.e.m.r.C.J.e+7+o+h+u.(.d 1 j &.E n y F.Z.R.[.D y ^.j.).;.b 9 - ] % % [ W >+e+^+N.&+C.S 1 O #.#.M 2 7 g t 2 - ) R M.R.c+;+=+h+#+d.g.D.++D & # % n {+D+y+D+p+",
"# , < Q -.~.C E *.3.s > = j g  .@+x+z+v+]+V.S.0+t+s+z+b+`.~...n M m | b f M T '.+.t C ^.&.1 & < : 4 r *.V M y ;.5.@.k  .Y.2+]+^.A n f.s.m / _ , ~ ~ m I.'+R.p.c.f.r.~.>+^+..^ # ] E g.7+b+9+t+|.B l 9 G A K ..r = . * *.M.]+u.I i A N.&+l.!.` {._.0.P K g.M.z.O.X.,./.r.K.J.G.7.4.^.<.S 3.$+c+m.Z h i =.Z..+N.G.f.3.M.>+t.Q.9+g+C+y+_+J.b.|.k.L.-.T L r b ] 2 2 j B.7+=+%+`.c+Z.~+)+>+=.c c c y &.0.W D =.K.J.b.O d n O m j 8 4 = - % % [ l ;.F.^+V.]+~+++^.m E p l 0 2 k t J g 2 r 5.h.M.<+h+b+@+r.d.^+7+7+A e ^ [ ;.i+r+y+B+>+",
"% $ 2 D D.m.7.B.c.}.6 - 6 9 x X.A+F+F+u+7+(.q.^+5+k+k+l+e.J d o o n n l r L 1.'.'.+.~.=.D | < < c S _._.f 8 2 L $.@.2 +.T.&+^+(.g 2 F r % _ a Q 1.r.-+a+a+<+J.p.l.^.g.B.:.c c d M ).K.e+7+9+b+[+#+|+k+D+g+Q.4.! @ . s h.O.~+m.H I u.s+q+w+n+]+W.C.E A +.S.Z.O.O.=.Z >.y.W.l.j.A A =.O E $.5.{.-.Z N >.h+i+:+N.j.0.3.3.K.)+%+9+g+C+E+q+N.i.l.b.n : ^ ( f ) - % % B s.e+b+Q.%+3+K.C.r.4.^ $ ^ | O d.<.=.D [.f.l.2.m x ..D n j 0 ( 4 4 0 D d.b.|.!.0.-+n+n+p+U.7...M E G =.7.'.'.m.U.~+z.A..+:+^+H.'.r.#+c+l+b+I I P #.s.$+/+i+(.y ",
"% # ] E E.m.'...F r ( ] F r W ++w+E+A+;+'.A j 8 G J.,+y. .w d m W Y C <.l.l.++m./.'.~.(.:.Q A P 9.~+,+C.G 8 j f.$.s ] (.<.;.j.P t c B b % _ I @+V.>+e+a+c+~+R.s.!.M Y 1 ~ c T ~.^.b.C.0.O D y.u+x+w+y+E+g+Q.,.g , 8 5.6.z.K.K H >.7+z+D+E+A+l+E.).E Q m.X.Z.A.*.] _ K 9.x.l...7 c D O M @.$.f y Z a.w.u+q+a+j.m ].p.$.}.j.@+)+u+A+B+#+..++&+j.c < 2 G F 4 - % 8 !.A.,+[+o./.Q ` |.^.K / ~ ~ m E ).<.O O d.K.l.&.D g.g.Y Y y j E G ].0.]+o+^+k.U U &+k+z+o+`.`.U.L.T.F.]+@+=+=+%+b+B+/+A.O.J.E.T J 9. +6+v+%+,.>.m.G.J.h.5.r { # ",
"~ 2 E &+k+0+e.< = ; ) [ U r F s.(+f+[+w e , # . f @.*.x K K k E ).D C 2.J.J.N.4.Z  .T ^.(.-.-.y.{+e+<+F.W M i.~+J.*.9 D | b B 7 i P 0.L 1 A u.@+D.V. +<+|+T.C.l.{.O x c 1 W g.9.Y G 9 - ~ ! V s+l+f+_+r+9+a.,.e./.e+z.6.5.B 7 i '.h+q+y+E+b+m.7.[.#.d.y.X.K._.f % ' g r.#+K.n 7 d [.j.=.V q s 8 K a.%+9+p+V.k | !.p.3.*.G D m <.G.S.y G k+c+L.+.+.D.++F.M ] 0 B }.A._.o _ / $ 6 V E a I T D O &.L E m O 0.&+b.M <.^.D.(.:.~.g.x.W.W.K.<+h+[+g.S R p.M.a+Y.y.m.;+@+3+c+c+7+b+%+b+9+u+w+.+A._.M 7 Q q.<+.+|+e.t.t.`.7+R.*.s )   % ",
"g.>+k+j+z+b+a.h # ; } r ;.b s 3.h.!.2 / / , $ = s $.R j w H -.=.&.m n L @.V S c a w A D Y Q 9.y.Y. +#+[.M k.~+k+a+b.E 2 2 6 6 ~ e -.++I.=.~.4.u.D.q.F.&+F.q.k.l.f.=.z 7.[+>+S.T C ] > > - l *.8.j.K.6.5.A H ,.t.%+u+.+5.u b { g T |+(+(+|+4.g Q =.<.j.Q D.0.U 4 % 2 ~.>+e+V.c < m <.g.Q ;.R r f D /.=+9+@+9.A :.J.M.A._.p ~ @ = b ..Q l.4+e+X.H.=+0+l+>+(.y M {.}.@.b # ' ' # ) s 4 A o.=+@+D.L.<.E O ).C.W.0.M W &.=.7.X.X.{+]+~+#+f.s.x.y.9.^.V @.@.F O n C U.7+l+p+c+5+H.H.H.;+t+p+!+}.9 - { C ++a+R.f.:.o.w.Q.9+0+B.b ) @ ] ",
"t+A+E+8+m+`.,.,. .U $.$.2.B }.3.@.9 $ ' ' ' : 4 @.$.s ( 7 K u.r.=.d 2 B r r 4 ^ _ g c [.^.C T (.L.0.N.g.M 8.Z.f+]+j.O z C S 9 % ^ ^.++]+Y.~.y.m.4.g.K.&+i.[.k.l.f.=.=.1+t+t+H.K e ^ - = 4 4 s s l L @.q   3 ,.b+9+`.#+@.q b % < :.,+.+s.;.7 / 2 j b.j.(.Y O B 8 ] M V.v+x+U.e < j {...C E r r r 4 ~.@+H.m.4.4.l+f+!+.+W.Y ' # ; s i.y.!+p.i.{+b+9+b+)+9.P Q W G *.@.L , / / ] r R *.V.9+9+%+0+7+7+3+V.T.R.K.j.O &.M W T.X.[+7+e+|+j.).V B n (.r.k.R s f [ ~ 0 T.5+h+e+]+g.T -.~.S.>+1+I.4 . > - ).<+a+~+` | P `.9+g+g+b+r.p 0 [.",
"u+A+t+R.8.P ,.w.9+C+j+$+W.W.O.O.s.0 , / _ g P B.3.@.} 6 { e 7.~.C c d p f f = ~ e K ~.B.~.T Y :.S.]+~+7.=.!.3.8.&.o j x (.^.j % ] ` '+e+)+U.7+@+u.r.K.K.[.=.2.l.K.g.&.R.|+m././. .P o 4 > * } s L G *.} @ , H.u+Q.Z g.J.}.L j :.e+a+J.l.#.e ' ~ #.K.I.7.z o G 8 0 k.6+z+A+e.i < p ;.D c 0 F r f b ].D.4.u.m.0+A+x+6+!+c+m.i & r 5.4+u+z+V U '+l+=+`.'.P k C m l *.}.#.g I  .:.C.p.M.4+A+%+%+b+t+A+b+;+5+'+N.j.^.W M 2.i.>+3+3+^+L.Y ..L 9 p q.[+^+L f 5 4 1 L C.++}+5+r.z c T (.q.i...d # . * b s.:+f+^+y ] ] L.u+C+g+9+=+>+c+v+",
"l+7+y.O b M `.Q.g+C+z+f+I.W.(+8+<+Q g K '.m.U.h+R.V 5 f 0 r.y.9.T Q c j l f f E T 4.@+L.D.H.y.]+^+c+++-.~.K.}.F 0 % 8 W :.1.C ^ - s p.a+0+)+S.-. .y. +2.[.q.W.J.K.(.r.l.G y 7.e.v.e.u.x { - u 5._.{.{.9 - j G.S.Z H ]+4+Z.b.x.}+1+]+&+l.<.a / - f V 0.Q 7 ] p p ;.Z.(+6+X.Z H K G V 1 7 O K.U r s F m T ~.D.^+3+{+~+4+~++.h g @.6.P.v+H.0 *.}.I.u.e.v.'.e 2 Y N.M.A.K.m.a.t.0+k+(+$+$+++;+%+=+l+0+=+;+[+++T.g.r.^.i.x.C. +D.D.g.g.r.^.p 9 U f.r.7.^.#.V F E |.*.{.)...d k T 1.r.1.Y y c k | 6 @.z.!+c+X.u.P 8 }.(+B+9+Q.%+7+c+]+",
"q.Q A Y |.Z.b+w.o.-.i.` E V A./+c+7.+.'.v.v.)+[+c+#+V *.W.l+)+m.4.-.A 1 #.U V {.y.U.@+S.Y.)+;+[+Y.^+O Q [+n+<+2.] 1 ` I.(.Q e < - s $.p.X. .& $ C {+1+x.i.G.c+R.f.q.l+++<.q.~.'./.e.e.U.)+l+/+P._.B B B #...j % ' >.o+<+'+~+~+G.B.k.].L 0 _ 3   ; q b < , % U F.K.p.p.|.| a H o.D.9 - n n+a+>+G f 5 = 2 2 ~ ( p M s..+W / 3 g }.6.X 4 < ~ r s b m u.%+o.I ~ c+p+i+!+&+[+=+Q.9+B+i+.+_.].X.;+H.g.q.@+U.y.T.++L.(.>+2+]+ +#.O =.1.L.X.T m l r b [ o j.]+<+|.M G f 6 ( % % j D.D.:.=.q.y.u.)+0+p+$+z.O.&+{+`.t.X.c.$.f c >.w.v...[ ",
"1 n C V.:+8+u+a.N g G l 8 r %.5.I.4./.m.m.H.H.[+|+1.#.3.p.B.P K J g / ] U ;.8.s.V.m.4.r.q.g.@+@+5+D.(.e+B+B+B+)+y.B.Z.W.u.7.K w | s X $.0 3 / ] l.]+>+E.&.|.~+c+<+|+>+{+^+q.(.w J  .u.7+t+u+y+4+<.p F F G C c ^ ~ ^.T.~+s+B+A+h+j.0 8 L r.Z i , ; u } & / x.(+s+p+l.r 4 # '  ./.K $ * R ,+k.Y c - 5 ) - $ $ = f k.!+s.^ / / c p.5.s ) # % 5 } ; = S `.t.N O M.<+,+_.!.d.u.o.=+h+W.|.V !.&.P +.-.I.L.'.9.B.x.1.L.^+-+++j...M j M #.z A Q G.f.{.E B !.f.x.[...M B U E | 0 L <.9.9.L.2+}+7+0+b+x+6+h.3._.0.9./.J p ) ; 4 7.t.t.e.C ",
"j ..L.c+i+d+0+,.N  .j ! - r u u V Y 4.'.-.u.U.)+L.Y F.}.r - ^ < t g ' 0 f |.M.R.T.7.-.x j [ M r.y.Y ]+k+s+v+o+;+=+[+<+W.7.'./.Z P *.X q - ' g [.l.).D D 0 V s.f+k+Y.q.++X.(.~.J K -.X.l+t+x+q+'+Y o 9 F U ^.9.-.T 1 !.$+r+D+C+t.K ~ 9 p.i+a.H a 9 X q 1 D.q+j+w+7+x = 6 ! : +.i 3 & * @.c.p | c o 4 * .   % f @.Z.6+<.< 3 i D.!+3.5 + . . ; ; ; ; @.3+w.a.U.J.f.B f 5 4 d +.'.:.0.|.8.U ] # d g.B.D ~.-.^.p E j...M E 0 O o j 0 0 | C 1+v+z+e+L.=.l F F G M W ;.f.&.C D ].S g.X.o+p+3+7+0+;+X.k.@.@.V 4 | _ t 1 9 } s d.`.Q.Q.0+",
"p k.^+|+4+/+X.N N I < # > 5 q u s ( c e c Y X.0+@+X.}+U 6 - ] d w I i o R p.!+,+-+u.+.k # - = l =.O K.K.{.G p x 7.u. +k.C T /.N '.f.5.$.( 7 e M F 8 ] % - R 3.J.F...=.<.[.~.7.+.'.m.l+p+l+h+|+M 2 2 B 8.R.]+@+e. .C J.*+/+q+@+/.I A U h.p.H N N ++z.h.F.e+q+4+#+A 7 [ 9 8 1 g a a ' f z..+q.g.y.y.=.p # # 8 V $.A.&+=.e K /.t+s+ +#   . + ; ; } q 6.j+w.t.=+k+[.! = 5 ) p (.+.9.0.C.K.[ # @ ! 0 0 ] d Q :.j G 0 ] 0 ! [ 0 | 1 0 E O ]+w+D+B+7+4.~.<.!.{.l 0 0 L V E D W {.b.++3+o+-+>+3+)+m.9.O V s f ( ] < /.9.E r q r E.`.a.;+",
"l F G ;.p.A.Q v N H K 7 [ s q u q ) @ $ # p I.7+=+;+U.m ( > - j -.H /.D.}.A.O.J.++'. .w : % 6 f M E l.#.! > = ( o O #.M n =.K >.v.++O.c.E e A n 9 - @   9 $.5.}.8 ] W W E =.T '.e.)+h+^+^.=.0 % { o f.$+4+n+0+`.>.U.8+*+z._.^ 3 i u.|+A.r _ H >.h+/+$+<+k+:+8.] & , ..{.&.o , _ 3 ' A.*+4+h+7+;+=+;+[+4.X.++J.z.P.R.Q A J u.o+p+y._ '   ) ; } } %.n.*+t.a.`.3+A # = ; 5 5 m -.4.G.J.).2 $ % ( ( % - ! 1.U.9.E ] ] ! - 8 [ j D &.].k.6+j+w+t+H.m.7.>+K.0.j E W ;.!.S 1.r.W.R.~+2+X.^.#.<.~.K t D b s r G 0 ^.0+o.(.L } } ) ^ _ e ",
"( 9 6 f q q ~ h H ,.t.t.@+C.R q } + .   - f *.F.U.)+'.7 # . ) U D.e.v.H.R.A.3.8.0.-./.Z K 2 f R W ++'+^.^ - b L E o l p o O P /.e.}+.+p.d.P +.~.x #   - R h.O.U - > G 0 p O x 7.@+@+y.(.2 { % - [ #.!+/+4+c+X.e.o.A+q+(+_.> # , A X.p+&+! ' a K ]+*+O.R.I.S 8 # $ - b.~+L.e ' _ 3 :./+*+(+o+0+b+9+b+u+9+9+t+k+P.z.C.z A e 1.I.V.+.H H '.f.p.}.5.n.n.z.I N I (.a ' @ ; } s b ^.D.^+]+j.A e n M 1 | 0 l.<+7+o.P | 1 0 8 l p E W j.0.f.M..+Z.^.P J 7.5+e+V.q.++^+'+R.W.^+3+n+a+|+V.9.Q j l 1 e g k G }.p.W.-+~+7+v./.n ) ; +     # ",
"( 4 = f q q ( a H t.9+g+9+7+W.*.5 = @ @ = s R F O P w _ & ( R }.T.e.v.H.c+A.@._.G D  .N /.4.{.@.l.B+B+@+K | V l.E.(.W E O ).r.'.'.^+J.J.B.u.H.)+H.+.< G O.P..+M % = 9 p G E g.(.4.9.T Q k c 2 0 B J./+$+M.0.d P ;+u+f+l.S ] { ^ Q ++e+q.< _ 3 ~.a+$+c.L 8 [ % $ # 6 *.,+y.I 3 a Z t+d+*+O.|+o+0+0+0+t+u+9+b+o+.+A.{.k g A 1.x.I.m.t.Q.g+F+q+4+8+*+n.X / h e Y i _ { 6 q $.*.&.r.]+c+@+ . .>+Y.L.>+c+i+6+[+`./.9.Y j.j.0.x.<.i.#+++'+s.p.L % $ 2 G.]+o+7+l+c+h+e+6+k+v+A+z+v+e+>+7.-.Y j j z t T W.$+$+f+x+o+:. ./.t ] * + .   @ ",
"E 0.I.|.R u 9 _ Z =+u+9+Q.%+l+1+;.G 1 1 9 R s f ( ^ g a 7 ].O.$+W.+./.;+5+R.c._.G 1 7  ././.B.@.5.D+C+%+H ^ s @.d.9.Y.^+Y.N.g.+.+.^.s.M.]+)+`.b+%+t.`.a+_+_+,+x ^ 9 f G #.{.q.(.(.-.T Q ~.~.~.q.&+$+O.p.V - # o V.l+D.l G Y T x <.K.++~.w H /.t+B+i+s.G 0 ] ~ ^ n U 5..+@+,.,.a.9+F+y+*+p.K.I.g.~.D.^+7+v.;+7+i+p.B C m.=+t+B+z+u+9+g+g+9+s+q+j+*+n.q & a A Y h i Q k.h.5.}.2.-+|+|+u.K 4.{+>+{+>+|+<+R.q. .e.=+7+l+o+e+e+2+|+c+p+p+<+l.[ # # 8 K.<+n+l+t+o+V.#+,+:+z+A+A+B+l+0+H.m.~.D ..(.m.@+k+8+/+4+v+0+P +./.Z g ~ - - % ] ",
"|+k+x+3+l.@.6 c K @+h+;+t.%+b+l+>+G.r.r.x.!.f b = % 7 K 4.k+8+(+B.-.m.=+t+s+:+K.j ~ # < K +.T 5 %._+u+a.H / r $.U q.]+o+y.[.(. . .g.p.A.<+7+0+0+%+%+9+B+/+P.k.A T #.f U |.].d.y.~.~.~.~.9.4.@+3+k+:+M.V 8 - ( l #.D.z p _.B.7.4.q.F.I.(.-./.%+F+F+A+1+E.r.g.Q Y ^.C.z.A.r.>.a.%+9+F+z+6+s.K.<.D | j l o z X.l+B+|+x.]+l+u+C+F+E+u+9+9+Q.=+]+!+(+$+5.} $ 3 D.Q H Z 7+v+j+$+O.R.~+~+]++.J y.{+L.q.1.#+|.L 1 c m.=+u+u+A+t+l+l+c+a+n+p+o+[.2 ^ | !.M.:+a+e+l+X.x 0.J.O.(+s+x+l+0+=+v.e.4.1.d.^.U.0+w+4+O.p. +m.K '.>.>.'.-.1.E.Y.>+",
"v+k+e+S.=.V f | z ^.Y.-.'.H.;+@+>+j.L.X.L.b.!.B [ 0 d J X.q+8+,+=.Q u.0+u+A+c+++d $ # { e t e 9 %.6.j v N h 8.z.J. +W.L.e E j././.U.R.O.M.^+U.U.H.t.9+u+Z.@.F T 4.r.F f 6 U f.D.u.-.~.~.9.y.{+l+n+6+'+2.O m 8 b V =.g #.s.&.C T q.|+^+~.Q g @+z+t+0+[+h+t+0+;+m.L.'+O.@.[ < '.;+7+3+ +&+,+&+V.-.< % = > 0 I.w+E+A+v+B+v+p+p+3+2+>+`.%+w.,.j.}.A.p.@.; @ 7 (.x H o.A+E+y+j+6+<+~+~+N.J '.7+7+~.y W B.E 8 [ =.L.>+l+A+A+A+l+[+V.&+&+]+>+T k d [.R.M.s.!.#.Y A C f.s.A.p.R.N.G.V.u./.'. .:.M &.G.3+c+R.*.s f Q '.u.Z Z  .7.V.p+t+t+",
"n+W.D c 1 6 6 [ d ).<.A g ~.y.u.9.=.).r.y.x.b.l E O d c q.!+.+k.| n i.e+x+l+^+(./ , % ] z '.K j %.u ) _ v >.q+d+k+V.#.m < S ].+./.u.<+.+s.S x Q Y @+=+=+..r r =.y.y.o 6 f R l.q.7.'.7.(.r.1.d.c+n+a+ +T.g.Q =.U R 0 P #+_.0 2 n K.f+5+4.e & 8 V 0.g.r.c+A+9+%+=+[+|+s.f @ % | z z 1 l _.Z.<+>++.w ^ ( = b p.8+D+C+F+A+>+o ! - > 8 ^.`.w.a.P @.A.l.b ) > { D 2 J 0+B+E+D+q+f+|+]+N.=.z @+t+0+'.z M <...E ` ]+L.G.]+v+x+l+@+~...;.;.2.m z A Y I.:+Z.U 9 4 ! c D.W.s.p.}.V G p E d t t w T ..0.x.++G.#.9 5 } p m.4.i i _ c k.<+e+l+",
"V.o # # 2 B F ( ] G 0 < e (.1.T A =.p p ^.j.E ( 9 ! ^ 2 L *.V [ ~ 0 L U &.n 1 : _ / % 4 E +.I +.5.X q 2 H H.8+/+]+-.o 1 A N.;.Y '.X.R.*.b - ] m 0 M k w P !.@.b 2 k c 8 5 q s p 7.+.4.7.(.Y #.V {.F.N.i.C d 1.T.C.G =.]+T.1.:.j.!+Z.D.I a ' 4 } ) [ S s.<+U.K g Q M 4 . . . - | A :.R.p.h.Z.D./.o. .=.{.M.P.*+r+F+C+=+t ,   > ; 5 b j >.,. .}.$.F E p B ..1.] C h+n+k+k+k+a+|+++d.O x e+^+K I P <.#.1.B.J.{.y M !.W.h+;+7.e n B !.G 1 C T (.K.J.x.E p j E N.5+]+&+J._.U p p 0 d t e A 9.L.I.F.I.[.o [ f s r =.t i h I ^.C._.{.<.",
"1.c : % G b.p ] - 4 - ^ y :.x C Q Q D p S O 2 % > > ] 2 p f f ( 1 ] = b ( # @ % ' _ { 9 4 Q I @+j+z.z.1.Z m.Z.3.L : n E Y.e+T.r.7.m.M 9 > = 4 j | % $ $ r.W.U - % ~ n o 9 } s R L.4.4.m.7.(...l f V ` m ^ 1 k.|+2+O W C.|+7+)+h+a+R.D 3 3 ' ] ) ; 6 F *.F < / & ] ] @ @ . * ) 6 d.h+x+a+p.*.&.u.t.o.U.k+q+$+z./+n+H.H i / 2 G B 9 ) b g ,.,.F.@.R U C.F.V.'.c 0.W.I.K.J.,+a+e+>+g...d.^+d < t -.q.#.i.V.j.8 ] M V 3.<+;+ .g O K.C.#.=.:.9.r.0.V ;.j.W.|+z+v+h+e+<+K.V b 8 p l M t g z L.>+++I...n | ] F @.r ] , _  .=+=+-+;.B p ",
"(.4.K Y U l ] ~ ! 4 ( 1 m | 2 x c r.D.^.M m c c ! = 4 o &.l.|.l 1 ] ( b - # ~ ~ e _ ^ 9 F g.m.7+8+*+A.o i m.<+Z.[ # ! {.x.]+o+@+'.P x S ).0.G ! { ^ ^ j #.0.M 1 0 ] D m G V $.5.F.H.`.`.v.+.=.T.b.V 6 1 : <.Z.&+r.Y M V _.q.X.l+c+^+P / / &   * } r f R F P H +.V.T Q 2 ] 9 5 5 f |.|+e+W.f 9 j K Z [+k+6+s.6.5.8 ^ 3 h I :.T.I.[.!.s.4.a.w.0+J.*.f b b p P u.T.0.0.C.Z.J.'+]+X.y.r.x.1.A P -.~.g.B.0.j.Y m E B.J.$+!+m.I K ++6+x.#.<.r.X.y.O F V <+s+w+w+x+0+l+T.E > = = 4 > - & J g.=.j.q.[.m { ~ 8 V R f @ & 7 @+b+=+y.B.x.G.",
"L.7.'.'.o - - ] ] = = [ d ~ ] ~ 1 ..:.1.o n x -.Q b.` E f.R.N.=.d n p 9 - ] 0 D w i < F }.I.m.{+.+z.R ] 7 D.6+ +: # 6 V 2.J.c+H.Z g D F.'+}+(.n | 2 Y g.<.].&.Y y 0 O D W s.A.h.!.Y.b+9+%+v.L.~+d.p 4 [ o K.J.W.q.9.n F R U <.++]+Y.K a _ & . 5 q R r @.p.{+t.%+0+=+=+`.U.j.F r s @._.2...8 b 8 < +.}+<+2.9 u u .   & g '.y.e+e+3+s+8+l+w.w.=+++9 > * ; f E X.D.d. +R.J.s.J.I.D.y.(.M ..~.7.+.-.q.G.T.q.1.g.I.W.Z.$+R.J H m.e+|+^.p 2.]+U.+.c F 3.!+w+z+a+p+0+@+T { ! 9 4 8 ! - ! :.~.D W d.^.C ^ ~ 4 *.V ( @ ] d.l+9+t.H.^+~+]+",
"1.A A K 7 % ! 1 ~ - ) b Y k { % ( l o y n M ^.X.7+h+q.W |.*.k.r.y.~.[.E ] 0 S d.w I w l.M.F.T ^._.R ) @ ~ &.C.| ' & f @._.s.C.~.I w ..R.'+Y.u.m.P g.L.>+^+++T.D.~.Y =.L.]+4+P.3.r !.|+9+%+t.)+L.1.&.#.E &.C.J.&+>+4.z U }.U G L b.y i v h / > @.h.A._.5.z.e+=+%+0+u+9+9+Q.b+e+R.l._.r 9 ! [ b 4 d 4.^+#+| @ q q @ @ # < z L.c+e+p+w+q+l+t.t.a.P ~ @ * } s V q.D.]+|+ +l._.V L =.-.e j #.z Q P ~.L.N.]+V.D.>+I.].s.A.|.k Z H.p+-+z 0 l.'+u. .A U h.P.4+e+x.W.>+J e ^ O G |.` ..O M 1.T 1.i.G.g.P e 2 L }.U 0 ] G J.m+b+t.`.S.]+++",
"D e e P g c #.E.~.o V }.q.J e | 4 B W y ..&.N.5+l+)+9.^.G r _.T.m.m.S.Y D W b.&.P I +.Z.$+B.< ~ 9 f = - > 9 9 # ' ^ *.3.8.}.B : a K V.J.C.j.S.H.;+l+h+3+o+o+5+U.m.>+++x+E+D+i+l.f r *.++a.t.`.X.X.}+++V.#+,+J.R.>+'.w U }.L p 9 9 ~ a N ,.,.2+/+_+i+&+z.z.<+o.t.7+7+=+%+Q.9+u+e+&+R.B ( ! ( b L =.D.^+Y , % u X 1 o o z Y |+f+e+]+,+M.G.Z >.,. .e 2 L $.3.@.].++]+#+#+2.b f b l c e W E x z Q :.V.]+++Y.>+X.:.S p.3.;.Q +.U.o+9.A &.M.K.~. .+.W.P.P.p.W E |.C / , ~ F.a+W.G j.r.T.1.~.>+^+^+7.+. .~.&+s.` j o f.O.!+U.,.>.D.I.B.",
"| : k g w D.c+3+v.m.l.p.^.g g Q 0.R.T.r.g.x.K.++E.z c d j *.@.|.:.y.~.Q Y <.S E 7 i P .+(+y.t ^ 4 f 9 p #.B = % < ^.M.3.*.F = # 7 m.h+'+|.S E.@+0+0+0+o+o+3+D.~.y.@+|+w+E+B+v+Y.E r q V -.,.v.y.X.l+t+t+h+F._._.&.+.t B *.#...p b 8 e ,.w.g+C+y+d+s+^+A.6.}.A +.~.D D -.e.H.H.[+c+|+E...M #._.J.#+>+g.e / | 6.*+o+0+X.y.V.&+&+q...b 5 > e H Z H +.y.s+4+$+s.!.K.I.#+d.m ( f f 4 2 z [.d.Q T Q g.G.#+]+-+D.7.(.).J.p.l.:.+.X.>+'.K F..+F.Q K H.w+8+O.V ! l U : ' $ 9 !+n+q.8 B ..q.Y >+h+o+5+u.'.e.)+]+|.E O I.J.A.c.y i I Q &.E ",
"| ^ { : P -+f+3+m.m. +c.| ' & 1 C.K.T.y.g.<.L 0 { $ # 1 2.Z.}.F j c c x g.[.E E , _ y p.M.y.H -.x.J.<+n+o+(.j ] ^.}+<+*.f = . - j 3+7+^+W U l.>+U.[+7+3+g.Q y Y r.X.a+8+w+x+l+m.(.B @.s 2 i  .y.|+s+A+u+)+=.V V 4 / _ 9 3.'+>+Y.S p C e.Q.g+g+y+j+e+r.}.X r # , : 2 1 o T -.(.]+|+e+7+[+h+B+y+w+v+7+4.g t [.P.*+x+=+H.'.(.b.b.D n ! * ; ! K Z Z u.o+D+y+i+K.b.{.b.<.y D E b r b j :.2+2+U.u.u.S.2+'+2+>+D.7.-.I.M.M.f.Y ~.Y.V.m./.W.M.).C -.l+z+j+J.8 - b b / / # $./+e+t % ) 9 l ).]+1+5+D.~.K 4.u.L.S ).N.]+W.c.V ~ / g d [ ! ",
"Q 7 ^ ~ D F.C.[.K P B.B $ & # = r r G Q C o 8 % $ $ ! ;.&+<+;.4 % % | =.q.(.^.D < e D p.A.r.>.;+v+j+q+B+b+v.7.=. +|+^+M 4 - > 9 U F.>+y.1.b.l.B.(.D.g.z d n m O q.V.6+$+,+]+X.'.P W R s ] 7 A Y.c+f+v+0+e.T G b ( & / *.z.6+[+H.^.#.^.m.a.w.9+y+i+D.T U q f # # ] D q.D.y.u.D.B.&+<+l+0+B+E+F+E+C+=+e. .K <.n.6.b.T g P Y K.b.(.P k 8 s F A /.>.U.k+w+w+2+d.0.{.{.p O Y g.0.F f L ++v+v+;+;+;+7+h+n+p+[+@+4.m.++_.*.F D Q q.V.4./.-+_.p n D.v+z+s+j.2 % b f / i | 6.P.{+h , 6 ) b F {.).O d : 7 e C Y p f. +I.~+C.9 % , e : % - ",
"H./.+.=.^.F.b.0 7 P =.~ , ' % 9 } s b ] ^ n j { , { {.J.Z.x.] - @ ] p ).E 1.S.~.+.+.q.A.A.q.e.=+B+j+i+s+=+t.o.{+]+]+V.1.W o p b F F E 1.r.N.8.#.^.=.z k x y D &.I.]+6+M._.` O g t j F r [ , d i.K.J.F.~. .w O G ] & e 4+*+i+[+m.7.d.<.:.K /.b+s+'+-.w ).@.6 # % S  +c+3+m.u.(.j.Z.R.]+1+i+y+D+B+0+/. .Z Z [.6.%.9 ^ < z g.|+|+[+H.H.3+Z.l.D.o.t.=+s+q+c+L.[.#+0.E p &.E.>+>+&.F *.J.f+h+U.m.U.>+]+n+e+@+X.H.H.y.9 5 5 8 1.++Y.U.e.y.B p d.|+w+w+h+u.P k U *.t N T 6.n.D.Z K ).9 5 s b 8 ] { : ^ : 2 | G _.b.0.K.i.~ $ & 7 < { ] ",
"9+%+%+;+3+#+d.1 2 T T < / a x ` V s b - ] j O Q -.r.<+Z.l.1 # @ > B #.E ( b.h+@+=+t.[+.+A.&.-.l+x+K.c.|.Y.`.=+)+1+]+S.S.V.g.D.G b ) ) 8 j.-+k.#.q.Y x T (.:.g.I.K. +|+K.` ( ! ^ 7 2 f R 0 k x 0.L F B { _ w q.[.c $ I.r+d+q+@+'.~...O y 7 Q [+^+x.A +.N.J.).k ..,+&+].=.P +.~.x.J.J.x.i.3.$.B l : _ _ '.>.X.z.6.9 ] x r.e+m+z+0+=+=+0+n+w+u+9+9+9+v+w+h+X.]+v+>+O #.K.]+3+X.:.L *.p.Z.d.Q k d O 2.f.B.D.r.7.m.'.~ ) 5 5 2.c+e+)+v.e.[.K.f+k+k+f+^+H.H.H.n+(+m.N K 6.6.d.,.t.l+(.9 r ) 9 0 n c < ^ { 1 b.R f 9 L n , & | z e d j ",
")+t.%+b+=+7+1.d 2 y ~.t g +.U.1+f.V 9 0 0 &.i.>+U.{+a+K.E ^ & @ f _.#.2 4 3.|+[+`.a.;+:+M.W =.F.Y 0 f r {.u.e.u.>+++Y.[+X.>+X.~.] > ; s f.]+]+#+V.y.7.y.@+@+[+^+F.f.K.F.M ] % # & 1 F *.p T 1.[.M F 4 { 7 ~.V.^.A d .+_+/+&+-.K P ^...k e ^.^+>+q.Q u.e+6+++7.]+f+=.! 8 n A 7.i.8._.S O F ; ) = # ' 2 T e.b+/+z.#.D V.h+n+4+f+S.4.4.D.6+j+E+9+w.%+x+f+>+X.n+B+H.C b.,+|+3+u.P p @.5._.] & & % - B f L n z D 9. ./ > } q p.:+2+7./.e.>+6+k+k+<+ +B.X.;+b+z+k+'.N  .h.%.!.>.Q.b+/.n F f f B Y P P 7 D #.N.p = ; 5 ] , ^ j A w ~.^.",
". # e `.9+`.J c 2 ..C t K -.3+[+<.9 4 8 0.K.W.E.U.7+B.[.y e g M _._.G ^ l $.V m c K 4.<+J.=.y .   @ 5 s R m g ~.[.T.T.D.D.>+y.m.7.^.8.5.c.<+n+v+l+@+@+7+u+C+9+7+d.L U p ~ d | ^ : m !.R 6 n 1.[.q.x.G =.~.D.g.C g {+/+z.$.= & e -.S.L.4.m.h+e+7+S.Q X.s+w+3+@+c+F.4.u.<.M x ~.j.U b > ] j = f b n 4.:.] 7.u+y+@.p #+c+]+B.!.4 # $ # 0 c.3.b , a +.V.&.j j s.]+w : J..+f+>+4.+.q.}.q ) # $ $ @ = b f 6 ! n {+U.I 3 % q z./+,+M { A m.G.J.R.F.0.G G [.X.7+e+F.+.a.%+(+%.@.~.`.'.I Q ;.U V |.d.u.'.v.)+c+<.D ] b ; . $ { 8 | '.@+[+",
"= ) 5 !.:.K a 7 j j : < t D.T.z c - 9 f V L G p =.y.E.G.Y -.K =.V V 0 d G @.r ! { 7 g.K.!.1 / , . f R $.s ] ^ 2 8 B M g.>+D.y.@+0+t+s+:+O.M.<+c+S.u.U.n+z+u+%+/.T l 9 ( - j n c z L.W.|.L p W d.++V.B.O x :.Q 9.U.B+i+_.5 * ! C >+3+[+;+b+A+l+0+v.9.2+w+z+t+b+l+I.e+b+)+~.x x n ] > 6 9 8 ;.s.J.]+`.>.Q C.c+5+= s _.M n 1 ! @     . 5 s f - # : ~.Y.D.Y &.}.p 3 o p.p.K.9.P +.(.b.F 9 ~ / , ] V *.U 8 B R.n+v.N Z ^.z.P.$+r.g ^ M T n V _.` p 8 9 L q.r.1.<.r.%+Q.t+5.5.<. .3 3 x ` ;.V _.S z ~.@+)+m.z d 2 ] . * - 0 0 l d.X.U.",
"7+q.9 * @ & ' : ~ % { : x S.d & & % = f f 6 9 4 - 8 q.=.y A J Q ;.f B y d.@.F [ | C L.0.E # ' ' E p.!+O.V 1 < ^ - ) f K.L.(.g.y.[+0+n+:+J.8.8.M ~ n [.W.f.x g w A | ( - ( - ] m q.e+p+c+T.[.S F.F.T.Y 2 ~ m q.l+u+u+x+ +;.U ` -+o+l+o+l+b+t+h+7+o.H.c+i+w+u+=+@+V.]+>+H.'.A ^ # % 4 b 9 B l.p.p.K.4./.;+B.&.^ @ } } 4 1 | % # $ { 0 f s *.].9.X.[+l+t+=+@+C.! _ D s s r =.+.+.(.b.J. +~./.o.o+f+'+k.W.<+4+]+/.,.t.b+*+z.5.<.m.m.:.< | *._.W ] ( b V ).:.=.W.a+=+a.H.M.5.S g a 3 2 L B V V 8 ] n m c c c : ^ { ! 6 6 E W E 8 [ o ",
"~.P {   .     $ % % % x r.9.7 & $ @ = f f b b = - * * @ % c 4.;+e+b.L M B.V 9 ( ! o L.j.y < / g C.O.$+4+k.Y -.4.n = } _.O n ^...q.>+T.L b r f ] ~ 0 E B ( % & ' < { ] > > > 8 &.~+s+z+A+b+@+++&+ +q.z : 1 G <+w+F+C+u+[+-+2.l.k+v+t+l+7+7+0+X.y.'.m.~+!+6+X.'.-.W ).=.P K t , # - 9 F 6 V }.*.*.F 2 g P y 2 , @ } q V O C 2 | d C D B @.$.!.q.D.V.#+[+;+H.g.~ < { ) } } U m./.y.b.s.K.y.)+b+u+v+e+c+<+6+i+c+H.a.Q.9+6+5.$.|.)+`.+./ | p.s.D 2 - r R ;.1...R.<+/.N u.,+A.M e a 3 2 l B V b ( ] | ~ ~ { ^ ^ # { 0 B f L p ] @ . > ",
"@ & ,     . . @ - 8 l ).j.g _ ' & ] b R V B 4 ( - - + * 6 S 3+t+7+g.#.<.}+i.l 8 8 ;.I.L.~.t w u.~+O.P.<+T.>+0+%+'.~ q $.1 o j j S M 2 ! = f 5 ( 1 E p ! @     $ c C D j l B U l.Z.j+z+B+b+;+>+~+2+D.P < ] *.$+j+B+u+9+=+r.).c.Z.|+3+S.1.:.:.C C A -.K.p._.d e e ] 4 0 c J h a c E l.K.b.8._.V r 6 @ & $ n < 3 # u X *.<.T c y Y D.(.0.$.$._.B.Y D L 0.m.e.m.+.g & . } u 5.[+t.v.#+s.l.T.7+b+u+t+}+ +W.Z.Z.B.m.t.9+Q.^+s q q ++o.Z i B.$+Z.:.7 ] r @._.=...}.!.g I +.Z.M.=.J I i y ].|.;.L 8 0 | ^ # # # & ~ n =.).!.U | & @ = = ",
".   & &   @ - ( 4 l l ( ] ' 3 g c M C.J.J.F.2.j ^ # - 5 R _.~+>+4.x #.C.v+[+g.&.b.K.K.L.~.g -.X.p+$+z.J. +|+l+%+a.J R $.l =.j E E 0 ~ ] 4 f r 9 <.[.D { $   - E g.@+X.[+^+#+f.s.p.A.Z.T.-.K g.'+2+4.I t m p.*+/+i+7+e./.A 0 *.@.U j { # ] ^ | D -.7. +_.b { ' < | 4 4 D '.>.o.;+v+q+k+]+R.l.G 9 = @ # ] j e I T 3.X 3.#.e z [.V.X.y.q.c.z.!+e+H.(.b.!.L.)+b+%+N 3 @ q %.6.<+%+%+7+,+J.b.^+l+u+=+X.d.|.*.F 9 B.b+Q.t.I = q u }.'.Z H ++$+<++.J d *.5.}.O ..b ) $ / C C.c.W +.Z I d K.W.K.0.O o d , ^ # { ^ M T.1+2+c+).: ' & @ . ",
"      # { O #.k.).p ( - @ & g K 9.N.!+i+k+e+r.D d 7 j *.$.3.l.x 7 : L p.k+;+@+>+F.C.F.=.7 7 Q V.n+Z.A.*.L |. +`.a.,.R.$.|.q.(.j.&.o d n ;.s.c.!.k.q.9.J g Q I.<+p+t+b+t+l+l+]+l.@.q r 8 ^ < W &+]+7. .K q.$+P.O.K.x e g e 0 R q 6 % $ % - ] W T.0+=+>+k.9 ~ 7 c 1.<.b.x.@+t.Q.9+A+z+e+q.b.].j l 8 { 2 E G Q Z -.p.5.3.G z C <.B.(.-.^.p.*+d+B+9+=+e+<+#+[+t+w.a.,.m.p.6.6.A.;+t.=+c+F.L l.c+l+`.v.D.S F b f }.e+o.,.v # q %.5.~.Z Z <.A.J.4.Z 4.Z.A.}.j | - =   & ! *.V E A v i ~ _.&+~+T.1.C k < < | C z 2.'+p+p+p+~.e w w ^ % ",
"  & % ( G &.<.).O | ~ % - 0 A -.9.N..+$+a+Y.T k d x 0 V 3.A.'+y.J Q l.A.M.r.~.:.<.L l 2 < k g.c+c+&+}.9 * } s z ,.a.l+p.J.-+{+{+:.D n j.<+,+l.U L ).Q './.7+z+w+p+}+@+@+[+X.X.d.B 5 } = 2 ~.f+.+j.A i +.++$+z.3.l # , / g D *.R > # $ % 8 L &+6+l+=+m.1.M 2 e Q q.B.F.b.L.;+%+9+t+-+D ~ 4 4 [ E E ^.(.[.#.D K P J.z.5.L z Q #+++D.-.^.A.n.P.f+=+=+l+]+q.[.q. .t.w.Q.k+6.%.X O '.@+>+^.` s.!+l+%+%+=+g.L 4 r 5.{.I N N g $.%.X j I H O $._.~./.@+i+(+f.2 : # ! @ # G *.R G Q H H m 3.J.a+E.(.(.J e < O >+u.2.8.k.x.y k e t I J 2 ",
"~ C =.0 [ ( ( ( ! ~ ~ 1 &...T A C S @.@.!.m k k k 7 % R z.*+i+)+e.m.K.p.R 2 : D j p 4 ] : Y ]+n+5+T.l @ = } } - K a.b+Z.Z.]+7+U.7.T =.~+f+~+#.4 6 9 0 T m.l+n+]+D.y D m ^.g.Y.Q 0 b 5 5 f.B+A+++m < _ -.++$+z.V ] # & < A S.K.U ( ] d =.K.&+i+k+3+/.K Y D x A :.j.<.S B l y 4.H.u.: $ # = ) 9 !. +>+X.g.B.Y K 4.(+/+p.G n V.c+e+y.+.g.A.5.X r n 4.X.D 1 ] - % /.Q.Q.9+O.X u ; n Q x n S c.O.a+b+Q.%+/.O [ r $.f e H N >.O.6.X 4 / i y 3.@.O '.@+m+:+B.k < y D.(.r. +J.V L y Z ,.u.p.A. +Y Y x g / # b #+m.=.F 9 ( % # 2 k K  .P ",
"X.~.^ % @ > > - - % ] p k.j.A e : 8 s q b ] 2 z -.+.y z.*+*+Z.~.K P #.}.F | Y g.^.O [ % ] 2.&+ +L.(.| # - } } ) d e.)+|.s.'+3+m.'.-.T.a+k+V.2 - 6 6 4 0 ^.V.<.E | 2 ~ j G T.(.T 2 > 5 q h.q+t+-.: , < C <+(+M.L ~ ^ { | Y >+]+&.1 0 M ++&+!+j+z+[+'.w Q =.Y Q ^.^.n 0 ( = ( n P K g & # ( f *.M.k+l+;+@+e+@+o.u+j+.+!.p 0 b.&+D.P e Y _.$.q ; . % { : # % . = D t.Q.g+t+@.q } 4 n { % 6 $.$.s.5+=+,.Z c ] f q 5 { v ,.t.k+z.X > & / Y.$+}.0 C V.&+C.=.g c ~+l+=+b+v+|+B 6 l I ,.v.M.A.0.Y 2 ^ ' '   } s P y.E ( - ! ] | d J I ~.",
"9+a & # - 9 B p 0 ! ( b U ..7 g < [ r s f 8 m =.9.t.C+y+d+P.4 $ & $ 4 *.K.>+l+l+7+y.d ] 4 b b 9 1 T k c M V s } B ~.'.p 3.!+h+=+v.m.e+i+z+u.g ] L b 4 8 S ..m ] % ~ 1 W f.#+7.t ' @ 5 u X 3.~.K e ' ^ E Z.!+R.W 2 : # - G I.q.| ] 0 G {.!.A.d+z+;+Z  .(.D.y.m.S.r.C | % = b #.(.K I w Y F.J.$+*+j+l+=+0+l+u+g+g+z+U 4 - ( V _.D e < | F s } ; + . - # & # > f F D.9+g+9+V.s q r n : % 6 } u $.;.K v a ' @ ) s 5 - t ,.w.B+*+@.% $ % w+i+f.0 1 E U L o 7 g.4+v+0+0+7+D.~ = ) c H '.J.M.x.c , & ' '   q q W ;+S.:.Y M E ..=.-. .7.",
",.h & 9 G !.!.8 % # - f R O e ' & ! f R R 9 8 0 ).s+E+E+w+q.& & & ] p.z.p.#+>+[+H./.+.C m G F ) ) ] : d [.|+<+Z.l.m e W A.O.W.u.>.H.p+q+1+K a n !.].S #.#.o Q Q (.^.<.x.C.9 P Z i $ ; u %.X E g _ / 2 ;.p.M.f.^.P K P 0.Z.~+:.c % > = 9 !.P.d+n+/.H I C ..r.u.U.9.P 7 { 9 }.l.y.H Z e.0+v+m+/+/+8+l+m.(. +v+C+g+t.Q j j !.c.V m e g D !.R b = = * 9 1 c 2 9 V V l.V.v.o.m.K.h.*.n g 7 8 s X X R 7 h a ' % f @.@.9 d H %+t+:+9 $ , _.d+n+g.d | 0 F U =.Q G 3.k.-.y.(.e 7 ( s ] i +.Z.A.1 / g _ 3 _   u X @.5+U.Y.D.u.Y.g.g.;+a.H.",
"i h ' r !.!.8 @   . 6 }.M.]+I _ & > s p.!.] @ ) *.8.f R l.(.i a Q D+y+q+f 6 4 0 d w +.P ++s+[+| = . @ ] _.j+E+F+h+c : W.A.R > # c [+s+<+y / / j !.k.N.I.&.W ++t+u+=+Y.i.0 * 9 /.N / ; %.6.6.O / / e D l.p.c.!.[.y.;+9+F+D+A+`.Z 7 @ ; @.*+_+_+D.a i a ^ ( 0 y T k e 7 C C..+R.D.>.e.`.t+B+w+!+P.(+U.a # r p.^++.Z ;+[+o+k+&+` 1 e '.y.k.F L 8 8 b *.j.J 7 9 R 8.;.% & 7 7.a+M.V 1 A m.Y.s.5.%.3.P v h a m p.z.}.B D 7.`.@+&.! | y.r+d+Y.~.A d G V M.V.'.~ q 5 m :.A ' g [.V - g @+<+9 @ { '.,.N H g @.X X V T C 1 q.S.(.N.t+%+%+",
"w.,.'.4+a+G.^ & % 9 O.*+/+>+v h _ S h.A.M < { 5 q 9 ` $.@.] g '.p+y+y+@+{ 9 9 ( 1 c g Q <+s+m. .2 ( p k./+_+r+A+H g 2 l.r ) > - E ]+2+^.< ' & > }.l.K.q.O b.Z.z+9+%+=+C & = @.z v h V 6.6.u @ ' & ^ m U *.R f G [.L.h+x+B+u+Q.w.t.`.4+*+_+_+3.& ' _ 3 e W ].O k e g z ^.R..+6+{+v.o.)+3+e+e+J.5.3.c a : @.$.[ & c 7+3+h+^+<.0 1 x :.T m 9 b 0 0 V }.).g g 8 s s ] & $ | <.K.f.S E 1.m.D.f.5.6.3.P N N Z V..+3.V F.e+0+;+/.T 0 b.k+r+J.x T P ~.W }.@.E I  .*.s 9 | < , ^ E E ] x D.n % % l ^.>.N N Z l.%.%.R n : j b.q.Y !.;.v.9+",
"a.a.g+E+F+=+'.'.S.q+r+r+8+T h v e.s+/+.+++m.H.]+3.3.4+J.6 % z X.k+!+K.7 c G l 4 j k P L.Z.W.P I T &.F.6+d+_+!+~.i _ ~ 4 = ) ) b U {.<.C _ 3 ' s h.l.b.O j U 3.s.D.e.o.3 & F h.e v H J.6.X q . & & { j L s r 5 f 8 0 &.l.!+p+=+w.Q.9+D+d+_+$+- $ ' ' e X.o+^+:.e P +.m.^+!+*+4+{+/.Z -.=.#.M B @.s # _ k *.s # $ F I.g.^.n ] ! 0 D A A D 9 b ( 8 R @.8 ' _ { 5 s 9 d C (.^.{.V ;.<.^.P k L $.%.5.^.N ,.a.7+&+V @.O.k+0+o.>.4.V.,+6+'+( ] y ~.4.1.L 5 ) ^ =+^+F 9 ~ , , # ( 9 p D k ^ 1 E {.<.J N N >.<+z.6.*.y Q ]+|+>+U.++R |.e+",
"' a.g+C+C+9+t.=+t+y+r+q+|+e i  .;+z+j+4+p+b+9+F+w+(+J.S l #.V.X.#+V ( & 2 G E l G D (.Y.K.S k a c G s.$+/+/+.+-.v i ^ ( ( b r f b b l d w H Z !+z.J.0.d 1 b s s 8 : i 3 & 5.$+H.,.N #.$.u q > # 2 x q.0.U 5 f ) 9 4 B *.R ` A i K P !.5.5.r ~ & , ^ 1.e+o+X.7.-.m.)+b+l+w+(+:+Y w a 7 1 [ ! ( s 5 @ , 2 V V { C _.L =.d : % = 9 E r.H.m.j 9 8 l r s > & / C _.@.f j g.g.D.<.!.F #.j c < G @.X X #.>.a.w.=+^+K.p.h.s.g.'.e.H.o+<+&+M ! 8 E g.4.7.n 6 ; 6 >+X.B.#.d 7 / { 4 9 ( ] ^ d ..x.f.<.J N ,.>.c+z.z..+V.h+s+s+l+b+0+^+E - ",
"d `.g+0+;+v.a.o.x+j+j+f+^./ i '.{+f+!+.+R.3+u+u+B+a+G p f.a+h+X.y > . % 1 L E G l o Y [.0.M : / : ;.p.A.z.O.J.P H H P &.I.K.U f f b 9 o K o.%+D+8+:+V.z ^ ( } s > $ / 3 d P.*+0+a.,.C s u X f.Q L.h+3+>+[.B b ) 6 9 b f r ) # ' ' & 6 q q } % ' / y K. +>+~.-.y.@+7+0+7+k+!+k.k g 3 e n 0 ] l R f - $ ] r V ^.0+c+K.L.T e { = f F &.y./.4.I.0.E 9 ; . # d 3+k+Z.f.#.q.^.g.q.I.L G ] & : l R X X R '.w.w.%+7+]+M.$.r ! 7 4.;+0+|+#.| ] 9 B O y.m.+.1 ; s U :.q.=.c g g z E B [ ] ] o S #.` p e H ,.>.^+A.P.(+e+5+|+|+q.T Q Y A d ",
"9+%+=+m.y.'.>.v.p+8+4+G.7 ' w m.S.W.8.*.F ;.d.E.E.D ] F p.:+7+e.I 2 ( 8 0.{.E E G E D O S j ' / m J.p.5.5.5.s.7.>.a.v.c+k+1+O 0 6 r _.W.@+`.9+F+q+n+[+'.g 1 s s - $ / i e+P.P.3+t.a.>.r %.6.J.L.n+t+b+;+X.g.G F F 4 = ; ; =   , ' & 6 $.X q - , : [.0.{.M d c 1.3+X.y.D.F.!.p k w K J 9.9.E.c+i+|+x : % 5 @.J.A+C+A+b+v. .e ( 5 5 F o -.)+h+X.(.j - = 6 !.f+v+n+#+B.O ^.[.++++++O { $ d p s X X q W o.t.%+;+>+f.r 6 - ] D 1.1.y | { j ` !.b.>+;+o.K l q s [ [ ] : e J y.g.q.E O n ] 8 4 4 ( 2 i N a.l+/+P.$+>+Y.0.E # $ % O >+u+",
"g+9+Q.=+H.m.o.`.p+(+Z.x e e ~.U.S.q.L f f F 4 p 0 ~ ] V $.3.[. .>.m.V.I.]+B...#.2...D O E | e g q.R.s.@.$.X $.g.>.a.=+l+2+~.d E |..+8+w+0+;+H.e+6+c+S.Z /.D.J.*.8 c J `.t+z.6.b.a.w.Q.[+%.%.@.I.a+n+0+;+@+S.^+W.k.=.] * ; * @ & w X.k+8+/+J.] < d E G p % # ] ].^+y.T Y E L l d J /.v.7+0+x+D+E+u+e.i ^ s 5.z.y+F+C+9+a.,.I n b R f p =.3+5+[+;+4.C [ r @.M.&+]+q.^.o O <.#+]+3+-.7 2 Y ..F X X u b T e.o.H.~.0 F b p E j % @ @ ] 1 d.C.C.l.W.)+t.v.:.s r - - - % c -.U.}+>+:.=.A { 4 8 ( 4 ] g H a.b+j+*+p.[.Y D % & # 9 J.w+F+",
"b+%+w.a.`.o.o.=+h+&+U { 7 A (.y.y.1.O !.*.V ).W n | 0 f q q = : K )+7+]+#+q.g.d.k.[.Y ..M =.+.'.^+l.;.r q u u 9 g H v.7+1.: c G p.8+r+z+0+ .e L _.G d t  .u.|+f.W Y u.b+b+M.X R I w.Q.Q.p.X u }.Z.'+X.m.7.1.]+]+|+;+a - 5 ) 8 D X.t+D+r+r+o+z z ~.=.E ] % % E J.F.7.-.y.q.b.].D -.m.0+l+t+B+y+D+=+,.Z -.}.6.P._+D+0+o.>.N Z P |.}.V K.#+N.B.>+b+%+e.:.8.3.p.V l D n o E b.&+c+X.+.+.(.S.D.F.5.X u s 0 +./.e.t ] F !.W.E.& $   . = ].F.F.f.U F d.a.a.'.U f ] ] 8 p =.D.7+7+(.Q D < c p p p 4 [ < t +.l+8+P.R j | { $ & { *.A.!+c+",
"Q Z ,.a.`.=+o.v.X.G.j { : 1.g.~.9.D.}+a+<+R.K.L.9.Q | ( s q ; - ] ^.X.>+..j.X.Y.~+V.D.^.&.d.y.e.U.x.#.U s u u ) $ g y.)+K < { 9 5.P./+c+Z i / 9 r > @ $ A S.]+S E ..L.7+;+e+h.@.! >.t.w.y.$.u 5.@.!.D k e m F.~+k+`.,.-.V r f G i.|+6+(+!+y.t (.9.:.2 ] % E l.R.].T 9.(.g.<.&.O :.u.@+7+p+s+i+|+P H Z e.&+n.n.z.{.d / i v N m. +s.M.f+l+Y G l.l+=+a.m.<+.+l.4 b p | 1 G 8.J.&+y.'.m.[+7+7+e+M.$.q } 9 ~ e I i | *.3.&+'.3 '   ; s *.{.2.p 4 f r ~.N Z ..U O y S ].j.-+e+@+'.T d : x M M j p j 7 g 1.~+:+c.f - # # ^ c j.Z.P.p.{.",
"~ < K >.v.`.a.e.U.r.=.c C Y.L.7.y.h+v+z+z+n+ +B.(.J 7 W c.@.9 - > 6 G 1.M W.e+h+e+3+U.~.[.0.1.u.U.>+^+#+l.3.$.r ] C Y.@+Z g & ) X %.5.L a h a E 6 @ @ - W Y.r.M 8 p 0.E.@+A+i+{.@ & i ,./.M.6.5.s F % & ^ 8 _.Z.6+H.w.9+p+k.9 9 9 6 s @.r # 7 =.z c ^ # - f.C.C.p 2 k 2 j E G M ^.y.X.3+}+c+<+[.< 3 I H.<+6.%.u = # & ' a /.e.T._.p..+@+P &.*.b.4.>.H.k+i+B.j b 8 1 j ` _._.U =.4.m.[+l+0+7+#+R s } ) % 2 e v 7.*.@.*.w v a   } u q F G ] . ; s ] i h =.|.W D ..L ;.N.E.7.'.'.t 7 1 p j 0 S ..4.'.L.K.&+;.- @ @ ! j r.1+8+/+R.#.",
"| ^ < 7.m.m.e.v.@+X.~.T G.5+[+U.[+v+z+D+B+l+L.D 2 g ~.|+j+m+r.| > f f M &.:+c+3+c+{+4.+.q.I.r.y.X.e+l+l+n+.+p.!.j j.]+@+N I _ ( u X u f / Z Z :.W m 0 U C.T.(.c [ 9 !.{.++B+B+4.&   , I e.q+/+3.*.6 ~ & # B 3.A.Z.g.9+g+9+X.1 - = ; 5 } ; - ~ m : < & % B _.l.` ] % # { [ l #.x.T.V.{+3+p+n+]+C g / g 4.q.s q q ; # , < A '.m.:.!.$.@.d w O V b d K X.<+f+D.Q G l j [.F.l.*.V E Q ~.]+h+;+)+>+#.f } f ( 1 < I H.#.R s k v H _ 5 u u @.S : % 5 q = / 3 M !.o j E G F U S z A K  .K # = ! ( F 2.X.e.S.W.W.1 % @ - B k.c+v+r+8+~+B.",
"z 7 2 y.4.+.+./.'.7.P ~.++]+S.9.}+c+s+B+o+S.7.7.z d E.:+8+~+P e ] f r 9 C.!+|+>+e+)+H.'.r.x.>+X.Y. +F.T.]+&+*.b 0 0.&+~.N ,.,.~.$.%.%.R Y t.,.:.j.9.>+<+'+G.Q e j F f F l.(+l+a.>., % ^ [+8+Z._.V 9 ~ < C ,+O.A.s.K.B+g+Q.,.K n 8 b 5 } 5 = E y A K K ^.!.s f - d < 2 q.++&+&+|+B.E 0 p S #.1 & / / ^ { | ( 5 q q - < z u.H.=+;+ +}.@.p c % 6 ) % 7 D.l.f # ~.G.W d.a+n+s+a+K.].Y y.n+n+)+U.y.Y G R r 4 % # ^ P Q s.p.1.H N Z I.A.z.z.M e k F q ) < J j.U n =.E 2.|.|.p | < 7 < 3 e 9 [ #.}.*.O /.;+p+E.< $ ] ` Z.q+E+F+E+D+l+3+",
"7.K =.L.P g t '.m.'.P :.#+G.~.~.T.&+(+n+y.Q ^.H.e.7.]+!+J.8 < 7 d 9 *.*..+(+|+T.a+[+v./.D.b.++U.X.L.&.L b.` ( * *.R.a+C Z t.Q.%+j+P.6.5.&+t.,.-.<.L.e+c+T.^.A A C p b s @.@.C.`.w.,.g j s+a+_.*.U p | y ]+f+.+}.s *.K.m.a.a.v.U.Y.[.l r q s k.^.y.H.=+;+1.9 ) f E -.5+v+A+B+n+1+T ^ @ = 6 4 % & , t e # 0 l b q u ) 2 ^.>+0+9+%+U.:+A.D '   + ; ) 0 g.o @ * !.G.G.a+m+z+z+x+5+j.[.++a+e+u.K A Y 0.!.9 - # # ] D N.(+.+T H N ,.z+r+r+i+g.+.)+#+*.b | +.U.i.B.Y.B.K.W.d.1 { ^ ' ' & T ).{.&+F.G l ]+A+u+e.H +.c+i+d+r+D+F+C+b+)+{+",
"7.'.:.m < < c X.=+t.m.r.G.i.X.@+^+R.M.k.P Q 0 ^.v.b+x+a+].] < P ~.K.$+(+8+4+}+^+C.D w '.-.x.{.g.X.[+[+2+i.j - *./+r+x+7.m.=+w.%+w+*+6.5.}.'.,.v.T.G.x.).W C A -.(.n 4 5 } u 3.X.t.,.a.v+D+l+T.!.!.<.^.V. +f.9 * ; } 5 ]  .a.a.e.(.Q q.C.3.$._.<.r.u.4.+.4.[.L V 9 O c+f+v+l+h+D.J t 2 B U l n z 4.e.o.m.L.<.0.@.X r ( G I.3+m.Z U.<+R.< / & + } } f o < $ f s U F.,+4+w+c+>+D.Y O p V #.A g z Y &.l 8 ] 2 n  +e+#+M._.d h N o.y+r+r+c+)+;+b+U.#.9 - | Y.p+5+D.Y.k.` 1 2 { : ' 3 k O <.F.;.L 2.&+6+v+b+=+9+g+F+D+r+d+8+'+^.x d O ",
"z t k ^ , ^ W ~+7+t.>.u.i. +1+7+S.2.*.G Q g M |.h+b+0+(.| 1 Y @+u+z+8+8+8+.+d.r.o 1 : g Q W 4 E T.Y.3+[+T { 4 5.*+j+@+g -.m.>.`.c+.+$.$.R C N a.X.=.E 8 l m ~.u.4.z j 9 s X 5. +,.,.=+E+F+9+7+|+,+|+3+l+5+D @ . + ; } ; 1 v.o./.7.>+v+z+6+M._.k.r.4.'.4.y.D.B.G 9 V J.&+ +++L.z g g c ` U G O D.U.v.`.t.@+Y.B.J.5.6 . f _.q.e g y.<+I.3 _ , . } u s p c ^ = } s s.p.O.R.&.n d 2 ~ [ f = $ : 2 n o p l W ^.c+w+0+D.V f { i H m.8+*+:+E L.;+v.e.1.] - 9 l.a+X.r.g.=.0 0 | 2 < e w  .D 2.].p b *.J.<+c+l+u+g+g+C+E+y+4+|.- # # % ! ",
": _ : & , ] ;.K.E.'.Z 7.G.f+v+b+m.O r F d t T.Z.c+)++.7 | #.c+F+C+F+w+!+.+U 0 D 1 % # ^ ^ % = b 2.M [.Y e , 4 X 6.@.^ , ] : J '.++_.s q q 0 I /.-.C ~ ! 9 ` L.U./.'.9.M R %.6.8.H H 4.k+z+=+`.o+k+k+o+t+0+ .'   + ; q u R ~.>.'.U.v+z+B+z+s+|.f.G.y.4.'.4.>+D.Y 4 R @.V #.E n : / / 2 {.;.2.0.T.r.u.e.v.H.X.V.<+*.@ = s s 1 , ^ <.|+:.i h _ - $.%.5.K.P g 8 $.5.}.}.@.9 ! % # ^ 1 M p . @ { 2 o M &.{.b.|+w+w+m.g - ) - a v -.c.X b ( F E. ./.+.c j F $.8.C z D n M m x z k e P '.y.I.&.E L R $.p.R.~+e+A+C+b+p+&+|.! # # @ ! [ ",
"z w e < 7 j _.l.1.J  .~.'+8+B+b+t.7.;.b j :.c+6+n+m.a < j _.8+D+C+C+l+K.U 4 ( | ^ # @ # $ @ ) s L 8 l 2 / e l X X ;   $ @ % < -.V.0.V q q 9 t J e < { - F l.#+U.`.=+`.S._.6.6.r / a { 3.l.P ~.2+<+|+|+o+`.N h / ( q 5.6.$.o  ./.3+a+a+f+n+3+i.|.0.Q P P X.[+X.4.D R s r 9 [ % : / e ^.R.&+W. +T.D.X.H.v.;+0+o+c+O & - q q - & % V &+m.H N N ^+*+*+_+n+e.e.e+8+A.R *.r = - @ @ 0 ..T.~.~ [ o Y q.q.B.b.l.<+f+I._ ' @ ; * , h K F s ; b s p Q +.'.m.D.f.@.f ] 2 n O O O r.~.P k z 9.)+{+r...G s $.@.V L L {.C < j b ( % # # [ G &.",
"-.>.e.'.J j.s.Z.X.'.H ~.R./+w+b+w.o.1.L S G.f+i+]+K I e 0 $.6.$+p+;+-.O 8 - = 0 < , $ @ $ % r 5.f.M p 2 P m.Y.$.q ;   # - > j y.5+^+d.*.u R e t e 7 ^ 8 *.3.'+7+=+=+=+o.c+z.%.) ' / % q f { O ;.!.{.b.k.4.,.,.a.x+d+d+d+O.M g '.>+N.C.!.2.=.=.;.E 2 7 C V.Y.m.'.y.f.*._.B 0 ] d g P ^+f+k+N.N.++V.@+;+=+b+b+0+[+-.g 1 q q - & l p.8+b+w.t.Q.C+y+d+d+v+o.t.B+y+~+F V 9 ( @ @ 9 !. +1+H.u.++++>+>+^+L.2._.R L % ' '   ; 5 ~ I e.L._.r _.@.B d P u.)+)+}+U 9 - ] O o j ).q.P g < 2 =.V.7+@+y.O V q q r 9 9 = # # [ 4 8 | : o k. +++",
"D.=+9+a./.D..+(+[+o./.-.M.*+!+@+a.,.7.).S b.Z.Z.Y t N  .m @.X $.6 : < | 1 m k.G.+.I e : d d./+*+~+^.W ^.)+9+9+]+5 ; > ~ 0 U W.p+l+7+S.f.5.@.c a _ e < G 3.h.$+e+;+v.m.=+A+j+p.( / _ 1 @.s 0 =.].U F F B n H a.9+F+y+r+r+-+c 7 Q g.q.#.L U 0 0 l ! # ^ D &.[.~.4.;+c+4+f+T.g.g.Y -.y.|+i+p+L.F.I.^+>+0+9+9+b+7+X./.>.@+p.@.! d f.P.d+C+g+Q.g+C+y+d+$+=.g w K.&+9.0.l.#.1 | E l.M.,+#+u.U.Y.q.q.V.D.D.j.#.b = $ ' / # } q b ~.=+t+c+R.:+R.` j D Y 9.U.y.n - ( l M m p L j e g 7 o ). +e+;+e.Q l s q r B p ! # ~ G k.x.1.~.^+6+<+e+",
"V.t+9+t.o.>+!+!+>+/.H '.Z.z.*.m I Z '.j.S !._.U o P >.>.+.V u q ) # ^ o #.c+w+x+%+t.a.@+)+z+y+d+Y.k p |.n+u+9+v.0 b b &.B.Z.6+n+o+;+u.I.p._.c 3 a e e 0.O.z.A.I.~.+.e [+B+y+a+x 3 Z >+!+_.0.++2+N.).F 9 ] g e.b+B+d+*+8.2 ^ ^ 2 O q.j.k.|.O 0 ( ] % m [.&.W D y.l+B+D+z+l+[+@+X.'.U.'+!+^+S.j.{.0.<.V.;+=+=+H.y.H.=+9+p+J.<.g.Z.*+_+E+Q.Q.g+C+y+.+b @ & & ) } M |+K...D D ).J.s.C.).c c ] ! ( E [.D.L.[.E ( 2 I H 4.l.$.@.I.7+0+o+<+:+'+1.d ~ 0 M :.P c ] l U E D 0 9 0 < g 7 =.&+f+]+y.'.w 1 s q s V &.=.y =.J.<+e+y.S.}+a+<+]+",
"W.e+=+t.t.0+!+p.o 3 i 7.,+3.b ! / K '.D.j.U V !.O ~./.,.v.j.R s ) ! 0 B.R.q+y+x+%+t.t.H.o+D+y+f+c < 8 *.p.Y.>.H < L *.f.~+:+Z.F.B.-.P &.3._.7 g a g T <+$+P.3.p ^ ' { !.:+s+g.7 g o.A+k+K. +|+]+Y.1.E = - { P X.c+M.s * % $ # - 9 0.}+2+~+D.z [ ] 0 B.V.q.O W V.s+y+D+x+l+@+X.H.m.u. +M.B.~.D 8 = 4 4 j 9.m.e.U.[+%+b+t+c+q.g.M.n.6.!+w.w.Q.9+o+W % # & , 4 q @.&+<.j 1 % 4 R R U j < , # @ 6 f L q.(.Y D p W /.t.9+B+(+A.C.Y.3+3+'+6+]+D.P C O #.^.P P D k.C.j.x 1 B M e t k F.:+<+r.T K K z V $.$.}.x.r.(.V.&+Z.++~.1.B.'+|+T.",
"c+&+4.t.w.9+p+L % , / (.a+|.( % $ g 7.X.y.d._.J.++S.+.>.o.@+&+c.V ).F.&+Z.*+f+1+H.>.>.-.<+8+6+| & $ = s s ( / 3 : F *._.J.Z.|.p 8 ^ < p 3._.P t t P >+f+4+$+!.] # , % 5 s ;.^ & { 3+t+3+#.f.#+d.[.C 2 % > ! n ^.G.d.. + * # { - r }.a+e+++~.K D 0 b.&+3+X.^.0.'+w+q+<+>+y.y.D.u./.~.x._.E z c # . ) ) * p Q m.`.l+;+b+0+>+y ^._.X %.X -.a.a.v.7.: ~ 1 ~.m.o+/+$+l.j ~ $   ) } s f 0 e / $ - b r *.S D | ~ ( B Q %+g+C+B+a+'+]+>+Y.'+6+e+m.m.@+{+1+y.m.H.{+'+K.r.P D U b.-.K C !.s.b.D.4.'.>.m.W.h.h.3.|.O y ^+&+J.&.T Y 2.,+a+5+",
"3+..2 e.%+Q.;+c & & { |+n+d.o 1 d C q.S.X.>+:+(+e+U.t '.e.0+s+f+<+n+c+]+,+A.s.<.A h h e _._.0 , ' $ 6 q q ( , 3 Q !.}.}.s.8.B 0 ] ^ c ` 5._.+./.K ~.-+,+(+Z.&.: & & # 5 q f & , l Z.>+4.O _.].M j d : % 4 l W q.N.+.' ; q | 7 0 s $.s.^+^.: J (.<.Z.&+^+U.y.K..+4+#+#.O y y Y C t A <.U p x e ' # * ; s U <.L.l+7+X.=+)+u.C ^.L $.%.u - h H  .w e =.|+B+C+F+E+z+E.d $ & @ ) q $._.).t I A j *.}._.8 { $ # > r U 5+b+u+t+n+|+-+y.r.R..+-+u.;+b+t+t+[+;+`.0+}+F.g.K Q U V z h P |._.l.^+0+=+%+b+p+!+A.c.l % l &+F.;.E C :.f.p.K.^+",
"1 ~ ] n m.o.>.i _ : W.4+v+[+y.(.D.D.r.[.S.o+w+:+2+/.'.'.H.[+|+6+k+z+o+e+m+.+!.j < _ _ < b r ! g Z -.&+$+3.8 7 '.b+s+(+.+:+N.[ [ M u.)+]+p.s 1.t.H 9.W !.*.V ] & , , { F $.r x u.|+Z.E.u.7+K.G =.1 ^ 7 z {.U k.B.G.t N K.q ( A :.r q q I.Q ^ Q (.B.l.l.).9.U.c+.+V p 8 ! | | ~ # & d d.k.<.z g i k ].c.h.M.~+-+}+y.D.)+;+v.-.Q d.c.X u + & i Z /.v.o+w+z+C+F+B+t+)+w ' & @ R z.*+q+o+'././.{+R.s.F ] { 2 2 l @.}.f.-+[+7+Y.W 0 n y !.R L 1.X.0+t+7+u.~.4.`.@+-+g.+.A l 6 # t H.c+Z.4+f+t+9+9+%+7+6+p.V ! ] !.V p l ( o D G } 5 9 ",
". . . > 2 w Z Z H y.f+(+c+0+;+7+@+u.r.=.F.f+w+a+++4.Z m.H.u.b.s..+s+t+x+w+W.l ] ' _ / 2 B r b ^.o.=+z+q+~+..:.[+t+v+a+.+R.Q { 9 8.|+0+;+W.@.8.Z H A m b R F % & & : =.:+(+.+n+0+t+~+i.1.S.1.#...c 2 ~ m E B {.d.q.Q t.9+9 r 0 g @ } u } , { j d M ;.F 9 j E.e+]+I.W j [ 0 d Q c d =.K.'+V.u.'.e.;+p+4+/+!+#+V.Y Q q.E.u./.+.x 0.s.*.; + @ c 4.u.)+v+f+6+a+h+++T.K h i e l.P.*+*+(+X. .I m.@+|+f.&.O C T ~.#+O.p.V ;.[.1.z 2 ] 8 ] 4 5 5 G <.G.D.7.w z =.Y.)+h+:.J t ^ ( 4 W {+]+.+M.'+c+b+%+t.=+k+K.l ! S b.9 9 ( > p x d 6 } ) ",
"+ + + ; = 2 K Z e.)+a+!+&+7+0+`.m.4.(.=.f.s.,+~+E.t '.@+m.4.O *.5.M.p+x+l+Y ] % , / g Q 0.V r S 9.0+s+f+]+S.S.X.r.j.C.l.U { ^ b R V =.T [._.F e H t n F }.L ^ & $ o <+r+r+y+x+0+0+>+Y | ] M ..O C < ^ ] 8 V _.b...D ;+%+~.6 ! 7 ^ } u } @ 1 ! 1 #.;.L 9 4 ` f.K.^+y.Q o M [.X.m.m.Y.K.&+]+;+`.o.b+o+k+!+l.).=.| =.g.=.T t J C #.V V 9 b 9 y A Q g.j.f.!.l 8 0 % 7 I o.9+E+d+P.h.V ] _ g z g.d.` ].j.D.D.X.n+:+f.L B 0 m d d j ] % ( 5 s f G p j k g k m S G.U.A g g y k.F.[.=.0.8.s *.|.:.Z v.0+}+G.D E K.N.E p 0 9 U y Q W 9 * ",
"+ + ; } ; > ^ K e.U.~+R.C.]+@+H.e.4.-.D 2._._.2.n c u.m./.+.Y _.5.h.J.^+y.g ^ $ & ' < r.++2.F V =.>+a+|+2+>+[+@+9.d.|.!.p & ~ F R f - % ( f f ^ I I T l.p.E ' ' 1 C.j+d+d+6+5+)+;+U.P : [ l E Y A g P D b.Z.s.#.o p T./.K 0 E K K l u q b [.j &.I.I.).8 4 b b f B Q -.y E #.g.4.m.(.b.s.K.r.'.'.@+e+f+K.U G | o <.L.:.A t w Q &.;.F 9 F 6 j c Q n 0 9 9 ( - - [ Q v.%+g+C+q+$+3.b - , g D o 0 B 6 S =.r.S.2+W.G p 4 4 0 c C n 2 | G c.}.V B E M c e : ] 9 B d g _ t 1.K.x.1.^.&.G f s 5 ! c  .m.r.^.1.N.&+-+Y W M U V ..z d @ . ",
"+ + } u q ) ! n -.u.I.8.V ` ^.9.'.'.J x B f 5 4 % 1 O k w t x l.5.$.r 4 ^ / ' & $ & | T.T...U V p &.f.C.#+}+[+m.4.^.G B ] : D ;.V = . . + } 5 ] g t ~.K.8.m e g j.(+/+$+p.V S ^.D.4.K e % 9 F M z P -.D.&+<+b.E 1 4 l i  .G.<+;+t.@+p.5.}.d.D F.|+2+r.n ( ) ) f 5 4 C T W {.E Q P ~.#.V b ~ < c D B.I.0.G p m &.{.O C e J J -.<.;.` S L b ! ~ 2 $ % > * > - 9 V N.)+b+u+t+v+Z.U 8 % % T P d j 4 b 6 #.q.V.-+[.j p p G E n z T z r.'+.+s.U 9 l j c e ' # 9 ) % < e A g.W.x.g.:.O 0 U s ) = - d P (.r.V.c+f+}+S.Y.r.k.V j c < , @ ",
"o 8 $.%.$.f 8 1 C r.L.).U 6 8 d e t e c [ b ) * - 0 ] { < e =.s.p.R 6 = @ & / ' & @ L K.^.=.G b 4 B V V U I.(.-.+.z p G &.9.L.N.p $     + q } = < A ~.K.!.m g u.n+4+A.V 5 ) * > 1 e i a # b f 8 2 c C q.K.f.&.o { > f A e.v+w+7+t.%+k+z.}.0 M J.<+3+m.P 2 = ) ; 5 ) ! y j.).! ~ 2 C o = * . # # [ B L E p l O L.E ] # ^ A w ~.g.G b.j.<.( - ] & & # - 6 9 L l.s.b.=.9.4.g. +F.S M | M g.9.~.Y E L F !.I.++L.=.o M ].b.W n n Y :.2+c+C.U ( > = > ~ / / ^ ( 6 - ^ k Q [.k.x.L.7.y.T.c+).( > = - m j.Y.^+k+f+>+@+l+7+S.].0 : 7 _ : ",
"b+t+d+*+O.!.p p =.^.g.=.G ( ( ] ^ / ' ^ 1 4 6 6 9 8 | ^ : z q.Z.M.!.] ( [ : _ _ , 8 _.f.g.Q ..F B ` U F f L O z e k O l.k+7+U.Y 2 , ' $ 5 u u f | -.U.]+].O ~.l+p+&+6 6 ) * * ) * { a w < 9 5 4 # { o E L B p | < p R n ;+s+c+~.'.;+z+!+|.E k.s.M.e+H.Z P ] = ; 5 ; * l d.y # % % ~ { @ . .   . = 9 9 ( ( 9 U >+c # % ~ : P Q Y 0.l.#+D.1 0 1 k A C W l.J.,+6+&+S j ~ 2 D #.].)...Y i.^.7.4.9.^.{.|._.f.B.g.T g.N.W.x.O n 2 1 &.x.i.M ! @ . * ) - , 7 : p B p 2 k x M ` f.V.[+l+v+A+)+~.O l 9 S 0.x.]+'+K.G.5+l+;+@+q.n ^ < w X.",
"C+C+E+r+i+B.[.#.=.1.=.=.O j [ % $ ' 7 c O ).;.!.l 8 m e z g.2+i+:+#+D.^+V.4. .Z /.|+:+&+>+u.S.I.2.F.;.B F F j A g Q N.4+:+y.A d c w Z ;+s+*+A.*.].^+l+l+^+B.V.3+{+1.0 9 ( - = ; 5 ( e I +.M F B n ^.^.O L B &.^.y.e+*.9 q.x.j $ c >+B+s+|+T.|+!+.+~+v.v.Z & - ; 5 ) 5 V S k < % ] ~ & & @ . . * ) ) = > = b *.[.t : o 1 2 T 7.D.]+R.~+m.C M j.u.;+0+x+w+q+m+a+V.Y 2 ~ ] p G L G 0 M M j Q T 7.:.#.!.|.!.#.D g.3+e+2+E.Y k 2 ! l B E 1.C d ] > ) = # , 2 8 L W D z Q E V 8.F.Y.3+s+o+%+=+@+q.].;.` ;.k.2.U p W.]+m.m.7.k c d S.t+",
"C+C+E+q+|+g.D.B.W Y D ..O x n { ^ < Q r.^+^+~+I.j G d.(.7.>+s+q+k+~+e+l+t+`.a.w.9+A+w+k+[+;+[+}+ + +W B *.!.<.y.m.y.'+!+l & < y S.b+9+C+F+y+i+&+K.~+o+t+7+X.V.q.g.:.(.&.M M E b r b d +./.D.K.K.>+[+@+[+2+&+'+e+7+b+x = L 0 # % p ,+q+v+o+5+s+6+Z.K.@+o.N _ @ 5 s f R @.` 9.e.4.=.2 7 g c @ > b r F ( - ) s @.]./.m.:.C =.r.7+0+v+f+a+e.'.]+n+l+b+b+B+z+s+c+x.d.~.e x m p G B 8 [ 0 8 0 2 C (.D.j.|.8.!.G E T.e+^+^+y.~.P e 1 l F |.2+0+`.U.E.E - % ^ 2 G 8.0.Y ~.4.>+K.s.|.<.0.f.{.X.=+v.u.d.G l F L E - ) r G Y -.-.w k ^.2+t+",
"0+7+]+F.&.O q.g.D n n o M O x z c A ~.>+e+1+2+^.x f.F.Q 1.|+w+w+c+<.k.W.>+v.=+%+9+A+v+2+{+@+)+{+]+E...].s.Z.a+;+v.X.F.l @   ] |+E+C+g+g+A+w+a+F.C.l.K.Y.U.y.Y o n g.{+Y.E.}+Y.x.V b o P 4.U.<+K.e+l+t+u+A+v+c+]+Y.'.K <.f.m 2 o Z.(+!+x.j.#+|+b.V _.g.>.N h : *.3.J.p.@.s.o+9+9+=+P P `.%+m.]+6+4+&+^.=.U 3.h.R.`.%+u.y.V.e+B+u+u+v+c+'.=+z+s+l+U.X.}+ +k.M E E Q -.~.:...S G [ 0 [ 0 p M E.>+)+[+W.l.k.&.` R.2+L.G.y.m. .+.:.2.J.!+f+t+%+%+;+D.m n C r.a+6+^+D.[+0+u+B+k+x.M [ 9 f l T +.'.Q 0 4 f F O ~ ) } f j c e t z N.<+p+",
"9.~.O 4 p &.B.^.Y x n M W o n c k Y g.]+^+V.^.n q.<+&.d j s.4+n+r.1 9 b l 1.m.e.e.S.B.<...9.y.[+}+D.(.&+!+8+m+;+e.+.| #   @ _.r+E+C+g+%+y.i.S p G 6 6 8 Y Q d % ( F.3+7+p+t+7+S.S F E ~.X.7+p+|.J.p+t+C+u+t+1+=.1 & 4.x+p+U.y.2+j+(+|.[ ( 9 4 ( 5 s &.H N N m.4+d+q+&+}.z.q+C+g+Q./.U.A+g+g+F+E+E+A+t+0+c+$+*+(+u+Q.t.u.}+k+z+u+u+t+3+u.u+x+e+(.k D M #.p [ ( 9 1 k ~.y.r.j.=.M M W #.S k.2+o+0+0+l+a+~+q.b._.).q.i.E.m.e.e.@+|+4+4+:+^+;+=+v.m.T r.{+x+D+z+l+l+t+C+C+C+A+U.2 % = f f ] k P -.y 8 r _.q.P 0 s } [ 2 x t (.W.,+<+",
"D.-.z 8 b b p x y.m.(.M j | 2 | C r.Y.]+++D.C M k.k.2 : p 3.O.]+'.k - ) f 4 2 g g d ] p G =.q.V.>+)+[+<+$+j+s+m.K a e < { *.P._+d+0+H h < E 0 p E B f b ! ^ , | V *.{.G.~+Y.H.m.1.U 9 M g.Y.r.j R 8.f+x+0+9.c k k 0 f+D+h+H.H.c+<+W.o ~ 8 B ! ! r u r e N ,.@+/+r+t+>+}.X h.n+%+a.,.o+w+=+g+C+F+E+C+9+b+x+j+/+$+^+e.,.4.x.J.J.^+)+@+D.Y.t+0+X.A c # ( = ! j p l 0 O ^.D.S.E.=...W j.G.N.,+6+]+Y.S.}+]+^.n 0 b b 8 p &.D.m.e.X.~+J._.F p n t K +.u.-+n+z+B+v+{+>+'+c+u+C+9+e.g # > r f - | | : < 0 }.p... .4.F s 6 0 { 7 9.&+J.{.",
")+m.4.Q ( ) ) L #+;+e.Q ] O 2 1 W ^+o+3+Y.(.P 1.).[ # ^ G 5.5.C./.I n 9 f > % & 7 c 0 {.x.d.^.<.F.l+;+#+O./+e+ .a _ -.H.)+4+P.z.*.$ ' ' n ).i.N.2+1+j.[ @ # % d.C.V 6 4 9 9 1.4.u.^.p G &...d 0 r q p.B.t , ~ =.;+3+:+|+Y c C <.f.#.y ^.F.B.O B.K.R 5 # v H ~.z.*+3+4.( } u s e v Z >+#.] y.>+<+f+l+`.=+x+i+.+r ( , a t j f 5 b M z n #.]+U.'.+.g ^ % > ) B i.k...q.q.1.r.Y D M &.].W.n+f+F.M | 1 0 p 1 # ! 6 = = f U j.-.K P W 4 ) ) = @ # : (.[+]+<+6+a+L.c | > r }.o+o.H i : 9 _.U E y : & # {.O.c.G y.;+1+l.B j # ] <.F.{.4 ",
"@+/.'.'.A l r s V Y '.'.1.q.z D {.'+e+{+:.c T S.r.C y x {.3.X r < a , 4 9 ! 0 n 7.u.1+<+W...j G !.x.4.V.O.z.i.I v +.r.z y.<+z.5.9 , / & 8 ;.x.K.&+>+X.~.c 2 E f.k.i.M L L U ].y.@+)+l+p+1+D.A d F $.$.p t t T.'+[+7+F.0 c ^ ~ {.K.I.q.>+#+O O 0.<.L b [ 3 v -.z.6.j _ $ ; u q   ' _ Y ~ ! 8 8 b *.S z 7.L.|.L = > # , , % = 5 r 4 ~ ~ 6 F m e w a 7 # ( r r U l 8 M O O x d D W #.;.J.f+}+g.D { ~ E E 2 ^ 1 6 = 9 R *.S k t A C 1 4 * * . @ [ i.S.3+f+6+]+z < $ > } q ) , i v K &+M.f.0.(.K J q.!+4+,+'+3+b+u+l+}+(.k M ;.;.E j ",
"9./.e.v.m.(.B s s p 4.v.0+@+m.y.'+6+c+U.e ~ 0 =.Y (.u.u.T.}.@.f $ 3 < 9 V ).B.Y.[+0+l+e+1.d | G l.L y d.p.$.( g H e.'.c M !.3.$.9 ' 3 7 G V U |.|.#+7+;+H.y.T.b.f.x.V.B.f.J.k.E.{+l+B+t+7+m.'.7.K.5.@.9 c u.^+#+^.T 1 ! ^ , [ *.s.++E.G...| 0 G G L 9 1 g Z @+/+5.m 3 / + u q + $ d ^.C 1 ] - r R l 1 2 m l 4 ( - # & & @ ) 5 5 = @ % = ) ! # _ a t d {.U F 9 ! 4 G O =.n d m W &.U }.Z.2+9.c ^ p W.L.T c n 0 9 _.s._.E C -.4.(.r.1.1 ! - 4 U k.T.|+'+C.o , ' & % 5 } ; @ / H )+a+l.;.&.C 7.v.l+q+j+w+z+x+u+u+u+b+v.H.D.<.` 2.<.",
"n -.H.v.e.4.&._.}.J.7+b+u+=+=+0+m+q+l+/.w ^ ( l 1 W X.0+l+W.R f ] K +.F.s.F. +e+l+0+l+X.(.z =.K.R.W D .._.@.4 & g P +.K n F @.q 6 , a -.d.F b r _.,+o+%+=+;+Y.I.|.{.).B.W.f.2.<.B.#+++L.T A K @+c+J.*.9 | y &.E 2 ^ ~ ! { < j @.p.k.=.n | | 0 B S p 9 l e v.b+r+$+X.Z h $ u u } j >+[+m.P Y G.M.M.b.y c O M j [ 8 2 7 ' # > ; ; * @ @ = ) > % < a J D.B.2.L 4 ( ;.f.++7.z d D <.<.G $.A.-+K / ~ U R.Y.+.t d E C..+.+&+).(.u.H.X.D.y.7.1.=.{.J.R.++..G ( # & , ^ 0 F r f ! z v.0+Y.B B G j Y S.v+q+j+q+n+e+5+3+[+m.e.v.U.Y.~+F.[.",
"! 1 Q '.e.e.Y.,+/+8+p+b+b+)+`.b+w+w+0+,.Z t p 4 p f.a+u+9+7+2.b S 7.H.e+_.|.K.|+t+u+b+;+m.4.Y.<+&+=.g.++:+.+&.: , ^ < e 2 9 R s b n  .H.D.p = } $.}.&+9+9+Q.H.V.0.` B ].k.;.` E E l 8 1 ^ ^ x Y.-+K.!.4 % ] [ ! # : C q.(.m.e+.+A.).D 2 2 | E |.<...S S =.;+u+D+!+X.,.N  .5.%.5.J.c+0+`.;+u+A+w+w+1+y.~.g.j.g.q.#+y. .K A 0 6 f b [ o G 6 ( - ^ g 4.X.1+G.o [ b *._.#+7.w T B.T.g.<.5.h.).t i d }.M.1.t t x b..+!+Z.F.[.1.y.y.4.~.D.7+;+>+c+:+&+=.n ] % # # : P q.f.*.V l d.@+=+`.=.L G 0 W G.k+i+!+f.8 8 - ! ! { c 4.;+l+}+[.E ",
"- ( 8 y +./.[+4+$+.+N.D.7.A 4.0+z+w+0+a.a.o.u.).f.!+4+B+9+=+D.b.f.r.u.y.#.V *.M.f+0+9+=+v.H.Y.&+#+5+h+v+y+D+=+Z / # $ & 2 {.}.*.R &.m.v.m.k % } u $.5.n+%+t.a.X.Y.q.).!.` #.S W ..0 ( ] ^ n ..^.B.b.p % % ! ! ! 0 q.o+A+u+C+u+s+J.M d d n D #+&+I.r.I.{.).2+v+v+W.g.,.a.w.8+z.h.}.Z.o+%+u+F+C+E+z+0+m.-.g.2+3+l+n+y./.>.e.[+|+<+a+#+^+V.0 - ( % C S.7+7+9.d ] b R @.!.T K D.++^+>+^+O.3.0 g Z y.J.}.O t t C K.p.}.V B p j y A k y 0.5+U.{+c+<+G.d 2 { # | x r.[+[+-+f.6 9 B d.@+t.m.d.E 0 p |.Z.R.B @ . + . . + + . ! =.X.r.C ~ ",
"[ ( 4 0 x T V.R.}.s ( # & # E ~+w+6+u.,.t.%+%+{+<+(+$+<+H.v.7. +F.g.P C B.{.*.p.s.I.X.'. .K g.K.:+v+l+s+r+D+%+,.h ' & 2 N.f+<+l._.U L.m.Z i , r X %.5.s.-.Z >.X.S.r.j.p 9 ;.k.#+>+S.[...^.S.Y.++^+r.| ~ ] [ ( ( ` &+w+E+C+g+9+l+d.o 2 2 o 2.f+~+B.V.q.E L f.N.B.S W >.t.Q.D+$+$.s $.<+b+u+3+o+n+++-.t 7 &.&+c+l+D.P  .o.%+u+B+D+z+l+D.z ^ ] [ [ &.B.^+y.K g ~ V p.3._.^.7.X.]+]+>+Y.J.R 9 Q /.H. +V 0 g J :.b.!.R f l 8 8 j x c n ;.<.~.S.~+W.[.k < { o [.L.5+[+u.r...[ 9 f V <.'.'.Y o ] 9 V _.l #     + + + . + ) ) f E C k 2 ",
">+j.S E 2 c M U f ) .     - f c.l.].O K a.w.%+@+|+M.}.U c K -.N.'+D.P ^.2+]+M.3.V 8 # , ' < ..Z.4+]+L.C.A.J.+.H H K 4.l+z+w+n+~+f.U 0.-.H H +.Z.P.z.6.r ^ a K Q D n D 0 b *.Z.k+l+0+)+{+3+l+t+B+t+;+4.C j M j B V M..+6+5+H.m.T n 2 ^ n &.J.:+B.d.[.Y m 9 r U o 8 L -.w.9+C+k+V s 5.O.t+=+x p l ! & ' ^ B *.f.^.c C u.H.b+u+B+z+^+(.: & 2 j M ).2.0.<.C t K C (+j+8+f+>+@+[+1+B.Y y ` r f ..m.;+Y.B 0 k -.:.].!.V V S j.I.^.c c D b.L g.}+c+]+:.A P C p S d.j.:.(.1.1.q.#.!.V 9 : / 2 ~ ] f R b % & , $ @ = = - = 5 } s 9 | e Q ",
"t+0+S.n 2 2 o l > . . . @ 9 @.*.V F 0 2 +.e.o.v.++|.V 9 2 t ~.K.W.-.K E.n+o+<+8.9 % # $ & ~ ;.M.J.E 1 9 s 5 & i N o.A+A+B+n+1+E.#.U ` x K >.=+q+_+$+5.6 % < g z d o | o !.$.A.,+}+)+7+7+o+v+A+C+u+%+/.J ^.d.=.E R @.@.*.E k e & ~ 2 y E.N.,+&+[.O O Q c ( r f 1 4 *.q.%+g+C+u+L.*.%.6.F.H _ ! ( ! $ ' n !.*.U ~ ^ j 1.9.S.5+}+E.C 7 ' { E d.F.-+B.d...x -./.x+d+r+q+k+{+@+U.D.y 2 ~ l f r U D.H.+.1 8 Y m.~.i.f.J.l.&+k+h+X.+.T j.k.;.x.|+p+{+4.m.;+v.:.` G p n (.Y.}+l+h+~+b.E < g c 2 0 F V L ~ ' 3 -.1+s+|+-+T.C.c.*.b j Q S.",
"l+b+=+-.k | M 1 % @ . > b Z.J._.V 9 ! ~ 2 J  .e.g.G U !.E.u.y.F.{.Y +.F.,+}+2+I.0 { : c A ^.s.p.L % # - ; ; @ _ >.=+l+E.T.V.^.D E U G x P e.9+D+O.3.R l ~ ^ 7 ~.7.D.x i.K.p.3.R G =.g.Y.2+a+k+B+9+a.H +.Y.}+X.D.|.$.3.*.p : / : j [.^+h+p+4+F.y j j.(.g 1 r s W 0.@.l.t+g+g+9+`.0.X X 6 ' I ^.S m k -.[+c+<+<.~ 1 E 0 m o M W D T t  .D.].F.|+e+>+q.^.1.X.0+F+j+M.f.#.C Q 9.~.z : 2 G V r r G -.K { L x.m.4.T.<+,+R.!+a+1+u.'.-.=.#.L ;.R. +r.S.7+9+%+=+Y.E G B.V.3+e+o+l+3+e+h+=+9+`.7.r.C.c.|.y -.m.u+F+F+u+0+l+n+a+K.` #.O E.",
"Y.0+%+o.K C ^.c < { 8 F p.4+<+f.B 8 ! ] 1 C J e.-.W s.!+e+;+4.[.` n -.T.*.0.B.q.Y (.X.@+;+0+|+|.! # # % f s l P H.u.e % B 0.y n E U ;.y T S.A+u+4 r s 9 | d D L.)+)+U.e+|+Z.*.r 9 [ E <.N.K.R.a+H.Z H '.1+v+b+0+2+.+A._.j < g z I.]+n+v+A+v+=.2 G b.~.K y *.}.F.^+_.3.4+A+9+Q.a.~.$.u * @ ;+0+3+>+@+0+t+z+z+X.k O j ] ~ 0 8 E i.X.;+9+9+g.J.f+1+X.r.^.[.^+x+A+k.* ) = - 1 D T A P D.++0.b s f x a ^ _.C.y.-.#+<+K.Z.M.K.r.P t g n 0 9 r V L O q.e+u+9+%+o.(.f.|+}+}+2+E.L.1+n+B+C+g+Q.%+0+p+6+&+L.u.7+z+D+C+`.0+t+v+c+++&.8 [ E ",
"#+e+=+t.t.b+)+u.v.b+A+m+$+.+]+j.8 ( ] 0 M d z m.'.T.!+!+~+/.>.r.S o :.5+C.B G E ^.E.S.)+0+;+1.[ ~ { m ..R.A.J.S.w e / Y Z.N.d | 8 U |.=.1.x.F.+.: r q V ^.~...].G.@+b+o+|+c+a+f+#+d.` F.c+<+Z.&+u.,.,.;+n+a+C & [ _._.U ] , g y.a+k+a+<+v+b+'.k G U C I -.8.h.C.3+b.$.q 6 =.>.,./.V 5 > *.&+)+7+l+[+[+5+z+t+e.J Y y ~ % ! = V C.Y.0+b+w.=+4+,+j.Y c | G |.K.7./ - ) b L #.E x 4.0+l+h+r.T.J.*.% _ T p.V ^ z {.U U *.V U =.J K K d ! > ) } ; = L <+p+t.o.>.-.|.l.V.Y.S.1.i.K.Z./+z+g+Q.g+u+A+B+v+[+X.l+w+4+~.+.l+A+l+j.1 # @ = > ",
"].W.;+%+g+g+=+@+t+C+C+C+k+}.L n 2 - 4 8 j y 1.u.H.p+4+Z.G.7.o.m.^.E d.2+Y.n G ` &...E T.S.'.A o M g.E.c+6+(+,+u.i e d n+a+Y 7 ^ 4 *.8.^.1.M [ ^ k V $.}.j.+.(.M f.2+0+X.N.:+q+D+t+@+-+!+6+I.V V Y /.o.;+3+P ' $ ; q *.L 1 x T T.&+#+G.f.J.Y.K t W !.E.'.m.<+O.Z.5+:.9 ; } 6 < ,.>.y s $.Z.L i.}+)+m.D.&+6+>+/. .D.u.A 2 ] F @.*.` 1.T /.9+x+i.m 2 : 1 L F 9 # < m V s.C.^.n W 1+t+b+;+q.c+n+=.^ d S.k.8 % y &.L F f } r 4 c w I g # - > ) ; } q 3.x.'./.I g L V {.N.E.^.O S 8.h.5.S.w.Q.b+t+v+[+4.y.2+c+0 # d.6+l+4.e ^ & # = = ",
"f @.^+%+9+%+e.m.k+D+C+9+;+( > % ~ ] ( = 9 M ++U.0+l+k+:+|+@+e.m.4.=.b.k.:.Y 0.K.d...&.0.Q J 4.>+}+{+}+|+:+!+&+-.Z >.>+K.M ^ ' ^ L 3.s.[.z | ] { x B @.@.L T u.e+f+|+y.7.N.O..+<+U.m.e+K.p @ * 5 ( e I 4.g.w h J !.5.5.R.>+U.y.O U U i.k.!.2 / 7 I.!+e+e.;+s+j+i+[+'.2 5 s 5 D Z >.u._.$.R U L k.D.m.U. +f.E w '.3+v.e.m.g.C.*.r 6 0 1 ..b+@+C 2 ^ d =.2.L ] # # E _.}.U j m x.'+^+U.m.1.R.++y.-.Q j.&.O =.V.]+++#.l f 5 ) % & / a < ] - > ; q u $.V -.N v t G *.8.k.=.2 ] F p.p.@.( t >.e.g.O n T L.j.n ~ [ <+,+1.J t -.'.u.++0.",
"r $.V T /./.I 9.:+(+3+e.I & = > 0 o 0 4 F |.&+q.y.1+f+<+~+@+e./.4.r.).G =.9.W.W.^.D 0.].:.-.~.T.}+[+5+]+f+:+F.P v.=+b+1.| < 7 D 8.A.J.1.A c j Y :.E @.$.s.}+t+v+n+E.c Q B.c.@.V =.D.L.O $   + } ) ^ J +.(.+.>.t.p+O.z.!+x+b+v.Q B !.f.#+&.: / (.f+i+2+m.@+m+r+w+0+>.K G s @.b.Z ,.e.N.*.s F 9 b E Y ~.j 4 ] < 9.++4.e.o.;+^+].6 9 > - b d.e , # # 1 ^.T.=.d ^ ! b *.*.L j ).l.K.<.x g T 8.|.(.+.-.^.d.N.++^+^+r.x 0 9 ) * - $ < t '.:.m ] ) q u u s x Z Z '.N.p.J.N.T k j *.3.*.r > ^ J /.A m M S.[+D.{ ~ U 4+]+Q w '.0+9+g+u+l+",
"V q ; . $ 3 i r.,+J.=.a 3 / - 5 C.>+y.).s.M.F.1 | {.l.f.U n J I P z j 9 G r.]+]+:.=.#.` =.P T #.#.q.[.2._.;.l | m.=+=+'.k A u.{+6+/+!+S.'.7.^+[+9.1.p.P.8+z+u+h+E.c : | p f s s 4 D n 2 ' ' * q s E 4.9.g.-.e.=+t+4+A.3.F.-.i e l R V G ] < 4.B+y+w+g.P g.!+*+6+H.>./.>+J.h.*.+.,.t.7+K.*.F 9 b 9 ] ^ # > > # x W Q H.b+9+u+7+j.] % > s ( / , # ] G f.#+>+u.'.y b q *.|.++}+R.!.j { ^ =.b.L 1 z -.Y.]+]+G.d...y x | 0 ( 9 9 m -.H.b+=+v.7.F.@.X u q l K Z t.t+Z.!+e+H.e.r.8.R r 9 > ! C '.'.(.K.n+0+e.t ..O.O...k A [+B+C+g+g+u+",
"++4 + + . $ A Y.&+l.n w I Z q.A.(+x+b+7+!+Z...{ 1 U F 9 ( @ ^ / e : ~ 9 F k.<+}+7.Q M ].o 7 T M 4 0 ] ( ) ) = 9 ++0+a.>.9.S.0+t+w+j+w+l+o.;+x+0+ .L.$+_+d+D+b+U.Q : & ~ 8 b s r 9 ] | : _ 3 L h.h.K.m.K x 2 e 4.>+k.r } ) $ ' , ( f ) > > ( n+E+E+l+P 7 W p.$.r ^ i /.l+f+M.r 1  .%+b+h+W.F.M 9 ) ] & # > = - j p &.h+C+C+g+9+`.-.Y S *.l g t Y d.F.C.'+3+`.t./.W @.$.p.k+t+h+O ~ { ~ d.{.p ] n ^.^+++B.m 1 ! ] 2 D E M ` f.N.l+u+g+9+9+9+u+a+}.u u f < g ;+u+n+4+s+=+%+;+d.b ) = = 9 0 9.H.)+a+k+@+Z /.7+i+V ! # o &+i+B+g+g+g+",
";+A # + + = d.p+c+#+(.v.w.Q.u+r+8+z+b+;+a+W.T ^ W F.B 8 ! % ~ 7 g 7 2 b 3.!+f+Y.-.A <.S | d C y E 0 | ] 9 b V M.6+0+t.a.H.S.3+t+D+r+z+b+`.;+n+m.'.]+/+_+_+n+m.'.w g < o j 9 s s U p O C '.>.s+_+/+<+4.K < # % | ~ ! 9 r * # , z d.` 4 > b 3.$+q+v+m.K A W r ; ; . $ y ^+#+G = > ] X.0+0+p+5+D.O l M A P W G 8 8 9 V :+D+C+g+%+t.=+;+l+f+#+/.o.=+l+|+R.R.]+)+t.a.m.*.5.z.j+t+;+-.c z [.x.O M M W d.<...| # % % ! 0 O =.].C.R.f+z+A+9+%+9+g+9+@+S q u 5 # { 2.{+}+.+'+;+%+t.+.! * ) U L !.}+0+b+s+|+-. .m.A+t+=.1 ] l V @.}.7+%+9+",
"9+w.,.^ b @..+c+|+d.E.;+9+g+g+E+r+n+e.u. +0.P e &+c+q.O j 0 m T +.+.T l.z.!+<+(.P -.E.W 2 d d ..q.L.D.V.'+J..+$+!+>+>.a.v.D.N.a+m+r+w+0+/.7.d.K /.n+d+_+*+G.+. .'.e.m.D.:.&.3.5.J.j.E.Y.H.%+D+_+$+I.K H i < 2 2 { ( V V > % d >+o+>+m L s.O.$.}.<.g K K (.! . + + + f B ] % . + ; U V.[+e+S.J y 2.G.u.H.X.g.D ! b @.h.O.-+e.>.e.v.b+A+B+V.U.b+u+b+[+k.s.K.S.o.a.v.|.5.6.A.q.+.+.T D.{+q.j.V.3+}+V.O | # # % [ E #.0.B.k.C.M.(+<+Y.P P u.)+/.t 2 R 5.*.: 2 f ( G R R d.e.a.>.A l $..+W.Z.k+b+b+h+..: e >+D+9+`.7.C [ ) } q 5 u.u+",
"g+g+Q.t.n+*+$+x.o 8 B ).h+g+g+C+s+E.w 7.d.E 7 (.:+]+y.Y =.....~.u./.4.,+z.M.F.C A ~.Y.1.C d Y G.|+o+0+t+v+<+s.}.V ] / Z e.u.i.V p.$+'+'. .K d.T H.z+d+*+h.E e +.H.%+%+;+y.2+.+$+!+^+^+h+;+%+v+p.*.l e Z >.e.@+U.7.<.s.;.0 0 S W.^+7.x L R r 5 } = { P m.m.e & . + ; } ) @     ) q s B =.d.n < 1 !.{.1.4.y.D.P 2 b q q s = & _ g ~.}+o+7+d ^.l+b+=+v.B.s.l.-+H.o.>.=.$.%.u 4 : g ~.V.{+L.++~+v+0+@+-.k < ^ O F.]+#+++G.N.R.M.}.9 % & # ] 7 / / n A.z.M.P P ( > = 5 } ) 2 H ,.o.o+/+(+N.p.Z.l+=+m.< & o i+y+C+Q.=+'.7 @ ; q u }.x+",
"g+Q.w.Q.u+r+:+m ~ - b f V E.;+0+{+(.A 7.1.M 2 V.:+T.T c O j.j.r.u. .4.&+5.}.S d k :.S.9.9.C G.]+a+T.h+t+>+[.F r ) @ # A v.H.(.9 q q f c H e.>+D.0+w+8+O.r - { Q U.;+%+`.U.^+(+/+4+p+o+e+@+v.y.6 5 6 D e.t.9+9+%+`.X.|.l 0 0 B F 0 < : ( ; ) ; s ) ! D u.o.H a & 9 s } ) @ $ # b q q } 4 o ^ , 0 V 9 ] n :.u./.4.).r s } * @ & c Y 0.x.e : f.n+b+%+t.U.R.J.|+H.,.,.u.p.5.$.9 ~ C Y.G.g.Y.++K.W.y.u./.'.J (. +<+e+}+++V.#+&+8.U - # & # = { t J ++/+P.l.< J 2 - = ; } ; > : >.%+A+j+l.0 s $.W.;+v. .T &+r+r+u+Q.t.>.I , + q u %.4+",
"=+Z v a.u+D+3+A ^ ] 9 f 5 ) ] =.:.A -.U.:.n j W.J.O k x W ).I.Y.m./.H.c+p.@.4 ~ | d.r.7.4.9.T.a+]+++s+t+m.T 0 9 6 ( ..o+b+=+Z { ; q } - ~.=+0+l+t+c+_.f = > - S j.(.4./.e.^+(+*+:+n+h+3+y.Z K ] 5 R f.@+b+9+9+o.'.A O B.>+Y.I.L E Q K d > ; q q f = l ++o.N H P  +J.F * - % ^.I.R s } r o : < 0 9 = > ( #.^+`.=+X.G r 5 * ! D (.r.<.0 ^ (.4+q+u+9+t.;+~+!+<+4.>.,.;+f+A.@.9 W Y.Y.D E V.^.B 9 0 Y H.v.e.U.N.,+|+L.q.j.#+F.b.E ~ $ & D G E H.b+B+d+h.= # < A x - ) 5 ; ) ( D.b+t+]+-   ; u }.[+t.,.;+q+d+y+0+>.Z H h _   } %.6.h.",
"g a _ (.c+a+9. .K [.;.B 4 * 6 B o Y r.u.4.9.E.W.b.n c x ^.W.'+#+7./.H.h+<+f.0 | M k.G.7.7.y.2+~+W.&+'+X.>.+.:.x.C.,+i+v+;+>.H g > s q r k.l+l+7+@+9.E 9 = = 6 U 0 2 7 P u.^+M.A.@.2...Y c w i ^ *.3.s.-+@+@+ .I i z :+q+l+b+0+e+c+)+`.v.Q F 3.@.b b *.J.'.,.a.b+z+p+U.D G b.W.++<.V $.@.E 7 -.D.O 8 = b _.&+)+%+=+>+K.!.|.K.T.S.y.(.2 o <+8+4+o+=+t.=+k+Z.].A Z >.;+n+6+s.J.&+5+u.T L x.k ] * 6 G r.e.e.u.N.Z.j.y M S 2.].].E d c x L.-+~+p+u+u+e+p @ # ] ..4.Q B b ; ; } V V.u.e &   } X %.C.>.,.b+y+r+w+v.H H Z N v / q 6.6.$.",
"& 3 w L.].l ~ m.`.U.E 8 p ;.J.K...D n d @+b+u+p+2+S.A D F.s+e+1.^ < Q 2+n+-+^.1.2+a+e+u.m.[+o+]+&.B b ! 7 +.{+c+m+m+&+0 & _ i i D @.$.$.s.#+D.Y 7.y.9.).B L 8.` j | Q (.(.Y.l.R 5 ) . @ # & / c c.h.}.).Q e ' _ I u+y+w+[.E.7+B+p+U.e.a./.C.$+p.8.l.M.s.9.t.g+g+A+B+u+9+A+v+i.M ).R.O.@.[ 2 3+u+9+U.M V 3.s.-+`.%+b+]+'+k+n+^.D :.y.T E _.@.R 9 P a.%+l+).( 2 +.>.@+|+i+w+i+<+^+e.e.T.M A Q l f F d.P +.+.e+&+..z j p l G G 0 2 y 1.I.c+s+]+:.Y m 2 y D d.0.(.`.{+M > ; } } 4 ^ 3 / # q %.%.} : /.t+y+r+k+'.a.w.w.w.w.%+q+n.%.q ",
"  ' 7.9.d ! B G.v.e.P #.f.!+!+I.(.c 2 p K.l+u+t+B+=+e.S.!+i+{+4.t Q ++<+~+E.1.d.&+a+3+H.)+h+}+~.y 0 > ( j V.2+<+6+++g.< < e a  .{+Z.z.h.c.#.y y y (.r.1.M !.V S D O Y P (.V.W 8 = * . . @ $ & [.M.h.*.G 2 / / 7 Y.z+w+u.~.#+a+v+7+@+H.>./.&+/+R.|.c.M.Z.e+9+g+g+9+z+A+9+b+U.Q ..C.!+!+!.0  +q+F+g+%+H.R.5.}.f.Y.v.`.{+i+i+>+A D T.u.'.x 9 5 } f G 9.`./.Q j W T  .~.'+!+i+c+~+T.m.e.u.=.~.7.g.b.c.).P +.S.n+^+g.~.1.W B L 0 ! j ^.{+n+6+]+~.k c m 0.E.>+{+G.B.7+v.'.x 9 5 } ; @ / w z *.X u } - =.i+j+4+=.P o.%+Q.g+g+g+C+*+%.} ",
". % (.T T <.f.x.u.o.`.5+&+:+J.0.z A c E V |.-+o+l+v.>.y.,+l.^.P '.U.e+]+).o 2 [ f _.x.U.@+y.:.T Q D ].k.++>+^+ +f.{...T +. .Z v.l+m+/+O._.G D g.O ^.:.Q W L F B O 1.O r.X.Q m G &.0 ! ! % # | W.M.p.*.8 ^ ' t 7.>+W.b.D S.c+|+#+L.X.e.Z I K..+2.L R @.p.6+u+Q.w.%+l+3+@+'.P C B.&+.+R.].U 8+r+B+9+Q.%+h+s.*.V M k A 1+m+~+z T Y.^+m./.+.! r s R 9 1 e e C &...k t (.R.O.s.F.x.<.Q J ~.1.(.9.Y.~+&+0.D.m.7+2+^+y.4.y.r.B.&.j M 0.|+s+B+5+j.Q ~.D.>+-+E.++}+{+-+L.m.e.u.E.].f f ( d /.4.b.$.u } ; F c.3.f ! ~ k '.%+g+g+g+g+q+5.5 ",
"> L V.7.X.>+W.~+7+b+9+b+k+6+F.O z A k j b r F ].W g g 2 F b ] : c 1.]+V.n | { - 5 s V ..A Q :.-.P ^.k.K.|+e+>+B.G l ] y P +.e.=+A+D+j+!+K.].d.(.:.E.D.y.:.0.|.U 0.L.1.V.7.e n S <.1.C 1 ~ ] #.,+!+J.B ! % ^ ~.X.7+T.0.O B.F.x.E 0 | e Z H R.M.W l r $.5.p.++o.a.=+0+0+;+/.I Q b.J.Z.f.E *.z.O.6+b+Q.%+H.#.f f - # o &+&+^.c Y #+e+U././.~.c.3.R 9 ! & , 2 0 0 d A D.C.M._.S E p { < C o x D.>+W.&+N.D.X.7+>+q.Y 9.:.g.Y.L.V.]+6+k+k+c+y.:.Q 9.S.3+^+>+^+T.Y.>+>+m./.m.[+e+s+f+]+L.m.`.l+l.} } } s } ; + + . @ ] 1.=+Q.g+Q.b+J.V ",
"!.p.0.u.)+t+v+f+v+u+9+9+t+c+V.^.:.-.~.D 4 b 5 ) - & ' % 6 b ! ^ | x. +S.4.T k 1 r s r 8 2 n D ~.u.{+~+<+<+>+D.Y ] 8 8 O ~.4.H.0+B+z+m+<+#+++++g.X.5+[+m.u.++'+&+W.L.Y.1.k 7 m f.|+l+;+u.r.E.&+4+f+W.O | ~ 0 G.5+7+y.j.j.G.0.j % @ . ] +.v.k+Z.g.=._.5.X 5.U ~.o.=+t+u+%+t.e.4.0.J.Z.0.O _.X $.p.V.t.a.>.n 4 ) - ] G 8.!.D k q.R.W.~.I e.b+k+l.L ( % # { | M p D T r.W.8.U p p ] # ~ 2 o M d.j.x.C.I.D.S.r.(.x m y d M T.1+h+p+k+f+~+M n y y :.V.Y.Y.^+L.=.j.-+}+u.4.@+t+E+E+F+C+0+u.=+u+X.] ; q q ; + + + ) * * b E /.a.w.%+o+I.",
"#+!.B W h+B+F+v+a+o+9+9+b+3+S.1.y P J A o 9 6 * - , ' ] V !.O x d.&+|+h+=+=+v.u.C.}.*.p | o E E.7+l+p+f+&+L.~.e | l ` I.X.@+;+l+o+c+~+W.b.x.q.g.^+1+X.4.U.2+<+|+#+q.D.T e < E A.4+t+b+%+`.l+s+q+k+^+:.k n #.K.e+U.9.j.^+1+S.A ' % ) F r.=+B+6+[+t+v+.+h.$.r O H.9+F+u+9+w.t.e.N.M.J.q.1.|.@.X $.B w Z Z t j B 4 &.K._.F 0 y G.K.E ^ 7 4.u+l+<.p ] % # | M B.B.q.:.E.I.f.!.<.n ~ ~ ~ j M ..W E ` !.b.j.(.Q y d 2 ^ | B V F.T.]+W.W.1.2 1 o o W j.j.G.y n j G {.=.A -.{+z+D+D+C+9+o.-.>+`.>.t ! } q ; . + ; ) = * 5 ) $ a >.o.l+e+",
"B.l = f Z.w+A+[+I.x.y.v.;+[+Q c # { 7 A 9.^.S U {.'. .5+i+f+5+X.^+<+6+v+b+9+Q.9+x+f+&+..C ..x.]+o+l+x+c+]+g.P e x {.Z.a+[+@+;+@+>+++0.0.#.G p &.I.j.Y z (.^+W.W.d...C P K P 2.p.h.~+)+=+`.l+k+q+p+{+7.P T k.J. +-.A x.~+}+[+/.Z -.b.3.|+b+u+n+v+A+A+z+!+$.R ;.^+C+C+u+%+t.w.t.7+R.s.B.r.T.}.5.q ) # 3 I /.D.I.K.<+c+M ( ( p 0.&.% # ~ <.7+m.T n ~ ~ 1 W N. +^+D.r.Y.I.K.K.T.~.z d =.q.[.<.O 0 B V ;...x C c d d d m S f b 9 l U ;.T z O m 0 S &.W D 2 ~ ! 9 9 - | Y |+8+j+6+r.J w A E y Z /.-.*.q ) - = s F ( 4 5 ) @ ' I 0+t+l+",
"@+2 . s X M.>+A 0 4 E T (.e 7 & # % ] ^.S.h+l+f+f+H.v.B+z+z+7+y.[.8.8.F.{+;+%+9+C+B+p+>+D.q.W.f+v+t+l+o+L.Q P +.Y.<+!+<+S.y.y.u.D.q.d.0.[.q.&.L G ] 2 2 E &.].S 0 ] 1 ~.e./.d.*.q V O -.4.S.&+!+]+y.4.4.D.W.R.#.7 c ` L #.g./.a.e.2+.+!+h+7+++a+n+t+l+ +_.*.*.J.c+l+7+e.o.a.w.=+n+&+I.Y.^+&+3.r * @ & g m.7+c+k+f+D.k ! 9 U #.n & # #.R.B.'.7.T T 1.[.x.C.K.d.:.D.E.++K.R.T.y.-.9.-+>+Y.=.d 1 F R V W C c z x d c Y &.B 9 = ) r 8.g.m.D.C m B l 0 ~ ^ ^ ] = = = ( #.Z.M.*.6   & , < ! ( ~.t.%+c+r ) > 9 q r p 8 6 = @ ~ D.u+C+u+",
"%+H % q X 5.=.e # 6 9 ^ < , e e : ] l ;.#+v+B+B+c++.)+v+w+v+4.g ~ b s r #.1.u.;+t+l+[+u.u.{+f+4+k+l+l+[+(.Q ~.)+l+k+4+f.D z Y :.:.1.B.T.~+2+S.^.! ! ~ ~ [ l l [ ] ! ;.e+%+t.y.` s s ( 2 C ..l.p.<.T 7.4.y.|+W.=.< k 8 6 f 4 Q >.o.e+(+J.[.C ).l.K.#+g.[.U R *.*.b E n e i H t.9+x+c+B.q.G. +f.G ! % % 1 V.o+p+c+++C P x L V G : < W &+|+q.m.v.u.y.y.>+G.F.].E ..S.E.N.K.l.i.P P g.++>+U.~.z x ]._._.p k Q ~.-.T Y D.q.<.E 0 f $.A.^+`.H.4.D.M 0 0 ~ { ^ 2 % = b f V !.B >       @ ~ j L ++9+9+;+~ > ) V R r 9 0 4 4 - ( l.w+C+C+",
"%+,.J @.%.5.=.3 : 6 b ~ : z -.e./.9.i.C.4+w+B+t+q.z X.f+m+{+w 3 { b r s F j y 1.^.[.Y ~.X.x+z+f+ +e+7+7.A C r.7+t+v+#+M | m m n O .. +'+c+j.S.u.d ] ~ 1 p G l 0 ] L M.i+=+w.o.g._.r 9 M C =.l.*.S O T 7.>+c+]+r.t P D 8 6 ) ( Q v.l+&+|.1 1 #.V V E o O #.V r ; ) = @ $ , e @+9+0+>+^.E G b.f.d.Q d 1 ` K.++^+B.D C m.m.j.F 4 | Q  +,+a+h+;+;+H.m.Y.X.r.j...#.2.L.y.j.2.U 8 ^ : j k.-+u.'.-.L.W.Z.;.0 o D.y.m.u.S.L.S.V.L.L.R.h.h.&+@+e.H.m.:.M o y d 2 2 n G ;.V r b [ % $   @ - 0 ).!+m+u+Q.,.7 ( *.M.J.U 6 l S ] - 6 $.$+z+C+",
">.,.,._.6.6.^.h t G F 1 n D.7+9+9+9+o+i+j+q+l+;+-.c d.:+f+@+Z i c L *.@.F p n D o 0 j j.c+z+B+e+ +~+X. .A n d.^+3+{+^.Y D m m 1 0 G |.b.&.j ..K t n O D &.#.&.O d.J./+!+X.a.a.U.k.|.l.G.S.Y.f.V G ..:.U.h+c+^+-.w +.S.g.p b 6 E D.Y.N.<.2 o b.!.F 4 M ).F.b.8 . ) ; # $ # 8 B.X.H.-.k 1 9 V l.W.@+H.S.F.f.I.++^.D B.b+%+@+E 9 0 [.'+!+6+o+;+m.+.4.D.:.D.T.E.q.F.d.(.^.E l - # # 4 _.F.y.+.u.[+2+W.&.E &.V.[+U.@+)+S.Y.1+h+7+|+O.$.r y '.H.H.u.:.D Q P e n [. +W.].f 6 0 d e Q ..G G Z.8+8+A+w.,.h S $+r+B+l+#.2.#.2 # ) u 6.M.e+",
"+.N ,.e+P.z.p H Z V.F m -+a+x+u+9+Q.b+w+8+f+L.-.t k F.4+q+U.v v v.w+(+_.;.B o Q x O #.~+w+q+e+r.d.].d t w D ;.b.V.y.r.y C x 2 2 E L F 9 - - ( : A g.g.Y.++I.x.T.++Z.A.C.g.>.>.e.V.,+J.` =.U.5+f.K.c+h+0+t+l+y.P +.b+0+;+@+c+<+|+L.r.N.=.Q T.c+]+W.F.]+n+n+T.d # * ;   & ! 9 U q.-.e & 2 2.p.4+q+l+`.H.Y.K.K...y ..J.]+v.v.U.[.].F.R..+M.#+-. .'.y.y.:.T.T.>+}+]+G.X.D.D ] % { D C.A.|.Y -.u.h+h+T...M 2.{.1.7.@+@+@+^+|+^+X.1+'+8.R B n z './.u.D.S.m.4.1.I.&+i.=.` |.F.r.m.X.X.>+<+/+/+(+2+>.N ,.k+_+d+F+g+u+p+S.'.J 9 X %.q ` ",
"t h I z+d+$+p /.;+@+[ !.n+]+c+7+o.o.7+f+,+F.D 7 e Q .+8+f+ .a J A+F+l+{.{.p G j.g.q.K.i+w+p+y n 0 8 # : g y B F k.Y.m.A Q T c =.d.i.8 - - ( 4 ] S.3+o+l+7+2+++-+V.C.@.*.[.I H +.^+W.#.[ 9 K.o+~+4+w+l+t+A+u+H.+.>+u+b+0+u+B+B+l+y.S.V.^.r.'+k+h+e+k+w+z+t+u.t 7 ] = . n j V p.^+/.i ^ b.q+8+r+D+0+/.m.h+|+d.o m M U 4 c '.`.0+h+++K.s.*.8 d -.H.H.u.(.=.0.x.^+T.G.S.-.e % 0 [.e+s+<+S ..:.L.-+>+D.Y [.S p 8 W D.(.X.[+V.=.[.]+'+&+f.0 { ~ D ~.7.Y.@+v.e.9.i.#.W G.<+i+c+7+;+H.h+B+B+i+$+.+..i N %+E+_+_+y+g+9+;+[+%+t.P } u u 5 ",
"& 3 +.8+/+!+T.@+e. ...}.8.I.&+r.'./.U.~+&+d.z e A q.M.A.` a i y Z.p+m.^.].d.x.<.g.[.J.A.Z.(.A c ] - % { k y 8 f V i.u.v.u.-.9.L.++q.y o M 0.f.K.v+A+A+t+0+l+1+-+Y.++s.*.9 g I 9.G.d.O j U *.].a+(+K.V.3+A+b+o.m.c+p+=+b+l+e+-+T ~.1.q.L.1.C.!.&.2.J.Z.W.:.t J t Y I.]+>+S.:+(+s+%+t.=+j+j+r+d+s+=+v.H.3+>+Q n D ..{.4 o Y D.7+l+{+N.V b 8 o 1.u.U.m.A O S B G 0 ( % & , # 9 !.&+W.&.E [.C m p =.y.D.^.&.=.W l ] n W q.r.L.-+~+K.S l ~ 2 O =.C x <.d.4.e.'...]. +n+q+i+p+t+b+9+A+z+B+v+,+c.o g H %+F+r+*+$+(.a z B.4.I _ + u u } ",
"  & ..c.z..+2+m././.D.l._.R.x.^.-.'.S.]+W.q.-.+.7.=._.R ( / h Y }.b.-.Y. +]+]+E.g.^.8.}.V O P e { @ @ ! x 7 ] f R !.Y.;+m.4.X.h+h+U.U.3+e+n+a+,+f+p+7+0+0+)+3+>+^+++b.6 = ^ K u.Y.j.D O k._.*.s.b = B ,+B+9+w.t.e+~+X.H.X.g.^.x Q g.++Y.(.#.B l U 8.l.0.~.+./.v.o+i+p+4.r.Z.$+6+o.t.Q.s+$+8+4+<+m.e.v.7+:.A C G.++G.&.M o j.e+7+U.^.8 b 9 p [.r.U./.m.(.M p ] % - @ $ $ ] F _.!.S #.].O c ~ = U V.u.Y x.-+y.d ! 0 p S G.e+h+3+r.d.&...Y.h+[+4.T [.j.X.`.o.S.,+i+s+s+:+f+l+u+C+u+o+e+V.].B ] 7 t X.w+j+O.f , ' j x.+.v i @ u u } ",
"@ ~ 0 @.5.h.0.z '.>.~.R.R.K.0.=.~.+.r.I.F.[.~.+.P Q U s l g >.@+Z.|.T >+c+e+^+>+y.r.|.}.*.M g 3 < # - b D P x V 5.A.]+U./.U.7+l+l+t+b+A+A+l+T.!._.#.<.g.9.7.S.S.r.=.0 ( 9 0 -.@+[+D.Q j.&+,+f.( > ) q z.4+=+a.o.D.B.z T D.S.r.9.r.^+p+X.u.[.F.2.|.}.s.'+l+=+%+9+C+p+^.c 1 R $.V z H /.B.h.h.s.S c 4.@+u.e c j.2+Y.r.1.m p 8.'+[+'.k ] ) f L ].T.u.e.v.4.Y j D 2 ~ { : d E _._.|.0.I.I.m < : L c.].A Y K.2+7.P | 0 B U C.#+2+}+>+3+1+p+v+t+`.e.7.<.~+l+=+%+b+m+i+a+~+R.s.W.5+;+@+:.n { ( B ] : c E _.R r > & & !.'+;+,.,.Z 5.%.s ",
"D o j @.%.@.4 ~ ^ g z l.l.B p 0 2 k C S G j d e k x l s F 9.%+9+c+E 1 b.<+^+Y.>+y.u.#+s._.j e a t c x.&+^+H.H.f+P.O.W.U.e.;+t+o+l+0+b+A+t+;+-.l f 9 8 [ n g.>+D.T C | l U S E.[+)+y.X.p+f+n+y.{ ( r 5.6.$.2 i I Y W d =.q.S.X.U.X.e+o+)+H.3+|+j.;.R @.s.n+u+g+g+g+=+e g 2 V $.s ] g K =.*.q 5 = ] Q ~.g g d k.|+Y.r.T d p r _.^.J _ ^ 6 s r V b.r.4. .+.T O =.T g.X.4.u.]+R.s.l.W.#+E.c < C <+Z.p ^ O R.#+e t c E l F V |.F.q.E.-+c+c+]+^+m.Z P G _.F.)+%+9+v+K.F.2.;.F f l n < < # % B L n c : % ) ; ; . $ % *.p.u.a.w.Q.D+/+s.",
"Y u.Y.s.5.s * @   $ % r 9 ( 9 ] # ^ | 0 9 ! $ , : ^ 8 R }. +b+9+0+x 1 V _.W <.g.y.S.^+,+K.Y P t t D.a+i+e+=+9+E+r+.+K.S.H.)+3+}+e+>+>+>+y.-.+.Y U B 8 l `  +5+X.4.A n ` !.|.#+}+@+m.l+B+z+p+m.+.]+:+P.$.; . & / (.1 y [.G.^+[+U.X.'+]+;+b+b+7+:.E r @.5..+x+9+b+%+,. .+.4.R.@.5 - c -.~.;.5 ; ) 9 [ c g g Y C.'+X.y.~.k 1 s R 0 _ 3 c L R R R U m g g e c j j ^.^+[+;+0+h+~+C.l.C.B.1.A A -+w+N.$ @ 6 c.n , , C ..&.U *.*.;.E p l l ( ( ( d a g ! 5 5 E u.v.U.p l p 8 6 6 = @ $ & # E K.l.1.A e & > 5 5 6 { j @.$.l Z t.g+F+y+<+",
"0.1+@+k.$.b .       . } ) 9 9 ] | d D M 0 ] ~ : < d k.p.O.Z.h+b+t. .Q _.R l G G ^.(.++,+K.g.J a 7 T.<+,+N.[+A+B+z+&+|.j.~.T Y j.^.Y m j n e -.{+]+G.i.F.K.'+^+@+/. .r.F.C.J.K.G.(.X.o+z+z+{++.;+z+w+a+- . + . E @+r.}+^+|+2+X.4.r.0.f.e+u+9+`.'.n f u X 5.f.T P g H e.m.;+p+C.B 4 O 7.u.:.4 r r 9 ( ] e A 1.R.R.7+`.e.+.Y _.R [ 7 t ~.0.V V R F 0 < _ , { ] ( #.I.q.X.H.y.B.f.8.!.#.x c D.s+z+e , . } } # ' ^ [.V.-+K.l.8.l ] % . = + * = 1 t w { 5 } ) ! 2 A 2 4 4 l B 9 - @ # # 8 Z.m+~+x e g e n U R F 0 V.l.R * &  .b+A+v+++",
"++B.A M R ( % # # # 8 R R !.L M 1.r.y.L.q.Y Y k T >+p+4+$+c.0.4.>.>.m.|+|.#.].p 0 O F.K.k.x _ _ c ;.l.C.].i.]+]+T.W 9 0 ^ # [ E W y n 1 0 Y X.o+v+5+1+~+&+C.x.u.'./.)+e+&+&+{.E o [. +6+e+u.9.7+k+'+Y '   * s O.x+u+t+l+e+-+r.+.Q 0.s.:+A+9+t.>.+.B $.X $.b # & # e /.u.)+3+V.E l ` r.7.-.j.l.V B 8 0 d ~.V.,+Z.n+b+t.t.;+<+J.[.A 4.u.L.U *.*.F ] , / ' % [ B U {.W y Q z &.{.|.!.G d ~ &+y+0+i /   q q - 7 V.n+p+h+2+<+b.1 # # @ . * s p.^+v.,./.p 5 ; = - ^ C p 9 2.2.W ~ # # ] _.$+f+:.: ' ' c =.K.J.;.` n+c+{.- @ 2 >+e+>+E.",
"}+1.7 D V p d d y z ).M.M.f.{.).E.D.D.D.Y Y z C L.e+z+w+l.6 * @ < J @+o+|+I.W 0 8 l ;.f.).k a K 9.f.8.f.S L B p 1 # > - & # 4 ;.[.T Q D &.<.V.]+e+[+>+T.b.;.B =.'.v.7+l+c+]+q.m ] l 8.Z.++y.y.>+d.E d t +.k.P.*+k+b+;+X.j.^.T +.-.0.c.A.k+=+a.,.v.S.A.5.q 6 % & # 1 T z g.S.~.n ` |.j.Q T 1+a+W.p p E ^.[+h+<+p.J.U.v.=+b+x+~+1.~.'.m.u.&._._.B ~ , ' ' ~ B !.!.U W d : n E !.!.b.<.e o *+j+e.H v & u u r ^+z+z+l+l+o+2+n { ^ : c | *.P.d+B+9+Q.w.v.O 9 9 4 0 :.q.C.6+e+X.P & % B A.P.f.7 _ / < D 0.R.'+ +,+m+l+m.x o p I.G.r.j.",
"X.7.K g.f.0.g.D.D.~.k.A.J.p G B E o m 2 2 | ^ 1 #.&+k+^+2   + + . ] G.c+^+1.2 ] - 9 V J.#+4. .`.b+e+&+&+T.M 8 ( % # - - : D l.J.++@+m.r.W &.W b.F.r.Y 1 8 4 9 E D.;+u+A+A+h+S.A | F 3.M.++9.u.@+g.E D U.b+z+_+$+C.Y z k ~ 0 O 7.U.E.c.h.s.7.>.a.t.b+m+.+}.9 % { 1 j < 2 S j.A y |.C.V.P =.k+a+r.m p ;.~+l+7+-+V r ! A '.U.S.=.D z ~.y.m.q._.U p { ' / < o |.l.|.;.[.c 2 1 G U !.J.++4.p+/+!+I ,.t.Q./+z.z.j+D+A+7+h+>+y ^ # { ~.[+t+q+_+_+z+9+Q.Q.%+`.S.F.~+]+V.-+6+i+B+=+Z g ] V $+3.- : g +.4.^.].8.,+s+w+:+5+;+H.u.V. +0.=.=.",
"D.y./.X.<+]+>+D.~.A <.@.b - 9 l ( ] % % % # # ! b }.C.C / &   + ; ; R F.Y k : ~ 8 F @.!+n+H.v.b+9+0+n+a+y.T o 0 ] | p p 1.3+a+!+'+U.m.+.D E E ;.].y < { ( 6 V f.]+o+F+u+u+0+e.K k !.h.p.W.D.>+0+;+>+]+t+b+B+(+}.4 # ^ : ~ 4 ].g.m.X.J.p.*.M '.a.%+u+p+Z.|.0 2 d =.^.Q y ].O P D.<+!+[+'.B.i+V.T d l *.J.]+y.T [ * * % : c d j 1 n Y L.u.X.k.B 8 { _ 3 < W C.C.{.!...e < | B V p.Z.c+0+B+/+f.A t.Q.g+F+d+_+j+i+>+X.r.c & $ # p a+B+F+D+/+z.s.4.,.a.t.`.7+n+k+o+X.^+i+8+z+t.N h 2 3.*+L - 1 ~.e.v.4.0.}.O.j+z+k.I.U.;+@+3+V.=.O =.",
"1.Q e D.&+#+D.Q c P 5+s.l S |.0.=.| % @ @ @ ~ ] *.$.V < _ _ & = } q $.Z.Y 4.H.)+]+R.z.$+~+9.m.U.H.;+c+B.n Q :.j.^.Y W ;.k.-+'+8.B % g K (.M &.f.b.Q -.9.G.C.p.M.k+s+c+{+U.m. .H U.k+$+A.f.X.h+r.H.b+B+A+b+7+L b - | | c S.'+C.E Y S.n+Z.F > y 4.H.=+>+( * > 1 Y.h+t+%+@+0.E y.t+w+i+D./.n+f+D.A e p R @.G C 7 $ . ) * % 2 Y :.Y =.-+5+)+)+[+V...x t /.u.2+6+|+#.6 0 e P >+|+J.3.A.w+C+>+9 6 [ K t.Q.9+r+d+i+l - C < , & $ j R.!+6+++#.R q 5 @ ' a a t 1.W.;.O C |+j+d+v+e.H v X./+O.g.G.W.V.;+=+=+X.}.5.$.M =.U M 7.7.x ~ m 1.5+",
"u.A d <.f.0.~.t y B.o+^+x.<+<+~+r.e ,   @ ( 0 )._.@.F 7 i I +.c b X 6.Z.(.h+u+9+b+c+/+$+B.9.u.9.D.[+>+Y 2 j d.>+X.m.Y.~+F.0.).[ @ - ! x T O F.&+ +r.U.)+h+c+Z.A.R.T.m o n k t '.t+z+i+J.8.#+X.Y ]+p+v+7+e.'.^ = ) 8 d B.x+t+>+=.[.~+k+B.1 4 p c Y P t ' > s c.f+k+n+o./.C G ;. +W.I.~.)+B+c+4.g e O V R b 2 / < ] l 4 8 0.T.D.u.}+e+e+@+0+t+t+X.9.7.e.`.v+s+[+A ( 6 D {+v+t+3+c.z./+=+3 - ) 9 { J v.0+j+8+>+, = > & , $ 0 f..+,+i.c 0 s } ; . $ ' / c j 8 > > L M.$+O.M i h H v+y+Z.~+o+}+}+U.;+v.'.).q s 5 S [ 8 n g , ] L ,+v+",
"=+/.-.<.!.2.D.'.y.N.W.T.~+s+n+>+A / ' $ ( B ].).!.3.|.-.Z >./.'.~+z.n.3.G.2+7+=+=+p+(+O.N.X.m.U.X.[+X.+.A o ;.F.[+@+l+v+>+[.j ~ ] p 0 m x W R.,+I.g.:.D.V.#+&+_.F 0 0 ] % { T X.o+c+~+K.l.].y 1.G.x.0.x g w e [ 6 * l &+<+l+;+U.}+|+++..y ].S ^ ^ ^ 7 K p+j+r+k+++0 , _ c 0 9 * ) r F.l+l+S.-.K P q.C.}.L | e P G. +~+]+#+q.g.V.^+++j.^.t+t+0+H.4.-.-.U.e+c+4.J ..F ).#+n+h+)+,+z.5.e i n U F O P '.l+r+4+T a ] . & & ~ B 8.p.Z.T.u.U.].f ) - { < A P C # @ 5 @.*.s 5 . , _ K 4+q+|+0.&.T.1+X. .w g ..*.@.V 9 [ G m t A m _.O.<+",
"=+>.'.=.|.l.g.m.u.G.0.0.J.i+v+@+ .3 / # F l.F.<.l.p.J.U.a.t.t.b+B+d+P.3.k.K.Y.@+0+3+J.}.{.Y ~.~.g.S.U.e.m.r.C.J.e+7+o+h+u.(.d 1 j &.E n y F.Z.R.[.D y ^.j.).;.b 9 - ] % % [ W >+e+^+N.&+C.S 1 O #.#.M 2 7 g t 2 - ) R M.R.c+;+=+h+#+d.g.D.++D & # % n {+D+y+D+l+T , & 7 C n ] > 5 q *.#...T t w 7.Y.<+R.).=.7.)+h+k+z+x+}+j.E.j.^...j B &+S.4./.K P C r.N.k.< t D 9 F |.&+r.y.&+A.$.7 I r.W.f.[.A ~.c+8+|+7 _ & @ $ { j |.s.p.s.F.S.U.D.0.` ( % ^ c -.4.4.(._.@.f ) ) . & ' y p._.! ] 9 C.]+4.K a 7 ..8.@.f 4 l L [.P J D p.O.&+",
"/.,.>.r.K.J.G.7.4.^.<.S 3.$+c+m.Z h i =.Z..+N.G.f.3.M.>+t.Q.9+g+C+y+_+J.b.|.k.L.-.T L r b ] 2 2 j B.7+=+%+`.c+Z.~+)+>+=.c c c y &.0.W D =.K.J.b.O d n O m j 8 4 = - % % [ l ;.F.^+V.]+~+++^.m E p l 0 2 k t J g 2 r 5.h.M.<+h+b+@+r.d.^+7+7+A e ^ [ ;.i+r+y+B+m._ ' < Q -.~.C E *.3.s > = j g  .@+x+z+v+]+V.S.0+t+s+z+b+`.~...n M m | b f M T '.+.t C ^.&.1 & < : 4 r *.V M y ;.5.@.k  .Y.2+]+^.A n f.s.m / _ , ~ ~ m I.'+R.p.c.f.r.~.>+^+..^ # ] E g.7+b+9+t+|.B l 9 G A K ..r = . * *.M.]+u.I i A N.&+l.!.` {._.0.P K g.M.O.&+",
"z Z >.y.W.l.j.A A =.O E $.5.{.-.Z N >.h+i+:+N.j.0.3.3.K.)+%+9+g+C+E+q+N.i.l.b.n : ^ ( f ) - % % B s.e+b+Q.%+3+K.C.r.4.^ $ ^ | O d.<.=.D [.f.l.2.m x ..D n j 0 ( 4 4 0 D d.b.|.!.0.-+n+n+p+U.7...M E G =.7.'.'.m.U.~+z.A..+:+^+H.'.r.#+c+l+b+I I P #.s.$+/+8+y.a / , 2 D D.m.7.B.c.}.6 - 6 9 x X.A+F+F+u+7+(.q.^+5+k+k+l+e.J d o o n n l r L 1.'.'.+.~.=.D | < < c S _._.f 8 2 L $.@.2 +.T.&+^+(.g 2 F r % _ a Q 1.r.-+a+a+<+J.p.l.^.g.B.:.c c d M ).K.e+7+9+b+[+#+|+k+D+g+Q.4.! @ . s h.O.~+m.H I u.s+q+w+n+]+W.C.E A +.S.Z.z.J.",
"{ _ K 9.x.l...7 c D O M @.$.f y Z a.w.u+q+a+j.m ].p.$.}.j.@+)+u+A+B+#+..++&+j.c < 2 G F 4 - % 8 !.A.,+[+o./.Q ` |.^.K / ~ ~ m E ).<.O O d.K.l.&.D g.g.Y Y y j E G ].0.]+o+^+k.U U &+k+z+o+`.`.U.L.T.F.]+@+=+=+%+b+B+/+A.O.J.E.T J 9. +6+v+%+,.>.m.G.J.h.5.r & _ / # ] E E.m.'...F r ( ] F r W ++w+E+A+;+'.A j 8 G J.,+y. .w d m W Y C <.l.l.++m./.'.~.(.:.Q A P 9.~+,+C.G 8 j f.$.s ] (.<.;.j.P t c B b % _ I @+V.>+e+a+c+~+R.s.!.M Y 1 ~ c T ~.^.b.C.0.O D y.u+x+w+y+E+g+Q.,.g , 8 5.6.z.K.K H >.7+z+D+E+A+l+E.).E Q m.X.Z.A.V ",
"% ' g r.#+K.n 7 d [.j.=.V q s 8 K a.%+9+p+V.k | !.p.3.*.G D m <.G.S.y G k+c+L.+.+.D.++F.M ] 0 B }.A._.o _ / $ 6 V E a I T D O &.L E m O 0.&+b.M <.^.D.(.:.~.g.x.W.W.K.<+h+[+g.S R p.M.a+Y.y.m.;+@+3+c+c+7+b+%+b+9+u+w+.+A._.M 7 Q q.<+.+|+e.t.t.`.7+R.*.s ;   / 3 ^ G &+k+0+e.< = ; ) [ U r F s.(+f+[+w e , # . f @.*.x K K k E ).D C 2.J.J.N.4.Z  .T ^.(.-.-.y.{+e+<+F.W M i.~+J.*.9 D | b B 7 i P 0.L 1 A u.@+D.V. +<+|+T.C.l.{.O x c 1 W g.9.Y G 9 - ~ ! V s+l+f+_+r+9+a.,.e./.e+z.6.5.B 7 i '.h+q+y+E+b+m.7.[.#.d.y.X.K._.b ",
"% 2 ~.>+e+V.c < m <.g.Q ;.R r f D /.=+9+@+9.A :.J.M.A._.p ~ @ = b ..Q l.4+e+X.H.=+0+l+>+(.y M {.}.@.b # ' ' # ) s 4 A o.=+@+D.L.<.E O ).C.W.0.M W &.=.7.X.X.{+]+~+#+f.s.x.y.9.^.V @.@.F O n C U.7+l+p+c+5+H.H.H.;+t+p+!+}.9 - { C ++a+R.f.:.o.w.Q.9+0+B.b ) @ /  .[+k+j+z+b+a.h # ; } r ;.b s 3.h.!.2 / / , $ = s $.R j w H -.=.&.m n L @.V S c a w A D Y Q 9.y.Y. +#+[.M k.~+k+a+b.E 2 2 6 6 ~ e -.++I.=.~.4.u.D.q.F.&+F.q.k.l.f.=.z 7.[+>+S.T C ] > > - l *.8.j.K.6.5.A H ,.t.%+u+.+5.u b { g T |+(+(+|+4.g Q =.<.j.Q D.0.U 4 ",
"! M V.v+x+U.e < j {...C E r r r 4 ~.@+H.m.4.4.l+f+!+.+W.Y ' # ; s i.y.!+p.i.{+b+9+b+)+9.P Q W G *.@.L , / / ] r R *.V.9+9+%+0+7+7+3+V.T.R.K.j.O &.M W T.X.[+7+e+|+j.).V B n (.r.k.R s f [ ~ 0 T.5+h+e+]+g.T -.~.S.>+1+I.4 . > - ).<+a+~+` | P `.9+g+g+b+r.p 0 ~.=+u+E+8+m+`.,.,. .U $.$.2.B }.3.@.9 $ ' ' ' : 4 @.$.s ( 7 K u.r.=.d 2 B r r 4 ^ _ g c [.^.C T (.L.0.N.g.M 8.Z.f+]+j.O z C S 9 % ^ ^.++]+Y.~.y.m.4.g.K.&+i.[.k.l.f.=.=.1+t+t+H.K e ^ - = 4 4 s s l L @.q   3 ,.b+9+`.#+@.q b % < :.,+.+s.;.7 / 2 j b.j.(.Y O B l ",
"p k.6+z+A+e.i < p ;.D c 0 F r f b ].D.4.u.m.0+A+x+6+!+c+m.i & r 5.4+u+z+V U '+l+=+`.'.P k C m l *.}.#.g I  .:.C.p.M.4+A+%+%+b+t+A+b+;+5+'+N.j.^.W M 2.i.>+3+3+^+L.Y ..L 9 p q.[+^+L f 5 4 1 L C.++}+5+r.z c T (.q.i...d # . * b s.:+f+^+y ] ] L.u+C+g+9+=+>+2+l+u+A+t+R.8.P ,.w.9+C+j+$+W.W.O.O.s.0 , / _ g P B.3.@.} 6 { e 7.~.C c d p f f = ~ e K ~.B.~.T Y :.S.]+~+7.=.!.3.8.&.o j x (.^.j % ] ` '+e+)+U.7+@+u.r.K.K.[.=.2.l.K.g.&.R.|+m././. .P o 4 > * } s L G *.} @ , H.u+Q.Z g.J.}.L j :.e+a+J.l.#.e ' ~ #.K.I.7.z o G l ",
"{.Z.(+6+X.Z H K G V 1 7 O K.U r s F m T ~.D.^+3+{+~+4+~++.h g @.6.P.v+H.0 *.}.I.u.e.v.'.e 2 Y N.M.A.K.m.a.t.0+k+(+$+$+++;+%+=+l+0+=+;+[+++T.g.r.^.i.x.C. +D.D.g.g.r.^.p 9 U f.r.7.^.#.V F E |.*.{.)...d k T 1.r.1.Y y c k | 6 @.z.!+c+X.u.P 8 }.(+B+9+Q.%+7+c+^+l+7+y.O b M `.Q.g+C+z+f+I.W.(+8+<+Q g K '.m.U.h+R.V 5 f 0 r.y.9.T Q c j l f f E T 4.@+L.D.H.y.]+^+c+++-.~.K.}.F 0 % 8 W :.1.C ^ - s p.a+0+)+S.-. .y. +2.[.q.W.J.K.(.r.l.G y 7.e.v.e.u.x { - u 5._.{.{.9 - j G.S.Z H ]+4+Z.b.x.}+1+]+&+l.<.a / - f V 0.Q 7 ] p p ",
"K.p.p.|.| a H o.D.9 - n n+a+>+G f 5 = 2 2 ~ ( p M s..+W / 3 g }.6.X 4 < ~ r s b m u.%+o.I ~ c+p+i+!+&+[+=+Q.9+B+i+.+_.].X.;+H.g.q.@+U.y.T.++L.(.>+2+]+ +#.O =.1.L.X.T m l r b [ o j.]+<+|.M G f 6 ( % % j D.D.:.=.q.y.u.)+0+p+$+z.O.&+{+`.t.X.c.$.f c >.w.v...l d.:.A Y |.Z.b+w.o.-.i.` E V A./+c+7.+.'.v.v.)+[+c+#+V *.W.l+)+m.4.-.A 1 #.U V {.y.U.@+S.Y.)+;+[+Y.^+O Q [+n+<+2.] 1 ` I.(.Q e < - s $.p.X. .& $ C {+1+x.i.G.c+R.f.q.l+++<.q.~.'./.e.e.U.)+l+/+P._.B B B #...j % ' >.o+<+'+~+~+G.B.k.].L 0 _ 3   ; q b < , % U I.",
"n+l.r 4 # '  ./.K $ * R ,+k.Y c - 5 ) - $ $ = f k.!+s.^ / / c p.5.s ) # % 5 } ; = S `.t.N O M.<+,+_.!.d.u.o.=+h+W.|.V !.&.P +.-.I.L.'.9.B.x.1.L.^+-+++j...M j M #.z A Q G.f.{.E B !.f.x.[...M B U E | 0 L <.9.9.L.2+}+7+0+b+x+6+h.3._.0.9./.J p ) ; 4 7.t.t.H.#.L n z V.:+8+u+a.N g G l 8 r %.5.I.4./.m.m.H.H.[+|+1.#.3.p.B.P K J g / ] U ;.8.s.V.m.4.r.q.g.@+@+5+D.(.e+B+B+B+)+y.B.Z.W.u.7.K w | s X $.0 3 / ] l.]+>+E.&.|.~+c+<+|+>+{+^+q.(.w J  .u.7+t+u+y+4+<.p F F G C c ^ ~ ^.T.~+s+B+A+h+j.0 8 L r.Z i , ; u } & / x.(+s+",
"7+x = 6 ! : +.i 3 & * @.c.p | c o 4 * .   % f @.Z.6+<.< 3 i D.!+3.5 + . . ; ; ; ; @.3+w.a.U.J.f.B f 5 4 d +.'.:.0.|.8.U ] # d g.B.D ~.-.^.p E j...M E 0 O o j 0 0 | C 1+v+z+e+L.=.l F F G M W ;.f.&.C D ].S g.X.o+p+3+7+0+;+X.k.@.@.V 4 | _ t 1 9 } s d.`.Q.Q.;+j O L.c+i+d+0+,.N  .j ! - r u u V Y 4.'.-.u.U.)+L.Y F.}.r - ^ < t g ' 0 f |.M.R.T.7.-.x j [ M r.y.Y ]+k+s+v+o+;+=+[+<+W.7.'./.Z P *.X q - ' g [.l.).D D 0 V s.f+k+Y.q.++X.(.~.J K -.X.l+t+x+q+'+Y o 9 F U ^.9.-.T 1 !.$+r+D+C+t.K ~ 9 p.i+a.H a 9 X q 1 D.q+j+w+",
"z e [ 9 8 1 g a a ' f z..+q.g.y.y.=.p # # 8 V $.A.&+=.e K /.t+s+ +#   . + ; ; } q 6.j+w.t.=+k+[.! = 5 ) p (.+.9.0.C.K.[ # @ ! 0 0 ] d Q :.j G 0 ] 0 ! [ 0 | 1 0 E O ]+w+D+B+7+4.~.<.!.{.l 0 0 L V E D W {.b.++3+o+-+>+3+)+m.9.O V s f ( ] < /.9.E r q r E.`.a.e.C #.^+|+4+/+X.N N I < # > 5 q u s ( c e c Y X.0+@+X.}+U 6 - ] d w I i o R p.!+,+-+u.+.k # - = l =.O K.K.{.G p x 7.u. +k.C T /.N '.f.5.$.( 7 e M F 8 ] % - R 3.J.F...=.<.[.~.7.+.'.m.l+p+l+h+|+M 2 2 B 8.R.]+@+e. .C J.*+/+q+@+/.I A U h.p.H N N ++z.h.F.e+q+4+'+",
"% , ..{.&.o , _ 3 ' A.*+4+h+7+;+=+;+[+4.X.++J.z.P.R.Q A J u.o+p+y._ '   ) ; } } %.n.*+t.a.`.3+A # = ; 5 5 m -.4.G.J.).2 $ % ( ( % - ! 1.U.9.E ] ] ! - 8 [ j D &.].k.6+j+w+t+H.m.7.>+K.0.j E W ;.!.S 1.r.W.R.~+2+X.^.#.<.~.K t D b s r G 0 ^.0+o.(.L } } ) ^ a a 7 B L ;.p.A.Q v N H K 7 [ s q u q ) @ $ # p I.7+=+;+U.m ( > - j -.H /.D.}.A.O.J.++'. .w : % 6 f M E l.#.! > = ( o O #.M n =.K >.v.++O.c.E e A n 9 - @   9 $.5.}.8 ] W W E =.T '.e.)+h+^+^.=.0 % { o f.$+4+n+0+`.>.U.8+*+z._.^ 3 i u.|+A.r _ H >.h+/+$+<+k+:+8.l ",
". ( b.~+L.e ' _ 3 :./+*+(+o+0+b+9+b+u+9+9+t+k+P.z.C.z A e 1.I.V.+.H H '.f.p.}.5.n.n.z.I N I (.a ' @ ; } s b ^.D.^+]+j.A e n M 1 | 0 l.<+7+o.P | 1 0 8 l p E W j.0.f.M..+Z.^.P J 7.5+e+V.q.++^+'+R.W.^+3+n+a+|+V.9.Q j l 1 e g k G }.p.W.-+~+7+v./.n ) ; + . $ , # = 6 f q q ~ h H ,.t.t.@+C.R q } + .   - f *.F.U.)+'.7 # . ) U D.e.v.H.R.A.3.8.0.-./.Z K 2 f R W ++'+^.^ - b L E o l p o O P /.e.}+.+p.d.P +.~.x #   - R h.O.U - > G 0 p O x 7.@+@+y.(.2 { % - [ #.!+/+4+c+X.e.o.A+q+(+_.> # , A X.p+&+! ' a K ]+*+O.R.I.S ( > ",
"( b *.,+y.I 3 a Z t+d+*+O.|+o+0+0+0+t+u+9+b+o+.+A.{.k g A 1.x.I.m.t.Q.g+F+q+4+8+*+n.X / h e Y i _ { 6 q $.*.&.r.]+c+@+ . .>+Y.L.>+c+i+6+[+`./.9.Y j.j.0.x.<.i.#+++'+s.p.L % $ 2 G.]+o+7+l+c+h+e+6+k+v+A+z+v+e+>+7.-.Y j j z t T W.$+$+f+x+o+:. ./.t ] * + .   $ # 4 9 f q q ( a H t.9+g+9+7+W.*.5 = @ @ = s R F O P w _ & ( R }.T.e.v.H.c+A.@._.G D  .N /.4.{.@.l.B+B+@+K | V l.E.(.W E O ).r.'.'.^+J.J.B.u.H.)+H.+.< G O.P..+M % = 9 p G E g.(.4.9.T Q k c 2 0 B J./+$+M.0.d P ;+u+f+l.S ] { ^ Q ++e+q.< _ 3 ~.a+$+c.L 8 ! % @ ",
"E U 5..+@+,.,.a.9+F+y+*+p.K.I.g.~.D.^+7+v.;+7+i+p.B C m.=+t+B+z+u+9+g+g+9+s+q+j+*+n.q & a A Y h i Q k.h.5.}.2.-+|+|+u.K 4.{+>+{+>+|+<+R.q. .e.=+7+l+o+e+e+2+|+c+p+p+<+l.[ # # 8 K.<+n+l+t+o+V.#+,+:+z+A+A+B+l+0+H.m.~.D ..(.m.@+k+8+/+4+v+0+P +./.Z g ~ - - ] 2 o I.I.|.R u 9 _ Z =+u+9+Q.%+l+1+;.G 1 1 9 R s f ( ^ g a 7 ].O.$+W.+./.;+5+R.c._.G 1 7  ././.B.@.5.D+C+%+H ^ s @.d.9.Y.^+Y.N.g.+.+.^.s.M.]+)+`.b+%+t.`.a+_+_+,+x ^ 9 f G #.{.q.(.(.-.T Q ~.~.~.q.&+$+O.p.V - # o V.l+D.l G Y T x <.K.++~.w H /.t+B+i+s.G 0 ] ~ ] ",
"^.C.z.A.r.>.a.%+9+F+z+6+s.K.<.D | j l o z X.l+B+|+x.]+l+u+C+F+E+u+9+9+Q.=+]+!+(+$+5.} $ 3 D.Q H Z 7+v+j+$+O.R.~+~+]++.J y.{+L.q.1.#+|.L 1 c m.=+u+u+A+t+l+l+c+a+n+p+o+[.2 ^ | !.M.:+a+e+l+X.x 0.J.O.(+s+x+l+0+=+v.e.4.1.d.^.U.0+w+4+O.p. +m.K '.>.>.'.-.1.G.Y.X.^+k+x+3+l.@.6 c K @+h+;+t.%+b+l+>+G.r.r.x.!.f b = % 7 K 4.k+8+(+B.-.m.=+t+s+:+K.j ~ # < K +.T 5 %._+u+a.H / r $.U q.]+o+y.[.(. . .g.p.A.<+7+0+0+%+%+9+B+/+P.k.A T #.f U |.].d.y.~.~.~.~.9.4.@+3+k+:+M.V 8 - ( l #.D.z p _.B.7.4.q.F.I.(.-./.%+F+F+A+1+E.r.g.Q =.",
"T.<+O.@.[ < '.;+7+3+ +&+,+&+V.-.< % = > 0 I.w+E+A+v+B+v+p+p+3+2+>+`.%+w.,.j.}.A.p.@.; @ 7 (.x H o.A+E+y+j+6+<+~+~+N.J '.7+7+~.y W B.E 8 [ =.L.>+l+A+A+A+l+[+V.&+&+]+>+T k d [.R.M.s.!.#.Y A C f.s.A.p.R.N.G.V.u./.'. .:.M &.G.3+c+R.*.s f Q '.u.Z Z  .7.V.p+l+0+l+k+e+S.=.V f | z ^.Y.-.'.H.;+@+>+j.L.X.L.b.!.B [ 0 d J X.q+8+,+=.Q u.0+u+A+c+++d $ # { e t e 9 %.6.j v N h 8.z.J. +W.L.e E j././.U.R.O.M.^+U.U.H.t.9+u+Z.@.F T 4.r.F f 6 U f.D.u.-.~.~.9.y.{+l+n+6+'+2.O m 8 b V =.g #.s.&.C T q.|+^+~.Q g @+z+t+0+[+h+t+=+;+U.",
"e+~+s.f @ % | z z 1 l _.Z.<+>++.w ^ ( = b p.8+D+C+F+A+>+o ! - > 8 ^.`.w.a.P @.A.l.b ) > { D 2 J 0+B+E+D+q+f+|+]+N.=.z @+t+0+'.z M <...E ` ]+L.G.]+v+x+l+@+~...;.;.2.m z A Y I.:+Z.U 9 4 ! c D.W.s.p.}.V G p E d t t w T ..0.x.++G.#.9 5 } p m.4.i i _ c k.<+h+;+l+W.O c 1 6 6 [ d ).<.A g ~.y.u.9.=.).r.y.x.b.l E O d c q.!+.+k.| n i.e+x+l+^+(./ , % ] z '.K j %.u ) _ v >.q+d+k+V.#.m < S ].+./.u.<+.+s.S x Q Y @+=+=+..r r =.y.y.o 6 f R l.q.7.'.7.(.r.1.d.c+n+a+ +T.g.Q =.U R 0 P #+_.0 2 n K.f+5+4.e & 8 V 0.g.r.c+A+9+b+0+",
"[.M 4 . . . - | A :.R.p.h.Z.D./.o. .=.{.M.P.*+r+F+C+=+t ,   > ; 5 b j >.,. .}.$.F E p B ..1.] C h+n+k+k+k+a+|+++d.O x e+^+K I P <.#.1.B.J.{.y M !.W.h+;+7.e n B !.G 1 C T (.K.J.x.E p j E N.5+]+&+J._.U p p 0 d t e A 9.L.I.F.I.[.o [ f s r =.t i h I ^.C._.{.Y y.m ~ # 2 B F ( ] G 0 < e (.1.T A =.p p ^.j.E ( 9 ! ^ 2 L *.V [ ~ 0 L U &.n 1 : _ / % 4 E +.I +.5.X q 2 H H.8+/+]+-.o 1 A N.;.Y '.X.R.*.b - ] m 0 M k w P !.@.b 2 k c 8 5 q s p 7.+.4.7.(.Y #.V {.F.N.i.C d 1.T.C.G =.]+T.1.:.j.!+Z.D.I a ' 4 } ) [ S s.<+@+K c ",
"0 ] @ @ . * ) 6 d.h+x+a+p.*.&.u.t.o.U.k+q+$+z./+n+H.H i / 2 G B 9 ) b g ,.,.F.@.R U C.F.V.'.c 0.W.I.K.J.,+a+e+>+g...d.^+d < t -.q.#.i.V.j.8 ] M V 3.<+;+ .g O K.C.#.=.:.9.r.0.V ;.j.W.|+z+v+h+e+<+K.V b 8 p l M t g z L.>+++I...n | ] F @.r ] , _  .=+=+-+;.p E Y k : % G b.p ] - 4 - ^ y :.x C Q Q D p S O 2 % > > ] 2 p f f ( 1 ] = b ( # @ % ' _ { 9 4 Q I @+j+z.z.1.Z m.Z.3.L : n E Y.e+T.r.7.m.M 9 > = 4 j | % $ $ r.W.U - % ~ n o 9 } s R L.4.4.m.7.(...l f V ` m ^ 1 k.|+2+O W C.|+7+)+h+a+R.D 3 3 ' ] ) ; 6 F *.F 7 _ $ ",
"D.T Q 2 ] 9 5 5 f |.|+e+W.f 9 j K Z [+k+6+s.6.5.8 ^ 3 h I :.T.I.[.!.s.4.a.w.0+J.*.f b b p P u.T.0.0.C.Z.J.'+]+X.y.r.x.1.A P -.~.g.B.0.j.Y m E B.J.$+!+m.I K ++6+x.#.<.r.X.y.O F V <+s+w+w+x+0+l+T.E > = = 4 > - & J g.=.j.q.[.m { ~ 8 V R f @ & 7 @+b+=+y.B.I.V.(.4.K Y U l ] ~ ! 4 ( 1 m | 2 x c r.D.^.M m c c ! = 4 o &.l.|.l 1 ] ( b - # ~ ~ e _ ^ 9 F g.m.7+8+*+A.o i m.<+Z.[ # ! {.x.]+o+@+'.P x S ).0.G ! { ^ ^ j #.0.M 1 0 ] D m G V $.5.F.H.`.`.v.+.=.T.b.V 6 1 : <.Z.&+r.Y M V _.q.X.l+c+^+P / / &   * } r f R F P H K ",
";+=+=+`.U.j.F r s @._.2...8 b 8 < +.}+<+2.9 u u .   & g '.y.e+e+3+s+8+l+w.w.=+++9 > * ; f E X.D.d. +R.J.s.J.I.D.y.(.M ..~.7.+.-.q.G.T.q.1.g.I.W.Z.$+R.J H m.e+|+^.p 2.]+U.+.c F 3.!+w+z+a+p+0+@+T { ! 9 4 8 ! - ! :.~.D W d.^.C ^ ~ 4 *.V ( @ ] d.l+9+t.H.]+~+^+D.7.'.'.o - - ] ] = = [ d ~ ] ~ 1 ..:.1.o n x -.Q b.` E f.R.N.=.d n p 9 - ] 0 D w i < F }.I.m.{+.+z.R ] 7 D.6+ +: # 6 V 2.J.c+H.Z g D F.'+}+(.n | 2 Y g.<.].&.Y y 0 O D W s.A.h.!.Y.b+9+%+v.L.~+d.p 4 [ o K.J.W.q.9.n F R U <.++]+Y.K a _ & . 5 q R r @.p.{+t.%+",
"l+u+9+9+Q.b+e+R.l._.r 9 ! [ b 4 d 4.^+#+| @ q q @ @ # < z L.c+e+p+w+q+l+t.t.a.P ~ @ * } s V q.D.]+|+ +l._.V L =.-.e j #.z Q P ~.L.N.]+V.D.>+I.].s.A.|.k Z H.p+-+z 0 l.'+u. .A U h.P.4+e+x.W.>+J e ^ O G |.` ..O M 1.T 1.i.G.g.P e 2 L }.U 0 ] G J.m+b+t.`.S.++V.~.Q A K 7 % ! 1 ~ - ) b Y k { % ( l o y n M ^.X.7+h+q.W |.*.k.r.y.~.[.E ] 0 S d.w I w l.M.F.T ^._.R ) @ ~ &.C.| ' & f @._.s.C.~.I w ..R.'+Y.u.m.P g.L.>+^+++T.D.~.Y =.L.]+4+P.3.r !.|+9+%+t.)+L.1.&.#.E &.C.J.&+>+4.z U }.U G L b.y i v h / > @.h.A._.5.z.e+=+9+",
"l+l+=+%+Q.9+u+e+&+R.B ( ! ( b L =.D.^+Y , % u X 1 o o z Y |+f+e+]+,+M.G.Z >.,. .e 2 L $.3.@.].++]+#+#+2.b f b l c e W E x z Q :.V.]+++Y.>+X.:.S p.3.;.Q +.U.o+9.A &.M.K.~. .+.W.P.P.p.W E |.C / , ~ F.a+W.G j.r.T.1.~.>+^+^+7.+. .~.&+s.` j o f.O.!+U.,.>.D.I.r.A e e P g c #.E.~.o V }.q.J e | 4 B W y ..&.N.5+l+)+9.^.G r _.T.m.m.S.Y D W b.&.P I +.Z.$+B.< ~ 9 f = - > 9 9 # ' ^ *.3.8.}.B : a K V.J.C.j.S.H.;+l+h+3+o+o+5+U.m.>+++x+E+D+i+l.f r *.++a.t.`.X.X.}+++V.#+,+J.R.>+'.w U }.L p 9 9 ~ a N ,.,.2+/+_+i+&+z.z.<+o.=+",
"L.D y -.e.H.H.[+c+|+E...M #._.J.#+>+g.e / | 6.*+o+0+X.y.V.&+&+q...b 5 > e H Z H +.y.s+4+$+s.!.K.I.#+d.m ( f f 4 2 z [.d.Q T Q g.G.#+]+-+D.7.(.).J.p.l.:.+.X.>+'.K F..+F.Q K H.w+8+O.V ! l U : ' $ 9 !+n+q.8 B ..q.Y >+h+o+5+u.'.e.)+]+|.E O I.J.A.c.y i I Q &.n < < k g w D.c+3+v.m.l.p.^.g g Q 0.R.T.r.g.x.K.++E.z c d j *.@.|.:.y.~.Q Y <.S E 7 i P .+(+y.t ^ 4 f 9 p #.B = % < ^.M.3.*.F = # 7 m.h+'+|.S E.@+0+0+0+o+o+3+D.~.y.@+|+w+E+B+v+Y.E r q V -.,.v.y.X.l+t+t+h+F._._.&.+.t B *.#...p b 8 e ,.w.g+C+y+d+s+^+A.6._.A -.",
"| { 1 o T -.(.]+|+e+7+[+h+B+y+w+v+7+4.g t [.P.*+x+=+H.'.(.b.b.D n ! * ; ! K Z Z u.o+D+y+i+K.b.{.b.<.y D E b r b j :.2+2+U.u.u.S.2+'+2+>+D.7.-.I.M.M.f.Y ~.Y.V.m./.W.M.).C -.l+z+j+J.8 - b b / / # $./+e+t % ) 9 l ).]+1+5+D.~.K 4.u.L.S ).N.]+W.c.V ~ / g d 0 # < ^ { : P -+f+3+m.m. +c.| ' & 1 C.K.T.y.g.<.L 0 { $ # 1 2.Z.}.F j c c x g.[.E E , _ y p.M.y.H -.x.J.<+n+o+(.j ] ^.}+<+*.f = . - j 3+7+^+W U l.>+U.[+7+3+g.Q y Y r.X.a+8+w+x+l+m.(.B @.s 2 i  .y.|+s+A+u+)+=.V V 4 / _ 9 3.'+>+Y.S p C e.Q.g+g+y+j+e+r.}.X r # { ",
"] D q.D.y.u.D.B.&+<+l+0+B+E+F+E+C+=+e. .K <.n.6.b.T g P Y K.b.(.P k 8 s F A /.>.U.k+w+w+2+d.0.{.{.p O Y g.0.F f L ++v+v+;+;+;+7+h+n+p+[+@+4.m.++_.*.F D Q q.V.4./.-+_.p n D.v+z+s+j.2 % b f / i | 6.P.{+h , 6 ) b F {.).O d : 7 e C Y p f. +I.~+C.9 % , e 2 % % z e ^ ~ D F.C.[.K P B.B $ & # = r r G Q C o 8 % $ $ ! ;.&+<+;.4 % % | =.q.(.^.D < e D p.A.r.>.;+v+j+q+B+b+v.7.=. +|+^+M 4 - > 9 U F.>+y.1.b.l.B.(.D.g.z d n m O q.V.6+$+,+]+X.'.P W R s ] 7 A Y.c+f+v+0+e.T G b ( & / *.z.6+[+H.^.#.^.m.a.w.9+y+i+D.T U q f # # ",
"M  +c+3+m.u.(.j.Z.R.]+1+i+y+D+B+0+/. .Z Z [.6.%.9 ^ < z g.|+|+[+H.H.3+Z.l.D.o.t.=+s+q+c+L.[.#+0.E p &.E.>+>+&.F *.J.f+h+U.m.U.>+]+n+e+@+X.H.H.y.9 5 5 8 1.++Y.U.e.y.B p d.|+w+w+h+u.P k U *.t N T 6.n.D.Z K ).9 5 s b 8 ] { : ^ : 2 | G _.b.0.K.i.~ $ & 7 < # 8 S./.+.=.^.F.b.0 7 P =.~ , ' % 9 } s b ] ^ n j { , { {.J.Z.x.] - @ ] p ).E 1.S.~.+.+.q.A.A.q.e.=+B+j+i+s+=+t.o.{+]+]+V.1.W o p b F F E 1.r.N.8.#.^.=.z k x y D &.I.]+6+M._.` O g t j F r [ , d i.K.J.F.~. .w O G ] & e 4+*+i+[+m.7.d.<.:.K /.b+s+'+-.w ).@.6 # # ",
"c+C.].=.P +.~.x.J.J.x.i.3.$.B l : _ _ '.>.X.z.6.9 ] x r.e+m+z+0+=+=+0+n+w+u+9+9+9+v+w+h+X.]+v+>+O #.K.]+3+X.:.L *.p.Z.d.Q k d O 2.f.B.D.r.7.m.'.~ ) 5 5 2.c+e+)+v.e.[.K.f+k+k+f+^+H.H.H.n+(+m.N K 6.6.d.,.t.l+(.9 r ) 9 0 n c < ^ { 1 b.R f 9 L n , & | z e 2 _.z+Q.%+;+3+#+d.1 2 T T < / a x ` V s b - ] j O Q -.r.<+Z.l.1 # @ > B #.E ( b.h+@+=+t.[+.+A.&.-.l+x+K.c.|.Y.`.=+)+1+]+S.S.V.g.D.G b ) ) 8 j.-+k.#.q.Y x T (.:.g.I.K. +|+K.` ( ! ^ 7 2 f R 0 k x 0.L F B { _ w q.[.c $ I.r+d+q+@+'.~...O y 7 Q [+^+x.A +.N.J.0.e x ",
"7+C ( 8 n A 7.i.8._.S O F ; ) = # ' 2 T e.b+/+z.#.D V.h+n+4+f+S.4.4.D.6+j+E+9+w.%+x+f+>+X.n+B+H.C b.,+|+3+u.P p @.5._.] & & % - B f L n z D 9. ./ > } q p.:+2+7./.e.>+6+k+k+<+ +B.X.;+b+z+k+'.N  .h.%.!.>.Q.b+/.n F f f B Y P P 7 D #.N.p = ; 5 ] , ^ j A J :.z.(+=+%+b+=+7+1.d 2 y ~.t g +.U.1+f.V 9 0 0 &.i.>+U.{+a+K.E ^ & @ f _.#.2 4 3.|+[+`.a.;+:+M.W =.F.Y 0 f r {.u.e.u.>+++Y.[+X.>+X.~.] > ; s f.]+]+#+V.y.7.y.@+@+[+^+F.f.K.F.M ] % # & 1 F *.p T 1.[.M F 4 { 7 ~.V.^.A d .+_+/+&+-.K P ^...k e ^.^+>+q.Q u.e+6+++7.u.",
"(.'.S.<.M x ~.j.U b > ] j = f b n 4.:.] 7.u+y+@.p #+c+]+B.!.4 # $ # 0 c.3.b , a +.V.&.j j s.]+w : J..+f+>+4.+.q.}.q ) # $ $ @ = b f 6 ! n {+U.I 3 % q z./+,+M { A m.G.J.R.F.0.G G [.X.7+e+F.+.a.%+(+%.@.~.`.'.I Q ;.U V |.d.u.'.v.)+c+<.D ] b ; . $ { 8 | '.0+!+} @ A `.9+`.J c 2 ..C t K -.3+[+<.9 4 8 0.K.W.E.U.7+B.[.y e g M _._.G ^ l $.V m c K 4.<+J.=.y .   @ 5 s R m g ~.[.T.T.D.D.>+y.m.7.^.8.5.c.<+n+v+l+@+@+7+u+C+9+7+d.L U p ~ d | ^ : m !.R 6 n 1.[.q.x.G =.~.D.g.C g {+/+z.$.= & e -.S.L.4.m.h+e+7+S.Q X.s+w+5+H.;+",
"[.3+b+)+~.x x n ] > 6 9 8 ;.s.J.]+`.>.Q C.c+5+= s _.M n 1 ! @     . 5 s f - # : ~.Y.D.Y &.}.p 3 o p.p.K.9.P +.(.b.F 9 ~ / , ] V *.U 8 B R.n+v.N Z ^.z.P.$+r.g ^ M T n V _.` p 8 9 L q.r.1.<.r.%+Q.t+5.5.<. .3 3 x ` ;.V _.S z ~.@+)+m.z d 2 ] . * - 0 0 l d.X.'.# * 5 !.:.K a 7 j j : < t D.T.z c - 9 f V L G p =.y.E.G.Y -.K =.V V 0 d G @.r ! { 7 g.K.!.1 / , . f R $.s ] ^ 2 8 B M g.>+D.y.@+0+t+s+:+O.M.<+c+S.u.U.n+z+u+%+/.T l 9 ( - j n c z L.W.|.L p W d.++V.B.O x :.Q 9.U.B+i+_.5 * ! C >+3+[+;+b+A+l+0+v.9.2+w+z+t+=+0+",
"T.^+>+H.'.A ^ # % 4 b 9 B l.p.p.K.4./.;+B.&.^ @ } } 4 1 | % # $ { 0 f s *.].9.X.[+l+t+=+@+C.! _ D s s r =.+.+.(.b.J. +~./.o.o+f+'+k.W.<+4+]+/.,.t.b+*+z.5.<.m.m.:.< | *._.W ] ( b V ).:.=.W.a+=+a.H.M.5.S g a 3 2 L B V V 8 ] n m c c c : ^ { ! 6 6 E W E 8 ] c U.g.6 * @ & ' : ~ % { : x S.d & & % = f f 6 9 4 - 8 q.=.y A J Q ;.f B y d.@.F [ | C L.0.E # ' ' E p.!+O.V 1 < ^ - ) f K.L.(.g.y.[+0+n+:+J.8.8.M ~ n [.W.f.x g w A | ( - ( - ] m q.e+p+c+T.[.S F.F.T.Y 2 ~ m q.l+u+u+x+ +;.U ` -+o+l+o+l+b+t+h+7+o.H.c+i+w+u+=+;+",
"&.).=.P K t , # - 9 F 6 V }.*.*.F 2 g P y 2 , @ } q V O C 2 | d C D B @.$.!.q.D.V.#+[+;+H.g.~ < { ) } } U m./.y.b.s.K.y.)+b+u+v+e+c+<+6+i+c+H.a.Q.9+6+5.$.|.)+`.+./ | p.s.D 2 - r R ;.1...R.<+/.N u.,+A.M e a 3 2 l B V b ( ] | ~ ~ { ^ ^ # { 0 B f L p ] @ . = =.~.{   .     $ % % % x r.9.7 & $ @ = f f b b = - * * @ % c 4.;+e+b.L M B.V 9 ( ! o L.j.y < / g C.O.$+4+k.Y -.4.n = } _.O n ^...q.>+T.L b r f ] ~ 0 E B ( % & ' < { ] > > > 8 &.~+s+z+A+b+@+++&+ +q.z : 1 G <+w+F+C+u+[+-+2.l.k+v+t+l+7+7+0+X.y.'.m.~+!+6+X.'.~.",
"8 4 0 c J h a c E l.K.b.8._.V r 6 @ & $ n < 3 # u X *.<.T c y Y D.(.0.$.$._.B.Y D L 0.m.e.m.+.g & . } u 5.[+t.v.#+s.l.T.7+b+u+t+}+ +W.Z.Z.B.m.t.9+Q.^+s q q ++o.Z i B.$+Z.:.7 ] r @._.=...}.!.g I +.Z.M.=.J I i y ].|.;.L 8 0 | ^ # # # & ~ n =.).!.U | & @ = ; ) $ ,     . . @ - 8 l ).j.g _ ' & ] b R V B 4 ( - - + * 6 S 3+t+7+g.#.<.}+i.l 8 8 ;.I.L.~.t w u.~+O.P.<+T.>+0+%+'.~ q $.1 o j j S M 2 ! = f 5 ( 1 E p ! @     $ c C D j l B U l.Z.j+z+B+b+;+>+~+2+D.P < ] *.$+j+B+u+9+=+r.).c.Z.|+3+S.1.:.:.C C A -.K.p._.d e : ",
"8 4 4 D '.>.o.;+v+q+k+]+R.l.G 9 = @ # ] j e I T 3.X 3.#.e z [.V.X.y.q.c.z.!+e+H.(.b.!.L.)+b+%+N 3 @ q %.6.<+%+%+7+,+J.b.^+l+u+=+X.d.|.*.F 9 B.b+Q.t.I = q u }.'.Z H ++$+<++.J d *.5.}.O ..b ) $ / C C.c.W +.Z I d K.W.K.0.O o d , ^ # { ^ M T.1+2+c+).: ' , - ; +   & &   @ - ( 4 l l ( ] ' 3 g c M C.J.J.F.2.j ^ # - 5 R _.~+>+4.x #.C.v+[+g.&.b.K.K.L.~.g -.X.p+$+z.J. +|+l+%+a.J R $.l =.j E E 0 ~ ] 4 f r 9 <.[.D { $   - E g.@+X.[+^+#+f.s.p.A.Z.T.-.K g.'+2+4.I t m p.*+/+i+7+e./.A 0 *.@.U j { # ] ^ | D -.7. +_.b { ' : ",
"<.0.b.x.@+t.Q.9+A+z+e+q.b.].j l 8 { 2 E G Q Z -.p.5.3.G z C <.B.(.-.^.p.*+d+B+9+=+e+<+#+[+t+w.a.,.m.p.6.6.A.;+t.=+c+F.L l.c+l+`.v.D.S F b f }.e+o.,.v # q %.5.~.Z Z <.A.J.4.Z 4.Z.A.}.j | - =   & ! *.V E A v i ~ _.&+~+T.1.C k < < | C z 2.'+p+p+p+~.e w w ^ > .     # { O #.k.).p ( - @ & g K 9.N.!+i+k+e+r.D d 7 j *.$.3.l.x 7 : L p.k+;+@+>+F.C.F.=.7 7 Q V.n+Z.A.*.L |. +`.a.,.R.$.|.q.(.j.&.o d n ;.s.c.!.k.q.9.J g Q I.<+p+t+b+t+l+l+]+l.@.q r 8 ^ < W &+]+7. .K q.$+P.O.K.x e g e 0 R q 6 % $ % - ] W T.0+=+>+k.9 ~ < d ",
"T.x.F.b.L.;+%+9+t+-+D ~ 4 4 [ E E ^.(.[.#.D K P J.z.5.L z Q #+++D.-.^.A.n.P.f+=+=+l+]+q.[.q. .t.w.Q.k+6.%.X O '.@+>+^.` s.!+l+%+%+=+g.L 4 r 5.{.I N N g $.%.X j I H O $._.~./.@+i+(+f.2 : # ! @ # G *.R G Q H H m 3.J.a+E.(.(.J e < O >+u.2.8.k.x.y k e t I J | # & % ( G &.<.).O | ~ % - 0 A -.9.N..+$+a+Y.T k d x 0 V 3.A.'+y.J Q l.A.M.r.~.:.<.L l 2 < k g.c+c+&+}.9 * } s z ,.a.l+p.J.-+{+{+:.D n j.<+,+l.U L ).Q './.7+z+w+p+}+@+@+[+X.X.d.B 5 } = 2 ~.f+.+j.A i +.++$+z.3.l # , / g D *.R > # $ % 8 L &+6+l+=+m.1.M 2 e x ",
"q.<.S B l y 4.H.u.: $ # = ) 9 !. +>+X.g.B.Y K 4.(+/+p.G n V.c+e+y.+.g.A.5.X r n 4.X.D 1 ] - % /.Q.Q.9+O.X u ; n Q x n S c.O.a+b+Q.%+/.O [ r $.f e H N >.O.6.X 4 / i y 3.@.O '.@+m+:+B.k < y D.(.r. +J.V L y Z ,.u.p.A. +Y Y x g / # b #+m.=.F 9 ( % # 2 k K  .w , k =.0 [ ( ( ( ! ~ ~ 1 &...T A C S @.@.!.m k k k 7 % R z.*+i+)+e.m.K.p.R 2 : D j p 4 ] : Y ]+n+5+T.l @ = } } - K a.b+Z.Z.]+7+U.7.T =.~+f+~+#.4 6 9 0 T m.l+n+]+D.y D m ^.g.Y.Q 0 b 5 5 f.B+A+++m < _ -.++$+z.V ] # & < A S.K.U ( ] d =.K.&+i+k+3+/.K Y D x A :.",
"[.M 0 ( = ( n P K g & # ( f *.M.k+l+;+@+e+@+o.u+j+.+!.p 0 b.&+D.P e Y _.$.q ; . % { : # % . = D t.Q.g+t+@.q } 4 n { % 6 $.$.s.5+=+,.Z c ] f q 5 { v ,.t.k+z.X > & / Y.$+}.0 C V.&+C.=.g c ~+l+=+b+v+|+B 6 l I ,.v.M.A.0.Y 2 ^ ' '   } s P y.E ( - ! ] | d J I +.m.~.^ % @ > > - - % ] p k.j.A e : 8 s q b ] 2 z -.+.y z.*+*+Z.~.K P #.}.F | Y g.^.O [ % ] 2.&+ +L.(.| # - } } ) d e.)+|.s.'+3+m.'.-.T.a+k+V.2 - 6 6 4 0 ^.V.<.E | 2 ~ j G T.(.T 2 > 5 q h.q+t+-.: , < C <+(+M.L ~ ^ { | Y >+]+&.1 0 M ++&+!+j+z+[+'.w Q =.Y Q :.",
"D.C | % = b #.(.K I w Y F.J.$+*+j+l+=+0+l+u+g+g+z+U 4 - ( V _.D e < | F s } ; + . - # & # > f F D.9+g+9+V.s q r n : % 6 } u $.;.K v a ' @ ) s 5 - t ,.w.B+*+@.% $ % w+i+f.0 1 E U L o 7 g.4+v+0+0+7+D.~ = ) c H '.J.M.x.c , & ' '   q q W ;+S.:.Y M E ..=.-. .u.9+a & # - 9 B p 0 ! ( b U ..7 g < [ r s f 8 m =.9.t.C+y+d+P.4 $ & $ 4 *.K.>+l+l+7+y.d ] 4 b b 9 1 T k c M V s } B ~.'.p 3.!+h+=+v.m.e+i+z+u.g ] L b 4 8 S ..m ] % ~ 1 W f.#+7.t ' @ 5 u X 3.~.K e ' ^ E Z.!+R.W 2 : # - G I.q.| ] 0 G {.!.A.d+z+;+Z  .(.D.y.u.S.",
"~.P 7 { 9 }.J.y.H Z e.0+v+m+/+/+8+l+m.(. +v+C+g+t.Q j j !.c.V m e g D V R b = = * 9 1 < 2 9 V V _.V.v.o.m.K.h.*.n g 7 8 s X X R 7 h a ' % f @.@.9 x /.%+t+:+9 $ , l.d+n+r.y n 0 F U =.Q S 3.k.-.y.(.e ' ( s ] a +.Z.3.1 / g _ 3 _   u X @.5+U.Y.D.u.Y.q.g.)+`.h+,.h & 9 G !.!.8 % # - f R O e ' & ! f R R 9 8 0 ).s+E+E+w+q.& & & ] p.z.p.#+>+X.H./.+.C D G F b ) ] : d q.|+<+Z.l.m e W A.A.k.u.>.H.z+q+1+t a | !.].S #.#.o Q ~.(.g.j.x.l.9 T I i $ ; u %.X E e _ ' 2 ;.p.M.f.^.P K P 0.Z.~+:.C % > = 9 !.P.d+n+/.H K C ..r.u.U.",
"y g e D C.O.R.D.>.>.;+t+B+s+!+P.8+X.w # V p.e++.Z H.[+h+k+'+` 1 e '.y.x.F L 0 8 b *.E.J 7 4 R l.;.% & 7 7.a+M.!.j A m.Y.s.5.%.3.P v h 3 1 }.O.}.F M ~.`.@+&.! | r.j+d+}+(.Q y E 8.J.}+'.% s 5 m :.A 7 g j.V % e U.a+9 @ { '.,.N H e @.X X V ~.C m V.S.r.N.t+%+`.a h ' r U ;.8 @   . 9 *.A.]+I _ & > s p.!.] @ ) R C.r R l.7.i 3 Q D+y+q+f 9 p 0 x J +.T ++p+3+| > . @ ! V 8+E+F+h+c ^ K.O.*.= % c [+n+~+x / _ o !.k.N.I.&.W #+t+u+=+r.d.j * l /.N / ; %.6.z.=./ / g C l.p.p.f.d.X.;+9+F+D+t+H. .' @ ; s $+_+_+S.a h a { ( 0 D 1.",
"z g A ..R.A.J.:.'.'.u.^+2+]+R.z.$+-.h : $.h.q.g P D.^+^+]+T...O C 9.7.1.;.|.W M !.h.N. .t p 3.p.=.^ ^ | j.W.J.2.O Y 4.D.K.h.6.h.P v v i O A.O.l.` M Y 7.4.C 0 S &+/+!+r.A P C #.p.O.++H / R @.{.C t e Q G.=.1 C Y.Y.d ] G G.>.N N I _.%.6.}.Q z &.I.g.(.C.~+e.N h v g *._.).: , # = @.h.O.Y.v h / l 5.z.<.< { r 5.2.( $.5.g.I K  +d+q+@+| F G p D A w Q K.<+m.i { ( 0 G 5.P.d+A+/.w d J.M.` 0 0 E  + +^.e 3 g .._.l.K.q...b.R.<+7+/.P ^.g > 3.4.N h f 6.n.P.T a e A 1.f.p.p.l.k.V.S.7+v+n+[+/.H i ^ s 6.P.*+$+P a h i 7 p G W =."};
