/* XPM */
static char * wall11_xpm[] = {
"512 512 12213 3",
"   	c #7F80FF",
".  	c #8080FF",
"+  	c #807FFF",
"@  	c #7F7FFF",
"#  	c #7F82FF",
"$  	c #8082FF",
"%  	c #8081FF",
"&  	c #7F81FF",
"*  	c #7E83FF",
"=  	c #7E84FF",
"-  	c #7F85FF",
";  	c #8086FE",
">  	c #8086FF",
",  	c #8184FF",
"'  	c #8083FF",
")  	c #7E80FF",
"!  	c #7E82FF",
"~  	c #7D83FE",
"{  	c #7D86FE",
"]  	c #7D89FF",
"^  	c #7D8EFE",
"/  	c #7F93FE",
"(  	c #8093FD",
"_  	c #828FFE",
":  	c #828AFF",
"<  	c #8286FF",
"[  	c #8284FF",
"}  	c #8182FF",
"|  	c #7D82FF",
"1  	c #7C84FF",
"2  	c #7A88FF",
"3  	c #7894FD",
"4  	c #75A8F7",
"5  	c #76BDEF",
"6  	c #7DC9E8",
"7  	c #86CAE7",
"8  	c #8ABFEE",
"9  	c #89ABF7",
"0  	c #8697FD",
"a  	c #8489FE",
"b  	c #8285FE",
"c  	c #8283FF",
"d  	c #7B84FF",
"e  	c #788BFE",
"f  	c #6C9FF9",
"g  	c #61BCEC",
"h  	c #61CDE0",
"i  	c #65CBE2",
"j  	c #77CBE6",
"k  	c #8ECDE3",
"l  	c #9BD2DC",
"m  	c #9DD3DB",
"n  	c #9AC1EA",
"o  	c #8DA4F9",
"p  	c #868DFE",
"q  	c #8385FF",
"r  	c #7D81FF",
"s  	c #7B83FF",
"t  	c #7488FE",
"u  	c #609FF8",
"v  	c #52BFE4",
"w  	c #55BCE7",
"x  	c #6B8BFD",
"y  	c #7058F8",
"z  	c #7641EE",
"A  	c #8043F0",
"B  	c #8866FC",
"C  	c #A5A1F4",
"D  	c #B3C9DA",
"E  	c #A7C7E1",
"F  	c #96A3F8",
"G  	c #888AFE",
"H  	c #8384FF",
"I  	c #7D80FF",
"J  	c #7C82FF",
"K  	c #7784FF",
"L  	c #6193FA",
"M  	c #40ACE4",
"N  	c #54AAEF",
"O  	c #8F69FC",
"P  	c #9E3AE6",
"Q  	c #8B35E6",
"R  	c #7B35E7",
"S  	c #6C34E4",
"T  	c #5932DD",
"U  	c #633DE9",
"V  	c #9F80FB",
"W  	c #C5B7DA",
"X  	c #B4B5E7",
"Y  	c #9297FB",
"Z  	c #8787FF",
"`  	c #8382FF",
" . 	c #8180FF",
".. 	c #7C81FF",
"+. 	c #7983FF",
"@. 	c #6B8AFD",
"#. 	c #45A3EB",
"$. 	c #44ACE7",
"%. 	c #946FFC",
"&. 	c #B647E4",
"*. 	c #9E54F3",
"=. 	c #8865FC",
"-. 	c #7E69FD",
";. 	c #7367FC",
">. 	c #5A5BF4",
",. 	c #3F48DF",
"'. 	c #5343E6",
"). 	c #B383F4",
"!. 	c #CBB4D8",
"~. 	c #AAA9F0",
"{. 	c #8D8CFD",
"]. 	c #8684FE",
"^. 	c #8282FF",
"/. 	c #7A83FF",
"(. 	c #7585FF",
"_. 	c #5392F6",
":. 	c #37A6E1",
"<. 	c #7B8FFE",
"[. 	c #C25AE6",
"}. 	c #A95EF4",
"|. 	c #8A73FE",
"1. 	c #8377FF",
"2. 	c #7F77FF",
"3. 	c #7A77FE",
"4. 	c #7174FE",
"5. 	c #4E68F2",
"6. 	c #3154DA",
"7. 	c #675DF8",
"8. 	c #CD9CE1",
"9. 	c #C5AEDF",
"0. 	c #9A97FA",
"a. 	c #8887FE",
"b. 	c #8383FF",
"c. 	c #8181FF",
"d. 	c #7884FF",
"e. 	c #688AFD",
"f. 	c #3E9FE8",
"g. 	c #499EEE",
"h. 	c #B367F1",
"i. 	c #BE5BE9",
"j. 	c #9570FC",
"k. 	c #8679FF",
"l. 	c #827AFF",
"m. 	c #7F7BFF",
"n. 	c #7C7BFE",
"o. 	c #7778FE",
"p. 	c #6475FC",
"q. 	c #3764E5",
"r. 	c #394EDD",
"s. 	c #A56CF8",
"t. 	c #D3A5D8",
"u. 	c #B0A7EF",
"v. 	c #8E8DFE",
"w. 	c #8784FE",
"x. 	c #7A82FF",
"y. 	c #7286FE",
"z. 	c #529BF4",
"A. 	c #3BABE2",
"B. 	c #8181FE",
"C. 	c #C355E4",
"D. 	c #A865F5",
"E. 	c #8978FE",
"F. 	c #847CFF",
"G. 	c #817EFF",
"H. 	c #7F7EFF",
"I. 	c #7D7EFE",
"J. 	c #797CFF",
"K. 	c #7279FE",
"L. 	c #516FF6",
"M. 	c #3255DC",
"N. 	c #5E4EF0",
"O. 	c #C792E8",
"P. 	c #C4B4DE",
"Q. 	c #9DA0F8",
"R. 	c #8989FE",
"S. 	c #8483FF",
"T. 	c #7E81FF",
"U. 	c #7784FE",
"V. 	c #608DFA",
"W. 	c #3CA6E5",
"X. 	c #5EA0F5",
"Y. 	c #BA64ED",
"Z. 	c #B65AED",
"`. 	c #9273FD",
" + 	c #857BFF",
".+ 	c #837DFF",
"++ 	c #7E7FFF",
"@+ 	c #7B7EFF",
"#+ 	c #777CFF",
"$+ 	c #6B77FD",
"%+ 	c #4168EC",
"&+ 	c #3254DB",
"*+ 	c #8A6FFE",
"=+ 	c #CFABD9",
"-+ 	c #B8ADE8",
";+ 	c #9391FC",
">+ 	c #7086FE",
",+ 	c #4799F0",
"'+ 	c #3BA3E6",
")+ 	c #9B75FB",
"!+ 	c #C459E3",
"~+ 	c #9F6BF9",
"{+ 	c #887AFE",
"]+ 	c #847DFF",
"^+ 	c #817FFF",
"/+ 	c #7D7EFF",
"(+ 	c #7A7DFF",
"_+ 	c #757BFE",
":+ 	c #5974F9",
"<+ 	c #2F60DE",
"[+ 	c #4952EA",
"}+ 	c #BF84EE",
"|+ 	c #CEABDA",
"1+ 	c #A49FF5",
"2+ 	c #8A88FF",
"3+ 	c #8583FF",
"4+ 	c #8281FF",
"5+ 	c #7785FF",
"6+ 	c #5E92F9",
"7+ 	c #3BA5E4",
"8+ 	c #648EFB",
"9+ 	c #BD57E7",
"0+ 	c #B25EF0",
"a+ 	c #8E76FE",
"b+ 	c #857CFF",
"c+ 	c #827DFF",
"d+ 	c #7C7FFF",
"e+ 	c #787CFF",
"f+ 	c #6C79FE",
"g+ 	c #436AEE",
"h+ 	c #334ED9",
"i+ 	c #8156F8",
"j+ 	c #D19EDC",
"k+ 	c #BAAFE6",
"l+ 	c #9496FB",
"m+ 	c #8886FF",
"n+ 	c #6A89FC",
"o+ 	c #46A2EC",
"p+ 	c #4AACEA",
"q+ 	c #A773F8",
"r+ 	c #BC5AE9",
"s+ 	c #976EFB",
"t+ 	c #877BFF",
"u+ 	c #7B7DFF",
"v+ 	c #757BFF",
"w+ 	c #6175FB",
"x+ 	c #385FE4",
"y+ 	c #3F50E4",
"z+ 	c #AD83F7",
"A+ 	c #CBB3D8",
"B+ 	c #AAA9F1",
"C+ 	c #8D8CFE",
"D+ 	c #8584FE",
"E+ 	c #7586FF",
"F+ 	c #5395F6",
"G+ 	c #38A7E1",
"H+ 	c #7E8DFE",
"I+ 	c #C65EE4",
"J+ 	c #A966F6",
"K+ 	c #8A79FF",
"L+ 	c #797DFE",
"M+ 	c #717AFE",
"N+ 	c #4D71F4",
"O+ 	c #2D5CD9",
"P+ 	c #655FF8",
"Q+ 	c #CC9CE1",
"R+ 	c #C5AFDF",
"S+ 	c #9A99F9",
"T+ 	c #8988FF",
"U+ 	c #7B82FF",
"V+ 	c #658EFC",
"W+ 	c #40A7E6",
"X+ 	c #4EA0F1",
"Y+ 	c #B363F0",
"Z+ 	c #BC59E8",
"`+ 	c #9572FD",
" @ 	c #867CFF",
".@ 	c #837EFF",
"+@ 	c #767CFE",
"@@ 	c #6477FC",
"#@ 	c #3664E4",
"$@ 	c #394DDD",
"%@ 	c #A36BF8",
"&@ 	c #D0ABD8",
"*@ 	c #B1AFEB",
"=@ 	c #9091FC",
"-@ 	c #8785FF",
";@ 	c #4B99F0",
">@ 	c #3EABE4",
",@ 	c #9182FE",
"'@ 	c #C156E5",
")@ 	c #A465F7",
"!@ 	c #897AFF",
"~@ 	c #717BFE",
"{@ 	c #516FF5",
"]@ 	c #3355DC",
"^@ 	c #564FEE",
"/@ 	c #C093EC",
"(@ 	c #C9B3DA",
"_@ 	c #A3A0F6",
":@ 	c #8A89FE",
"<@ 	c #8584FF",
"[@ 	c #7684FE",
"}@ 	c #5E8DFA",
"|@ 	c #37A2E3",
"1@ 	c #6096F9",
"2@ 	c #C161E8",
"3@ 	c #B55FEE",
"4@ 	c #8F75FE",
"5@ 	c #827EFF",
"6@ 	c #6B78FD",
"7@ 	c #4169EC",
"8@ 	c #2F56DA",
"9@ 	c #8567FD",
"0@ 	c #D4A1D9",
"a@ 	c #BCAAE8",
"b@ 	c #8886FE",
"c@ 	c #7983FE",
"d@ 	c #6E88FE",
"e@ 	c #489DEF",
"f@ 	c #3DA5E6",
"g@ 	c #9C71FC",
"h@ 	c #C357E4",
"i@ 	c #9E6CF9",
"j@ 	c #877AFF",
"k@ 	c #847DFE",
"l@ 	c #7A7EFF",
"m@ 	c #747BFE",
"n@ 	c #305FDE",
"o@ 	c #4A4EE7",
"p@ 	c #BE80EF",
"q@ 	c #CEAEDA",
"r@ 	c #A4A4F4",
"s@ 	c #8B8AFE",
"t@ 	c #7585FE",
"u@ 	c #5894F8",
"v@ 	c #3DACE2",
"w@ 	c #6F94FC",
"x@ 	c #BF59E7",
"y@ 	c #AF5FF1",
"z@ 	c #8E77FE",
"A@ 	c #7C7EFF",
"B@ 	c #797CFE",
"C@ 	c #6D79FE",
"D@ 	c #456AEF",
"E@ 	c #3250DA",
"F@ 	c #7959F9",
"G@ 	c #CCA3DF",
"H@ 	c #BEB4E2",
"I@ 	c #9898FA",
"J@ 	c #6889FD",
"K@ 	c #3F9EE9",
"L@ 	c #49A3ED",
"M@ 	c #B06EF4",
"N@ 	c #BE5AE9",
"O@ 	c #976FFC",
"P@ 	c #877BFE",
"Q@ 	c #6275FB",
"R@ 	c #3861E4",
"S@ 	c #3B51E0",
"T@ 	c #A67BF8",
"U@ 	c #D2ABD7",
"V@ 	c #B0A5F0",
"W@ 	c #8684FF",
"X@ 	c #7486FE",
"Y@ 	c #5494F5",
"Z@ 	c #37A4E2",
"`@ 	c #C456E2",
" # 	c #A966F5",
".# 	c #8A78FF",
"+# 	c #827FFF",
"@# 	c #7D7FFF",
"## 	c #727AFE",
"$# 	c #4D70F4",
"%# 	c #2E58D9",
"&# 	c #644EF2",
"*# 	c #CE8EE3",
"=# 	c #C6ACE0",
"-# 	c #9A9AFA",
";# 	c #8484FF",
"># 	c #7783FE",
",# 	c #668DFB",
"'# 	c #41A7E8",
")# 	c #54A0F3",
"!# 	c #B362F0",
"~# 	c #B759EC",
"{# 	c #9371FD",
"]# 	c #867BFF",
"^# 	c #777BFE",
"/# 	c #6677FD",
"(# 	c #3D62E9",
"_# 	c #3A4BDC",
":# 	c #986BFB",
"<# 	c #CFACD9",
"[# 	c #B0AFEC",
"}# 	c #8784FF",
"|# 	c #4A99F0",
"1# 	c #3FACE4",
"2# 	c #9684FD",
"3# 	c #C35CE6",
"4# 	c #887AFF",
"5# 	c #747BFF",
"6# 	c #5972F8",
"7# 	c #315EDF",
"8# 	c #4E57EE",
"9# 	c #BE95EC",
"0# 	c #A3A0F5",
"a# 	c #8A88FE",
"b# 	c #5F8DFA",
"c# 	c #38A1E3",
"d# 	c #6093FA",
"e# 	c #C15FE8",
"f# 	c #B461EF",
"g# 	c #8E76FD",
"h# 	c #6C79FD",
"i# 	c #406BEC",
"j# 	c #2E56D9",
"k# 	c #8663FB",
"l# 	c #D39FDA",
"m# 	c #9390FC",
"n# 	c #8785FE",
"o# 	c #8482FF",
"p# 	c #6F89FE",
"q# 	c #499DEF",
"r# 	c #41A5E8",
"s# 	c #9C6DFA",
"t# 	c #C055E5",
"u# 	c #9D6CFA",
"v# 	c #7B7DFE",
"w# 	c #335CDF",
"x# 	c #4B47E5",
"y# 	c #BA7CF1",
"z# 	c #CDADDA",
"A# 	c #8B8BFE",
"B# 	c #3DACE3",
"C# 	c #7496FD",
"D# 	c #C05DE8",
"E# 	c #AB61F4",
"F# 	c #8B77FE",
"G# 	c #787CFE",
"H# 	c #6F79FE",
"I# 	c #4B6BF2",
"J# 	c #3255DB",
"K# 	c #715FFA",
"L# 	c #CCA4DF",
"M# 	c #BDB5E2",
"N# 	c #9899FB",
"O# 	c #8482FE",
"P# 	c #7984FF",
"Q# 	c #688BFD",
"R# 	c #40A0E9",
"S# 	c #4AA2EE",
"T# 	c #B16DF3",
"U# 	c #BE5DEA",
"V# 	c #9572FC",
"W# 	c #777CFE",
"X# 	c #3666E5",
"Y# 	c #3955E0",
"Z# 	c #A67CF9",
"`# 	c #D1ABD7",
" $ 	c #AFA7EE",
".$ 	c #8E8EFD",
"+$ 	c #8685FE",
"@$ 	c #7A83FE",
"#$ 	c #529BF3",
"$$ 	c #3AABE1",
"%$ 	c #C356E3",
"&$ 	c #8A79FE",
"*$ 	c #4C70F4",
"=$ 	c #2E57D9",
"-$ 	c #654EF2",
";$ 	c #CB91E5",
">$ 	c #C4B4DD",
",$ 	c #9DA1F7",
"'$ 	c #608EFA",
")$ 	c #3BA6E5",
"!$ 	c #5DA1F6",
"~$ 	c #B963ED",
"{$ 	c #9272FD",
"]$ 	c #867BFE",
"^$ 	c #6677FC",
"/$ 	c #3D63E9",
"($ 	c #384DDC",
"_$ 	c #8E6CFD",
":$ 	c #B9AEE8",
"<$ 	c #9290FD",
"[$ 	c #7087FE",
"}$ 	c #4798F0",
"|$ 	c #3BA4E5",
"1$ 	c #9A79FC",
"2$ 	c #C45AE4",
"3$ 	c #9F6BFA",
"4$ 	c #747AFF",
"5$ 	c #305FDD",
"6$ 	c #4953EA",
"7$ 	c #C087ED",
"8$ 	c #CEACDA",
"9$ 	c #A49FF6",
"0$ 	c #8B89FE",
"a$ 	c #7B82FE",
"b$ 	c #39A5E3",
"c$ 	c #6292FA",
"d$ 	c #C05AE7",
"e$ 	c #B45FEF",
"f$ 	c #6D79FD",
"g$ 	c #416BEC",
"h$ 	c #3251D9",
"i$ 	c #825BFA",
"j$ 	c #D29EDC",
"k$ 	c #BBAEE6",
"l$ 	c #9395FC",
"m$ 	c #8483FE",
"n$ 	c #6A89FD",
"o$ 	c #45A1EB",
"p$ 	c #47ABE9",
"q$ 	c #A271F9",
"r$ 	c #BE56E7",
"s$ 	c #9B6DFB",
"t$ 	c #767BFE",
"u$ 	c #5E74FA",
"v$ 	c #365EE2",
"w$ 	c #434DE3",
"x$ 	c #B081F5",
"y$ 	c #CCB4D8",
"z$ 	c #AAA8F0",
"A$ 	c #38A5E1",
"B$ 	c #7C8DFF",
"C$ 	c #C45CE5",
"D$ 	c #AB63F4",
"E$ 	c #8C78FE",
"F$ 	c #857DFF",
"G$ 	c #797DFF",
"H$ 	c #7179FE",
"I$ 	c #4C6EF3",
"J$ 	c #2E59DA",
"K$ 	c #665DF7",
"L$ 	c #CD9BE1",
"M$ 	c #C6AEE0",
"N$ 	c #3F9FE9",
"O$ 	c #499AF0",
"P$ 	c #B161F1",
"Q$ 	c #BD59E8",
"R$ 	c #9571FC",
"S$ 	c #807EFF",
"T$ 	c #767BFF",
"U$ 	c #6477FB",
"V$ 	c #3765E4",
"W$ 	c #3A4DDD",
"X$ 	c #A56AF8",
"Y$ 	c #B0A6EF",
"Z$ 	c #8D8DFE",
"`$ 	c #8685FF",
" % 	c #7287FE",
".% 	c #3EACE4",
"+% 	c #8782FE",
"@% 	c #727BFE",
"#% 	c #526FF5",
"$% 	c #3355DD",
"%% 	c #5B4FF0",
"&% 	c #C692E8",
"*% 	c #618EFA",
"=% 	c #3CA6E4",
"-% 	c #60A1F6",
";% 	c #BC68ED",
">% 	c #B45FF0",
",% 	c #4169ED",
"'% 	c #3257DB",
")% 	c #8970FD",
"!% 	c #B8AEE8",
"~% 	c #9292FC",
"{% 	c #6F89FD",
"]% 	c #499EEF",
"^% 	c #3DA6E5",
"/% 	c #C55AE4",
"(% 	c #9F6CF9",
"_% 	c #887BFE",
":% 	c #2E60DD",
"<% 	c #4953E9",
"[% 	c #BF85EE",
"}% 	c #CDAED9",
"|% 	c #A4A5F4",
"1% 	c #5894F7",
"2% 	c #3BACE2",
"3% 	c #6C94FC",
"4% 	c #BF58E7",
"5% 	c #B25FF0",
"6% 	c #857DFE",
"7% 	c #426AED",
"8% 	c #7D57F9",
"9% 	c #CDA3DE",
"0% 	c #7B81FF",
"a% 	c #7883FF",
"b% 	c #6989FD",
"c% 	c #3E9FE9",
"d% 	c #49A4ED",
"e% 	c #BE59E9",
"f% 	c #986EFC",
"g% 	c #6074FB",
"h% 	c #3760E4",
"i% 	c #3C51E1",
"j% 	c #A67DF9",
"k% 	c #D1ACD7",
"l% 	c #8E8BFE",
"m% 	c #7485FE",
"n% 	c #5394F5",
"o% 	c #36A5E1",
"p% 	c #7D85FF",
"q% 	c #C65AE2",
"r% 	c #AA65F5",
"s% 	c #4C70F3",
"t% 	c #2C5BD9",
"u% 	c #6457F5",
"v% 	c #CE94E1",
"w% 	c #C7ACDF",
"x% 	c #9B99F9",
"y% 	c #8987FE",
"z% 	c #7783FF",
"A% 	c #40A6E7",
"B% 	c #4FA0F0",
"C% 	c #9471FD",
"D% 	c #777BFF",
"E% 	c #6476FB",
"F% 	c #3A4CDD",
"G% 	c #A16BF8",
"H% 	c #D0AAD8",
"I% 	c #9091FD",
"J% 	c #4B99F1",
"K% 	c #9282FE",
"L% 	c #C257E5",
"M% 	c #A367F7",
"N% 	c #8979FE",
"O% 	c #5370F6",
"P% 	c #3357DC",
"Q% 	c #5551EE",
"R% 	c #BF93EC",
"S% 	c #CAB3DB",
"T% 	c #8B88FE",
"U% 	c #38A2E3",
"V% 	c #6095F9",
"W% 	c #C160E8",
"X% 	c #B560EF",
"Y% 	c #6C78FE",
"Z% 	c #406AEC",
"`% 	c #2F55D9",
" & 	c #8663FC",
".& 	c #D49FDA",
"+& 	c #BCAAE7",
"@& 	c #9291FD",
"#& 	c #3EA4E7",
"$& 	c #9B70FB",
"%& 	c #C256E5",
"&& 	c #9E6CFA",
"*& 	c #877AFE",
"=& 	c #7E7EFF",
"-& 	c #757AFF",
";& 	c #5A74F9",
">& 	c #4A48E5",
",& 	c #BA7DF0",
"'& 	c #7584FE",
")& 	c #3CACE3",
"!& 	c #7195FC",
"~& 	c #BF5BE8",
"{& 	c #AD61F2",
"]& 	c #8D76FE",
"^& 	c #787DFF",
"/& 	c #3154DB",
"(& 	c #715EF9",
"_& 	c #BDB4E2",
":& 	c #6989FC",
"<& 	c #3E9EE9",
"[& 	c #4AA3ED",
"}& 	c #B16EF4",
"|& 	c #BE5CE9",
"1& 	c #9670FC",
"2& 	c #767CFF",
"3& 	c #3855E0",
"4& 	c #7586FE",
"5& 	c #5495F5",
"6& 	c #38A3E2",
"7& 	c #C456E3",
"8& 	c #A965F5",
"9& 	c #717AFF",
"0& 	c #4D70F3",
"a& 	c #654FF3",
"b& 	c #CD8FE3",
"c& 	c #668DFC",
"d& 	c #41A7E7",
"e& 	c #55A1F3",
"f& 	c #B362F1",
"g& 	c #B659EB",
"h& 	c #9372FD",
"i& 	c #996BFB",
"j& 	c #B0AFEB",
"k& 	c #8382FE",
"l& 	c #7C81FE",
"m& 	c #7187FE",
"n& 	c #4A9AF0",
"o& 	c #C25DE6",
"p& 	c #737AFE",
"q& 	c #5972F9",
"r& 	c #315EDE",
"s& 	c #BF95EC",
"t& 	c #C9B2DA",
"u& 	c #7785FE",
"v& 	c #5E91F9",
"w& 	c #39A6E3",
"x& 	c #6195F9",
"y& 	c #C05FE8",
"z& 	c #B460EF",
"A& 	c #406BED",
"B& 	c #8662FC",
"C& 	c #D3A1DA",
"D& 	c #BBAFE5",
"E& 	c #9396FB",
"F& 	c #8786FF",
"G& 	c #45A2EC",
"H& 	c #46ABE9",
"I& 	c #A170FA",
"J& 	c #757CFE",
"K& 	c #335BDF",
"L& 	c #4948E4",
"M& 	c #B480F4",
"N& 	c #CCB3D8",
"O& 	c #5393F6",
"P& 	c #37A7E2",
"Q& 	c #7C8EFE",
"R& 	c #AB62F4",
"S& 	c #8C77FE",
"T& 	c #6F79FD",
"U& 	c #2F55DA",
"V& 	c #675CF8",
"W& 	c #CC9DE1",
"X& 	c #C6AEDF",
"Y& 	c #9A98FA",
"Z& 	c #698BFC",
"`& 	c #B366F2",
" * 	c #BE5BE8",
".* 	c #867CFE",
"+* 	c #3665E4",
"@* 	c #3851DE",
"#* 	c #A571F8",
"$* 	c #D3A6D8",
"%* 	c #8381FF",
"&* 	c #7386FE",
"** 	c #529AF3",
"=* 	c #3CABE2",
"-* 	c #C255E4",
";* 	c #A766F6",
">* 	c #4E6FF4",
",* 	c #3056DA",
"'* 	c #614EF1",
")* 	c #C992E6",
"!* 	c #C5B4DD",
"~* 	c #9DA0F7",
"{* 	c #B65CED",
"]* 	c #9172FE",
"^* 	c #6777FC",
"/* 	c #3F65EA",
"(* 	c #3550DC",
"_* 	c #8D6DFD",
":* 	c #D0ABD9",
"<* 	c #B9ADE7",
"[* 	c #7982FF",
"}* 	c #4898F0",
"|* 	c #3BA2E6",
"1* 	c #9A75FC",
"2* 	c #C459E4",
"3* 	c #757AFE",
"4* 	c #5973F8",
"5* 	c #4A51E9",
"6* 	c #BF84ED",
"7* 	c #CFAADA",
"8* 	c #8B89FF",
"9* 	c #8583FE",
"0* 	c #7684FF",
"a* 	c #5F92FA",
"b* 	c #3AA5E3",
"c* 	c #648FFB",
"d* 	c #BD57E8",
"e* 	c #B25DF0",
"f* 	c #334FD9",
"g* 	c #8056F8",
"h* 	c #D29DDD",
"i* 	c #BBAFE6",
"j* 	c #9395FB",
"k* 	c #6B89FD",
"l* 	c #BD59E9",
"m* 	c #986EFB",
"n* 	c #3860E4",
"o* 	c #4050E3",
"p* 	c #AE83F7",
"q* 	c #37A5E1",
"r* 	c #C55EE5",
"s* 	c #AA67F5",
"t* 	c #2D5BD9",
"u* 	c #C5AEE0",
"v* 	c #9B97FA",
"w* 	c #4B9AF0",
"x* 	c #B262F1",
"y* 	c #BD5AE8",
"z* 	c #394CDE",
"A* 	c #A56AF7",
"B* 	c #D3A6D9",
"C* 	c #8D8DFD",
"D* 	c #8282FE",
"E* 	c #529AF4",
"F* 	c #3EABE3",
"G* 	c #C056E5",
"H* 	c #A466F7",
"I* 	c #7F83FF",
"J* 	c #5170F6",
"K* 	c #5C4FF0",
"L* 	c #7884FE",
"M* 	c #BD67EC",
"N* 	c #B460F0",
"O* 	c #8F75FD",
"P* 	c #7E85FF",
"Q* 	c #7E88FF",
"R* 	c #7F8BFE",
"S* 	c #7F8EFF",
"T* 	c #808EFE",
"U* 	c #818CFF",
"V* 	c #8188FF",
"W* 	c #8085FF",
"X* 	c #6C78FD",
"Y* 	c #3156DC",
"Z* 	c #8B6FFD",
"`* 	c #9291FC",
" = 	c #8885FF",
".= 	c #6F88FD",
"+= 	c #489DEE",
"@= 	c #3DA6E6",
"#= 	c #9C74FB",
"$= 	c #C359E4",
"%= 	c #7D83FF",
"&= 	c #7B87FF",
"*= 	c #7A8EFE",
"== 	c #7A97FD",
"-= 	c #7B9EFB",
";= 	c #7EA2FB",
">= 	c #83A2FA",
",= 	c #869DFB",
"'= 	c #858EFE",
")= 	c #8388FE",
"!= 	c #8183FF",
"~= 	c #5974F8",
"{= 	c #2F60DD",
"]= 	c #A5A5F4",
"^= 	c #8B8BFD",
"/= 	c #5994F7",
"(= 	c #6E94FC",
"_= 	c #B05FF1",
":= 	c #857CFE",
"<= 	c #7C83FE",
"[= 	c #7888FF",
"}= 	c #7491FD",
"|= 	c #6FA1FA",
"1= 	c #6DBAEF",
"2= 	c #73D6DC",
"3= 	c #7DE3CF",
"4= 	c #86E3CE",
"5= 	c #8ED6DC",
"6= 	c #8FBAF0",
"7= 	c #8DA0FA",
"8= 	c #8992FD",
"9= 	c #8488FE",
"0= 	c #436AED",
"a= 	c #7C58F8",
"b= 	c #CDA2DF",
"c= 	c #BEB4E1",
"d= 	c #698AFD",
"e= 	c #B06FF4",
"f= 	c #BE5AE8",
"g= 	c #7787FE",
"h= 	c #6F90FD",
"i= 	c #64A1F7",
"j= 	c #53C6E0",
"k= 	c #52E7BA",
"l= 	c #64F6A6",
"m= 	c #7AFBA0",
"n= 	c #8FFAA0",
"o= 	c #A1F5A5",
"p= 	c #A4EABB",
"q= 	c #9FC9E2",
"r= 	c #94A2F9",
"s= 	c #8B91FD",
"t= 	c #8586FE",
"u= 	c #A67BF9",
"v= 	c #AFA6EF",
"w= 	c #8E8CFE",
"x= 	c #7A82FE",
"y= 	c #5394F6",
"z= 	c #C659E3",
"A= 	c #6E8DFD",
"B= 	c #5E9DF7",
"C= 	c #40C0DA",
"D= 	c #34DAAE",
"E= 	c #3EE89F",
"F= 	c #55F2A3",
"G= 	c #77F7AB",
"H= 	c #9DF4AA",
"I= 	c #BAECA2",
"J= 	c #C1E89F",
"K= 	c #BAE5B3",
"L= 	c #A8C6E2",
"M= 	c #979EF9",
"N= 	c #8C8DFE",
"O= 	c #8485FF",
"P= 	c #2E59D9",
"Q= 	c #6451F3",
"R= 	c #CD90E3",
"S= 	c #C6ACDF",
"T= 	c #9A99FA",
"U= 	c #668EFC",
"V= 	c #40A7E7",
"W= 	c #4FA1F1",
"X= 	c #BC59E9",
"Y= 	c #7089FD",
"Z= 	c #5F94F9",
"`= 	c #39B0DF",
" - 	c #25CDAE",
".- 	c #28D89E",
"+- 	c #34DDAB",
"@- 	c #50D8CD",
"#- 	c #76CEE3",
"$- 	c #9FCCE1",
"%- 	c #CACDC4",
"&- 	c #DAD1A5",
"*- 	c #D3DBA0",
"=- 	c #C4DBB7",
"-- 	c #ACB7E9",
";- 	c #9695FB",
">- 	c #8A89FF",
",- 	c #3C63E8",
"'- 	c #394CDC",
")- 	c #9B6BFA",
"!- 	c #7086FD",
"~- 	c #9282FD",
"{- 	c #C258E4",
"]- 	c #A267F7",
"^- 	c #658FFB",
"/- 	c #459EED",
"(- 	c #1AB5B8",
"_- 	c #19C59F",
":- 	c #25CEAA",
"<- 	c #3FC4D6",
"[- 	c #64AEF2",
"}- 	c #7AA7F8",
"|- 	c #8FA8F7",
"1- 	c #AFABED",
"2- 	c #DBB7C6",
"3- 	c #E7C2A3",
"4- 	c #E0CCA2",
"5- 	c #C9C7CB",
"6- 	c #A4A2F5",
"7- 	c #928EFD",
"8- 	c #8686FF",
"9- 	c #737BFE",
"0- 	c #5872F8",
"a- 	c #315DDD",
"b- 	c #5056EF",
"c- 	c #BF94EC",
"d- 	c #5F93F9",
"e- 	c #6C8AFD",
"f- 	c #5697F5",
"g- 	c #29B0D0",
"h- 	c #15BBA2",
"i- 	c #16BFA1",
"j- 	c #2EBBCD",
"k- 	c #58A5F2",
"l- 	c #6C98FB",
"m- 	c #7C93FE",
"n- 	c #8B92FD",
"o- 	c #9C99F9",
"p- 	c #BEA0EA",
"q- 	c #EBAAB6",
"r- 	c #ECB99E",
"s- 	c #DBCBAD",
"t- 	c #B7BCE1",
"u- 	c #9D98FA",
"v- 	c #8C8AFD",
"w- 	c #6F88FE",
"x- 	c #40A4E8",
"y- 	c #9C6CFA",
"z- 	c #C054E4",
"A- 	c #6090FA",
"B- 	c #18BBAE",
"C- 	c #18C39D",
"D- 	c #1FC1B4",
"E- 	c #45A8EA",
"F- 	c #6594FA",
"G- 	c #748BFE",
"H- 	c #8686FE",
"I- 	c #938AFD",
"J- 	c #A694F7",
"K- 	c #D89ED6",
"L- 	c #EEB2A6",
"M- 	c #E4C7A0",
"N- 	c #CFCCBF",
"O- 	c #ACA7F0",
"P- 	c #9591FC",
"Q- 	c #B97CF1",
"R- 	c #CDAEDA",
"S- 	c #A5A4F4",
"T- 	c #8C8BFE",
"U- 	c #7484FE",
"V- 	c #5994F8",
"W- 	c #7497FC",
"X- 	c #698CFC",
"Y- 	c #4F97F2",
"Z- 	c #1DACC4",
"`- 	c #12B99F",
" ; 	c #19C1A7",
".; 	c #34B5D8",
"+; 	c #5B98F7",
"@; 	c #6E8BFE",
"#; 	c #7A84FE",
"$; 	c #8280FF",
"%; 	c #8B84FE",
"&; 	c #9A8BFC",
"*; 	c #B896F0",
"=; 	c #E6A6C2",
"-; 	c #EEB6A0",
";; 	c #E4C4A7",
">; 	c #C3BCD9",
",; 	c #A099F8",
"'; 	c #8F8CFD",
"); 	c #4C6BF2",
"!; 	c #3155DB",
"~; 	c #CBA4DF",
"{; 	c #BDB4E1",
"]; 	c #9899FA",
"^; 	c #698BFD",
"/; 	c #3FA0E9",
"(; 	c #4AA3EE",
"_; 	c #B26EF3",
":; 	c #BE5DE9",
"<; 	c #7088FD",
"[; 	c #5D92F9",
"}; 	c #35A5DF",
"|; 	c #13B4AA",
"1; 	c #12BA9E",
"2; 	c #21B8BF",
"3; 	c #4E9FF1",
"4; 	c #678EFB",
"5; 	c #7686FE",
"6; 	c #8582FE",
"7; 	c #9085FE",
"8; 	c #A18FFA",
"9; 	c #CD99E2",
"0; 	c #F1A7AC",
"a; 	c #ECBA9F",
"b; 	c #D7C7BA",
"c; 	c #AFADED",
"d; 	c #9792FC",
"e; 	c #8988FE",
"f; 	c #6577FC",
"g; 	c #3666E4",
"h; 	c #3856E0",
"i; 	c #A57DF9",
"j; 	c #489CEF",
"k; 	c #1FB7BD",
"l; 	c #16C09E",
"m; 	c #19BFA8",
"n; 	c #37ADDF",
"o; 	c #7189FE",
"p; 	c #8982FF",
"q; 	c #9689FC",
"r; 	c #B193F4",
"s; 	c #E5A0C6",
"t; 	c #EFB4A0",
"u; 	c #E0CAA5",
"v; 	c #C4C7CF",
"w; 	c #918DFD",
"x; 	c #8585FE",
"y; 	c #654FF2",
"z; 	c #CB92E4",
"A; 	c #B863EE",
"B; 	c #B75AEC",
"C; 	c #6D89FE",
"D; 	c #29A8D4",
"E; 	c #14B9A5",
"F; 	c #18C3A0",
"G; 	c #28BDC4",
"H; 	c #519DF2",
"I; 	c #6A8DFD",
"J; 	c #8481FF",
"K; 	c #8D85FE",
"L; 	c #9F8DFA",
"M; 	c #C899E4",
"N; 	c #ECACB2",
"O; 	c #E9C09E",
"P; 	c #DACAB0",
"Q; 	c #B8B2E6",
"R; 	c #9B93FA",
"S; 	c #3D62E8",
"T; 	c #384BDC",
"U; 	c #8E6BFD",
"V; 	c #B9AEE7",
"W; 	c #9B79FC",
"X; 	c #638FFB",
"Y; 	c #429CEC",
"Z; 	c #16AFB4",
"`; 	c #12B99E",
" > 	c #1CBDB2",
".> 	c #42A9E7",
"+> 	c #7387FE",
"@> 	c #9488FD",
"#> 	c #AA92F6",
"$> 	c #DA9FD3",
"%> 	c #F1AEA4",
"&> 	c #E8BFA2",
"*> 	c #CFC2CA",
"=> 	c #A6A0F5",
"-> 	c #938FFC",
";> 	c #797EFF",
">> 	c #305EDD",
",> 	c #4954EA",
"'> 	c #BF89ED",
")> 	c #7685FF",
"!> 	c #C05BE7",
"~> 	c #5597F6",
"{> 	c #29AFCF",
"]> 	c #13BAA2",
"^> 	c #15BDA2",
"/> 	c #2BB3CF",
"(> 	c #5798F6",
"_> 	c #6C8CFD",
":> 	c #8380FF",
"<> 	c #8C84FE",
"[> 	c #9C8CFC",
"}> 	c #ECA3B6",
"|> 	c #EFB69E",
"1> 	c #DCCAAD",
"2> 	c #B8BBE0",
"3> 	c #9D98F9",
"4> 	c #8D8BFE",
"5> 	c #3053D9",
"6> 	c #855DFA",
"7> 	c #D49EDA",
"8> 	c #45A1EC",
"9> 	c #A271FA",
"0> 	c #BF56E6",
"a> 	c #9C6DFB",
"b> 	c #6091F9",
"c> 	c #18BAAF",
"d> 	c #17C39E",
"e> 	c #1FC0B4",
"f> 	c #44A5EA",
"g> 	c #6590FB",
"h> 	c #7486FF",
"i> 	c #8681FF",
"j> 	c #9287FD",
"k> 	c #A78FF8",
"l> 	c #D99CD6",
"m> 	c #EEB1A6",
"n> 	c #E5C6A0",
"o> 	c #CFCDBE",
"p> 	c #ADA9F0",
"q> 	c #9591FB",
"r> 	c #8888FF",
"s> 	c #5B74FA",
"t> 	c #345CE0",
"u> 	c #4749E5",
"v> 	c #B280F4",
"w> 	c #AAA8F1",
"x> 	c #5493F6",
"y> 	c #7C8DFE",
"z> 	c #7584FF",
"A> 	c #688DFC",
"B> 	c #4E9BF2",
"C> 	c #1FAFC3",
"D> 	c #12BB9F",
"E> 	c #35B4D8",
"F> 	c #5A97F8",
"G> 	c #6E8AFD",
"H> 	c #8A84FE",
"I> 	c #998AFC",
"J> 	c #B795F1",
"K> 	c #EEB7A0",
"L> 	c #E3C6A7",
"M> 	c #C2C0D8",
"N> 	c #A19CF8",
"O> 	c #908DFD",
"P> 	c #4C6CF2",
"Q> 	c #2F57DA",
"R> 	c #CC9BE1",
"S> 	c #C5ADE0",
"T> 	c #9A97F9",
"U> 	c #3F9EE8",
"V> 	c #499BF0",
"W> 	c #B162F1",
"X> 	c #6E88FD",
"Y> 	c #5B93F8",
"Z> 	c #32AADA",
"`> 	c #18BEA7",
" , 	c #23BAC0",
"., 	c #4F9FF1",
"+, 	c #688EFC",
"@, 	c #7686FF",
"#, 	c #8581FF",
"$, 	c #CC9AE2",
"%, 	c #EFA9AC",
"&, 	c #D2D0B5",
"*, 	c #B2B3E8",
"=, 	c #9894FB",
"-, 	c #3765E5",
";, 	c #8D8EFE",
">, 	c #8682FF",
",, 	c #C155E5",
"', 	c #7485FF",
"), 	c #658DFB",
"!, 	c #439CEC",
"~, 	c #19B2B7",
"{, 	c #15C09D",
"], 	c #1EC3AC",
"^, 	c #3AAFE0",
"/, 	c #8883FF",
"(, 	c #9689FD",
"_, 	c #B093F4",
":, 	c #E0A2CC",
"<, 	c #EDB7A2",
"[, 	c #E3C6A2",
"}, 	c #CCC4CB",
"|, 	c #A69FF5",
"1, 	c #928EFC",
"2, 	c #5B4EF0",
"3, 	c #8989FF",
"4, 	c #5FA1F6",
"5, 	c #BC67EC",
"6, 	c #8F74FE",
"7, 	c #6C89FD",
"8, 	c #5794F6",
"9, 	c #27A7D3",
"0, 	c #11B4A3",
"a, 	c #14BCA2",
"b, 	c #2BB7CE",
"c, 	c #559BF5",
"d, 	c #6B8CFD",
"e, 	c #7885FF",
"f, 	c #9D8DFB",
"g, 	c #C198EB",
"h, 	c #ECA6B6",
"i, 	c #DFC5B0",
"j, 	c #9C95FA",
"k, 	c #8C8AFE",
"l, 	c #6B78FE",
"m, 	c #4269ED",
"n, 	c #8A71FD",
"o, 	c #4899EF",
"p, 	c #3BA3E5",
"q, 	c #9F6CFA",
"r, 	c #618FFA",
"s, 	c #41A2E9",
"t, 	c #19B7B3",
"u, 	c #12BB9D",
"v, 	c #1BBBB2",
"w, 	c #44A5E9",
"x, 	c #6491FA",
"y, 	c #8781FF",
"z, 	c #9387FD",
"A, 	c #A891F7",
"B, 	c #DA9CD4",
"C, 	c #F1ACA4",
"D, 	c #E8C2A1",
"E, 	c #CBCAC6",
"F, 	c #A9A6F2",
"G, 	c #9490FD",
"H, 	c #4952E9",
"I, 	c #C085EE",
"J, 	c #CFABDA",
"K, 	c #A59FF5",
"L, 	c #5F91F9",
"M, 	c #3BA6E4",
"N, 	c #BE57E7",
"O, 	c #B15EF0",
"P, 	c #7883FE",
"Q, 	c #6A8BFC",
"R, 	c #5096F4",
"S, 	c #23AFC8",
"T, 	c #16C0A0",
"U, 	c #1AC3A2",
"V, 	c #2DB5D1",
"W, 	c #5998F7",
"X, 	c #6D8BFD",
"Y, 	c #8B84FF",
"Z, 	c #BD95ED",
"`, 	c #EAA6B9",
" ' 	c #EBBC9E",
".' 	c #DCCDA9",
"+' 	c #BFBDDB",
"@' 	c #9E98F9",
"#' 	c #8484FE",
"$' 	c #8786FE",
"%' 	c #45A2EB",
"&' 	c #4AABEA",
"*' 	c #A774F8",
"=' 	c #986FFB",
"-' 	c #7088FE",
";' 	c #5F91FA",
">' 	c #34A1E1",
",' 	c #14BD9E",
"'' 	c #22BEBC",
")' 	c #668FFC",
"!' 	c #9186FD",
"~' 	c #A58FF9",
"{' 	c #D19CDE",
"]' 	c #EEAEAB",
"^' 	c #EABD9F",
"/' 	c #D7C6BC",
"(' 	c #AEA8EF",
"_' 	c #9691FC",
":' 	c #8987FF",
"<' 	c #6174FB",
"[' 	c #AD83F6",
"}' 	c #5494F6",
"|' 	c #39A6E1",
"1' 	c #7D8DFF",
"2' 	c #C55DE5",
"3' 	c #678DFC",
"4' 	c #1DAFC2",
"5' 	c #11B89E",
"6' 	c #17BBA8",
"7' 	c #37AEDE",
"8' 	c #5D94F8",
"9' 	c #708AFD",
"0' 	c #8983FF",
"a' 	c #988AFC",
"b' 	c #B294F3",
"c' 	c #E6A0C5",
"d' 	c #F1B0A0",
"e' 	c #E4C3A6",
"f' 	c #C2C0D7",
"g' 	c #A19CF7",
"h' 	c #8F8DFD",
"i' 	c #8585FF",
"j' 	c #2C5CDA",
"k' 	c #655EF8",
"l' 	c #C4AFDF",
"m' 	c #4EA0F0",
"n' 	c #B363F1",
"o' 	c #BD5AE9",
"p' 	c #837EFE",
"q' 	c #6E89FE",
"r' 	c #5A94F8",
"s' 	c #31ABDA",
"t' 	c #18BDA7",
"u' 	c #22BAC1",
"v' 	c #4F9EF2",
"w' 	c #698EFC",
"x' 	c #8E86FE",
"y' 	c #A08EFA",
"z' 	c #CC99E3",
"A' 	c #EFA9AD",
"B' 	c #EAC09E",
"C' 	c #D3D0B5",
"D' 	c #B3B4E9",
"E' 	c #9993FB",
"F' 	c #3665E5",
"G' 	c #D1ABD8",
"H' 	c #4A99F1",
"I' 	c #9183FE",
"J' 	c #C257E4",
"K' 	c #A366F7",
"L' 	c #8979FF",
"M' 	c #439DEC",
"N' 	c #19B3B7",
"O' 	c #15C09E",
"P' 	c #1DC4AC",
"Q' 	c #3BAEE1",
"R' 	c #6093F9",
"S' 	c #7188FE",
"T' 	c #B092F4",
"U' 	c #E0A2CB",
"V' 	c #E4C7A2",
"W' 	c #CCC4CA",
"X' 	c #A6A1F5",
"Y' 	c #928FFC",
"Z' 	c #526FF6",
"`' 	c #C092EC",
" ) 	c #5F8EFA",
".) 	c #6096F8",
"+) 	c #C161E9",
"@) 	c #5696F6",
"#) 	c #28AFD0",
"$) 	c #14BAA3",
"%) 	c #15BEA1",
"&) 	c #2CB8CE",
"*) 	c #569BF5",
"=) 	c #7885FE",
"-) 	c #8480FF",
";) 	c #8C84FF",
">) 	c #9E8CFB",
",) 	c #BF98EA",
"') 	c #EBA7B6",
")) 	c #EEB89E",
"!) 	c #DCCAAE",
"~) 	c #B8BCE1",
"{) 	c #9C97F9",
"]) 	c #6B77FE",
"^) 	c #2F56D9",
"/) 	c #8565FC",
"() 	c #D3A0DA",
"_) 	c #9391FD",
":) 	c #8383FE",
"<) 	c #3EA4E6",
"[) 	c #9B71FB",
"}) 	c #38A1E4",
"|) 	c #19BAAF",
"1) 	c #1FC0B3",
"2) 	c #44A6EA",
"3) 	c #6491FB",
"4) 	c #7487FE",
"5) 	c #A791F7",
"6) 	c #D89DD6",
"7) 	c #E5C7A0",
"8) 	c #ADA8F0",
"9) 	c #9590FC",
"0) 	c #4A4CE7",
"a) 	c #BC7FEF",
"b) 	c #5993F7",
"c) 	c #3CACE2",
"d) 	c #6E95FC",
"e) 	c #BF5AE7",
"f) 	c #AF60F2",
"g) 	c #8D77FE",
"h) 	c #4F97F3",
"i) 	c #1AC1A7",
"j) 	c #5A97F7",
"k) 	c #6F8BFE",
"l) 	c #8A83FF",
"m) 	c #998BFC",
"n) 	c #EEB69F",
"o) 	c #E3C4A8",
"p) 	c #C3BBD9",
"q) 	c #9F99F8",
"r) 	c #6D78FE",
"s) 	c #476AEF",
"t) 	c #3251DA",
"u) 	c #765BFA",
"v) 	c #9897FA",
"w) 	c #8986FE",
"x) 	c #9770FC",
"y) 	c #34A5E0",
"z) 	c #21B9C0",
"A) 	c #4E9EF1",
"B) 	c #9086FE",
"C) 	c #A28FFA",
"D) 	c #CC99E1",
"E) 	c #F0A8AB",
"F) 	c #EDBA9E",
"G) 	c #D6C8BB",
"H) 	c #AFACED",
"I) 	c #9793FC",
"J) 	c #6276FC",
"K) 	c #3763E4",
"L) 	c #3A53E0",
"M) 	c #D2AAD7",
"N) 	c #37A3E2",
"O) 	c #C455E3",
"P) 	c #1FB7BE",
"Q) 	c #16BF9E",
"R) 	c #18BEA9",
"S) 	c #38ADDE",
"T) 	c #7189FD",
"U) 	c #9789FC",
"V) 	c #B192F3",
"W) 	c #EFB4A1",
"X) 	c #DFCBA4",
"Y) 	c #C4C8D0",
"Z) 	c #A49EF6",
"`) 	c #668EFB",
" ! 	c #B759EB",
".! 	c #6D89FD",
"+! 	c #5893F8",
"@! 	c #29A7D4",
"#! 	c #15BAA5",
"$! 	c #27BDC4",
"%! 	c #509DF3",
"&! 	c #6A8DFC",
"*! 	c #9F8CFA",
"=! 	c #C898E5",
"-! 	c #ECACB1",
";! 	c #E9C09F",
">! 	c #DBCAB0",
",! 	c #B7B2E6",
"'! 	c #9A93FA",
")! 	c #7087FD",
"!! 	c #C25CE6",
"~! 	c #7386FF",
"{! 	c #429DEB",
"]! 	c #16AFB5",
"^! 	c #1BBCB2",
"/! 	c #41A8E7",
"(! 	c #7288FE",
"_! 	c #8882FF",
":! 	c #9588FD",
"<! 	c #DB9FD2",
"[! 	c #E9BFA1",
"}! 	c #CFC3CA",
"|! 	c #A7A0F4",
"1! 	c #938FFD",
"2! 	c #5973F9",
"3! 	c #BF94ED",
"4! 	c #A29FF6",
"5! 	c #B560F0",
"6! 	c #8F76FE",
"7! 	c #5596F5",
"8! 	c #28AFCF",
"9! 	c #15BCA1",
"0! 	c #2AB4CF",
"a! 	c #6C8BFD",
"b! 	c #9C8CFB",
"c! 	c #BE96ED",
"d! 	c #EDA4B7",
"e! 	c #EFB79E",
"f! 	c #9E97F9",
"g! 	c #8D8AFE",
"h! 	c #3F6CEC",
"i! 	c #D49FD9",
"j! 	c #40A5E8",
"k! 	c #C054E5",
"l! 	c #6490FB",
"m! 	c #7587FE",
"n! 	c #8682FE",
"o! 	c #9286FD",
"p! 	c #A690F7",
"q! 	c #AEA7F0",
"r! 	c #4B48E5",
"s! 	c #CCADDA",
"t! 	c #7496FC",
"u! 	c #AA62F4",
"v! 	c #827EFE",
"w! 	c #688BFC",
"x! 	c #1EABC3",
"y! 	c #12B89F",
"z! 	c #19C0A7",
"A! 	c #34B4D7",
"B! 	c #7A84FF",
"C! 	c #8A83FE",
"D! 	c #B895F0",
"E! 	c #E6A6C1",
"F! 	c #E3C5A7",
"G! 	c #C4BBD9",
"H! 	c #8F8CFE",
"I! 	c #6E79FE",
"J! 	c #3155DA",
"K! 	c #705FFA",
"L! 	c #4BA3EE",
"M! 	c #B26DF3",
"N! 	c #BD5DE9",
"O! 	c #13BA9E",
"P! 	c #678FFC",
"Q! 	c #8F86FE",
"R! 	c #A28EFA",
"S! 	c #F1A8AC",
"T! 	c #D6C7BB",
"U! 	c #9892FB",
"V! 	c #3954E0",
"W! 	c #8E8EFE",
"X! 	c #539AF4",
"Y! 	c #C456E4",
"Z! 	c #A866F6",
"`! 	c #658DFC",
" ~ 	c #37ADDE",
".~ 	c #7089FE",
"+~ 	c #C3C8CF",
"@~ 	c #918EFD",
"#~ 	c #727AFF",
"$~ 	c #2F57D9",
"%~ 	c #634FF2",
"&~ 	c #CB92E5",
"*~ 	c #C4B5DD",
"=~ 	c #5DA2F6",
"-~ 	c #BA64EE",
";~ 	c #5995F7",
">~ 	c #28A8D4",
",~ 	c #14BBA5",
"'~ 	c #19C3A0",
")~ 	c #519EF2",
"!~ 	c #C899E5",
"~~ 	c #B8B3E6",
"{~ 	c #9A95FA",
"]~ 	c #3E63E9",
"^~ 	c #384DDB",
"/~ 	c #8E6DFC",
"(~ 	c #9290FC",
"_~ 	c #41A3E9",
":~ 	c #13BD9D",
"<~ 	c #1CBEB1",
"[~ 	c #AA91F6",
"}~ 	c #F0AFA4",
"|~ 	c #E7C2A1",
"1~ 	c #CBCBC6",
"2~ 	c #A8A7F2",
"3~ 	c #948FFC",
"4~ 	c #8787FE",
"5~ 	c #4951EA",
"6~ 	c #6192FA",
"7~ 	c #6A8BFD",
"8~ 	c #5097F4",
"9~ 	c #23AFC9",
"0~ 	c #16C0A1",
"a~ 	c #1AC4A2",
"b~ 	c #2DB5D0",
"c~ 	c #5999F7",
"d~ 	c #9B8CFB",
"e~ 	c #DCCEA9",
"f~ 	c #BFBEDB",
"g~ 	c #8157F8",
"h~ 	c #9496FC",
"i~ 	c #9C6CFB",
"j~ 	c #35A1E1",
"k~ 	c #14BE9E",
"l~ 	c #23BFBB",
"m~ 	c #49A5ED",
"n~ 	c #9187FE",
"o~ 	c #A58FF8",
"p~ 	c #D19DDD",
"q~ 	c #EEAFAA",
"r~ 	c #D7C6BB",
"s~ 	c #375FE4",
"t~ 	c #414FE4",
"u~ 	c #AE82F7",
"v~ 	c #7D81FE",
"w~ 	c #37A5E2",
"x~ 	c #7C8CFF",
"y~ 	c #AA63F4",
"z~ 	c #8C77FF",
"A~ 	c #4E9AF2",
"B~ 	c #1DAEC3",
"C~ 	c #11B79F",
"D~ 	c #16BBA8",
"E~ 	c #37ADDD",
"F~ 	c #5D95F8",
"G~ 	c #6F8AFE",
"H~ 	c #9889FC",
"I~ 	c #B293F3",
"J~ 	c #F0B1A0",
"K~ 	c #E4C3A7",
"L~ 	c #C3BFD7",
"M~ 	c #2D5BDA",
"N~ 	c #C6ADE0",
"O~ 	c #8986FF",
"P~ 	c #9472FC",
"Q~ 	c #7982FE",
"R~ 	c #5A92F7",
"S~ 	c #31AADA",
"T~ 	c #18BDA8",
"U~ 	c #22B9C0",
"V~ 	c #509DF1",
"W~ 	c #698DFC",
"X~ 	c #7685FE",
"Y~ 	c #8481FE",
"Z~ 	c #A18DFA",
"`~ 	c #CC98E2",
" { 	c #F0A9AD",
".{ 	c #EABF9E",
"+{ 	c #B3B3E9",
"@{ 	c #9893FA",
"#{ 	c #6478FC",
"${ 	c #A46AF7",
"%{ 	c #18B2B8",
"&{ 	c #3BAEE0",
"*{ 	c #6193F9",
"={ 	c #AF92F4",
"-{ 	c #E3C7A2",
";{ 	c #A5A0F5",
">{ 	c #5FA1F7",
",{ 	c #BD67ED",
"'{ 	c #11B5A3",
"){ 	c #14BCA1",
"!{ 	c #2AB7CD",
"~{ 	c #569BF4",
"{{ 	c #6B8DFD",
"]{ 	c #8D84FE",
"^{ 	c #C098EB",
"/{ 	c #ECA7B6",
"({ 	c #EEB79E",
"_{ 	c #B9B3E5",
":{ 	c #9B94FA",
"<{ 	c #3156DB",
"[{ 	c #8A70FE",
"}{ 	c #3DA5E5",
"|{ 	c #9C75FB",
"1{ 	c #887BFF",
"2{ 	c #6190FA",
"3{ 	c #40A2E9",
"4{ 	c #19B6B3",
"5{ 	c #13BB9D",
"6{ 	c #43A5E9",
"7{ 	c #9387FE",
"8{ 	c #A890F7",
"9{ 	c #DB9CD4",
"0{ 	c #F1ADA4",
"a{ 	c #E8C1A1",
"b{ 	c #A8A6F2",
"c{ 	c #958FFC",
"d{ 	c #6C95FC",
"e{ 	c #1AC3A3",
"f{ 	c #2DB6D1",
"g{ 	c #5997F6",
"h{ 	c #BD95EE",
"i{ 	c #EAA5BA",
"j{ 	c #EBBC9F",
"k{ 	c #BFBEDA",
"l{ 	c #6C7AFD",
"m{ 	c #7D57F8",
"n{ 	c #BEB5E2",
"o{ 	c #986FFC",
"p{ 	c #13B3AA",
"q{ 	c #15BD9E",
"r{ 	c #22BFBB",
"s{ 	c #4AA4ED",
"t{ 	c #8582FF",
"u{ 	c #A58EF8",
"v{ 	c #EEAEAA",
"w{ 	c #EABE9F",
"x{ 	c #9791FC",
"y{ 	c #3B50E0",
"z{ 	c #A77DF9",
"A{ 	c #5395F5",
"B{ 	c #36A4E1",
"C{ 	c #7D84FF",
"D{ 	c #C659E2",
"E{ 	c #AA66F5",
"F{ 	c #1EAFC3",
"G{ 	c #11B79E",
"H{ 	c #5D94F9",
"I{ 	c #708AFE",
"J{ 	c #E5A0C5",
"K{ 	c #908CFD",
"L{ 	c #2D5AD9",
"M{ 	c #6357F5",
"N{ 	c #CF94E2",
"O{ 	c #50A0F1",
"P{ 	c #BB59E9",
"Q{ 	c #9472FD",
"R{ 	c #31ABDB",
"S{ 	c #22BAC0",
"T{ 	c #688EFD",
"U{ 	c #8F85FE",
"V{ 	c #A18EFA",
"W{ 	c #CC99E2",
"X{ 	c #D3CFB5",
"Y{ 	c #B2B4E8",
"Z{ 	c #9994FB",
"`{ 	c #7B7EFE",
" ] 	c #3864E5",
".] 	c #A06BF9",
"+] 	c #A267F8",
"@] 	c #15BF9D",
"#] 	c #1EC4AC",
"$] 	c #7188FD",
"%] 	c #9589FD",
"&] 	c #ECB7A2",
"*] 	c #A5A0F4",
"=] 	c #928FFD",
"-] 	c #5470F7",
";] 	c #3257DD",
">] 	c #5451EE",
",] 	c #C9B2DB",
"'] 	c #A39FF5",
")] 	c #37A1E3",
"!] 	c #5697F6",
"~] 	c #29AFD0",
"{] 	c #14BAA2",
"]] 	c #16BDA1",
"^] 	c #2CB7CE",
"/] 	c #9D8CFB",
"(] 	c #BF98EB",
"_] 	c #EDB89E",
":] 	c #B8BCE0",
"<] 	c #7B7FFF",
"[] 	c #2F54D9",
"}] 	c #8662FB",
"|] 	c #BBAAE8",
"1] 	c #489EEF",
"2] 	c #C155E4",
"3] 	c #9E6BFA",
"4] 	c #7186FE",
"5] 	c #608FFA",
"6] 	c #38A2E4",
"7] 	c #17C39D",
"8] 	c #1EC1B4",
"9] 	c #A790F8",
"0] 	c #D99DD6",
"a] 	c #D0CDBE",
"b] 	c #ADA7F0",
"c] 	c #7396FD",
"d] 	c #AC61F3",
"e] 	c #698CFD",
"f] 	c #4E97F2",
"g] 	c #1DACC3",
"h] 	c #34B4D8",
"i] 	c #5A98F7",
"j] 	c #6E8BFD",
"k] 	c #8B83FE",
"l] 	c #E5A6C1",
"m] 	c #C3BCDA",
"n] 	c #A098F8",
"o] 	c #8F8BFD",
"p] 	c #705EFA",
"q] 	c #847EFF",
"r] 	c #22B8C0",
"s] 	c #8581FE",
"t] 	c #A28FF9",
"u] 	c #D7C8BB",
"v] 	c #AFADEE",
"w] 	c #9792FB",
"x] 	c #B0A5EF",
"y] 	c #38A3E3",
"z] 	c #A965F6",
"A] 	c #15BF9E",
"B] 	c #19BFA9",
"C] 	c #37ACDE",
"D] 	c #5E93F9",
"E] 	c #8883FE",
"F] 	c #9789FD",
"G] 	c #B192F4",
"H] 	c #E0CAA4",
"I] 	c #C3C8D0",
"J] 	c #4C71F3",
"K] 	c #C6ADDF",
"L] 	c #6E89FD",
"M] 	c #5893F7",
"N] 	c #15BAA4",
"O] 	c #509DF2",
"P] 	c #8E85FE",
"Q] 	c #A08DFB",
"R] 	c #ECADB1",
"S] 	c #EABF9F",
"T] 	c #DAC9B1",
"U] 	c #9A94FB",
"V] 	c #394BDD",
"W] 	c #CFACD8",
"X] 	c #B1B0EB",
"Y] 	c #4B9AF1",
"Z] 	c #3FABE5",
"`] 	c #9784FD",
" ^ 	c #638EFA",
".^ 	c #11B99D",
"+^ 	c #1BBDB2",
"@^ 	c #41A9E7",
"#^ 	c #8782FF",
"$^ 	c #9587FD",
"%^ 	c #AB92F7",
"&^ 	c #DB9ED3",
"*^ 	c #F1AEA3",
"=^ 	c #BE94EC",
"-^ 	c #39A7E2",
";^ 	c #6194F9",
">^ 	c #C05EE8",
",^ 	c #28AED0",
"'^ 	c #15BCA2",
")^ 	c #2AB3CF",
"!^ 	c #5898F6",
"~^ 	c #BE95ED",
"{^ 	c #ECA4B6",
"]^ 	c #EEB69E",
"^^ 	c #B8BBE1",
"/^ 	c #9D97F9",
"(^ 	c #8562FB",
"_^ 	c #6B89FC",
":^ 	c #46ABE8",
"<^ 	c #19BAAE",
"[^ 	c #7487FF",
"}^ 	c #7C82FE",
"|^ 	c #EFB0A6",
"1^ 	c #ADA8EF",
"2^ 	c #B47FF4",
"3^ 	c #8E8CFD",
"4^ 	c #5493F5",
"5^ 	c #38A6E1",
"6^ 	c #8B78FE",
"7^ 	c #1DABC4",
"8^ 	c #12B9A0",
"9^ 	c #9A8AFC",
"0^ 	c #B795F0",
"a^ 	c #E3C5A8",
"b^ 	c #C4BCDA",
"c^ 	c #4B6CF1",
"d^ 	c #3055DA",
"e^ 	c #9672FC",
"f^ 	c #5D93F9",
"g^ 	c #35A5E0",
"h^ 	c #13B4A9",
"i^ 	c #678EFC",
"j^ 	c #A28EF9",
"k^ 	c #ECBA9E",
"l^ 	c #D7C7BB",
"m^ 	c #AEADED",
"n^ 	c #3850DD",
"o^ 	c #A670F8",
"p^ 	c #D3A6D7",
"q^ 	c #7286FF",
"r^ 	c #A765F6",
"s^ 	c #E0CBA4",
"t^ 	c #A4A0F6",
"u^ 	c #4F6FF4",
"v^ 	c #604EF1",
"w^ 	c #C891E6",
"x^ 	c #9DA1F8",
"y^ 	c #5EA1F6",
"z^ 	c #15BBA4",
"A^ 	c #28BEC5",
"B^ 	c #519DF3",
"C^ 	c #9F8DFB",
"D^ 	c #C999E5",
"E^ 	c #EBADB1",
"F^ 	c #DBCBB1",
"G^ 	c #9B95FA",
"H^ 	c #6977FC",
"I^ 	c #3F66EA",
"J^ 	c #3451DC",
"K^ 	c #8D6EFD",
"L^ 	c #4898EF",
"M^ 	c #9B75FC",
"N^ 	c #7B81FE",
"O^ 	c #628FFA",
"P^ 	c #13BC9D",
"Q^ 	c #1CBDB1",
"R^ 	c #CBCBC5",
"S^ 	c #948FFD",
"T^ 	c #2F5FDD",
"U^ 	c #4A52E9",
"V^ 	c #658EFB",
"W^ 	c #BE57E8",
"X^ 	c #23B0C8",
"Y^ 	c #19C4A3",
"Z^ 	c #2EB5D0",
"`^ 	c #5998F6",
" / 	c #BD96ED",
"./ 	c #EAA6BA",
"+/ 	c #9F98F8",
"@/ 	c #9396FC",
"#/ 	c #A873F8",
"$/ 	c #14B3AA",
"%/ 	c #6690FB",
"&/ 	c #7E7FFE",
"*/ 	c #6075FB",
"=/ 	c #5492F5",
"-/ 	c #7D8DFE",
";/ 	c #C65EE5",
">/ 	c #A967F6",
",/ 	c #678CFC",
"'/ 	c #1EAEC3",
")/ 	c #12B79E",
"!/ 	c #16BCA8",
"~/ 	c #B193F3",
"{/ 	c #E5C3A7",
"]/ 	c #C2BFD7",
"^/ 	c #908DFE",
"// 	c #655FF7",
"(/ 	c #5A93F8",
"_/ 	c #A08DFA",
":/ 	c #CC98E3",
"</ 	c #EAC09F",
"[/ 	c #B3B3E8",
"}/ 	c #D3A5D9",
"|/ 	c #8E8DFD",
"1/ 	c #8881FE",
"2/ 	c #A465F6",
"3/ 	c #1DC3AC",
"4/ 	c #8882FE",
"5/ 	c #EDB6A3",
"6/ 	c #928DFD",
"7/ 	c #5C4EF0",
"8/ 	c #3CA5E4",
"9/ 	c #60A0F7",
"0/ 	c #5895F6",
"a/ 	c #27A7D2",
"b/ 	c #2BB7CD",
"c/ 	c #9E8CFA",
"d/ 	c #416AEC",
"e/ 	c #B8AEE7",
"f/ 	c #9E6DFA",
"g/ 	c #618FFB",
"h/ 	c #7388FE",
"i/ 	c #A790F7",
"j/ 	c #CCCBC5",
"k/ 	c #4951E9",
"l/ 	c #CCAEDA",
"m/ 	c #6D95FC",
"n/ 	c #6A8CFD",
"o/ 	c #5097F3",
"p/ 	c #17C0A1",
"q/ 	c #2CB5D0",
"r/ 	c #6D8BFE",
"s/ 	c #DBCDA9",
"t/ 	c #7A58F9",
"u/ 	c #698AFC",
"v/ 	c #3F9FE8",
"w/ 	c #B16FF4",
"x/ 	c #5E92FA",
"y/ 	c #35A6E0",
"z/ 	c #15B6AA",
"A/ 	c #22BFBC",
"B/ 	c #6690FC",
"C/ 	c #D09DDD",
"D/ 	c #EEAFAB",
"E/ 	c #D5C9BA",
"F/ 	c #AEADEE",
"G/ 	c #6175FA",
"H/ 	c #3761E4",
"I/ 	c #3C51E0",
"J/ 	c #AFA5EF",
"K/ 	c #C65AE3",
"L/ 	c #8A78FE",
"M/ 	c #18BFA8",
"N/ 	c #38AEDE",
"O/ 	c #5E95F9",
"P/ 	c #7B83FE",
"Q/ 	c #8983FE",
"R/ 	c #E5A1C5",
"S/ 	c #DFCBA5",
"T/ 	c #2D58D9",
"U/ 	c #6550F3",
"V/ 	c #CE90E4",
"W/ 	c #4FA0F1",
"X/ 	c #B262F0",
"Y/ 	c #BB5AE9",
"Z/ 	c #14BAA5",
"`/ 	c #28BDC5",
" ( 	c #509EF2",
".( 	c #6A8EFC",
"+( 	c #9F8EFA",
"@( 	c #C89AE4",
"#( 	c #DBCAB1",
"$( 	c #9A94FA",
"%( 	c #3C62E9",
"&( 	c #9A6BFB",
"*( 	c #4A9AF1",
"=( 	c #9382FE",
"-( 	c #897AFE",
";( 	c #429CEB",
">( 	c #16B0B4",
",( 	c #1BBDB1",
"'( 	c #7289FE",
")( 	c #AA92F7",
"!( 	c #315DDE",
"~( 	c #4F56EE",
"{( 	c #A39FF6",
"]( 	c #C15EE8",
"^( 	c #5496F5",
"/( 	c #13B9A2",
"(( 	c #9B8BFB",
"_( 	c #DCC9AE",
":( 	c #B9BBE1",
"<( 	c #9D97FA",
"[( 	c #8563FB",
"}( 	c #8885FE",
"|( 	c #18BAAE",
"1( 	c #17C29D",
"2( 	c #1EC0B4",
"3( 	c #44A4EA",
"4( 	c #9287FE",
"5( 	c #A68FF8",
"6( 	c #EEB1A7",
"7( 	c #5A74F8",
"8( 	c #4F98F2",
"9( 	c #5A96F7",
"0( 	c #B894F0",
"a( 	c #E5A5C1",
"b( 	c #E3C4A7",
"c( 	c #715FF9",
"d( 	c #CCA5DF",
"e( 	c #BEB5E1",
"f( 	c #8887FF",
"g( 	c #B26FF3",
"h( 	c #12BA9F",
"i( 	c #AFA8EF",
"j( 	c #C457E2",
"k( 	c #E59FC6",
"l( 	c #E0CBA5",
"m( 	c #394CDB",
"n( 	c #6F87FE",
"o( 	c #4798EF",
"p( 	c #3BA4E4",
"q( 	c #638EFB",
"r( 	c #12B89E",
"s( 	c #9488FE",
"t( 	c #AA91F7",
"u( 	c #CEC2CB",
"v( 	c #938EFC",
"w( 	c #7A7DFE",
"x( 	c #305EDE",
"y( 	c #4854EA",
"z( 	c #C089ED",
"A( 	c #CEACD9",
"B( 	c #15BDA1",
"C( 	c #5898F7",
"D( 	c #416BED",
"E( 	c #845DFA",
"F( 	c #D39FDB",
"G( 	c #47ABEA",
"H( 	c #9B6CFB",
"I( 	c #6091FA",
"J( 	c #9286FE",
"K( 	c #EFB1A6",
"L( 	c #ADA9EF",
"M( 	c #9691FB",
"N( 	c #5C74F9",
"O( 	c #345DE0",
"P( 	c #474AE5",
"Q( 	c #B280F5",
"R( 	c #ABA9F0",
"S( 	c #38A6E2",
"T( 	c #4F9AF2",
"U( 	c #1EB0C3",
"V( 	c #19C0A6",
"W( 	c #34B5D7",
"X( 	c #6F8AFD",
"Y( 	c #807DFF",
"Z( 	c #807CFF",
"`( 	c #8377FE",
" _ 	c #8067FC",
"._ 	c #7C6DFD",
"+_ 	c #7E7BFF",
"@_ 	c #7E7DFF",
"#_ 	c #7E7CFF",
"$_ 	c #7F7DFF",
"%_ 	c #E2C6A7",
"&_ 	c #A09CF7",
"*_ 	c #7079FD",
"=_ 	c #4C6DF3",
"-_ 	c #675CF7",
";_ 	c #B261F1",
">_ 	c #9571FD",
",_ 	c #17BEA8",
"'_ 	c #688FFC",
")_ 	c #817DFF",
"!_ 	c #817BFF",
"~_ 	c #817AFF",
"{_ 	c #8273FE",
"]_ 	c #7E65FC",
"^_ 	c #7B6DFD",
"/_ 	c #7D7CFF",
"(_ 	c #877FFF",
"__ 	c #9B76FB",
":_ 	c #8161FB",
"<_ 	c #6669FB",
"[_ 	c #7974FF",
"}_ 	c #7F73FF",
"|_ 	c #7E78FF",
"1_ 	c #7E7AFF",
"2_ 	c #7F7CFE",
"3_ 	c #F0AAAD",
"4_ 	c #D3D0B4",
"5_ 	c #B0A6EE",
"6_ 	c #847CFE",
"7_ 	c #18B2B7",
"8_ 	c #3BAFE1",
"9_ 	c #817CFF",
"0_ 	c #8277FE",
"a_ 	c #8370FE",
"b_ 	c #8761FB",
"c_ 	c #9559F7",
"d_ 	c #7B58F9",
"e_ 	c #6369FA",
"f_ 	c #8980FF",
"g_ 	c #A689F8",
"h_ 	c #819DFB",
"i_ 	c #6390FB",
"j_ 	c #8266FC",
"k_ 	c #7755F7",
"l_ 	c #7866FC",
"m_ 	c #7E72FE",
"n_ 	c #7D77FF",
"o_ 	c #7D79FF",
"p_ 	c #7E7BFE",
"q_ 	c #EDB7A3",
"r_ 	c #5C4FEF",
"s_ 	c #BC67ED",
"t_ 	c #9074FE",
"u_ 	c #559BF4",
"v_ 	c #837AFF",
"w_ 	c #8572FF",
"x_ 	c #8C5FFA",
"y_ 	c #9542ED",
"z_ 	c #8B39E9",
"A_ 	c #845CF9",
"B_ 	c #6C92FC",
"C_ 	c #7582FE",
"D_ 	c #8E88FE",
"E_ 	c #8298FD",
"F_ 	c #8D91FD",
"G_ 	c #A181FB",
"H_ 	c #7370FD",
"I_ 	c #7144F0",
"J_ 	c #7439E9",
"K_ 	c #7656F8",
"L_ 	c #7B70FE",
"M_ 	c #7C77FF",
"N_ 	c #7D7AFF",
"O_ 	c #8C89FE",
"P_ 	c #7C7EFE",
"Q_ 	c #3256DB",
"R_ 	c #8970FE",
"S_ 	c #18B7B3",
"T_ 	c #1BBBB3",
"U_ 	c #8477FE",
"V_ 	c #8573FE",
"W_ 	c #8A6DFD",
"X_ 	c #9B52F4",
"Y_ 	c #A830DB",
"Z_ 	c #9430E1",
"`_ 	c #5D6FF9",
" : 	c #64A0F8",
".: 	c #6F91FD",
"+: 	c #9485FD",
"@: 	c #A09AF8",
"#: 	c #A8A1F4",
"$: 	c #A769F7",
"%: 	c #5F36E2",
"&: 	c #5431DB",
"*: 	c #6E4CF3",
"=: 	c #7869FD",
"-: 	c #7A73FF",
";: 	c #7B76FE",
">: 	c #8180FE",
",: 	c #A791F8",
"': 	c #E7C1A1",
"): 	c #CBCAC5",
"!: 	c #5975F9",
"~: 	c #4A53EA",
"{: 	c #C084ED",
"]: 	c #CEAADA",
"^: 	c #5E91FA",
"/: 	c #22AFC9",
"(: 	c #19C3A2",
"_: 	c #827CFF",
":: 	c #8478FF",
"<: 	c #8773FE",
"[: 	c #886EFD",
"}: 	c #8D5EFA",
"|: 	c #A03DE8",
"1: 	c #B832D3",
"2: 	c #A353F2",
"3: 	c #3EB9DD",
"4: 	c #5BA4F4",
"5: 	c #738AFE",
"6: 	c #B695F1",
"7: 	c #88B8F1",
"8: 	c #4A5DEE",
"9: 	c #5624CF",
"0: 	c #6632E2",
"a: 	c #745AF8",
"b: 	c #786DFD",
"c: 	c #7A74FF",
"d: 	c #7C78FF",
"e: 	c #9B8AFC",
"f: 	c #EAA5B9",
"g: 	c #ECBC9F",
"h: 	c #C0BEDB",
"i: 	c #9E98F8",
"j: 	c #4AACEB",
"k: 	c #976EFC",
"l: 	c #13B3AB",
"m: 	c #837BFF",
"n: 	c #8677FE",
"o: 	c #8E66FB",
"p: 	c #9A48EF",
"q: 	c #AB27D0",
"r: 	c #A419C2",
"s: 	c #7D4DF4",
"t: 	c #50BEE4",
"u: 	c #45C8D7",
"v: 	c #59A6F3",
"w: 	c #7489FE",
"x: 	c #AFA1F1",
"y: 	c #C0C0D9",
"z: 	c #B5B9E4",
"A: 	c #5F69F9",
"B: 	c #432BCA",
"C: 	c #5C24D0",
"D: 	c #6C46F0",
"E: 	c #7568FD",
"F: 	c #7770FE",
"G: 	c #7B77FE",
"H: 	c #9086FD",
"I: 	c #D19CDD",
"J: 	c #9791FB",
"K: 	c #3F51E4",
"L: 	c #7E8CFE",
"M: 	c #C55EE4",
"N: 	c #1EAFC2",
"O: 	c #36ADDE",
"P: 	c #5E94F9",
"Q: 	c #847BFE",
"R: 	c #8875FE",
"S: 	c #8C6DFE",
"T: 	c #9463FB",
"U: 	c #AE42E5",
"V: 	c #BA1FBB",
"W: 	c #AC17B9",
"X: 	c #5359F1",
"Y: 	c #28B4CC",
"Z: 	c #42BADF",
"`: 	c #659DF9",
" < 	c #758AFE",
".< 	c #7A85FF",
"+< 	c #8D87FE",
"@< 	c #AF95F4",
"#< 	c #CFB7D2",
"$< 	c #B2D7CD",
"%< 	c #749FFA",
"&< 	c #4130CD",
"*< 	c #4C1FC2",
"=< 	c #6734E3",
"-< 	c #705AF8",
";< 	c #756DFD",
">< 	c #7974FE",
",< 	c #7C7AFF",
"'< 	c #988AFD",
")< 	c #E6A0C4",
"!< 	c #E5C3A6",
"~< 	c #C3BFD8",
"{< 	c #C5AFE0",
"]< 	c #9A9AF9",
"^< 	c #5A92F8",
"/< 	c #31AADB",
"(< 	c #17BDA8",
"_< 	c #23B9C0",
":< 	c #847AFE",
"<< 	c #8974FE",
"[< 	c #906BFC",
"}< 	c #9856F5",
"|< 	c #AF35DA",
"1< 	c #C925B3",
"2< 	c #BD24BE",
"3< 	c #467FF1",
"4< 	c #25C7B7",
"5< 	c #36BFD3",
"6< 	c #6099F8",
"7< 	c #7588FE",
"8< 	c #7986FF",
"9< 	c #7C83FF",
"0< 	c #8F89FE",
"a< 	c #A699F6",
"b< 	c #C5B6DB",
"c< 	c #D1CAC0",
"d< 	c #8FB5F3",
"e< 	c #3F37D2",
"f< 	c #4A18B4",
"g< 	c #5929D4",
"h< 	c #6B56F6",
"i< 	c #726BFC",
"j< 	c #7872FE",
"k< 	c #7C79FE",
"l< 	c #E9BF9F",
"m< 	c #D4D0B5",
"n< 	c #B3B4E8",
"o< 	c #9994FA",
"p< 	c #3EACE3",
"q< 	c #9283FE",
"r< 	c #8579FF",
"s< 	c #8B73FD",
"t< 	c #936AFC",
"u< 	c #A555F1",
"v< 	c #BC2DCC",
"w< 	c #C01AAA",
"x< 	c #BB21BE",
"y< 	c #519CF3",
"z< 	c #27D0AC",
"A< 	c #35C5CC",
"B< 	c #5C9DF6",
"C< 	c #718BFE",
"D< 	c #7886FF",
"E< 	c #A190FA",
"F< 	c #CFAAD9",
"G< 	c #DAC6B8",
"H< 	c #A8BCE8",
"I< 	c #3351DB",
"J< 	c #3823B0",
"K< 	c #5428D2",
"L< 	c #6953F5",
"M< 	c #7068FC",
"N< 	c #7B78FF",
"O< 	c #ECB6A2",
"P< 	c #E4C6A2",
"Q< 	c #918DFC",
"R< 	c #CAB3DA",
"S< 	c #5F97F9",
"T< 	c #B55FEF",
"U< 	c #5795F7",
"V< 	c #857AFF",
"W< 	c #8C72FE",
"X< 	c #9468FC",
"Y< 	c #A854F1",
"Z< 	c #C833C7",
"`< 	c #D125A6",
" [ 	c #AC2CD4",
".[ 	c #3B9EE7",
"+[ 	c #28D2AA",
"@[ 	c #34C7CA",
"#[ 	c #59A2F4",
"$[ 	c #6F8EFD",
"%[ 	c #7788FE",
"&[ 	c #8E8AFE",
"*[ 	c #A592F8",
"=[ 	c #D4A9D5",
"-[ 	c #DDC8B0",
";[ 	c #9ED3DA",
">[ 	c #2857D3",
",[ 	c #3920AD",
"'[ 	c #5426CE",
")[ 	c #674BF1",
"![ 	c #6F63FA",
"~[ 	c #756EFD",
"{[ 	c #7B77FF",
"][ 	c #8C85FE",
"^[ 	c #DFC5AF",
"/[ 	c #8666FC",
"([ 	c #D4A0D9",
"_[ 	c #3EA5E6",
":[ 	c #9C71FB",
"<[ 	c #40A3E8",
"[[ 	c #18B6B3",
"}[ 	c #43A6E9",
"|[ 	c #6391FB",
"1[ 	c #8C72FD",
"2[ 	c #9668FB",
"3[ 	c #A953EF",
"4[ 	c #C932C6",
"5[ 	c #D327A5",
"6[ 	c #BA38D8",
"7[ 	c #3BB6DC",
"8[ 	c #27D3A6",
"9[ 	c #34C8C8",
"0[ 	c #58A4F3",
"a[ 	c #6D90FD",
"b[ 	c #7589FF",
"c[ 	c #918AFE",
"d[ 	c #A993F7",
"e[ 	c #D8AAD2",
"f[ 	c #E3C2AD",
"g[ 	c #A3BCEA",
"h[ 	c #2740C1",
"i[ 	c #3F1AA8",
"j[ 	c #5619BF",
"k[ 	c #603AE6",
"l[ 	c #6B60FA",
"m[ 	c #746FFD",
"n[ 	c #7A78FE",
"o[ 	c #9490FC",
"p[ 	c #BC80EF",
"q[ 	c #CDADD9",
"r[ 	c #6F95FC",
"s[ 	c #C059E7",
"t[ 	c #AF60F1",
"u[ 	c #4F98F3",
"v[ 	c #23B0C9",
"w[ 	c #19C4A2",
"x[ 	c #5997F7",
"y[ 	c #9767FA",
"z[ 	c #AB51EE",
"A[ 	c #CA31C4",
"B[ 	c #D427A3",
"C[ 	c #B826C6",
"D[ 	c #34A0E2",
"E[ 	c #25D0A6",
"F[ 	c #33C8C6",
"G[ 	c #56A5F1",
"H[ 	c #6B92FC",
"I[ 	c #748AFF",
"J[ 	c #8B86FE",
"K[ 	c #948CFC",
"L[ 	c #B194F3",
"M[ 	c #E5A7C1",
"N[ 	c #E2C5A9",
"O[ 	c #90C2EB",
"P[ 	c #303AC7",
"Q[ 	c #3C1AA3",
"R[ 	c #451CB7",
"S[ 	c #5A3AE4",
"T[ 	c #6961F9",
"U[ 	c #7B79FF",
"V[ 	c #9F99F9",
"W[ 	c #8E8BFD",
"X[ 	c #466AF0",
"Y[ 	c #3351D9",
"Z[ 	c #9998FA",
"`[ 	c #B06EF3",
" } 	c #14B5AB",
".} 	c #15BE9E",
"+} 	c #23BFBC",
"@} 	c #49A4EE",
"#} 	c #857BFE",
"$} 	c #8D73FD",
"%} 	c #9868FA",
"&} 	c #AC51ED",
"*} 	c #CA31C3",
"=} 	c #C927B6",
"-} 	c #3F90EC",
";} 	c #1AC4A3",
">} 	c #29C2C1",
",} 	c #53A7F0",
"'} 	c #6993FB",
")} 	c #738BFE",
"!} 	c #9A8EFB",
"~} 	c #C49BE7",
"{} 	c #E4B6B8",
"]} 	c #DECDA5",
"^} 	c #A2BDEA",
"/} 	c #2443C1",
"(} 	c #2C26A2",
"_} 	c #3D23B9",
":} 	c #5647EA",
"<} 	c #6966FB",
"[} 	c #7471FE",
"}} 	c #D19DDE",
"|} 	c #D5C9BB",
"1} 	c #6375FB",
"2} 	c #3A52E1",
"3} 	c #D1AAD7",
"4} 	c #8281FE",
"5} 	c #C556E2",
"6} 	c #5E95F8",
"7} 	c #8D74FE",
"8} 	c #9969FA",
"9} 	c #AE51ED",
"0} 	c #CC32C2",
"a} 	c #D528A2",
"b} 	c #CC24AD",
"c} 	c #4A7EF4",
"d} 	c #1DC8A3",
"e} 	c #24C9B2",
"f} 	c #43AEE6",
"g} 	c #6695FA",
"h} 	c #728CFD",
"i} 	c #7A86FE",
"j} 	c #8783FF",
"k} 	c #9088FD",
"l} 	c #A191FA",
"m} 	c #CA9FE1",
"n} 	c #EBB2AF",
"o} 	c #E3C7A4",
"p} 	c #84BBF1",
"q} 	c #1747AF",
"r} 	c #2330A4",
"s} 	c #3D2DC6",
"t} 	c #5D4EF0",
"u} 	c #6A67FB",
"v} 	c #7572FE",
"w} 	c #7C7BFF",
"x} 	c #E5A1C6",
"y} 	c #C2C8D0",
"z} 	c #CD8EE4",
"A} 	c #55A1F2",
"B} 	c #14BAA4",
"C} 	c #8B76FE",
"D} 	c #B157EE",
"E} 	c #CF35C2",
"F} 	c #D628A1",
"G} 	c #D126A7",
"H} 	c #6660F9",
"I} 	c #17BDA6",
"J} 	c #1DC5A9",
"K} 	c #39B6DB",
"L} 	c #5D99F8",
"M} 	c #8985FE",
"N} 	c #958BFD",
"O} 	c #AB93F5",
"P} 	c #DDA1D0",
"Q} 	c #ECB7A6",
"R} 	c #DACEAB",
"S} 	c #499FEE",
"T} 	c #183EA5",
"U} 	c #3023A7",
"V} 	c #4A27CA",
"W} 	c #5E4FF1",
"X} 	c #6C69FC",
"Y} 	c #7674FE",
"Z} 	c #C99AE5",
"`} 	c #EBADB2",
" | 	c #DACAB1",
".| 	c #C35DE6",
"+| 	c #966EFC",
"@| 	c #AB5FF3",
"#| 	c #D646CA",
"$| 	c #DF33A4",
"%| 	c #D82AA4",
"&| 	c #8A43F0",
"*| 	c #14B0B1",
"=| 	c #19C2A2",
"-| 	c #2ABCC8",
";| 	c #549EF3",
">| 	c #6A8FFC",
",| 	c #7687FE",
"'| 	c #8C86FE",
")| 	c #9B8DFB",
"!| 	c #BA98EE",
"~| 	c #E8A9BC",
"{| 	c #E9BEA1",
"]| 	c #C4D3C3",
"^| 	c #2E6ADF",
"/| 	c #232EA1",
"(| 	c #351FA6",
"_| 	c #4829CC",
":| 	c #5E55F3",
"<| 	c #6E6CFC",
"[| 	c #7876FE",
"}| 	c #7D7DFF",
"|| 	c #AB91F6",
"1| 	c #DB9FD3",
"2| 	c #4E58EF",
"3| 	c #6092F9",
"4| 	c #9471FC",
"5| 	c #A561F5",
"6| 	c #C743D6",
"7| 	c #E036A8",
"8| 	c #E2359F",
"9| 	c #BB3FDC",
"0| 	c #22A3CF",
"a| 	c #13BAA0",
"b| 	c #1CBDB4",
"c| 	c #6392FB",
"d| 	c #9187FD",
"e| 	c #A390F8",
"f| 	c #CE9DE0",
"g| 	c #EDAFAC",
"h| 	c #E9BFA2",
"i| 	c #A8BDE8",
"j| 	c #2052C7",
"k| 	c #2032A0",
"l| 	c #2D28AA",
"m| 	c #4639D9",
"n| 	c #625FF7",
"o| 	c #706FFD",
"p| 	c #7979FE",
"q| 	c #EDA3B7",
"r| 	c #9D6DFA",
"s| 	c #45A4EA",
"t| 	c #9074FD",
"u| 	c #A169F9",
"v| 	c #C74FDE",
"w| 	c #DA34AE",
"x| 	c #DB2C9D",
"y| 	c #D230B9",
"z| 	c #4D84F4",
"A| 	c #16BDA4",
"B| 	c #19C2A4",
"C| 	c #2EB5D2",
"D| 	c #6D8CFD",
"E| 	c #8A84FF",
"F| 	c #978AFC",
"G| 	c #AF93F4",
"H| 	c #E4A0C7",
"I| 	c #EEB4A2",
"J| 	c #DDCBAA",
"K| 	c #79AFF6",
"L| 	c #1550B4",
"M| 	c #1B379F",
"N| 	c #3327B2",
"O| 	c #503EE2",
"P| 	c #6565F9",
"Q| 	c #7373FE",
"R| 	c #7B7BFF",
"S| 	c #9186FE",
"T| 	c #E4C6A0",
"U| 	c #D0CCBE",
"V| 	c #BA7DF1",
"W| 	c #7596FC",
"X| 	c #688CFC",
"Y| 	c #9C6EFA",
"Z| 	c #BB59EA",
"`| 	c #E142B6",
" 1 	c #E3379E",
".1 	c #D730AF",
"+1 	c #14ABB3",
"@1 	c #14BCA0",
"#1 	c #23BEBC",
"$1 	c #9E8DFA",
"%1 	c #C898E6",
"&1 	c #EBACB2",
"*1 	c #D2CBBE",
"=1 	c #4580F0",
"-1 	c #1742A7",
";1 	c #232EA0",
">1 	c #362CBD",
",1 	c #544FED",
"'1 	c #696AFB",
")1 	c #7776FF",
"!1 	c #AF63F2",
"~1 	c #DA4AC8",
"{1 	c #E73CA0",
"]1 	c #E238A4",
"^1 	c #B547E5",
"/1 	c #2698D8",
"(1 	c #10B3A0",
"_1 	c #16B9A9",
":1 	c #F1ACA5",
"<1 	c #E9BDA4",
"[1 	c #AFB1EB",
"}1 	c #245CD2",
"|1 	c #1542A2",
"11 	c #2330A5",
"21 	c #3E34CF",
"31 	c #5C5DF5",
"41 	c #6D70FD",
"51 	c #9176FE",
"61 	c #A46AF8",
"71 	c #CD52DA",
"81 	c #E63FA8",
"91 	c #E6399E",
"01 	c #D33CC4",
"a1 	c #6070FA",
"b1 	c #0FA5AF",
"c1 	c #0FB3A0",
"d1 	c #1FB5C0",
"e1 	c #4E9CF2",
"f1 	c #9E8BFB",
"g1 	c #C094EB",
"h1 	c #EFA0B6",
"i1 	c #F3AC9F",
"j1 	c #E2B5BD",
"k1 	c #6985FD",
"l1 	c #1652B7",
"m1 	c #183D9F",
"n1 	c #292EAE",
"o1 	c #4941E0",
"p1 	c #6365F9",
"q1 	c #7273FE",
"r1 	c #B092F3",
"s1 	c #8586FF",
"t1 	c #634EF2",
"u1 	c #B963EE",
"v1 	c #B75BED",
"w1 	c #6D8AFD",
"x1 	c #8D78FE",
"y1 	c #9D70FA",
"z1 	c #BD5CEA",
"A1 	c #E344B5",
"B1 	c #E63B9D",
"C1 	c #DF38AF",
"D1 	c #A455F2",
"E1 	c #2892DA",
"F1 	c #0BA6A1",
"G1 	c #0FAFA7",
"H1 	c #32A7DD",
"I1 	c #5C91F9",
"J1 	c #AB8EF6",
"K1 	c #E296CD",
"L1 	c #F5A3A1",
"M1 	c #ECB6A8",
"N1 	c #B1ABED",
"O1 	c #3568E4",
"P1 	c #124BA8",
"Q1 	c #1C369F",
"R1 	c #312FBD",
"S1 	c #5351EE",
"T1 	c #686CFB",
"U1 	c #7677FE",
"V1 	c #7D7DFE",
"W1 	c #ECADB2",
"X1 	c #B8B4E6",
"Y1 	c #374DDC",
"Z1 	c #8F6CFD",
"`1 	c #817FFE",
" 2 	c #6290FA",
".2 	c #42A9E8",
"+2 	c #887CFE",
"@2 	c #9574FD",
"#2 	c #AF69F4",
"$2 	c #DC4FC8",
"%2 	c #E83EA1",
"&2 	c #E43AA3",
"*2 	c #C645D9",
"=2 	c #6278FB",
"-2 	c #13A4B9",
";2 	c #0DB09E",
">2 	c #17B1B5",
",2 	c #469AEE",
"'2 	c #658CFB",
")2 	c #8E84FE",
"!2 	c #A08AFA",
"~2 	c #CD92E3",
"{2 	c #F2A2AC",
"]2 	c #F0B3A0",
"^2 	c #D8B8C8",
"/2 	c #1E5BCA",
"(2 	c #1344A1",
"_2 	c #2231A4",
":2 	c #3D36D0",
"<2 	c #5C60F6",
"[2 	c #6E72FE",
"}2 	c #7A7AFE",
"|2 	c #E7C3A1",
"12 	c #A7A6F2",
"22 	c #BF85ED",
"32 	c #2DB6D0",
"42 	c #5999F6",
"52 	c #8F78FE",
"62 	c #A070FA",
"72 	c #CB5FE1",
"82 	c #EC4CAA",
"92 	c #EA429F",
"02 	c #D93FBF",
"a2 	c #9761F9",
"b2 	c #328CE4",
"c2 	c #0BA4A5",
"d2 	c #0EAFA2",
"e2 	c #27ADCF",
"f2 	c #5692F7",
"g2 	c #6D88FD",
"h2 	c #9886FD",
"i2 	c #B48EF2",
"j2 	c #EA99C0",
"k2 	c #F5A69F",
"l2 	c #E9B4AE",
"m2 	c #AA9FF3",
"n2 	c #4A6FF1",
"o2 	c #1452B3",
"p2 	c #163F9E",
"q2 	c #2435B1",
"r2 	c #474DE6",
"s2 	c #656CFB",
"t2 	c #7477FE",
"u2 	c #7C7DFF",
"v2 	c #EBBD9F",
"w2 	c #DBCEA9",
"x2 	c #3350D9",
"y2 	c #8158F8",
"z2 	c #5F90FA",
"A2 	c #14BD9F",
"B2 	c #6590FC",
"C2 	c #7587FF",
"D2 	c #897CFF",
"E2 	c #9775FD",
"F2 	c #B169F3",
"G2 	c #E355C3",
"H2 	c #EE499E",
"I2 	c #E844A9",
"J2 	c #BD54E6",
"K2 	c #6D78FD",
"L2 	c #1898C6",
"M2 	c #09A59E",
"N2 	c #10ACAD",
"O2 	c #7285FE",
"P2 	c #8580FF",
"Q2 	c #9184FE",
"R2 	c #A58BF8",
"S2 	c #DA93D7",
"T2 	c #F4A2A5",
"U2 	c #EEB5A2",
"V2 	c #CDB6D5",
"W2 	c #2A63DA",
"X2 	c #0F51A4",
"Y2 	c #1641A1",
"Z2 	c #303ECA",
"`2 	c #5962F5",
" 3 	c #6D72FD",
".3 	c #797BFE",
"+3 	c #A690F9",
"@3 	c #EBBE9F",
"#3 	c #6074FA",
"$3 	c #375FE3",
"%3 	c #414FE3",
"&3 	c #AE82F6",
"*3 	c #5393F5",
"=3 	c #7B8DFE",
"-3 	c #4D9AF2",
";3 	c #11B89F",
">3 	c #16BCA9",
",3 	c #5D95F9",
"'3 	c #8E79FE",
")3 	c #A170F9",
"!3 	c #CC60E0",
"~3 	c #ED4EA9",
"{3 	c #ED469E",
"]3 	c #DC47C3",
"^3 	c #4A85F3",
"/3 	c #0E9DB0",
"(3 	c #0AA79E",
"_3 	c #19A9BE",
":3 	c #4D95F3",
"<3 	c #9D88FB",
"[3 	c #C18FEB",
"}3 	c #F09CB4",
"|3 	c #F5A79F",
"13 	c #E8ABBA",
"23 	c #5171F5",
"33 	c #135DB8",
"43 	c #0F4B9E",
"53 	c #1F3CB0",
"63 	c #464FE6",
"73 	c #646DFA",
"83 	c #F1B1A0",
"93 	c #A19BF7",
"03 	c #4D6FF3",
"a3 	c #2E5BD9",
"b3 	c #B261F0",
"c3 	c #4F9EF1",
"d3 	c #897DFF",
"e3 	c #9776FD",
"f3 	c #B26BF3",
"g3 	c #E456C3",
"h3 	c #EF499F",
"i3 	c #E945A9",
"j3 	c #7C76FE",
"k3 	c #2B90DD",
"l3 	c #0AA2A4",
"m3 	c #0DA9A2",
"n3 	c #27A4D5",
"o3 	c #598EF8",
"p3 	c #8781FE",
"q3 	c #9685FD",
"r3 	c #AE8BF5",
"s3 	c #E891C7",
"t3 	c #F8999F",
"u3 	c #F1A4AC",
"v3 	c #BA9BED",
"w3 	c #2866D9",
"x3 	c #0D54A4",
"y3 	c #1543A1",
"z3 	c #2F3FCA",
"A3 	c #5863F6",
"B3 	c #6C74FE",
"C3 	c #797BFF",
"D3 	c #F0A9AC",
"E3 	c #9893FB",
"F3 	c #8E7AFE",
"G3 	c #A172F9",
"H3 	c #CD62E1",
"I3 	c #ED4FA9",
"J3 	c #EE479E",
"K3 	c #DD48C2",
"L3 	c #9F66F9",
"M3 	c #627DFB",
"N3 	c #1695C4",
"O3 	c #09A29F",
"P3 	c #0FA8AD",
"Q3 	c #3A9BE7",
"R3 	c #618AFB",
"S3 	c #7384FF",
"T3 	c #9083FE",
"U3 	c #A588F9",
"V3 	c #DB8ED7",
"W3 	c #F798A4",
"X3 	c #F5A3A3",
"Y3 	c #D2A0DA",
"Z3 	c #8981FF",
"`3 	c #4B70F2",
" 4 	c #125EB7",
".4 	c #0F4C9D",
"+4 	c #1D3FB0",
"@4 	c #4455E8",
"#4 	c #6471FB",
"$4 	c #7579FF",
"%4 	c #AF91F5",
"&4 	c #E4C7A3",
"*4 	c #3354DC",
"=4 	c #5C4EEF",
"-4 	c #12B4A3",
";4 	c #6B8DFC",
">4 	c #877DFF",
",4 	c #9578FD",
"'4 	c #B06FF5",
")4 	c #E55EC4",
"!4 	c #F1509F",
"~4 	c #EB48A9",
"{4 	c #C555E1",
"]4 	c #8872FE",
"^4 	c #4A81F3",
"/4 	c #0B8EB3",
"(4 	c #06979E",
"_4 	c #149EBD",
":4 	c #4B91F2",
"<4 	c #6787FC",
"[4 	c #7782FF",
"}4 	c #8C82FE",
"|4 	c #9F86FB",
"14 	c #C98BE6",
"24 	c #F593AB",
"34 	c #F79D9E",
"44 	c #E2A5C8",
"54 	c #6877FD",
"64 	c #2467D5",
"74 	c #0B59A3",
"84 	c #104CA3",
"94 	c #2C4ED3",
"04 	c #5A6BF8",
"a4 	c #6F76FE",
"b4 	c #B8B2E5",
"c4 	c #8A71FE",
"d4 	c #489EEE",
"e4 	c #837CFF",
"f4 	c #43A6EA",
"g4 	c #7387FF",
"h4 	c #837FFF",
"i4 	c #8C7CFE",
"j4 	c #9E75FB",
"k4 	c #C469E8",
"l4 	c #F05BAE",
"m4 	c #F3539D",
"n4 	c #E550BE",
"o4 	c #7878FF",
"p4 	c #3A88EA",
"q4 	c #0A94AB",
"r4 	c #0697A0",
"s4 	c #1B96C9",
"t4 	c #558BF7",
"u4 	c #6B85FE",
"v4 	c #7A81FE",
"w4 	c #9A84FC",
"x4 	c #BC88F0",
"y4 	c #F192B7",
"z4 	c #F89C9E",
"A4 	c #EDA2B7",
"B4 	c #B08EF4",
"C4 	c #7A7CFF",
"D4 	c #3F70EC",
"E4 	c #0C63AF",
"F4 	c #0C539E",
"G4 	c #1F44BA",
"H4 	c #4D5EEF",
"I4 	c #6873FC",
"J4 	c #CCCAC6",
"K4 	c #5975F8",
"L4 	c #4A53E9",
"M4 	c #4F96F4",
"N4 	c #19C3A3",
"O4 	c #867EFF",
"P4 	c #927AFE",
"Q4 	c #A972F8",
"R4 	c #DC61D3",
"S4 	c #F153A2",
"T4 	c #EF4DA2",
"U4 	c #D456D6",
"V4 	c #6C7DFD",
"W4 	c #2689DA",
"X4 	c #0897A4",
"Y4 	c #099FA3",
"Z4 	c #259AD6",
"`4 	c #5A88F9",
" 5 	c #6F84FD",
".5 	c #8680FF",
"+5 	c #9583FD",
"@5 	c #AF87F6",
"#5 	c #E98CC5",
"$5 	c #FA919E",
"%5 	c #F497AD",
"&5 	c #BF92EC",
"*5 	c #8780FF",
"=5 	c #5774F7",
"-5 	c #1866C5",
";5 	c #0C559F",
">5 	c #1546A8",
",5 	c #3753DE",
"'5 	c #5F70FA",
")5 	c #BD94ED",
"!5 	c #EBA6B9",
"~5 	c #C0BDDB",
"{5 	c #7C57F9",
"]5 	c #CDA2DE",
"^5 	c #9A77FC",
"/5 	c #BA6FF0",
"(5 	c #ED60B8",
"_5 	c #F4549D",
":5 	c #E94DB2",
"<5 	c #BB60EC",
"[5 	c #8A75FE",
"}5 	c #6080FB",
"|5 	c #1A87CD",
"15 	c #058A9F",
"25 	c #0990AA",
"35 	c #3490E5",
"45 	c #5F87FA",
"55 	c #7283FE",
"65 	c #847FFF",
"75 	c #A785F8",
"85 	c #E28AD0",
"95 	c #F995A1",
"05 	c #F4A1A7",
"a5 	c #CE9CE0",
"b5 	c #2F6CE1",
"c5 	c #0B60A8",
"d5 	c #0D549F",
"e5 	c #234FC7",
"f5 	c #556AF6",
"g5 	c #6C76FD",
"h5 	c #9087FE",
"i5 	c #A68FF9",
"j5 	c #EFAEAA",
"k5 	c #D7C5BC",
"l5 	c #757CFF",
"m5 	c #D1ACD6",
"n5 	c #17BCA8",
"o5 	c #36ADDD",
"p5 	c #8E7BFE",
"q5 	c #A176FA",
"r5 	c #CF6BE1",
"s5 	c #F35DA8",
"t5 	c #F4569F",
"u5 	c #DF56C9",
"v5 	c #A76DF7",
"w5 	c #7F78FF",
"x5 	c #5682F8",
"y5 	c #168FC5",
"z5 	c #05949E",
"A5 	c #0B94AE",
"B5 	c #3C8CEA",
"C5 	c #6285FC",
"D5 	c #8F81FE",
"E5 	c #A384FA",
"F5 	c #D489E0",
"G5 	c #F791A7",
"H5 	c #F895A1",
"I5 	c #E092D2",
"J5 	c #9C84FC",
"K5 	c #4572F1",
"L5 	c #1067B8",
"M5 	c #09599E",
"N5 	c #164EB3",
"O5 	c #4661ED",
"P5 	c #6574FB",
"Q5 	c #E5A0C4",
"R5 	c #F1B09F",
"S5 	c #C2BFD8",
"T5 	c #2C5AD9",
"U5 	c #6456F5",
"V5 	c #CF94E1",
"W5 	c #857EFF",
"X5 	c #937BFD",
"Y5 	c #AB74F7",
"Z5 	c #E367CC",
"`5 	c #F55CA0",
" 6 	c #F155A7",
".6 	c #CE5FDF",
"+6 	c #9B73FB",
"@6 	c #4882F2",
"#6 	c #0E8FB7",
"$6 	c #069B9E",
"%6 	c #119FB6",
"&6 	c #448DEF",
"*6 	c #6684FD",
"=6 	c #7781FE",
"-6 	c #8C81FE",
";6 	c #A083FA",
">6 	c #C886E8",
",6 	c #F785AB",
"'6 	c #FB859F",
")6 	c #E786CA",
"!6 	c #5775F8",
"~6 	c #1C6BCC",
"{6 	c #085FA0",
"]6 	c #0F51A7",
"^6 	c #3357DD",
"/6 	c #5E72FA",
"(6 	c #3864E6",
"_6 	c #6F86FE",
":6 	c #9383FE",
"<6 	c #887EFE",
"[6 	c #997AFC",
"}6 	c #BA73F0",
"|6 	c #F069B8",
"16 	c #F75F9E",
"26 	c #ED58B5",
"36 	c #BB69EE",
"46 	c #9276FD",
"56 	c #6D7DFD",
"66 	c #3E82EC",
"76 	c #0985AE",
"86 	c #05899F",
"96 	c #158EC4",
"06 	c #4F87F5",
"a6 	c #6883FD",
"b6 	c #7980FF",
"c6 	c #8A80FE",
"d6 	c #9D83FC",
"e6 	c #C585EA",
"f6 	c #F786AC",
"g6 	c #FA8A9F",
"h6 	c #E890C8",
"i6 	c #A988F8",
"j6 	c #877FFE",
"k6 	c #6378FC",
"l6 	c #2E6FE1",
"m6 	c #0A64A8",
"n6 	c #0C569F",
"o6 	c #2151C8",
"p6 	c #546CF6",
"q6 	c #9688FC",
"r6 	c #CCC5CB",
"s6 	c #5E8EFA",
"t6 	c #37A2E4",
"u6 	c #15BEA2",
"v6 	c #8280FE",
"w6 	c #8B7DFF",
"x6 	c #9F79FB",
"y6 	c #C871E7",
"z6 	c #F467AB",
"A6 	c #F7619E",
"B6 	c #E560C5",
"C6 	c #AC70F5",
"D6 	c #687EFD",
"E6 	c #3A81EB",
"F6 	c #0881AC",
"G6 	c #04819E",
"H6 	c #1782C8",
"I6 	c #5283F7",
"J6 	c #6A81FE",
"K6 	c #7A80FF",
"L6 	c #8881FF",
"M6 	c #9A82FC",
"N6 	c #F48DB2",
"O6 	c #F99A9E",
"P6 	c #EAA2BC",
"Q6 	c #B38CF3",
"R6 	c #8E81FE",
"S6 	c #6B7AFD",
"T6 	c #4374EF",
"U6 	c #0F69B6",
"V6 	c #085E9E",
"W6 	c #1357B6",
"X6 	c #4769EF",
"Y6 	c #8C85FF",
"Z6 	c #4069EC",
"`6 	c #3055D9",
" 7 	c #8562FC",
".7 	c #BCA9E7",
"+7 	c #9D6BFA",
"@7 	c #39A2E3",
"#7 	c #6591FB",
"$7 	c #847FFE",
"%7 	c #907DFE",
"&7 	c #A578F9",
"*7 	c #DA71D8",
"=7 	c #F765A4",
"-7 	c #F55DA3",
";7 	c #D961D6",
">7 	c #A475F9",
",7 	c #657EFC",
"'7 	c #3980EA",
")7 	c #04809F",
"!7 	c #1781C9",
"~7 	c #5481F7",
"{7 	c #6B80FD",
"]7 	c #7B80FF",
"^7 	c #9882FD",
"/7 	c #B584F3",
"(7 	c #EE8CBF",
"_7 	c #FA929E",
":7 	c #F394B1",
"<7 	c #9482FE",
"[7 	c #737DFE",
"}7 	c #5276F6",
"|7 	c #1770C7",
"17 	c #07679F",
"27 	c #0D5CAB",
"37 	c #3961E5",
"47 	c #6176FB",
"57 	c #737BFF",
"67 	c #B97DF1",
"77 	c #7396FC",
"87 	c #C05DE7",
"97 	c #AC61F4",
"07 	c #4E98F3",
"a7 	c #35B5D7",
"b7 	c #947CFD",
"c7 	c #AD78F7",
"d7 	c #E86CC7",
"e7 	c #F8649F",
"f7 	c #F460AA",
"g7 	c #C969E5",
"h7 	c #9E77FB",
"i7 	c #817BFE",
"j7 	c #637FFC",
"k7 	c #387FEA",
"l7 	c #0880AC",
"m7 	c #177FC9",
"n7 	c #5580F8",
"o7 	c #6B80FE",
"p7 	c #9681FD",
"q7 	c #E983C7",
"r7 	c #FC839E",
"s7 	c #F784AC",
"t7 	c #C583EB",
"u7 	c #9881FD",
"v7 	c #5A79F9",
"w7 	c #2473D8",
"x7 	c #0767A4",
"y7 	c #095EA3",
"z7 	c #2763D6",
"A7 	c #5B76F9",
"B7 	c #707BFE",
"C7 	c #E6A7C1",
"D7 	c #6889FC",
"E7 	c #B26FF4",
"F7 	c #34A5DF",
"G7 	c #21B8C0",
"H7 	c #887FFF",
"I7 	c #997BFD",
"J7 	c #BA78F0",
"K7 	c #F06EB8",
"L7 	c #F8649E",
"M7 	c #EE5FB6",
"N7 	c #BB6EEF",
"O7 	c #9978FC",
"P7 	c #627FFC",
"Q7 	c #3980E9",
"R7 	c #0880AB",
"S7 	c #1780C9",
"T7 	c #557FF8",
"U7 	c #9580FD",
"V7 	c #AB81F7",
"W7 	c #E881C9",
"X7 	c #FB809F",
"Y7 	c #F780AC",
"Z7 	c #C681EA",
"`7 	c #9B80FC",
" 8 	c #607AFB",
".8 	c #3476E5",
"+8 	c #0871AB",
"@8 	c #066C9F",
"#8 	c #1B67CA",
"$8 	c #5574F7",
"%8 	c #F0A7AC",
"&8 	c #AEACEE",
"*8 	c #5495F6",
"=8 	c #19BEA8",
"-8 	c #8A7EFF",
";8 	c #9C7BFB",
">8 	c #C378EB",
",8 	c #F676AE",
"'8 	c #FB729E",
")8 	c #E96DC4",
"!8 	c #AF73F5",
"~8 	c #957AFD",
"{8 	c #617FFC",
"]8 	c #087FAC",
"^8 	c #047F9F",
"/8 	c #1880C9",
"(8 	c #5480F7",
"_8 	c #6C80FD",
":8 	c #7B80FE",
"<8 	c #857FFF",
"[8 	c #947FFE",
"}8 	c #AB7FF8",
"|8 	c #E77FC9",
"18 	c #FB7F9F",
"28 	c #C67FE9",
"38 	c #9D7FFC",
"48 	c #657BFC",
"58 	c #3E78ED",
"68 	c #0C70B2",
"78 	c #07639E",
"88 	c #155BBC",
"98 	c #687BFC",
"08 	c #787EFF",
"a8 	c #8982FE",
"b8 	c #28A7D4",
"c8 	c #18C4A0",
"d8 	c #8C7EFF",
"e8 	c #A17CFB",
"f8 	c #CB75E5",
"g8 	c #F66DAA",
"h8 	c #F96BA0",
"i8 	c #E56DCB",
"j8 	c #A978F8",
"k8 	c #917BFD",
"l8 	c #617FFB",
"m8 	c #047F9E",
"n8 	c #187FC9",
"o8 	c #947EFE",
"p8 	c #AC7DF7",
"q8 	c #E87EC9",
"r8 	c #FB7E9F",
"s8 	c #F77EAD",
"t8 	c #C57DEA",
"u8 	c #9C7EFB",
"v8 	c #687CFD",
"w8 	c #4A79F3",
"x8 	c #1171BF",
"y8 	c #0C69B2",
"z8 	c #3F73ED",
"A8 	c #657AFC",
"B8 	c #767EFE",
"C8 	c #C999E4",
"D8 	c #B8B2E7",
"E8 	c #9A93FB",
"F8 	c #3A4CDC",
"G8 	c #3FACE5",
"H8 	c #9E6BF9",
"I8 	c #8F7EFE",
"J8 	c #A47CFA",
"K8 	c #DB76D8",
"L8 	c #F86AA3",
"M8 	c #F660A3",
"N8 	c #DA66D6",
"O8 	c #A57AF9",
"P8 	c #8E7DFE",
"Q8 	c #787FFF",
"R8 	c #6180FB",
"S8 	c #03809F",
"T8 	c #547EF7",
"U8 	c #6B7FFD",
"V8 	c #7A7FFE",
"W8 	c #867FFF",
"X8 	c #967EFD",
"Y8 	c #AE7CF6",
"Z8 	c #E877C7",
"`8 	c #FB769F",
" 9 	c #F676AD",
".9 	c #C479EA",
"+9 	c #9C7DFC",
"@9 	c #6B7DFD",
"#9 	c #537AF7",
"$9 	c #1679C8",
"%9 	c #04799F",
"&9 	c #0977AD",
"*9 	c #3975E9",
"=9 	c #617AFB",
"-9 	c #747DFE",
";9 	c #F0AEA4",
">9 	c #4F57EE",
",9 	c #A2A0F5",
"'9 	c #5F92F9",
")9 	c #39A6E2",
"!9 	c #6194FA",
"~9 	c #5596F6",
"{9 	c #14B9A3",
"]9 	c #7984FE",
"^9 	c #917EFE",
"/9 	c #A77CF9",
"(9 	c #E57ACD",
"_9 	c #FB779F",
":9 	c #F773AA",
"<9 	c #CC72E5",
"[9 	c #A27AFA",
"}9 	c #8D7DFE",
"|9 	c #777FFE",
"19 	c #397EE9",
"29 	c #087EAC",
"39 	c #177EC9",
"49 	c #6B7EFD",
"59 	c #7A7FFF",
"69 	c #987DFD",
"79 	c #B57BF3",
"89 	c #ED6EBE",
"99 	c #F9659E",
"09 	c #F264B1",
"a9 	c #BF74EE",
"b9 	c #9A7CFC",
"c9 	c #6E7EFE",
"d9 	c #577AF8",
"e9 	c #1A78CC",
"f9 	c #05709F",
"g9 	c #0A66AA",
"h9 	c #3469E4",
"i9 	c #5E7AFB",
"j9 	c #727DFE",
"k9 	c #9B8BFC",
"l9 	c #BE96EC",
"m9 	c #EDA4B6",
"n9 	c #3F6BEC",
"o9 	c #47ABE8",
"p9 	c #C056E6",
"q9 	c #857FFE",
"r9 	c #947DFD",
"s9 	c #AA7CF8",
"t9 	c #E77BC9",
"u9 	c #FB7E9E",
"v9 	c #F77CAC",
"w9 	c #C77AE9",
"x9 	c #9F7BFB",
"y9 	c #8A7EFE",
"z9 	c #777FFF",
"A9 	c #627EFC",
"B9 	c #3A7DEA",
"C9 	c #087DAC",
"D9 	c #047C9E",
"E9 	c #177AC8",
"F9 	c #6A7DFD",
"G9 	c #897FFE",
"H9 	c #C07AEE",
"I9 	c #F475B2",
"J9 	c #FA6C9F",
"K9 	c #EC66BE",
"L9 	c #B574F3",
"M9 	c #987CFD",
"N9 	c #707EFE",
"O9 	c #5A7CF9",
"P9 	c #2477D7",
"Q9 	c #076BA4",
"R9 	c #0961A3",
"S9 	c #2568D7",
"T9 	c #5A7BF9",
"U9 	c #707DFE",
"V9 	c #A690F8",
"W9 	c #D89CD6",
"X9 	c #EEB0A7",
"Y9 	c #D0CDBF",
"Z9 	c #B47FF3",
"`9 	c #4E97F3",
" 0 	c #957EFD",
".0 	c #AD7BF6",
"+0 	c #E876C7",
"@0 	c #FB759E",
"#0 	c #F775AC",
"$0 	c #C578EA",
"%0 	c #9D7CFB",
"&0 	c #777EFF",
"*0 	c #647EFC",
"=0 	c #3D7BEC",
"-0 	c #0975AE",
";0 	c #1764C3",
">0 	c #4F74F4",
",0 	c #8B7EFE",
"'0 	c #C67AEA",
")0 	c #FC7B9F",
"!0 	c #E878C8",
"~0 	c #AC78F7",
"{0 	c #957DFD",
"]0 	c #727EFE",
"^0 	c #5D7CFA",
"/0 	c #327AE4",
"(0 	c #0876AA",
"_0 	c #0476A0",
":0 	c #1A77CD",
"<0 	c #587CF9",
"[0 	c #5D93F8",
"}0 	c #13B5A9",
"|0 	c #987DFC",
"10 	c #ED6FBE",
"20 	c #F8659D",
"30 	c #BF73EE",
"40 	c #9B7CFC",
"50 	c #887EFF",
"60 	c #677DFD",
"70 	c #447BF1",
"80 	c #0E70B7",
"90 	c #07659E",
"00 	c #1160B6",
"a0 	c #4571EF",
"b0 	c #8C7EFE",
"c0 	c #A07CFB",
"d0 	c #C977E7",
"e0 	c #FA759F",
"f0 	c #E775CA",
"g0 	c #A979F8",
"h0 	c #937DFE",
"i0 	c #737FFE",
"j0 	c #5F7EFB",
"k0 	c #377DE8",
"l0 	c #047E9E",
"m0 	c #187DC9",
"n0 	c #567EF8",
"o0 	c #6C7EFE",
"p0 	c #8F86FD",
"q0 	c #AEACED",
"r0 	c #3850DE",
"s0 	c #A570F8",
"t0 	c #C255E3",
"u0 	c #9B7DFC",
"v0 	c #BF7CED",
"w0 	c #F575B2",
"x0 	c #F96D9F",
"y0 	c #EC67BE",
"z0 	c #B576F3",
"A0 	c #877EFF",
"B0 	c #797FFF",
"C0 	c #5079F6",
"D0 	c #1575C5",
"E0 	c #04749F",
"F0 	c #0971AE",
"G0 	c #3B73EB",
"H0 	c #627AFB",
"I0 	c #757DFF",
"J0 	c #A47AFA",
"K0 	c #D374DF",
"L0 	c #F668A6",
"M0 	c #F763A0",
"N0 	c #DF68CF",
"O0 	c #A679F9",
"P0 	c #747FFF",
"Q0 	c #607FFB",
"R0 	c #387FE9",
"S0 	c #087FAB",
"T0 	c #6C7FFD",
"U0 	c #4F6FF5",
"V0 	c #3156DA",
"W0 	c #604FF1",
"X0 	c #C892E6",
"Y0 	c #BA65EE",
"Z0 	c #B55CED",
"`0 	c #9173FD",
" a 	c #8A7FFF",
".a 	c #C47DEA",
"+a 	c #F77DAD",
"@a 	c #FC7C9E",
"#a 	c #E97AC7",
"$a 	c #AE7BF7",
"%a 	c #967DFD",
"&a 	c #6C7DFE",
"*a 	c #1976CB",
"=a 	c #0570A0",
"-a 	c #0A65AA",
";a 	c #3566E4",
">a 	c #5E78FA",
",a 	c #727CFE",
"'a 	c #837FFE",
")a 	c #927CFE",
"!a 	c #A878F8",
"~a 	c #E174D0",
"{a 	c #F96DA1",
"]a 	c #F565A6",
"^a 	c #D168DE",
"/a 	c #A279FA",
"(a 	c #8D7CFE",
"_a 	c #7480FF",
":a 	c #397FEA",
"<a 	c #037F9F",
"[a 	c #5480F8",
"}a 	c #EBACB1",
"|a 	c #E9BF9E",
"1a 	c #B7B3E5",
"2a 	c #6977FD",
"3a 	c #3551DC",
"4a 	c #19B7B4",
"5a 	c #43A9E7",
"6a 	c #8B7FFE",
"7a 	c #9E7FFC",
"8a 	c #C67FEA",
"9a 	c #F77FAC",
"0a 	c #FB7F9E",
"aa 	c #E87EC8",
"ba 	c #AB7EF7",
"ca 	c #957FFD",
"da 	c #5A7AF9",
"ea 	c #2474D7",
"fa 	c #0869A3",
"ga 	c #095FA3",
"ha 	c #2563D6",
"ia 	c #5A76F9",
"ja 	c #6F7BFD",
"ka 	c #957BFD",
"la 	c #AE77F5",
"ma 	c #E96EC5",
"na 	c #F9699E",
"oa 	c #F468AD",
"pa 	c #C470E9",
"qa 	c #9D79FB",
"ra 	c #8A7DFF",
"sa 	c #7480FE",
"ta 	c #547FF7",
"ua 	c #8783FE",
"va 	c #9390FD",
"wa 	c #4A51EA",
"xa 	c #A59EF6",
"ya 	c #3AA6E4",
"za 	c #658FFC",
"Aa 	c #4F97F4",
"Ba 	c #8B80FF",
"Ca 	c #9E7FFB",
"Da 	c #C680E9",
"Ea 	c #E880C9",
"Fa 	c #AB80F8",
"Ga 	c #9480FD",
"Ha 	c #737EFF",
"Ia 	c #5F7BFB",
"Ja 	c #3575E6",
"Ka 	c #0971AA",
"La 	c #056B9F",
"Ma 	c #1B66C9",
"Na 	c #5472F7",
"Oa 	c #6B79FD",
"Pa 	c #9A7AFD",
"Qa 	c #BB76F0",
"Ra 	c #F06BB7",
"Sa 	c #F8619E",
"Ta 	c #ED5DB6",
"Ua 	c #BA6EEF",
"Va 	c #9879FD",
"Wa 	c #747FFE",
"Xa 	c #6180FC",
"Ya 	c #3880E9",
"Za 	c #04809E",
"`a 	c #547FF8",
" b 	c #6C80FE",
".b 	c #4369ED",
"+b 	c #A874F8",
"@b 	c #7A81FF",
"#b 	c #9D80FB",
"$b 	c #C682EA",
"%b 	c #F781AC",
"&b 	c #FB819E",
"*b 	c #E882C8",
"=b 	c #AB83F7",
"-b 	c #9481FE",
";b 	c #767EFF",
">b 	c #647BFC",
",b 	c #3F76ED",
"'b 	c #0C6EB2",
")b 	c #08619E",
"!b 	c #1755BB",
"~b 	c #4B68F1",
"{b 	c #6776FC",
"]b 	c #8C7DFE",
"^b 	c #C972E6",
"/b 	c #F7629E",
"(b 	c #E661C6",
"_b 	c #AD72F6",
":b 	c #947AFD",
"<b 	c #3880EA",
"[b 	c #5580F7",
"}b 	c #6C7FFE",
"|b 	c #A590F8",
"1b 	c #4051E3",
"2b 	c #AE83F6",
"3b 	c #38A7E2",
"4b 	c #8A80FF",
"5b 	c #9C81FC",
"6b 	c #F685AC",
"7b 	c #FB899E",
"8b 	c #E88FC7",
"9b 	c #AD87F7",
"0b 	c #9682FD",
"ab 	c #8680FE",
"bb 	c #797FFE",
"cb 	c #6A7BFD",
"db 	c #4D76F4",
"eb 	c #146BC2",
"fb 	c #1251AC",
"gb 	c #3B5CE6",
"hb 	c #6073FA",
"ib 	c #747AFE",
"jb 	c #907CFE",
"kb 	c #A677F9",
"lb 	c #DA6FD7",
"mb 	c #F764A3",
"nb 	c #F65DA2",
"ob 	c #D861D6",
"pb 	c #A575F9",
"qb 	c #8F7BFD",
"rb 	c #5581F7",
"sb 	c #2D5CDA",
"tb 	c #23BAC1",
"ub 	c #4F9DF2",
"vb 	c #8880FF",
"wb 	c #C083EE",
"xb 	c #F48CB2",
"yb 	c #EAA1BD",
"zb 	c #B58CF2",
"Ab 	c #9883FC",
"Bb 	c #6F7DFE",
"Cb 	c #5A77F9",
"Db 	c #256FD7",
"Eb 	c #0962A4",
"Fb 	c #0D53A2",
"Gb 	c #2A53D2",
"Hb 	c #596EF7",
"Ib 	c #6F78FE",
"Jb 	c #967AFD",
"Kb 	c #AE73F6",
"Lb 	c #E669C7",
"Mb 	c #F35EAB",
"Nb 	c #C767E6",
"Ob 	c #9E76FB",
"Pb 	c #8C7BFE",
"Qb 	c #3881E9",
"Rb 	c #5581F8",
"Sb 	c #6C81FD",
"Tb 	c #B2B3E9",
"Ub 	c #A46BF8",
"Vb 	c #9182FD",
"Wb 	c #18B1B8",
"Xb 	c #3AAEE1",
"Yb 	c #6092FA",
"Zb 	c #FA939E",
"`b 	c #F393B1",
" c 	c #9A83FC",
".c 	c #747EFE",
"+c 	c #6178FB",
"@c 	c #3971E9",
"#c 	c #0C66AF",
"$c 	c #0A589E",
"%c 	c #1B4EBC",
"&c 	c #4D65F2",
"*c 	c #6875FD",
"=c 	c #8A7CFE",
"-c 	c #9C77FC",
";c 	c #BD6FEE",
">c 	c #EF62B6",
",c 	c #F65A9D",
"'c 	c #EC57B6",
")c 	c #B86BF0",
"!c 	c #9877FC",
"~c 	c #887DFE",
"{c 	c #7380FF",
"]c 	c #5F82FA",
"^c 	c #3884E9",
"/c 	c #0883AC",
"(c 	c #04839F",
"_c 	c #1883CA",
":c 	c #5782F8",
"<c 	c #6C81FE",
"[c 	c #9688FD",
"}c 	c #38A2E2",
"|c 	c #5F98F9",
"1c 	c #B660EF",
"2c 	c #9581FD",
"3c 	c #E884C7",
"4c 	c #FB839F",
"5c 	c #F684AC",
"6c 	c #C485EA",
"7c 	c #9C83FC",
"8c 	c #787EFE",
"9c 	c #687AFC",
"0c 	c #4C73F3",
"ac 	c #156AC1",
"bc 	c #095C9F",
"cc 	c #1250AC",
"dc 	c #3D5AE6",
"ec 	c #6171FB",
"fc 	c #7479FF",
"gc 	c #907AFE",
"hc 	c #A473FA",
"ic 	c #D065DE",
"jc 	c #F257A7",
"kc 	c #F2529F",
"lc 	c #DF57C9",
"mc 	c #A96FF7",
"nc 	c #9278FE",
"oc 	c #867DFF",
"pc 	c #7181FE",
"qc 	c #5E82FA",
"rc 	c #3288E5",
"sc 	c #0890AA",
"tc 	c #0693A0",
"uc 	c #1B8FCC",
"vc 	c #5883F9",
"wc 	c #6E81FE",
"xc 	c #B9B3E6",
"yc 	c #9C94FA",
"zc 	c #8568FD",
"Ac 	c #D3A3D9",
"Bc 	c #C458E3",
"Cc 	c #13BB9E",
"Dc 	c #9481FD",
"Ec 	c #E783C9",
"Fc 	c #F783AC",
"Gc 	c #C685E9",
"Hc 	c #9E83FB",
"Ic 	c #8B81FE",
"Jc 	c #6E7BFE",
"Kc 	c #256DD7",
"Lc 	c #0A60A3",
"Mc 	c #2A51D2",
"Nc 	c #596CF8",
"Oc 	c #6E76FE",
"Pc 	c #877CFF",
"Qc 	c #9677FC",
"Rc 	c #E65FC4",
"Sc 	c #EC4BA8",
"Tc 	c #CA5CE0",
"Uc 	c #9F72FA",
"Vc 	c #8D7AFE",
"Wc 	c #6F81FE",
"Xc 	c #5B83FA",
"Yc 	c #2488D7",
"Zc 	c #0795A3",
"`c 	c #099DA3",
" d 	c #2697D6",
".d 	c #5B84F9",
"+d 	c #7082FE",
"@d 	c #9388FD",
"#d 	c #A891F8",
"$d 	c #DA9CD5",
"%d 	c #A9A6F1",
"&d 	c #494FE8",
"*d 	c #BF82EE",
"=d 	c #CEADD9",
"-d 	c #B05EF0",
";d 	c #16C1A1",
">d 	c #9181FE",
",d 	c #A882F9",
"'d 	c #E784CA",
")d 	c #FB879F",
"!d 	c #F68DAC",
"~d 	c #C88DE7",
"{d 	c #A084FB",
"]d 	c #3A70E9",
"^d 	c #0C64AF",
"/d 	c #0B549E",
"(d 	c #1E45BA",
"_d 	c #4D5DEF",
":d 	c #6773FC",
"<d 	c #767AFF",
"[d 	c #8C7AFF",
"}d 	c #9E73FA",
"|d 	c #C467E8",
"1d 	c #F15BAE",
"2d 	c #F3549E",
"3d 	c #E550BD",
"4d 	c #B466F1",
"5d 	c #9875FD",
"6d 	c #887CFF",
"7d 	c #5784F9",
"8d 	c #1A85CC",
"9d 	c #0488A0",
"0d 	c #088DAA",
"ad 	c #338DE5",
"bd 	c #5D85FB",
"cd 	c #7282FE",
"dd 	c #C0BEDA",
"ed 	c #9E99F8",
"fd 	c #4AA5ED",
"gd 	c #14B5AA",
"hd 	c #15BE9F",
"id 	c #22C0BB",
"jd 	c #9081FE",
"kd 	c #A683F9",
"ld 	c #E188D1",
"md 	c #F994A1",
"nd 	c #F4A0A6",
"od 	c #D19ADD",
"pd 	c #A386FA",
"qd 	c #8E83FE",
"rd 	c #6A7AFD",
"sd 	c #4E73F4",
"td 	c #0B559F",
"ud 	c #1546A7",
"vd 	c #3751DE",
"wd 	c #5F6DF9",
"xd 	c #7177FE",
"yd 	c #7C7CFF",
"zd 	c #807BFF",
"Ad 	c #8079FF",
"Bd 	c #8078FE",
"Cd 	c #8077FF",
"Dd 	c #8076FE",
"Ed 	c #7F75FF",
"Fd 	c #8074FE",
"Gd 	c #7F74FF",
"Hd 	c #7F74FE",
"Id 	c #8075FE",
"Jd 	c #7F76FF",
"Kd 	c #7F78FE",
"Ld 	c #7F79FF",
"Md 	c #7F7CFF",
"Nd 	c #9477FD",
"Od 	c #AA6EF6",
"Pd 	c #DB5CD1",
"Qd 	c #F14FA2",
"Rd 	c #EE4BA2",
"Sd 	c #D556D4",
"Td 	c #A46EF8",
"Ud 	c #9078FE",
"Vd 	c #6B81FD",
"Wd 	c #5485F8",
"Xd 	c #1786C9",
"Yd 	c #04849E",
"Zd 	c #0885AC",
"`d 	c #3987E9",
" e 	c #6085FB",
".e 	c #7482FF",
"+e 	c #EDAEAA",
"@e 	c #D6C8BA",
"#e 	c #20B7BE",
"$e 	c #18BFA9",
"%e 	c #A283FA",
"&e 	c #D389E0",
"*e 	c #F791A8",
"=e 	c #F896A1",
"-e 	c #E192D0",
";e 	c #A687F9",
">e 	c #717CFE",
",e 	c #5C75FA",
"'e 	c #2E6CE0",
")e 	c #0C60A8",
"!e 	c #0D529F",
"~e 	c #2448C6",
"{e 	c #5462F4",
"]e 	c #6B72FC",
"^e 	c #797AFE",
"/e 	c #8178FF",
"(e 	c #8175FE",
"_e 	c #8173FF",
":e 	c #8170FE",
"<e 	c #816DFD",
"[e 	c #826AFD",
"}e 	c #8268FD",
"|e 	c #8165FD",
"1e 	c #8162FC",
"2e 	c #8061FC",
"3e 	c #7F61FC",
"4e 	c #7F61FB",
"5e 	c #8060FB",
"6e 	c #7F62FC",
"7e 	c #7E63FC",
"8e 	c #7D64FC",
"9e 	c #7D67FD",
"0e 	c #7D69FD",
"ae 	c #7D6CFE",
"be 	c #7D70FE",
"ce 	c #7E73FE",
"de 	c #7E76FF",
"ee 	c #8C7AFE",
"fe 	c #9D72FB",
"ge 	c #BF66EB",
"he 	c #EB52B4",
"ie 	c #EE499D",
"je 	c #E646B2",
"ke 	c #BD5EEA",
"le 	c #9B73FC",
"me 	c #8A7AFF",
"ne 	c #7880FF",
"oe 	c #4F86F5",
"pe 	c #158FC4",
"qe 	c #0A93AE",
"re 	c #3D8AEB",
"se 	c #6384FC",
"te 	c #7582FF",
"ue 	c #EEB4A0",
"ve 	c #2E58DA",
"we 	c #CE90E3",
"xe 	c #C7ADE0",
"ye 	c #9B99FA",
"ze 	c #698EFD",
"Ae 	c #9F84FB",
"Be 	c #C787E9",
"Ce 	c #F789AC",
"De 	c #FA8D9F",
"Ee 	c #E793C8",
"Fe 	c #AC8BF7",
"Ge 	c #9484FD",
"He 	c #757DFE",
"Ie 	c #6678FC",
"Je 	c #4570F0",
"Ke 	c #1163B9",
"Le 	c #0D519D",
"Me 	c #1C3FAF",
"Ne 	c #434FE5",
"Oe 	c #616BF9",
"Pe 	c #7375FE",
"Qe 	c #8179FF",
"Re 	c #8276FE",
"Se 	c #8272FE",
"Te 	c #836DFD",
"Ue 	c #8369FD",
"Ve 	c #8463FC",
"We 	c #855FFB",
"Xe 	c #855BFA",
"Ye 	c #8457F9",
"Ze 	c #8553F7",
"`e 	c #844BF3",
" f 	c #8340ED",
".f 	c #823BEB",
"+f 	c #8139EA",
"@f 	c #8039E9",
"#f 	c #7F38EA",
"$f 	c #8039EA",
"%f 	c #7F38E9",
"&f 	c #7E39EA",
"*f 	c #7D3AEA",
"=f 	c #7B3DEC",
"-f 	c #7A45F0",
";f 	c #7951F6",
">f 	c #7956F8",
",f 	c #7A5BFA",
"'f 	c #7A60FA",
")f 	c #7B64FC",
"!f 	c #7B69FD",
"~f 	c #7C6FFE",
"{f 	c #7D74FF",
"]f 	c #7E77FF",
"^f 	c #867DFE",
"/f 	c #9377FD",
"(f 	c #A86DF7",
"_f 	c #DA5AD2",
":f 	c #EF4CA2",
"<f 	c #EC46A2",
"[f 	c #D64ECF",
"}f 	c #A86AF6",
"|f 	c #7680FF",
"1f 	c #6583FC",
"2f 	c #4487F0",
"3f 	c #0E91B7",
"4f 	c #079B9E",
"5f 	c #468DF0",
"6f 	c #7781FF",
"7f 	c #C89AE5",
"8f 	c #6676FD",
"9f 	c #9A6AFB",
"0f 	c #9090FD",
"af 	c #7C80FF",
"bf 	c #3FACE3",
"cf 	c #429DEC",
"df 	c #16B0B5",
"ef 	c #12B99D",
"ff 	c #6293FA",
"gf 	c #C087EE",
"hf 	c #F38FB1",
"if 	c #E9A4BC",
"jf 	c #B490F3",
"kf 	c #9785FD",
"lf 	c #6E7AFE",
"mf 	c #2466D4",
"nf 	c #0E53A4",
"of 	c #173EA0",
"pf 	c #3235C5",
"qf 	c #5659F1",
"rf 	c #6B6FFC",
"sf 	c #8471FE",
"tf 	c #846CFD",
"uf 	c #8766FC",
"vf 	c #875FFB",
"wf 	c #8957F8",
"xf 	c #884CF4",
"yf 	c #883FEE",
"zf 	c #8B34E5",
"Af 	c #8B25D8",
"Bf 	c #861ACC",
"Cf 	c #8917C8",
"Df 	c #9112BE",
"Ef 	c #8A0AB1",
"Ff 	c #8208AD",
"Gf 	c #8008AC",
"Hf 	c #7F08AC",
"If 	c #7D08AC",
"Jf 	c #7609AE",
"Kf 	c #700EB8",
"Lf 	c #7615C4",
"Mf 	c #761ACC",
"Nf 	c #7424D8",
"Of 	c #7535E6",
"Pf 	c #763FED",
"Qf 	c #764DF4",
"Rf 	c #775AF9",
"Sf 	c #7861FB",
"Tf 	c #7A68FD",
"Uf 	c #7D75FF",
"Vf 	c #7E79FF",
"Wf 	c #8B7AFE",
"Xf 	c #9C72FB",
"Yf 	c #BE65EB",
"Zf 	c #EA52B4",
"`f 	c #EE489D",
" g 	c #E546B2",
".g 	c #8B79FE",
"+g 	c #7481FE",
"@g 	c #6185FB",
"#g 	c #3A8AE9",
"$g 	c #098FAD",
"%g 	c #05939F",
"&g 	c #1796C4",
"*g 	c #518BF5",
"=g 	c #6B84FD",
"-g 	c #7981FE",
";g 	c #AB92F6",
">g 	c #CEC2CA",
",g 	c #A7A0F5",
"'g 	c #5871F8",
")g 	c #325CDE",
"!g 	c #C05FE9",
"~g 	c #6B8AFC",
"{g 	c #14B9A2",
"]g 	c #9783FC",
"^g 	c #B486F4",
"/g 	c #ED8FBF",
"(g 	c #FA969E",
"_g 	c #F29AB0",
":g 	c #C190EC",
"<g 	c #9B87FC",
"[g 	c #747CFF",
"}g 	c #6576FC",
"|g 	c #416CED",
"1g 	c #145AB9",
"2g 	c #13429F",
"3g 	c #2431A9",
"4g 	c #4041DA",
"5g 	c #6066F8",
"6g 	c #7173FD",
"7g 	c #8472FF",
"8g 	c #866CFD",
"9g 	c #8765FC",
"0g 	c #8A5EFA",
"ag 	c #8B54F6",
"bg 	c #8E43EF",
"cg 	c #902FE1",
"dg 	c #911ECF",
"eg 	c #9413BF",
"fg 	c #8E0BB1",
"gg 	c #9409AB",
"hg 	c #9608A3",
"ig 	c #88049F",
"jg 	c #8A049F",
"kg 	c #9A079E",
"lg 	c #92069F",
"mg 	c #83049E",
"ng 	c #80039F",
"og 	c #80049F",
"pg 	c #7F049F",
"qg 	c #80049E",
"rg 	c #7F039F",
"sg 	c #7F049E",
"tg 	c #7C049F",
"ug 	c #6C069F",
"vg 	c #64079D",
"wg 	c #73049F",
"xg 	c #70059F",
"yg 	c #6807A3",
"zg 	c #7009AB",
"Ag 	c #6E0CB1",
"Bg 	c #6B14C1",
"Cg 	c #6E25D7",
"Dg 	c #7139E9",
"Eg 	c #734DF3",
"Fg 	c #755BFA",
"Gg 	c #7764FC",
"Hg 	c #7A6DFE",
"Ig 	c #7C74FF",
"Jg 	c #9376FD",
"Kg 	c #A86CF7",
"Lg 	c #D95AD2",
"Mg 	c #EE4CA2",
"Ng 	c #EC45A1",
"Og 	c #D54DCF",
"Pg 	c #A869F6",
"Qg 	c #9375FD",
"Rg 	c #7182FE",
"Sg 	c #5D86FA",
"Tg 	c #2C8CE0",
"Ug 	c #0899A7",
"Vg 	c #089DA1",
"Wg 	c #1F98D0",
"Xg 	c #5888F9",
"Yg 	c #6E84FE",
"Zg 	c #9C8BFB",
"`g 	c #9B6DFA",
" h 	c #A987F8",
".h 	c #E68ACB",
"+h 	c #FA929F",
"@h 	c #F49DAA",
"#h 	c #C99AE4",
"$h 	c #A188FA",
"%h 	c #8D83FE",
"&h 	c #7A7EFE",
"*h 	c #6E79FD",
"=h 	c #5A71F8",
"-h 	c #2E62DD",
";h 	c #1151AA",
">h 	c #15409F",
",h 	c #2A36BA",
"'h 	c #5151ED",
")h 	c #686AFB",
"!h 	c #7576FF",
"~h 	c #8376FF",
"{h 	c #8671FE",
"]h 	c #8869FC",
"^h 	c #8A60FB",
"/h 	c #8D55F6",
"(h 	c #8F44EF",
"_h 	c #942FE0",
":h 	c #981DCC",
"<h 	c #9C11B7",
"[h 	c #9D0AA8",
"}h 	c #9907A0",
"|h 	c #9D079D",
"1h 	c #97069E",
"2h 	c #96069F",
"3h 	c #9E09A3",
"4h 	c #8E08AA",
"5h 	c #8B09AC",
"6h 	c #9C0DB0",
"7h 	c #9813BE",
"8h 	c #8516C8",
"9h 	c #8217C9",
"0h 	c #8017C9",
"ah 	c #7F17C9",
"bh 	c #8018C8",
"ch 	c #7E17C8",
"dh 	c #7917C9",
"eh 	c #6416C4",
"fh 	c #6010B6",
"gh 	c #710AAE",
"hh 	c #650BAA",
"ih 	c #600AA2",
"jh 	c #6B069F",
"kh 	c #61089D",
"lh 	c #5D099E",
"mh 	c #6109A4",
"nh 	c #650CAF",
"oh 	c #6915C1",
"ph 	c #6C26D8",
"qh 	c #6E41ED",
"rh 	c #7257F8",
"sh 	c #7665FC",
"th 	c #796FFE",
"uh 	c #7C76FF",
"vh 	c #8C79FE",
"wh 	c #9C70FA",
"xh 	c #BE62EB",
"yh 	c #EA51B4",
"zh 	c #EE479D",
"Ah 	c #E545B2",
"Bh 	c #BC5CE9",
"Ch 	c #9C70FB",
"Dh 	c #6D82FE",
"Eh 	c #5887F8",
"Fh 	c #1E8CD1",
"Gh 	c #0693A1",
"Hh 	c #099BA6",
"Ih 	c #2E98DF",
"Jh 	c #5D87F9",
"Kh 	c #7183FE",
"Lh 	c #E4C69F",
"Mh 	c #D0CCBF",
"Nh 	c #AEA7EF",
"Oh 	c #4A47E6",
"Ph 	c #8F82FE",
"Qh 	c #A486F9",
"Rh 	c #DB8CD8",
"Sh 	c #F897A3",
"Th 	c #F5A2A2",
"Uh 	c #D99FD5",
"Vh 	c #A68AF8",
"Wh 	c #9085FD",
"Xh 	c #4E6BF3",
"Yh 	c #1A5EC5",
"Zh 	c #104BA0",
"`h 	c #1F34A4",
" i 	c #3D36CE",
".i 	c #5B5EF5",
"+i 	c #7979FF",
"@i 	c #8A68FC",
"#i 	c #8E5EFA",
"$i 	c #924DF4",
"%i 	c #9733E2",
"&i 	c #9B1DCC",
"*i 	c #9E11B6",
"=i 	c #A10BA8",
"-i 	c #A40A9F",
";i 	c #A7099D",
">i 	c #A70AA0",
",i 	c #A10BA6",
"'i 	c #A10FAF",
")i 	c #9D14BD",
"!i 	c #951BCA",
"~i 	c #9A25D6",
"{i 	c #8E33E4",
"]i 	c #893AEA",
"^i 	c #8D3FED",
"/i 	c #8A4AF3",
"(i 	c #8451F7",
"_i 	c #8253F7",
":i 	c #8055F8",
"<i 	c #8054F8",
"[i 	c #7F55F7",
"}i 	c #7F55F8",
"|i 	c #7D54F8",
"1i 	c #7B52F7",
"2i 	c #754EF5",
"3i 	c #723BEB",
"4i 	c #6635E4",
"5i 	c #6426D6",
"6i 	c #651BCA",
"7i 	c #5617BC",
"8i 	c #5012AC",
"9i 	c #530DA2",
"0i 	c #580A9E",
"ai 	c #5B099E",
"bi 	c #5C0BA5",
"ci 	c #5E11B7",
"di 	c #6524D4",
"ei 	c #6A42ED",
"fi 	c #705BF9",
"gi 	c #756AFD",
"hi 	c #7D7BFF",
"ii 	c #AB65F5",
"ji 	c #D74FCF",
"ki 	c #EB45A2",
"li 	c #EB43A1",
"mi 	c #D44CCF",
"ni 	c #A868F6",
"oi 	c #9275FD",
"pi 	c #6984FD",
"qi 	c #5088F6",
"ri 	c #1692C5",
"si 	c #06979F",
"ti 	c #0B98AD",
"ui 	c #3A90E9",
"vi 	c #6287FB",
"wi 	c #E4C5A7",
"xi 	c #3255DA",
"yi 	c #BDB5E1",
"zi 	c #9898FB",
"Ai 	c #BE5EE9",
"Bi 	c #21B9BF",
"Ci 	c #688FFB",
"Di 	c #9F85FB",
"Ei 	c #C98BE7",
"Fi 	c #F593AC",
"Gi 	c #F79D9F",
"Hi 	c #E4A6C5",
"Ii 	c #AD91F6",
"Ji 	c #9586FD",
"Ki 	c #6071FA",
"Li 	c #1452B1",
"Mi 	c #173D9E",
"Ni 	c #292FAE",
"Oi 	c #4841E0",
"Pi 	c #8677FF",
"Qi 	c #8A6EFE",
"Ri 	c #9063FB",
"Si 	c #964FF3",
"Ti 	c #9F33E1",
"Ui 	c #A81BC3",
"Vi 	c #A80FAB",
"Wi 	c #A60AA0",
"Xi 	c #A70A9D",
"Yi 	c #A80C9F",
"Zi 	c #AA0EA7",
"`i 	c #AA14B5",
" j 	c #A51FC9",
".j 	c #9C2EDD",
"+j 	c #933EEA",
"@j 	c #8F4AF2",
"#j 	c #8A55F7",
"$j 	c #875AF9",
"%j 	c #855EFB",
"&j 	c #8561FB",
"*j 	c #8465FC",
"=j 	c #8367FC",
"-j 	c #816AFD",
";j 	c #806AFE",
">j 	c #806BFE",
",j 	c #7F6BFE",
"'j 	c #7F6BFD",
")j 	c #806CFD",
"!j 	c #7E6BFD",
"~j 	c #7D6AFD",
"{j 	c #7B68FD",
"]j 	c #7A65FD",
"^j 	c #7962FC",
"/j 	c #785FFB",
"(j 	c #765AF9",
"_j 	c #7155F6",
":j 	c #694BF1",
"<j 	c #5D3CE5",
"[j 	c #522AD2",
"}j 	c #4E1BBD",
"|j 	c #4C14AC",
"1j 	c #4812A1",
"2j 	c #4C0F9D",
"3j 	c #530EA4",
"4j 	c #5915BA",
"5j 	c #6131DE",
"6j 	c #6A55F6",
"7j 	c #726AFC",
"8j 	c #7876FF",
"9j 	c #A069F8",
"0j 	c #C556E1",
"aj 	c #E542AD",
"bj 	c #E73B9D",
"cj 	c #E03FB3",
"dj 	c #BA5AEA",
"ej 	c #9A70FB",
"fj 	c #6485FC",
"gj 	c #438AF0",
"hj 	c #0F95B7",
"ij 	c #089E9E",
"jj 	c #12A3B6",
"kj 	c #4591EF",
"lj 	c #6686FD",
"mj 	c #7782FE",
"nj 	c #A18EF9",
"oj 	c #F0A7AB",
"pj 	c #6577FB",
"qj 	c #3855E1",
"rj 	c #D2ACD7",
"sj 	c #AFA8EE",
"tj 	c #3BABE1",
"uj 	c #A865F6",
"vj 	c #5F93FA",
"wj 	c #9984FC",
"xj 	c #BA89F0",
"yj 	c #F093B7",
"zj 	c #F79E9D",
"Aj 	c #EDA5B6",
"Bj 	c #BA96EE",
"Cj 	c #9988FC",
"Dj 	c #6C77FD",
"Ej 	c #566CF7",
"Fj 	c #265ED5",
"Gj 	c #124BA6",
"Hj 	c #1C36A0",
"Ij 	c #322FBD",
"Jj 	c #534FEC",
"Kj 	c #6969FB",
"Lj 	c #7675FE",
"Mj 	c #8F72FE",
"Nj 	c #985DF8",
"Oj 	c #A43BE5",
"Pj 	c #AC1EC5",
"Qj 	c #B112AA",
"Rj 	c #B5109F",
"Sj 	c #B3109E",
"Tj 	c #AD0FA6",
"Uj 	c #AB14B5",
"Vj 	c #A820C9",
"Wj 	c #A131DE",
"Xj 	c #9744EE",
"Yj 	c #9054F6",
"Zj 	c #8B5BFA",
"`j 	c #8862FB",
" k 	c #8667FD",
".k 	c #836FFE",
"+k 	c #8175FF",
"@k 	c #8176FF",
"#k 	c #807AFF",
"$k 	c #7F7AFF",
"%k 	c #7E77FE",
"&k 	c #7C72FF",
"*k 	c #796BFE",
"=k 	c #7666FC",
"-k 	c #7460FB",
";k 	c #6D59F8",
">k 	c #644DF1",
",k 	c #543EE3",
"'k 	c #402DCA",
")k 	c #3C1FAF",
"!k 	c #3D18A1",
"~k 	c #41159F",
"{k 	c #5726D0",
"]k 	c #6254F4",
"^k 	c #7070FD",
"/k 	c #797AFF",
"(k 	c #B657EC",
"_k 	c #DB3DBA",
":k 	c #E5399E",
"<k 	c #E23AA6",
"[k 	c #C949D8",
"}k 	c #A467F7",
"|k 	c #9174FD",
"1k 	c #6088FB",
"2k 	c #368FE7",
"3k 	c #0A98AB",
"4k 	c #089E9F",
"5k 	c #1A9EC6",
"6k 	c #528EF6",
"7k 	c #C4C7D0",
"8k 	c #2E58D8",
"9k 	c #5DA1F5",
"0k 	c #9373FD",
"ak 	c #29A7D3",
"bk 	c #15B9A4",
"ck 	c #9584FD",
"dk 	c #AD89F7",
"ek 	c #E78FC8",
"fk 	c #F9999F",
"gk 	c #F2A4AA",
"hk 	c #C79FE4",
"ik 	c #A08BFA",
"jk 	c #6673FC",
"kk 	c #4868F0",
"lk 	c #1A57C1",
"mk 	c #1444A0",
"nk 	c #3E34CE",
"ok 	c #5B5AF4",
"pk 	c #6D6CFD",
"qk 	c #7975FE",
"rk 	c #8F7AFE",
"sk 	c #A669F7",
"tk 	c #BB36D5",
"uk 	c #BA18AE",
"vk 	c #B912A0",
"wk 	c #BB149E",
"xk 	c #BC16A8",
"yk 	c #B520C1",
"zk 	c #A632DD",
"Ak 	c #9A44ED",
"Bk 	c #9154F6",
"Ck 	c #8C5EFA",
"Dk 	c #8964FC",
"Ek 	c #876BFD",
"Fk 	c #8570FE",
"Gk 	c #8375FF",
"Hk 	c #8278FF",
"Ik 	c #8084FF",
"Jk 	c #7F86FE",
"Kk 	c #7F87FF",
"Lk 	c #7F89FE",
"Mk 	c #8089FE",
"Nk 	c #8088FF",
"Ok 	c #8087FF",
"Pk 	c #8085FE",
"Qk 	c #7F84FF",
"Rk 	c #7A73FE",
"Sk 	c #776EFD",
"Tk 	c #7468FC",
"Uk 	c #6E60FA",
"Vk 	c #6157F4",
"Wk 	c #3237C5",
"Xk 	c #2C29A9",
"Yk 	c #341E9F",
"Zk 	c #391DA8",
"`k 	c #4532D2",
" l 	c #6267F9",
".l 	c #8A77FE",
"+l 	c #AD5FF2",
"@l 	c #D846C8",
"#l 	c #E236A2",
"$l 	c #DF32A0",
"%l 	c #D43EC5",
"&l 	c #AD5EF2",
"*l 	c #8879FE",
"=l 	c #588BF8",
"-l 	c #2496D6",
";l 	c #0AA1A3",
">l 	c #0BA7A3",
",l 	c #28A0D6",
"'l 	c #5C8BF9",
")l 	c #7085FE",
"!l 	c #8D84FF",
"~l 	c #6676FC",
"{l 	c #384BDB",
"]l 	c #6F87FD",
"^l 	c #12B89D",
"/l 	c #1CBCB1",
"(l 	c #8F83FE",
"_l 	c #A487F9",
":l 	c #DA8ED8",
"<l 	c #F69BA4",
"[l 	c #F3A9A2",
"}l 	c #D7ABD2",
"|l 	c #7079FE",
"1l 	c #606FFA",
"2l 	c #1450B1",
"3l 	c #183C9E",
"4l 	c #2B2CAE",
"5l 	c #4B39DD",
"6l 	c #635BF6",
"7l 	c #716CFD",
"8l 	c #7976FF",
"9l 	c #897FFF",
"0l 	c #997EFC",
"al 	c #D471DD",
"bl 	c #EA51B5",
"cl 	c #DA30AB",
"dl 	c #CA22AE",
"el 	c #C22CC5",
"fl 	c #B442E2",
"gl 	c #9F55F3",
"hl 	c #9360F9",
"il 	c #8C66FC",
"jl 	c #886CFD",
"kl 	c #8672FE",
"ll 	c #8376FE",
"ml 	c #7E89FF",
"nl 	c #7E8FFE",
"ol 	c #7D91FE",
"pl 	c #7D94FD",
"ql 	c #7D96FD",
"rl 	c #7D99FD",
"sl 	c #7E9BFC",
"tl 	c #809CFC",
"ul 	c #829AFC",
"vl 	c #8295FE",
"wl 	c #8291FD",
"xl 	c #818FFE",
"yl 	c #818CFE",
"zl 	c #8189FE",
"Al 	c #8186FF",
"Bl 	c #7A78FF",
"Cl 	c #7774FE",
"Dl 	c #636BFA",
"El 	c #4B66F1",
"Fl 	c #2D56D7",
"Gl 	c #184AB4",
"Hl 	c #134BA9",
"Il 	c #1951BC",
"Jl 	c #486EF1",
"Kl 	c #8878FE",
"Ll 	c #9470FD",
"Ml 	c #A760F5",
"Nl 	c #C843D5",
"Ol 	c #E137A7",
"Pl 	c #E4379D",
"Ql 	c #D839BA",
"Rl 	c #B553EA",
"Sl 	c #8C76FE",
"Tl 	c #837CFE",
"Ul 	c #6886FD",
"Vl 	c #4C8DF3",
"Wl 	c #169BC0",
"Xl 	c #0AA59E",
"Yl 	c #11AAAD",
"Zl 	c #3C9BE8",
"`l 	c #7E81FE",
" m 	c #AB91F7",
".m 	c #737AFF",
"+m 	c #4955EB",
"@m 	c #A59EF5",
"#m 	c #6191FA",
"$m 	c #C15BE7",
"%m 	c #2BB4D0",
"&m 	c #8B82FE",
"*m 	c #9E87FC",
"=m 	c #C68DEA",
"-m 	c #F399AF",
";m 	c #F5A79E",
">m 	c #E5B0BC",
",m 	c #B299F2",
"'m 	c #6B76FD",
")m 	c #586BF7",
"!m 	c #275DD5",
"~m 	c #1448A7",
"{m 	c #222F9F",
"]m 	c #3C20B1",
"^m 	c #5337DF",
"/m 	c #655BF6",
"(m 	c #9D81FC",
"_m 	c #E089D1",
":m 	c #F59CA9",
"<m 	c #ECADB0",
"[m 	c #D3B0D2",
"}m 	c #BA9CED",
"|m 	c #A786F8",
"1m 	c #9880FC",
"2m 	c #8E7EFE",
"3m 	c #7E86FF",
"4m 	c #7D8BFF",
"5m 	c #7C8FFE",
"6m 	c #7B94FD",
"7m 	c #7A9AFC",
"8m 	c #7AA3FA",
"9m 	c #7BA7F9",
"0m 	c #7BAAF7",
"am 	c #7BB0F5",
"bm 	c #7CBAF0",
"cm 	c #7DC3EC",
"dm 	c #80C4EB",
"em 	c #81C4EB",
"fm 	c #84BFEE",
"gm 	c #85B5F3",
"hm 	c #85ACF7",
"im 	c #84A7F9",
"jm 	c #84A4FA",
"km 	c #85A0FB",
"lm 	c #849AFC",
"mm 	c #8396FD",
"nm 	c #8291FE",
"om 	c #828BFE",
"pm 	c #8187FF",
"qm 	c #6688FC",
"rm 	c #558CF7",
"sm 	c #3A99E8",
"tm 	c #19AEBB",
"um 	c #0FAEA5",
"vm 	c #11A6B3",
"wm 	c #408EEC",
"xm 	c #6E82FD",
"ym 	c #9172FD",
"zm 	c #A265F7",
"Am 	c #C74DDD",
"Bm 	c #DB33AD",
"Cm 	c #DC2D9D",
"Dm 	c #C14CE0",
"Em 	c #9E67F9",
"Fm 	c #8F73FD",
"Gm 	c #7483FE",
"Hm 	c #6189FB",
"Im 	c #3A91E8",
"Jm 	c #0DA0AF",
"Km 	c #0AA89E",
"Lm 	c #18A9BE",
"Mm 	c #4C94F2",
"Nm 	c #6888FC",
"Om 	c #7882FE",
"Pm 	c #B9BCE1",
"Qm 	c #3053D8",
"Rm 	c #9495FC",
"Sm 	c #A370F9",
"Tm 	c #8780FE",
"Um 	c #B38AF3",
"Vm 	c #EB96C1",
"Wm 	c #F6A29F",
"Xm 	c #C2A3E5",
"Ym 	c #8B85FF",
"Zm 	c #4C66F2",
"`m 	c #2251C9",
" n 	c #1D38A4",
".n 	c #2C259F",
"+n 	c #3F1EB2",
"@n 	c #5436DE",
"#n 	c #665BF7",
"$n 	c #726CFC",
"%n 	c #C591E8",
"&n 	c #E6B2B6",
"*n 	c #DAD2A1",
"=n 	c #C4E5A1",
"-n 	c #B9E3B6",
";n 	c #ABC8DF",
">n 	c #9BAAF5",
",n 	c #919CFA",
"'n 	c #8993FD",
")n 	c #838EFE",
"!n 	c #808CFF",
"~n 	c #7B91FE",
"{n 	c #7997FC",
"]n 	c #789EFB",
"^n 	c #76A3FA",
"/n 	c #76ADF6",
"(n 	c #75BBF0",
"_n 	c #73C9E7",
":n 	c #74DAD9",
"<n 	c #79E5CC",
"[n 	c #7AE8C9",
"}n 	c #71EAC4",
"|n 	c #71F2B7",
"1n 	c #7BF6AE",
"2n 	c #80F7AC",
"3n 	c #84F7AC",
"4n 	c #8DF4B2",
"5n 	c #8DEEBF",
"6n 	c #86E8C8",
"7n 	c #88E5CC",
"8n 	c #8BDBD8",
"9n 	c #8ACAE6",
"0n 	c #89C0ED",
"an 	c #89B2F5",
"bn 	c #89A6F9",
"cn 	c #879EFB",
"dn 	c #8597FD",
"en 	c #7693FD",
"fn 	c #6D9AFA",
"gn 	c #61A7F5",
"hn 	c #4DC0E1",
"in 	c #33D2BB",
"jn 	c #26D4A0",
"kn 	c #23D1A1",
"ln 	c #2AC0C6",
"mn 	c #7184FE",
"nn 	c #867AFF",
"on 	c #8E72FD",
"pn 	c #9D65F8",
"qn 	c #B950E7",
"rn 	c #DF3EB5",
"sn 	c #DB31A9",
"tn 	c #C441D7",
"un 	c #A460F6",
"vn 	c #9270FD",
"wn 	c #598BF8",
"xn 	c #2596D6",
"yn 	c #0AA2A3",
"zn 	c #0CAAA3",
"An 	c #27A4D4",
"Bn 	c #5A8EF8",
"Cn 	c #6E86FE",
"Dn 	c #AEA9EF",
"En 	c #474AE4",
"Fn 	c #B380F5",
"Gn 	c #C55CE5",
"Hn 	c #4F9BF2",
"In 	c #1FB0C2",
"Jn 	c #13BA9F",
"Kn 	c #1AC1A6",
"Ln 	c #5B97F8",
"Mn 	c #6E8AFE",
"Nn 	c #A689F9",
"On 	c #DB92D7",
"Pn 	c #F69EA4",
"Qn 	c #F1ACA2",
"Rn 	c #D5ADD3",
"Sn 	c #A691F7",
"Tn 	c #7379FE",
"Un 	c #6570FC",
"Vn 	c #4A61F0",
"Wn 	c #244CC8",
"Xn 	c #1E36A5",
"Yn 	c #2C249E",
"Zn 	c #401EB2",
"`n 	c #5536DF",
" o 	c #7B76FF",
".o 	c #C4A2E5",
"+o 	c #D7C4BE",
"@o 	c #D4D8A4",
"#o 	c #C9E39F",
"$o 	c #B3ECAB",
"%o 	c #A3E4C5",
"&o 	c #99C9E4",
"*o 	c #90ADF5",
"=o 	c #86A2FA",
"-o 	c #7F9FFB",
";o 	c #7AA1FB",
">o 	c #76A6F8",
",o 	c #72B3F3",
"'o 	c #70C5E9",
")o 	c #6FD9D8",
"!o 	c #6BE7C7",
"~o 	c #6BF0B7",
"{o 	c #69F5AC",
"]o 	c #69F7A4",
"^o 	c #77FBA0",
"/o 	c #7BFB9F",
"(o 	c #6CF99F",
"_o 	c #66F89E",
":o 	c #76FB9F",
"<o 	c #80FB9E",
"[o 	c #89FB9E",
"}o 	c #99F99E",
"|o 	c #94FA9E",
"1o 	c #86FB9F",
"2o 	c #8EFAA0",
"3o 	c #97F8A4",
"4o 	c #8FF7AA",
"5o 	c #91F3B2",
"6o 	c #94EBC1",
"7o 	c #91DBD7",
"8o 	c #8EC5E9",
"9o 	c #8BB3F4",
"0o 	c #87A7F8",
"ao 	c #81A2FA",
"bo 	c #77A2FA",
"co 	c #6FAAF7",
"do 	c #61BDEB",
"eo 	c #4ED5CE",
"fo 	c #3FE4AE",
"go 	c #36E39E",
"ho 	c #2CDAA0",
"io 	c #30CBC0",
"jo 	c #4EA8EE",
"ko 	c #8578FF",
"lo 	c #8E71FD",
"mo 	c #9A64F9",
"no 	c #B24FE9",
"oo 	c #D133BE",
"po 	c #DD2F9E",
"qo 	c #E034A2",
"ro 	c #CF41CE",
"so 	c #A75EF4",
"to 	c #956EFC",
"uo 	c #8977FE",
"vo 	c #7881FE",
"wo 	c #4C8EF4",
"xo 	c #159BC1",
"yo 	c #10ABAD",
"zo 	c #3B9DE7",
"Ao 	c #618BFB",
"Bo 	c #7385FE",
"Co 	c #E2C5A7",
"Do 	c #C1BFD7",
"Eo 	c #4B6CF3",
"Fo 	c #675BF8",
"Go 	c #499BEF",
"Ho 	c #16C19E",
"Io 	c #4F9FF2",
"Jo 	c #8C83FE",
"Ko 	c #9E88FB",
"Lo 	c #C68EE9",
"Mo 	c #F39AAE",
"No 	c #F4A89E",
"Oo 	c #E4B1BD",
"Po 	c #B29BF2",
"Qo 	c #978BFC",
"Ro 	c #8884FE",
"So 	c #7277FE",
"To 	c #656DFB",
"Uo 	c #4B5FEF",
"Vo 	c #244BC7",
"Wo 	c #1F36A4",
"Xo 	c #401DB2",
"Yo 	c #5536DE",
"Zo 	c #665AF7",
"`o 	c #726BFD",
" p 	c #8F88FE",
".p 	c #B2A6EE",
"+p 	c #D3BDCA",
"@p 	c #D4D6A9",
"#p 	c #C0E99E",
"$p 	c #B5EEA0",
"%p 	c #ACECB1",
"&p 	c #9BDED2",
"*p 	c #8BC6E9",
"=p 	c #7EBEEF",
"-p 	c #72C8E8",
";p 	c #6ADBD6",
">p 	c #65EAC1",
",p 	c #61F2AF",
"'p 	c #63F7A3",
")p 	c #64F89F",
"!p 	c #61F79D",
"~p 	c #62F89E",
"{p 	c #60F6A3",
"]p 	c #71F7AA",
"^p 	c #7AF7AC",
"/p 	c #6CF5AD",
"(p 	c #61EFB6",
"_p 	c #72EAC4",
":p 	c #7FE8C8",
"<p 	c #8DE8C7",
"[p 	c #A2EABD",
"}p 	c #95F3B2",
"|p 	c #88F7AD",
"1p 	c #9AF5AA",
"2p 	c #9FF6A3",
"3p 	c #93FA9F",
"4p 	c #9EF89E",
"5p 	c #A2F79F",
"6p 	c #9EF6A3",
"7p 	c #99F3AF",
"8p 	c #95EBC2",
"9p 	c #8EDAD7",
"0p 	c #82C6E9",
"ap 	c #71C0ED",
"bp 	c #59D2D8",
"cp 	c #4DE7B7",
"dp 	c #44EBA2",
"ep 	c #3AE79D",
"fp 	c #38E2A7",
"gp 	c #3CD2C6",
"hp 	c #51B0EC",
"ip 	c #6796FB",
"jp 	c #9A62F9",
"kp 	c #B14CE9",
"lp 	c #CE31BE",
"mp 	c #D7299F",
"np 	c #D92AA0",
"op 	c #D034C0",
"pp 	c #B056EE",
"qp 	c #986BFC",
"rp 	c #3A92E9",
"sp 	c #0D9FAE",
"tp 	c #0BA89E",
"up 	c #4D94F3",
"vp 	c #9993FA",
"wp 	c #C055E4",
"xp 	c #1DC4AB",
"yp 	c #B28BF4",
"zp 	c #F6A49F",
"Ap 	c #ECB2AB",
"Bp 	c #C2AAE4",
"Cp 	c #9E8FFA",
"Dp 	c #4A5FEF",
"Ep 	c #254BC8",
"Fp 	c #2D249E",
"Gp 	c #5534DE",
"Hp 	c #6758F6",
"Ip 	c #7369FC",
"Jp 	c #7C75FE",
"Kp 	c #8D89FE",
"Lp 	c #9694FB",
"Mp 	c #A8A4F3",
"Np 	c #C0BDDA",
"Op 	c #CAD5BA",
"Pp 	c #CADFA4",
"Qp 	c #BEEA9E",
"Rp 	c #ABF2A4",
"Sp 	c #94F2B3",
"Tp 	c #75F0BB",
"Up 	c #64F3AF",
"Vp 	c #5EF5A3",
"Wp 	c #5AF59E",
"Xp 	c #58F49D",
"Yp 	c #5AF5A3",
"Zp 	c #5FF3AB",
"`p 	c #5CEDB5",
" q 	c #62E5C6",
".q 	c #65DAD6",
"+q 	c #70CCE5",
"@q 	c #78C6E9",
"#q 	c #76C2EB",
"$q 	c #74BAF0",
"%q 	c #79B1F5",
"&q 	c #7FADF7",
"*q 	c #86AEF6",
"=q 	c #8CB5F3",
"-q 	c #8BC0ED",
";q 	c #8AC6EA",
">q 	c #97CBE3",
",q 	c #9BD9D6",
"'q 	c #9AE4C9",
")q 	c #AAE7BC",
"!q 	c #AEEDAC",
"~q 	c #ACF2A2",
"{q 	c #A7F59E",
"]q 	c #A3F69E",
"^q 	c #9FF5A5",
"/q 	c #8FF2B4",
"(q 	c #66EEBA",
"_q 	c #46EAA7",
":q 	c #40EA9D",
"<q 	c #41EAA1",
"[q 	c #3EDFB3",
"}q 	c #48C9D8",
"|q 	c #5DACF2",
"1q 	c #6B99FB",
"2q 	c #748DFE",
"3q 	c #8776FE",
"4q 	c #8F6BFC",
"5q 	c #9A5DF8",
"6q 	c #AE45E7",
"7q 	c #CC2EBD",
"8q 	c #D6289F",
"9q 	c #D7289F",
"0q 	c #CE32BF",
"aq 	c #B150EB",
"bq 	c #9A68FA",
"cq 	c #8D74FD",
"dq 	c #6E86FD",
"eq 	c #598CF8",
"fq 	c #2598D7",
"gq 	c #0AA3A3",
"hq 	c #0CAAA2",
"iq 	c #28A5D4",
"jq 	c #5A8FF8",
"kq 	c #E0A3CB",
"lq 	c #EDB6A2",
"mq 	c #536FF6",
"nq 	c #5B4EEF",
"oq 	c #608DFB",
"pq 	c #60A2F6",
"qq 	c #BC66ED",
"rq 	c #9075FD",
"sq 	c #5794F7",
"tq 	c #2BB6CD",
"uq 	c #9084FE",
"vq 	c #A58AF9",
"wq 	c #DA93D8",
"xq 	c #F5A2A5",
"yq 	c #EFB5A1",
"zq 	c #D4B9CC",
"Aq 	c #A997F6",
"Bq 	c #7176FE",
"Cq 	c #4B5EEE",
"Dq 	c #254AC8",
"Eq 	c #2C239F",
"Fq 	c #411CB2",
"Gq 	c #5731DB",
"Hq 	c #6751F4",
"Iq 	c #7164FB",
"Jq 	c #7A71FE",
"Kq 	c #9191FC",
"Lq 	c #999DF9",
"Mq 	c #ADADEE",
"Nq 	c #C8C3D0",
"Oq 	c #C8DCB1",
"Pq 	c #9BF8A0",
"Qq 	c #6CF9A0",
"Rq 	c #5AF59D",
"Sq 	c #56F3A2",
"Tq 	c #55EFAD",
"Uq 	c #56E7BE",
"Vq 	c #5DD8D4",
"Wq 	c #67C8E5",
"Xq 	c #6CBAEF",
"Yq 	c #72ADF5",
"Zq 	c #77A6F9",
"`q 	c #79A2FA",
" r 	c #7B9CFC",
".r 	c #7C99FD",
"+r 	c #7E97FD",
"@r 	c #7F96FD",
"#r 	c #8196FD",
"$r 	c #8398FD",
"%r 	c #849BFC",
"&r 	c #869EFB",
"*r 	c #86A1FA",
"=r 	c #8EAAF7",
"-r 	c #96B4F1",
";r 	c #A3C4E6",
">r 	c #ACD6D2",
",r 	c #B1E4BD",
"'r 	c #B1EDAC",
")r 	c #B2F0A2",
"!r 	c #99F8A1",
"~r 	c #63F8A0",
"{r 	c #43EC9E",
"]r 	c #3DE2AC",
"^r 	c #48D4CD",
"/r 	c #58BAE9",
"(r 	c #67A3F8",
"_r 	c #7095FC",
":r 	c #768AFE",
"<r 	c #9168FB",
"[r 	c #9F59F5",
"}r 	c #B238DD",
"|r 	c #C120B5",
"1r 	c #D0219F",
"2r 	c #D526A0",
"3r 	c #CE30BF",
"4r 	c #B14EEB",
"5r 	c #9A66F9",
"6r 	c #6788FD",
"7r 	c #4A92F2",
"8r 	c #17A3BF",
"9r 	c #0BAC9E",
"0r 	c #12AEAD",
"ar 	c #3C9DE8",
"br 	c #628BFB",
"cr 	c #44A6E9",
"dr 	c #9C85FC",
"er 	c #C08DEC",
"fr 	c #F09CB5",
"gr 	c #F3AA9D",
"hr 	c #E6B4B4",
"ir 	c #B8A0ED",
"jr 	c #998CFB",
"kr 	c #4B5EEF",
"lr 	c #264AC8",
"mr 	c #1F34A5",
"nr 	c #31219F",
"or 	c #4914AB",
"pr 	c #5721CC",
"qr 	c #6347EE",
"rr 	c #6E5FF9",
"sr 	c #776CFD",
"tr 	c #9DA4F6",
"ur 	c #ADB8E8",
"vr 	c #B7D2CE",
"wr 	c #9CECBB",
"xr 	c #6CF2B5",
"yr 	c #5BE7C0",
"zr 	c #5DD7D5",
"Ar 	c #64C4E7",
"Br 	c #6CB2F2",
"Cr 	c #72A7F8",
"Dr 	c #759FFA",
"Er 	c #789AFC",
"Fr 	c #7994FE",
"Gr 	c #7D8EFF",
"Hr 	c #7F87FE",
"Ir 	c #8189FF",
"Jr 	c #828BFF",
"Kr 	c #838DFE",
"Lr 	c #8491FD",
"Mr 	c #8694FD",
"Nr 	c #8898FC",
"Or 	c #8C9FFA",
"Pr 	c #92A6F7",
"Qr 	c #9AB2F2",
"Rr 	c #A6C3E5",
"Sr 	c #B3D6CE",
"Tr 	c #99EDBC",
"Ur 	c #67F1B6",
"Vr 	c #4EE0C4",
"Wr 	c #56C4E1",
"Xr 	c #65AAF5",
"Yr 	c #6E9AFB",
"Zr 	c #7590FD",
"`r 	c #7A87FF",
" s 	c #8477FF",
".s 	c #8B6EFD",
"+s 	c #9362FA",
"@s 	c #9F50F2",
"#s 	c #CC24AC",
"$s 	c #C81B9D",
"%s 	c #CB1FA2",
"&s 	c #CB2EC0",
"*s 	c #AF4EEA",
"=s 	c #9966FA",
"-s 	c #8E71FE",
";s 	c #5F89FB",
">s 	c #3295E3",
",s 	c #0EA6AB",
"'s 	c #0EB19E",
")s 	c #4F92F4",
"!s 	c #6986FD",
"~s 	c #7880FE",
"{s 	c #9388FE",
"]s 	c #A890F8",
"^s 	c #4A52EA",
"/s 	c #A59FF6",
"(s 	c #8079FE",
"_s 	c #8177FF",
":s 	c #8274FE",
"<s 	c #8773FF",
"[s 	c #9576FD",
"}s 	c #AC7CF7",
"|s 	c #E48BCD",
"1s 	c #F79FA1",
"2s 	c #CBAEDB",
"3s 	c #A28DFA",
"4s 	c #7A7BFF",
"5s 	c #7276FE",
"6s 	c #666CFB",
"7s 	c #4D5EF0",
"8s 	c #2848CA",
"9s 	c #282DA9",
"0s 	c #361C9E",
"as 	c #4117A5",
"bs 	c #531BC0",
"cs 	c #6237E4",
"ds 	c #6C55F6",
"es 	c #7466FB",
"fs 	c #7B71FE",
"gs 	c #8B8FFE",
"hs 	c #8E99FC",
"is 	c #90A4F9",
"js 	c #89B3F4",
"ks 	c #7AB9F1",
"ls 	c #74AEF5",
"ms 	c #74A5F9",
"ns 	c #749EFB",
"os 	c #7797FD",
"ps 	c #7991FE",
"qs 	c #7C88FF",
"rs 	c #8285FF",
"ss 	c #8388FF",
"ts 	c #858CFF",
"us 	c #8790FD",
"vs 	c #8A98FD",
"ws 	c #8B9EFB",
"xs 	c #8DA6F8",
"ys 	c #86B4F3",
"zs 	c #76B6F2",
"As 	c #70AAF7",
"Bs 	c #729DFB",
"Cs 	c #7493FD",
"Ds 	c #798AFE",
"Es 	c #8772FE",
"Fs 	c #8D68FC",
"Gs 	c #965AF7",
"Hs 	c #A642E8",
"Is 	c #B626C7",
"Js 	c #C81EA6",
"Ks 	c #D1239D",
"Ls 	c #CD24AA",
"Ms 	c #BE30CD",
"Ns 	c #A94FED",
"Os 	c #9665FA",
"Ps 	c #8D72FD",
"Qs 	c #6C83FE",
"Rs 	c #5589F7",
"Ss 	c #1D99CC",
"Ts 	c #09A4A0",
"Us 	c #0EA9A8",
"Vs 	c #2F98DF",
"Ws 	c #5C7EFA",
"Xs 	c #6F76FD",
"Ys 	c #7A74FE",
"Zs 	c #7E74FE",
"`s 	c #7F77FE",
" t 	c #EBA6BA",
".t 	c #8D8BFD",
"+t 	c #D19EDD",
"@t 	c #49ACEB",
"#t 	c #34A2E1",
"$t 	c #14B3AB",
"%t 	c #668FFB",
"&t 	c #8173FE",
"*t 	c #8270FE",
"=t 	c #836CFE",
"-t 	c #8368FD",
";t 	c #8365FD",
">t 	c #8461FB",
",t 	c #865FFB",
"'t 	c #905EFA",
")t 	c #A163F7",
"!t 	c #CD71E3",
"~t 	c #F595AE",
"{t 	c #F2AEA0",
"]t 	c #DFB5C1",
"^t 	c #AE91F5",
"/t 	c #686DFB",
"(t 	c #535EF3",
"_t 	c #3845D8",
":t 	c #2733B2",
"<t 	c #2E239F",
"[t 	c #4215A0",
"}t 	c #5114B1",
"|t 	c #5D26D4",
"1t 	c #6847EF",
"2t 	c #705DF9",
"3t 	c #7769FD",
"4t 	c #7D73FE",
"5t 	c #848DFE",
"6t 	c #7F94FE",
"7t 	c #7C93FD",
"8t 	c #7B90FE",
"9t 	c #7B8BFE",
"0t 	c #7D87FE",
"at 	c #8487FF",
"bt 	c #848CFE",
"ct 	c #8390FE",
"dt 	c #8193FD",
"et 	c #7D93FD",
"ft 	c #7B8AFE",
"gt 	c #8574FE",
"ht 	c #8B6BFC",
"it 	c #915FFA",
"jt 	c #9C4EF1",
"kt 	c #AC31D9",
"lt 	c #BC1CB5",
"mt 	c #C318A1",
"nt 	c #C71B9E",
"ot 	c #BD3BD7",
"pt 	c #A158F4",
"qt 	c #9467FB",
"rt 	c #8B73FE",
"st 	c #8479FF",
"tt 	c #6882FD",
"ut 	c #4288EF",
"vt 	c #109FB6",
"wt 	c #0BA99E",
"xt 	c #12A2B8",
"yt 	c #4475EF",
"zt 	c #6463F8",
"At 	c #725EFA",
"Bt 	c #795EFB",
"Ct 	c #7C61FB",
"Dt 	c #7C65FC",
"Et 	c #7D68FD",
"Ft 	c #7C6CFE",
"Gt 	c #7D6FFE",
"Ht 	c #4E9AF1",
"It 	c #846AFD",
"Jt 	c #8661FB",
"Kt 	c #865BF9",
"Lt 	c #8655F8",
"Mt 	c #864CF4",
"Nt 	c #863FEE",
"Ot 	c #863AEA",
"Pt 	c #8A34E5",
"Qt 	c #8E25D9",
"Rt 	c #921CCE",
"St 	c #A120CD",
"Tt 	c #D945C4",
"Ut 	c #F878AA",
"Vt 	c #F28DB4",
"Wt 	c #937FFD",
"Xt 	c #7476FE",
"Yt 	c #6C6EFC",
"Zt 	c #5E61F7",
"`t 	c #3E4FE2",
" u 	c #2C35BD",
".u 	c #3022A5",
"+u 	c #3D179E",
"@u 	c #4B11A6",
"#u 	c #5919C1",
"$u 	c #6632E1",
"%u 	c #6D4DF3",
"&u 	c #735EFA",
"*u 	c #7869FC",
"=u 	c #7B72FE",
"-u 	c #8473FE",
";u 	c #896BFD",
">u 	c #8E62FB",
",u 	c #9754F5",
"'u 	c #A338E3",
")u 	c #B01EC2",
"!u 	c #BE18A7",
"~u 	c #C4189D",
"{u 	c #C61BA2",
"]u 	c #C325BB",
"^u 	c #B23EE0",
"/u 	c #9E5BF6",
"(u 	c #916BFC",
"_u 	c #677FFD",
":u 	c #2D80E0",
"<u 	c #078AA9",
"[u 	c #3147D2",
"}u 	c #6520CF",
"|u 	c #701BCD",
"1u 	c #731FD1",
"2u 	c #762CE0",
"3u 	c #7838E8",
"4u 	c #783FED",
"5u 	c #784BF4",
"6u 	c #7955F7",
"7u 	c #795AF9",
"8u 	c #7C6EFE",
"9u 	c #7D72FF",
"0u 	c #B293F2",
"au 	c #F0B0A0",
"bu 	c #A19BF8",
"cu 	c #908CFE",
"du 	c #5993F8",
"eu 	c #8277FF",
"fu 	c #8373FE",
"gu 	c #846DFE",
"hu 	c #8568FC",
"iu 	c #885BF9",
"ju 	c #8A52F6",
"ku 	c #8A45F0",
"lu 	c #8D36E7",
"mu 	c #8C25D8",
"nu 	c #8C19CA",
"ou 	c #9312BE",
"pu 	c #8B0BB2",
"qu 	c #8609AD",
"ru 	c #9108A9",
"su 	c #9608A4",
"tu 	c #8B05A0",
"uu 	c #89049F",
"vu 	c #9F09A2",
"wu 	c #D125A5",
"xu 	c #E647B3",
"yu 	c #BE69EC",
"zu 	c #917AFE",
"Au 	c #7B7CFE",
"Bu 	c #6F70FD",
"Cu 	c #6465F9",
"Du 	c #5055ED",
"Eu 	c #343ECF",
"Fu 	c #2F28AE",
"Gu 	c #371CA0",
"Hu 	c #4911A0",
"Iu 	c #580EAB",
"Ju 	c #6018C5",
"Ku 	c #6831E1",
"Lu 	c #6F4CF2",
"Mu 	c #735BFA",
"Nu 	c #7765FC",
"Ou 	c #7A6DFD",
"Pu 	c #7C73FF",
"Qu 	c #8374FE",
"Ru 	c #856EFD",
"Su 	c #8867FD",
"Tu 	c #9153F6",
"Uu 	c #9B3FEA",
"Vu 	c #AE28CF",
"Wu 	c #BA19AE",
"Xu 	c #BA139E",
"Yu 	c #C1169E",
"Zu 	c #C51EAC",
"`u 	c #BA2FCE",
" v 	c #A74BEC",
".v 	c #9661F9",
"+v 	c #8E6DFD",
"@v 	c #6A7CFD",
"#v 	c #2B75DF",
"$v 	c #0D5CAD",
"%v 	c #3126AE",
"&v 	c #6A07A3",
"*v 	c #77049F",
"=v 	c #76059F",
"-v 	c #6A06A1",
";v 	c #6E08A7",
">v 	c #7608AC",
",v 	c #710CB2",
"'v 	c #7011BF",
")v 	c #7419CA",
"!v 	c #7640ED",
"~v 	c #7759F9",
"{v 	c #7860FB",
"]v 	c #7A66FC",
"^v 	c #7B6CFD",
"/v 	c #7D71FE",
"(v 	c #7D76FE",
"_v 	c #A18DF9",
":v 	c #394CDD",
"<v 	c #A366F8",
"[v 	c #648DFB",
"}v 	c #429BEC",
"|v 	c #19B2B8",
"1v 	c #8374FF",
"2v 	c #846EFE",
"3v 	c #8768FD",
"4v 	c #8960FA",
"5v 	c #8A58F8",
"6v 	c #8C4BF3",
"7v 	c #8F39E9",
"8v 	c #9025D8",
"9v 	c #9418C8",
"0v 	c #950FB7",
"av 	c #980AAB",
"bv 	c #9708A4",
"cv 	c #9106A0",
"dv 	c #9B079E",
"ev 	c #94059E",
"fv 	c #87049F",
"gv 	c #9305A0",
"hv 	c #8F09AA",
"iv 	c #8709AD",
"jv 	c #930BAF",
"kv 	c #B217B5",
"lv 	c #C237D1",
"mv 	c #A365F7",
"nv 	c #6B69FB",
"ov 	c #5E5CF6",
"pv 	c #4249E1",
"qv 	c #3230BE",
"rv 	c #3B1BA7",
"sv 	c #45129F",
"tv 	c #500EA0",
"uv 	c #590EAB",
"vv 	c #6218C4",
"wv 	c #6A2EE0",
"xv 	c #7044EF",
"yv 	c #7355F8",
"zv 	c #7760FB",
"Av 	c #7A67FC",
"Bv 	c #7B6CFE",
"Cv 	c #7E75FF",
"Dv 	c #8372FE",
"Ev 	c #856DFE",
"Fv 	c #8668FC",
"Gv 	c #8961FB",
"Hv 	c #8C59F8",
"Iv 	c #914AF2",
"Jv 	c #A01ECB",
"Kv 	c #AC13B3",
"Lv 	c #B813A2",
"Mv 	c #C3189D",
"Nv 	c #C119A7",
"Ov 	c #BA23C0",
"Pv 	c #AF3CE1",
"Qv 	c #9C57F5",
"Rv 	c #9166FB",
"Sv 	c #2F46D0",
"Tv 	c #5218BB",
"Uv 	c #730AB0",
"Vv 	c #7908AD",
"Wv 	c #5E0AA6",
"Xv 	c #72059F",
"Yv 	c #64069E",
"Zv 	c #6A069E",
"`v 	c #6E059F",
" w 	c #6907A4",
".w 	c #7109AA",
"+w 	c #6C14C1",
"@w 	c #7024D6",
"#w 	c #7236E7",
"$w 	c #7545F0",
"%w 	c #7554F7",
"&w 	c #775EFA",
"*w 	c #7965FC",
"=w 	c #7A6CFD",
"-w 	c #7C72FE",
";w 	c #B092F5",
">w 	c #554FEE",
",w 	c #37A3E3",
"'w 	c #5F96F9",
")w 	c #876AFD",
"!w 	c #8962FB",
"~w 	c #8C59F9",
"{w 	c #904BF2",
"]w 	c #9232E3",
"^w 	c #931ED0",
"/w 	c #9914BF",
"(w 	c #9E0DAE",
"_w 	c #9B08A4",
":w 	c #9B079F",
"<w 	c #9E089E",
"[w 	c #9D079F",
"}w 	c #A009A3",
"|w 	c #960AAA",
"1w 	c #9D0DB1",
"2w 	c #9B13BE",
"3w 	c #8A17C7",
"4w 	c #901BCC",
"5w 	c #9826D6",
"6w 	c #8E34E4",
"7w 	c #8A3AEB",
"8w 	c #8F40EC",
"9w 	c #964CF2",
"0w 	c #7676FE",
"aw 	c #706EFD",
"bw 	c #6763F9",
"cw 	c #5752F0",
"dw 	c #443CD9",
"ew 	c #3A27BC",
"fw 	c #3E19A6",
"gw 	c #46129F",
"hw 	c #520DA0",
"iw 	c #5F0BA8",
"jw 	c #6411B8",
"kw 	c #6821D2",
"lw 	c #7038E8",
"mw 	c #744AF3",
"nw 	c #795DFA",
"ow 	c #7A63FB",
"pw 	c #7C67FC",
"qw 	c #7E71FE",
"rw 	c #7E73FF",
"sw 	c #7F76FE",
"tw 	c #7F79FE",
"uw 	c #8176FE",
"vw 	c #8174FE",
"ww 	c #8172FE",
"xw 	c #826CFE",
"yw 	c #8564FC",
"zw 	c #885FFA",
"Aw 	c #8E4CF3",
"Bw 	c #923AE8",
"Cw 	c #9726D6",
"Dw 	c #A417BF",
"Ew 	c #A80BA0",
"Fw 	c #B20E9D",
"Gw 	c #BC14A1",
"Hw 	c #BF1EB4",
"Iw 	c #B534D8",
"Jw 	c #9F4FF1",
"Kw 	c #9460F9",
"Lw 	c #8D6CFC",
"Mw 	c #8774FE",
"Nw 	c #837AFE",
"Ow 	c #6F74FE",
"Pw 	c #6764FA",
"Qw 	c #6A4EF3",
"Rw 	c #7341EE",
"Sw 	c #763BEA",
"Tw 	c #7038E7",
"Uw 	c #642EDD",
"Vw 	c #6C1ECF",
"Ww 	c #6C18C8",
"Xw 	c #5B16BC",
"Yw 	c #660DB1",
"Zw 	c #620AA9",
"`w 	c #5F09A3",
" x 	c #6B059F",
".x 	c #62079E",
"+x 	c #5E099F",
"@x 	c #6408A4",
"#x 	c #6B09AC",
"$x 	c #6A0FB8",
"%x 	c #6C1CCC",
"&x 	c #702FE1",
"*x 	c #7244F0",
"=x 	c #7455F7",
"-x 	c #7660FB",
";x 	c #7969FD",
">x 	c #7B6FFE",
",x 	c #C097EB",
"'x 	c #8566FC",
")x 	c #D4A1DA",
"!x 	c #BDAAE7",
"~x 	c #3DA4E6",
"{x 	c #41A3E8",
"]x 	c #1ABBB2",
"^x 	c #8670FE",
"/x 	c #8968FC",
"(x 	c #8C5EF9",
"_x 	c #8F4FF4",
":x 	c #933BE9",
"<x 	c #9725D7",
"[x 	c #A317BF",
"}x 	c #A40EAA",
"|x 	c #9C07A1",
"1x 	c #A0099E",
"2x 	c #A70A9E",
"3x 	c #A50AA3",
"4x 	c #A00CAB",
"5x 	c #A312B5",
"6x 	c #9E1AC5",
"7x 	c #9C26D6",
"8x 	c #9335E5",
"9x 	c #8F3FEC",
"0x 	c #8C4AF3",
"ax 	c #8753F7",
"bx 	c #8657F8",
"cx 	c #865BFA",
"dx 	c #855EFA",
"ex 	c #876CFD",
"fx 	c #8673FE",
"gx 	c #7473FE",
"hx 	c #6F6AFC",
"ix 	c #685FF9",
"jx 	c #5950EF",
"kx 	c #3C25BC",
"lx 	c #4416A8",
"mx 	c #510D9F",
"nx 	c #530C9D",
"ox 	c #5B0AA3",
"px 	c #6C13BF",
"qx 	c #711DCF",
"rx 	c #722DE0",
"sx 	c #753CEC",
"tx 	c #774AF3",
"ux 	c #7955F8",
"vx 	c #7A5AFA",
"wx 	c #7B5DFA",
"xx 	c #7C61FC",
"yx 	c #7B66FC",
"zx 	c #7B73FE",
"Ax 	c #8379FE",
"Bx 	c #8373FF",
"Cx 	c #8466FD",
"Dx 	c #8362FC",
"Ex 	c #835EFB",
"Fx 	c #855AFA",
"Gx 	c #8750F5",
"Hx 	c #8F36E7",
"Ix 	c #9624D6",
"Jx 	c #9B15C1",
"Kx 	c #A00EAF",
"Lx 	c #A30AA3",
"Mx 	c #AB0B9D",
"Nx 	c #B20F9F",
"Ox 	c #AF10A6",
"Px 	c #B218B5",
"Qx 	c #B12AD0",
"Rx 	c #A344EB",
"Sx 	c #8F68FC",
"Tx 	c #8971FD",
"Ux 	c #8577FF",
"Vx 	c #7874FF",
"Wx 	c #786DFE",
"Xx 	c #7A67FD",
"Yx 	c #7B63FB",
"Zx 	c #7A5FFB",
"`x 	c #795CF9",
" y 	c #7858F8",
".y 	c #7454F6",
"+y 	c #704BF3",
"@y 	c #6F3FEC",
"#y 	c #6636E4",
"$y 	c #6327D6",
"%y 	c #661BCA",
"&y 	c #5211AC",
"*y 	c #5A0BA3",
"=y 	c #60079F",
"-y 	c #5D099D",
";y 	c #6009A0",
">y 	c #630AA8",
",y 	c #6710B8",
"'y 	c #6B1CCC",
")y 	c #6E32E3",
"!y 	c #704CF3",
"~y 	c #745CF9",
"{y 	c #7C75FF",
"]y 	c #4A4DE7",
"^y 	c #BD80F0",
"/y 	c #8683FF",
"(y 	c #3DABE2",
"_y 	c #BF59E8",
":y 	c #AE5FF1",
"<y 	c #5098F3",
"[y 	c #22B0C8",
"}y 	c #8A68FD",
"|y 	c #8E5EF9",
"1y 	c #944DF3",
"2y 	c #9D32E1",
"3y 	c #A019C4",
"4y 	c #A10EAF",
"5y 	c #AB0C9D",
"6y 	c #B00E9F",
"7y 	c #A40CA6",
"8y 	c #A30FAF",
"9y 	c #A819BF",
"0y 	c #A226D4",
"ay 	c #9837E5",
"by 	c #9345EF",
"cy 	c #8E52F5",
"dy 	c #8959F9",
"ey 	c #885EFA",
"fy 	c #8563FC",
"gy 	c #836AFD",
"hy 	c #826EFE",
"iy 	c #8271FE",
"jy 	c #7B7CFF",
"ky 	c #7977FF",
"ly 	c #7570FE",
"my 	c #695EF8",
"ny 	c #5037DE",
"oy 	c #4924C7",
"py 	c #431AAF",
"qy 	c #4E0FA3",
"ry 	c #59099F",
"sy 	c #64079E",
"ty 	c #6707A1",
"uy 	c #6909A7",
"vy 	c #6D0CB0",
"wy 	c #6F12BF",
"xy 	c #7519CA",
"yy 	c #7524D7",
"zy 	c #7733E5",
"Ay 	c #783AEB",
"By 	c #754BF3",
"Cy 	c #7561FB",
"Dy 	c #8B60FA",
"Ey 	c #8A4BF3",
"Fy 	c #8940ED",
"Gy 	c #873AEA",
"Hy 	c #8A33E5",
"Iy 	c #8924D7",
"Jy 	c #891ACC",
"Ky 	c #9116C4",
"Ly 	c #950EB7",
"My 	c #980BAB",
"Ny 	c #A00AA3",
"Oy 	c #A50A9E",
"Py 	c #A70B9D",
"Qy 	c #AA0CA3",
"Ry 	c #AE12AD",
"Sy 	c #B01EC1",
"Ty 	c #9B47EE",
"Uy 	c #9459F7",
"Vy 	c #8E65FB",
"Wy 	c #8676FF",
"Xy 	c #827BFF",
"Yy 	c #7D73FF",
"Zy 	c #7B6EFE",
"`y 	c #7B6BFE",
" z 	c #7863FB",
".z 	c #775FFB",
"+z 	c #755AF9",
"@z 	c #7155F7",
"#z 	c #5E3CE6",
"$z 	c #5C28D6",
"%z 	c #581CC5",
"&z 	c #5015B3",
"*z 	c #510FA6",
"=z 	c #550B9F",
"-z 	c #59099D",
";z 	c #5C0AA1",
">z 	c #5D0DAB",
",z 	c #6318C4",
"'z 	c #6B2EDF",
")z 	c #7045EF",
"!z 	c #7664FB",
"~z 	c #7A6EFE",
"{z 	c #BC95ED",
"]z 	c #466BF0",
"^z 	c #3351DA",
"/z 	c #775BF9",
"(z 	c #49A3EE",
"_z 	c #36A5E0",
":z 	c #14B6AB",
"<z 	c #23C0BC",
"[z 	c #8378FE",
"}z 	c #8A69FD",
"|z 	c #8F5EFA",
"1z 	c #964DF2",
"2z 	c #9E33E0",
"3z 	c #A91BC3",
"4z 	c #B011AA",
"5z 	c #AF0EA0",
"6z 	c #AA0B9E",
"7z 	c #AA0DA2",
"8z 	c #AD11AD",
"9z 	c #AF1DC1",
"0z 	c #A12FDC",
"az 	c #963FEB",
"bz 	c #924DF3",
"cz 	c #8C58F8",
"dz 	c #856AFD",
"ez 	c #846FFE",
"fz 	c #8372FF",
"gz 	c #8275FF",
"hz 	c #7269FC",
"iz 	c #6555F4",
"jz 	c #5743E8",
"kz 	c #502CD3",
"lz 	c #521ABE",
"mz 	c #5B0FB0",
"nz 	c #5A0CA6",
"oz 	c #6109A0",
"pz 	c #69069E",
"qz 	c #6907A3",
"rz 	c #7508AA",
"sz 	c #7A09AD",
"tz 	c #730AAE",
"uz 	c #6512BB",
"vz 	c #5B35E1",
"wz 	c #6C6AFC",
"xz 	c #7778FF",
"yz 	c #8C79FF",
"zz 	c #9F69F9",
"Az 	c #AC37DE",
"Bz 	c #9611BB",
"Cz 	c #880AAE",
"Dz 	c #9209A9",
"Ez 	c #9607A3",
"Fz 	c #8A05A0",
"Gz 	c #9E089D",
"Hz 	c #9D079E",
"Iz 	c #A70CA3",
"Jz 	c #AB10AD",
"Kz 	c #A919BE",
"Lz 	c #A528D5",
"Mz 	c #9E3CE8",
"Nz 	c #954FF3",
"Oz 	c #905CF9",
"Pz 	c #8C65FB",
"Qz 	c #886EFE",
"Rz 	c #8674FF",
"Sz 	c #7D78FF",
"Tz 	c #7C73FE",
"Uz 	c #796CFE",
"Vz 	c #7766FC",
"Wz 	c #725BF9",
"Xz 	c #6C52F5",
"Yz 	c #6145ED",
"Zz 	c #5633DD",
"`z 	c #5021C7",
" A 	c #4E16B3",
".A 	c #4B12A5",
"+A 	c #49119E",
"@A 	c #530CA0",
"#A 	c #5E0BA8",
"$A 	c #6311B9",
"%A 	c #6624D4",
"&A 	c #6C41ED",
"*A 	c #7465FC",
"=A 	c #7A70FE",
"-A 	c #7D76FF",
";A 	c #D6C9BB",
">A 	c #ADACED",
",A 	c #3762E5",
"'A 	c #3A52E0",
")A 	c #A67CF8",
"!A 	c #D1AAD8",
"~A 	c #C555E2",
"{A 	c #38AEDD",
"]A 	c #8379FF",
"^A 	c #8674FE",
"/A 	c #8A6CFD",
"(A 	c #9060FA",
"_A 	c #9F33E0",
":A 	c #A91BC2",
"<A 	c #B112A9",
"[A 	c #B8119E",
"}A 	c #B614A8",
"|A 	c #AE1ABD",
"1A 	c #A629D4",
"2A 	c #9E3BE7",
"3A 	c #944EF3",
"4A 	c #8D5BF8",
"5A 	c #8A63FB",
"6A 	c #8769FC",
"7A 	c #866EFE",
"8A 	c #7772FE",
"9A 	c #756CFD",
"0A 	c #7264FB",
"aA 	c #6E5BF9",
"bA 	c #6540EA",
"cA 	c #5E30DD",
"dA 	c #5E20CD",
"eA 	c #5817BD",
"fA 	c #650DB1",
"gA 	c #630AAA",
"hA 	c #79049F",
"iA 	c #6507A1",
"jA 	c #3A1CA7",
"kA 	c #2A3EC3",
"lA 	c #5667F6",
"mA 	c #7278FE",
"nA 	c #CA6CE5",
"oA 	c #E347B8",
"pA 	c #B816AB",
"qA 	c #8D05A0",
"rA 	c #95069F",
"sA 	c #9009AA",
"tA 	c #950BAE",
"uA 	c #A212B6",
"vA 	c #9E1AC6",
"wA 	c #A028D6",
"xA 	c #9B3BE7",
"yA 	c #944DF2",
"zA 	c #8F5AF9",
"AA 	c #8C62FB",
"BA 	c #896AFD",
"CA 	c #8576FF",
"DA 	c #7C77FE",
"EA 	c #7B73FF",
"FA 	c #776AFD",
"GA 	c #7464FC",
"HA 	c #715DF9",
"IA 	c #6954F5",
"JA 	c #5E45EC",
"KA 	c #4B35D9",
"LA 	c #3E24BB",
"MA 	c #4516A8",
"NA 	c #510C9E",
"OA 	c #550DA3",
"PA 	c #5C12B6",
"QA 	c #6326D6",
"RA 	c #6A48F0",
"SA 	c #705EF9",
"TA 	c #766AFD",
"UA 	c #C2C9D0",
"VA 	c #664FF2",
"WA 	c #55A0F3",
"XA 	c #B758EC",
"YA 	c #9372FC",
"ZA 	c #896FFD",
"`A 	c #8F64FB",
" B 	c #9755F5",
".B 	c #A138E3",
"+B 	c #AA1CC4",
"@B 	c #B5109E",
"#B 	c #B9119E",
"$B 	c #B916A8",
"%B 	c #B61FC0",
"&B 	c #AA34DE",
"*B 	c #9A4BF1",
"=B 	c #9059F8",
"-B 	c #8C62FA",
";B 	c #8869FD",
">B 	c #866FFE",
",B 	c #8475FE",
"'B 	c #7C79FF",
")B 	c #7A75FF",
"!B 	c #7870FE",
"~B 	c #776AFC",
"{B 	c #7663FC",
"]B 	c #755DF9",
"^B 	c #7157F7",
"/B 	c #6E40EC",
"(B 	c #6427D6",
"_B 	c #6E1BCC",
":B 	c #6B1ACA",
"<B 	c #3530C2",
"[B 	c #0B59A5",
"}B 	c #0D69B2",
"|B 	c #4571F0",
"1B 	c #9D7AFB",
"2B 	c #E075D1",
"3B 	c #F96EA4",
"4B 	c #E94FB3",
"5B 	c #A921CB",
"6B 	c #901ACB",
"7B 	c #941CCC",
"8B 	c #9925D7",
"9B 	c #8F34E5",
"0B 	c #8D3CEB",
"aB 	c #9046F0",
"bB 	c #8D53F6",
"cB 	c #8B5CF9",
"dB 	c #8868FD",
"eB 	c #8474FE",
"fB 	c #8378FF",
"gB 	c #7871FE",
"hB 	c #756BFD",
"iB 	c #6B5CF8",
"jB 	c #4825C6",
"kB 	c #401CAF",
"lB 	c #4314A1",
"mB 	c #4E10A6",
"nB 	c #5819C0",
"oB 	c #6533E2",
"pB 	c #6C50F4",
"qB 	c #7263FB",
"rB 	c #3E62E9",
"sB 	c #9092FD",
"tB 	c #C35DE7",
"uB 	c #11B89D",
"vB 	c #8D6BFD",
"wB 	c #945DF8",
"xB 	c #9E44EC",
"yB 	c #B029CF",
"zB 	c #B8129F",
"AB 	c #B9129E",
"BB 	c #BA16A7",
"CB 	c #B721C0",
"DB 	c #AB36DE",
"EB 	c #9C4DF1",
"FB 	c #915DF9",
"GB 	c #8C67FC",
"HB 	c #876EFE",
"IB 	c #7864FC",
"JB 	c #795FFB",
"KB 	c #765CFA",
"LB 	c #6B59F7",
"MB 	c #5A5BF3",
"NB 	c #1A6BCA",
"OB 	c #087AAD",
"PB 	c #3D78EC",
"QB 	c #697BFD",
"RB 	c #877DFE",
"SB 	c #A57CFA",
"TB 	c #E67BCB",
"UB 	c #FB7B9F",
"VB 	c #C163E9",
"WB 	c #9C5BF6",
"XB 	c #8E5AF9",
"YB 	c #856BFE",
"ZB 	c #8470FE",
"`B 	c #7975FF",
" C 	c #766FFD",
".C 	c #7368FC",
"+C 	c #6D5FFA",
"@C 	c #6355F4",
"#C 	c #4F44E5",
"$C 	c #3E2FCA",
"%C 	c #3522AE",
"&C 	c #381AA0",
"*C 	c #5510AC",
"=C 	c #5C20CB",
"-C 	c #6641EB",
";C 	c #6F5BF8",
">C 	c #746AFC",
",C 	c #CEC3CA",
"'C 	c #A6A0F4",
")C 	c #938EFD",
"!C 	c #4D58EE",
"~C 	c #B461F0",
"{C 	c #29AED0",
"]C 	c #2BB4CF",
"^C 	c #5899F6",
"/C 	c #9166FC",
"(C 	c #AE37DC",
"_C 	c #B419B8",
":C 	c #BB14A2",
"<C 	c #C019A7",
"[C 	c #B820C0",
"}C 	c #AC35DE",
"|C 	c #9D4EF2",
"1C 	c #925EF9",
"2C 	c #8870FE",
"3C 	c #8577FE",
"4C 	c #7D79FE",
"5C 	c #7970FE",
"6C 	c #6A6EFC",
"7C 	c #566FF7",
"8C 	c #1875CA",
"9C 	c #037C9E",
"0C 	c #087CAD",
"aC 	c #397BEA",
"bC 	c #667DFC",
"cC 	c #A77EF9",
"dC 	c #E77DCA",
"eC 	c #F67BAC",
"fC 	c #C572E9",
"gC 	c #9E6EFA",
"hC 	c #8C6EFD",
"iC 	c #8279FF",
"jC 	c #807DFE",
"kC 	c #7A77FF",
"lC 	c #6C62FA",
"mC 	c #5F57F4",
"nC 	c #4446E0",
"oC 	c #391DA6",
"pC 	c #3F169E",
"qC 	c #4713A2",
"rC 	c #5516B9",
"sC 	c #5F2FDE",
"tC 	c #6A51F4",
"uC 	c #6A8AFD",
"vC 	c #45ABE9",
"wC 	c #8C6FFE",
"xC 	c #9563FA",
"yC 	c #A14CEF",
"zC 	c #B72DCF",
"AC 	c #C71FAB",
"BC 	c #C3189F",
"CC 	c #BE16A1",
"DC 	c #C11FB3",
"EC 	c #B434D7",
"FC 	c #9E4DF1",
"GC 	c #935DF9",
"HC 	c #8871FE",
"IC 	c #817DFE",
"JC 	c #6C7BFD",
"KC 	c #557AF8",
"LC 	c #187CCA",
"MC 	c #047E9F",
"NC 	c #387CE9",
"OC 	c #647CFD",
"PC 	c #A97FF8",
"QC 	c #E87FC9",
"RC 	c #F77EAC",
"SC 	c #C77CE9",
"TC 	c #9E7BFB",
"UC 	c #8B7CFE",
"VC 	c #7673FE",
"WC 	c #706BFC",
"XC 	c #6762F9",
"YC 	c #5651EF",
"ZC 	c #3E3DD7",
"`C 	c #2E2DB5",
" D 	c #341EA1",
".D 	c #40159F",
"+D 	c #4D13AB",
"@D 	c #5921CD",
"#D 	c #6447EE",
"$D 	c #6E61FA",
"%D 	c #E4C79F",
"&D 	c #CFCCBE",
"*D 	c #325CDF",
"=D 	c #4947E5",
"-D 	c #AAAAF0",
";D 	c #C45BE5",
">D 	c #5B97F7",
",D 	c #985EF8",
"'D 	c #AB45E8",
")D 	c #BF27C2",
"!D 	c #C41AA4",
"~D 	c #CB1D9C",
"{D 	c #CA21AA",
"]D 	c #B92BCC",
"^D 	c #A744E9",
"/D 	c #985AF7",
"(D 	c #8F66FB",
"_D 	c #8576FE",
":D 	c #7F88FF",
"<D 	c #7E8BFF",
"[D 	c #7F8DFE",
"}D 	c #7E91FE",
"|D 	c #7F92FD",
"1D 	c #8094FE",
"2D 	c #8094FD",
"3D 	c #8093FE",
"4D 	c #8092FD",
"5D 	c #8190FE",
"6D 	c #818EFE",
"7D 	c #818AFE",
"8D 	c #6D7FFE",
"9D 	c #577EF8",
"0D 	c #0973AB",
"aD 	c #3674E7",
"bD 	c #637CFC",
"cD 	c #A87FF8",
"dD 	c #FB809E",
"eD 	c #C781E9",
"fD 	c #9E80FB",
"gD 	c #8B80FE",
"hD 	c #7F85FE",
"iD 	c #7F89FF",
"jD 	c #7F8AFE",
"kD 	c #7F91FE",
"lD 	c #7E92FD",
"mD 	c #8191FE",
"nD 	c #818DFE",
"oD 	c #808AFE",
"pD 	c #6D69FC",
"qD 	c #615FF7",
"rD 	c #494DE7",
"sD 	c #3137C5",
"tD 	c #2E26A8",
"uD 	c #381A9E",
"vD 	c #4117A4",
"wD 	c #521CC1",
"xD 	c #6139E6",
"yD 	c #6B5BF8",
"zD 	c #746BFC",
"AD 	c #7A75FE",
"BD 	c #B895EF",
"CD 	c #C4BBDA",
"DD 	c #A099F9",
"ED 	c #665CF8",
"FD 	c #9B98FA",
"GD 	c #489FEF",
"HD 	c #B368F1",
"ID 	c #8876FF",
"JD 	c #916CFC",
"KD 	c #9F5CF6",
"LD 	c #B139DD",
"MD 	c #C020B5",
"ND 	c #CB1F9F",
"OD 	c #CB1EA0",
"PD 	c #C622B2",
"QD 	c #B939D8",
"RD 	c #9F55F4",
"SD 	c #9264FA",
"TD 	c #7E89FE",
"UD 	c #7E8BFE",
"VD 	c #7D8FFE",
"WD 	c #7C97FD",
"XD 	c #7C9AFC",
"YD 	c #7C9EFB",
"ZD 	c #7CA1FB",
"`D 	c #7CA4F9",
" E 	c #7DA7F8",
".E 	c #7EA9F8",
"+E 	c #7FAAF8",
"@E 	c #7FAAF7",
"#E 	c #80AAF8",
"$E 	c #80AAF7",
"%E 	c #81A9F8",
"&E 	c #83A8F8",
"*E 	c #83A5F9",
"=E 	c #83A3FA",
"-E 	c #839FFB",
";E 	c #839CFB",
">E 	c #8298FC",
",E 	c #8394FD",
"'E 	c #828DFF",
")E 	c #6E83FE",
"!E 	c #5882F9",
"~E 	c #1D7DD1",
"{E 	c #066EA1",
"]E 	c #0A62A6",
"^E 	c #2D6ADE",
"/E 	c #617EFB",
"(E 	c #A881F8",
"_E 	c #E782C9",
":E 	c #FB819F",
"<E 	c #F782AC",
"[E 	c #C786E9",
"}E 	c #7E83FE",
"|E 	c #7E88FE",
"1E 	c #7D8CFE",
"2E 	c #7D90FE",
"3E 	c #7CA1FA",
"4E 	c #7CA4FA",
"5E 	c #7DA6F9",
"6E 	c #83A7F9",
"7E 	c #83A4FA",
"8E 	c #84A1FA",
"9E 	c #839EFC",
"0E 	c #839BFD",
"aE 	c #8296FD",
"bE 	c #8293FD",
"cE 	c #7776FE",
"dE 	c #716FFD",
"eE 	c #6865FA",
"fE 	c #5558F1",
"gE 	c #3A42D7",
"hE 	c #2732B1",
"iE 	c #2E22A0",
"jE 	c #4115A0",
"kE 	c #4C17B4",
"lE 	c #5934DE",
"mE 	c #6959F7",
"nE 	c #7268FD",
"oE 	c #EDBA9F",
"pE 	c #D7C8BA",
"qE 	c #9793FB",
"rE 	c #6476FC",
"sE 	c #3753DF",
"tE 	c #A675F9",
"uE 	c #D3A7D7",
"vE 	c #C355E3",
"wE 	c #668CFC",
"xE 	c #489CEE",
"yE 	c #8976FE",
"zE 	c #936CFC",
"AE 	c #A15CF6",
"BE 	c #BF3DD8",
"CE 	c #CD25AD",
"DE 	c #C91C9D",
"EE 	c #CA1EA2",
"FE 	c #C72BBE",
"GE 	c #9B5CF6",
"HE 	c #906AFC",
"IE 	c #847AFF",
"JE 	c #7C8EFF",
"KE 	c #7B93FE",
"LE 	c #7A99FC",
"ME 	c #7A9FFB",
"NE 	c #79A4F9",
"OE 	c #78AAF8",
"PE 	c #79B4F3",
"QE 	c #7ABFED",
"RE 	c #79C6EA",
"SE 	c #76CCE5",
"TE 	c #77DBD7",
"UE 	c #7BE5CC",
"VE 	c #7DE8C9",
"WE 	c #7FE8C9",
"XE 	c #80E8C9",
"YE 	c #81E8C9",
"ZE 	c #84E7CB",
"`E 	c #88E1D0",
" F 	c #88D3E0",
".F 	c #86C8E9",
"+F 	c #85C3EB",
"@F 	c #86BAF0",
"#F 	c #87AEF6",
"$F 	c #86A6F9",
"%F 	c #86A0FB",
"&F 	c #859AFC",
"*F 	c #8495FE",
"=F 	c #818AFF",
"-F 	c #7987FF",
";F 	c #598FF8",
">F 	c #2B89DE",
",F 	c #0776A8",
"'F 	c #0670A1",
")F 	c #1F76D2",
"!F 	c #6081FB",
"~F 	c #A583F9",
"{F 	c #F686AC",
"]F 	c #C791E7",
"^F 	c #A192F9",
"/F 	c #8389FF",
"(F 	c #7B93FD",
"_F 	c #799FFB",
":F 	c #78A4FA",
"<F 	c #79AAF7",
"[F 	c #78B4F4",
"}F 	c #79C0EE",
"|F 	c #79C5E9",
"1F 	c #76DBD7",
"2F 	c #7CE5CC",
"3F 	c #7DE7C9",
"4F 	c #7EE8C9",
"5F 	c #80E8C8",
"6F 	c #81E7C9",
"7F 	c #82E8CA",
"8F 	c #85E5CD",
"9F 	c #89DBD8",
"0F 	c #87CCE5",
"aF 	c #86C5EA",
"bF 	c #86C0ED",
"cF 	c #86B3F4",
"dF 	c #86AAF8",
"eF 	c #86A4F9",
"fF 	c #859EFB",
"gF 	c #8498FD",
"hF 	c #8493FE",
"iF 	c #828AFE",
"jF 	c #8186FE",
"kF 	c #7474FE",
"lF 	c #6C6BFC",
"mF 	c #5F60F7",
"nF 	c #3E4FE1",
"oF 	c #2C36BC",
"pF 	c #2C26A4",
"qF 	c #331F9F",
"rF 	c #421CB2",
"sF 	c #5931DC",
"tF 	c #6752F4",
"uF 	c #7066FB",
"vF 	c #634EF1",
"wF 	c #5CA1F5",
"xF 	c #B964EE",
"yF 	c #8976FF",
"zF 	c #A35CF4",
"AF 	c #C13DD7",
"BF 	c #D42AAA",
"CF 	c #D5269D",
"DF 	c #CF24A9",
"EF 	c #A94DED",
"FF 	c #9662F9",
"GF 	c #8D6FFD",
"HF 	c #7A93FE",
"IF 	c #76A1FA",
"JF 	c #76ABF7",
"KF 	c #74BAF1",
"LF 	c #72C8E7",
"MF 	c #72DAD8",
"NF 	c #72E5CB",
"OF 	c #6DEDBF",
"PF 	c #74F4B2",
"QF 	c #79F6AC",
"RF 	c #6EF6AA",
"SF 	c #6AF8A4",
"TF 	c #78FBA0",
"UF 	c #7EFB9F",
"VF 	c #7FFB9F",
"WF 	c #7FFC9F",
"XF 	c #80FB9F",
"YF 	c #80FC9F",
"ZF 	c #81FB9E",
"`F 	c #87FB9F",
" G 	c #94F9A0",
".G 	c #91F7A7",
"+G 	c #86F7AC",
"@G 	c #8BF6AE",
"#G 	c #90F1B8",
"$G 	c #8CE9C6",
"%G 	c #8CE1D1",
"&G 	c #8CD0E1",
"*G 	c #8BBDEF",
"=G 	c #89ADF6",
"-G 	c #88A4F9",
";G 	c #879DFB",
">G 	c #8595FD",
",G 	c #838FFE",
"'G 	c #8289FF",
")G 	c #7C85FF",
"!G 	c #7393FD",
"~G 	c #679DF9",
"{G 	c #57AAF1",
"]G 	c #3BB8DA",
"^G 	c #0FA6AD",
"/G 	c #0694A1",
"(G 	c #1C8DCE",
"_G 	c #6286FB",
":G 	c #A186FA",
"<G 	c #E488CC",
"[G 	c #FA8EA0",
"}G 	c #F2A2AD",
"|G 	c #C0BCDB",
"1G 	c #A3B1F0",
"2G 	c #95A1F8",
"3G 	c #8994FD",
"4G 	c #858BFE",
"5G 	c #7D88FF",
"6G 	c #7A93FD",
"7G 	c #779AFC",
"8G 	c #76A1FB",
"9G 	c #75ABF7",
"0G 	c #74B9F1",
"aG 	c #73DBD8",
"bG 	c #73F4B1",
"cG 	c #79F7AD",
"dG 	c #6DF6AA",
"eG 	c #79FBA0",
"fG 	c #7FFC9E",
"gG 	c #80FC9E",
"hG 	c #82FB9F",
"iG 	c #8DFAA0",
"jG 	c #95F8A4",
"kG 	c #8AF7AA",
"lG 	c #87F7AD",
"mG 	c #8FF4B2",
"nG 	c #8FEDBF",
"oG 	c #8AE6CB",
"pG 	c #8DDBD8",
"qG 	c #8CC9E8",
"rG 	c #8ABAF0",
"sG 	c #88A1FA",
"tG 	c #869AFC",
"uG 	c #8593FD",
"vG 	c #828DFE",
"wG 	c #7779FE",
"xG 	c #6265F9",
"yG 	c #4C55EC",
"zG 	c #2943C8",
"AG 	c #2133A4",
"BG 	c #31209F",
"CG 	c #4915AB",
"DG 	c #5623CD",
"EG 	c #624BF0",
"FG 	c #6E66FB",
"GG 	c #384CDB",
"HG 	c #4799EF",
"IG 	c #C55AE3",
"JG 	c #419DEB",
"KG 	c #42A8E7",
"LG 	c #A35CF5",
"MG 	c #C13ED6",
"NG 	c #D7289D",
"OG 	c #D429AA",
"PG 	c #C03CD6",
"QG 	c #A357F4",
"RG 	c #8A72FE",
"SG 	c #759FFB",
"TG 	c #73AAF7",
"UG 	c #70BBEF",
"VG 	c #6BCFE0",
"WG 	c #67E2CC",
"XG 	c #69F0B8",
"YG 	c #67F4AC",
"ZG 	c #68F8A3",
"`G 	c #6EF99F",
" H 	c #64F89E",
".H 	c #6CFA9F",
"+H 	c #78FB9E",
"@H 	c #6BF99F",
"#H 	c #61F7A2",
"$H 	c #73F7AA",
"%H 	c #7EF7AC",
"&H 	c #7FF7AC",
"*H 	c #81F7AB",
"=H 	c #8DF6AB",
"-H 	c #A0F4A6",
";H 	c #94F9A1",
">H 	c #9CF89E",
",H 	c #90FA9F",
"'H 	c #97F8A1",
")H 	c #9AF5A9",
"!H 	c #95F0B7",
"~H 	c #90E7C7",
"{H 	c #8FDAD8",
"]H 	c #8EC4EA",
"^H 	c #8CB1F4",
"/H 	c #8AA3F9",
"(H 	c #8799FC",
"_H 	c #8491FE",
":H 	c #838AFF",
"<H 	c #768BFE",
"[H 	c #6F96FC",
"}H 	c #67A7F6",
"|H 	c #59C5E3",
"1H 	c #4EDFC3",
"2H 	c #48EAAA",
"3H 	c #30DDA1",
"4H 	c #19C2A6",
"5H 	c #29A5D6",
"6H 	c #678AFC",
"7H 	c #8184FE",
"8H 	c #9A87FC",
"9H 	c #DA90D8",
"0H 	c #F2A8A7",
"aH 	c #DAD2A5",
"bH 	c #B0EDAA",
"cH 	c #A6E8BD",
"dH 	c #A1CEDE",
"eH 	c #94ADF5",
"fH 	c #8D99FC",
"gH 	c #878DFE",
"hH 	c #8081FE",
"iH 	c #7C88FE",
"jH 	c #798FFE",
"kH 	c #749FFB",
"lH 	c #72AAF7",
"mH 	c #6BD0E0",
"nH 	c #69EFB7",
"oH 	c #67F4AB",
"pH 	c #68F8A4",
"qH 	c #6FF99F",
"rH 	c #63F89E",
"sH 	c #6CF99E",
"tH 	c #79FB9E",
"uH 	c #61F6A2",
"vH 	c #74F7AA",
"wH 	c #7FF8AC",
"xH 	c #81F7AC",
"yH 	c #99F5A9",
"zH 	c #8AFBA0",
"AH 	c #8BFB9E",
"BH 	c #9BF89E",
"CH 	c #95FA9E",
"DH 	c #92FA9F",
"EH 	c #98F8A3",
"FH 	c #93F5AC",
"GH 	c #94F0B8",
"HH 	c #93E4CC",
"IH 	c #90D0E0",
"JH 	c #8DBCF0",
"KH 	c #8BABF7",
"LH 	c #89A0FA",
"MH 	c #8698FD",
"NH 	c #6769FA",
"OH 	c #4E5CEF",
"PH 	c #2947C9",
"QH 	c #3E19A5",
"RH 	c #4B24C8",
"SH 	c #5F4CF0",
"TH 	c #6D68FB",
"UH 	c #CFC2CB",
"VH 	c #2F5EDD",
"WH 	c #BF86EE",
"XH 	c #5597F5",
"YH 	c #13BAA3",
"ZH 	c #2BB3D0",
"`H 	c #8877FF",
" I 	c #936DFD",
".I 	c #A35DF5",
"+I 	c #D52BAB",
"@I 	c #D52BAA",
"#I 	c #C03DD7",
"$I 	c #A35BF5",
"%I 	c #8876FE",
"&I 	c #798EFE",
"*I 	c #7597FC",
"=I 	c #71A2FA",
"-I 	c #6CB2F3",
";I 	c #69CCE3",
">I 	c #64E2CC",
",I 	c #61EEB7",
"'I 	c #5EF3A8",
")I 	c #5CF5A0",
"!I 	c #5FF79E",
"~I 	c #62F79E",
"{I 	c #6AF5AA",
"]I 	c #62F1B0",
"^I 	c #65EBBD",
"/I 	c #75E8C7",
"(I 	c #6FE5CC",
"_I 	c #67D9D7",
":I 	c #73CDE5",
"<I 	c #7DC8E9",
"[I 	c #7EC6E9",
"}I 	c #7FC6EA",
"|I 	c #80C7EA",
"1I 	c #81C7E9",
"2I 	c #83C8E9",
"3I 	c #8BC9E7",
"4I 	c #9AD2DD",
"5I 	c #92E1D1",
"6I 	c #8AE7CA",
"7I 	c #9DE8C3",
"8I 	c #A1EFB5",
"9I 	c #97F4AD",
"0I 	c #A5F3A6",
"aI 	c #A8F49F",
"bI 	c #A1F79D",
"cI 	c #99F99F",
"dI 	c #9CF7A3",
"eI 	c #9BF3AF",
"fI 	c #98E8C5",
"gI 	c #94D1E0",
"hI 	c #8DA7F7",
"iI 	c #899BFC",
"jI 	c #8591FE",
"kI 	c #848AFE",
"lI 	c #748AFE",
"mI 	c #6B96FB",
"nI 	c #5FAFF1",
"oI 	c #4CD2D2",
"pI 	c #43E5AF",
"qI 	c #44EC9F",
"rI 	c #46ED9E",
"sI 	c #42E8A8",
"tI 	c #38D3C0",
"uI 	c #49A9EC",
"vI 	c #6F8BFD",
"wI 	c #BA93F0",
"xI 	c #DBB5C6",
"yI 	c #CBDDAB",
"zI 	c #B8EDA0",
"AI 	c #BAED9F",
"BI 	c #B2ECAC",
"CI 	c #A6DCCD",
"DI 	c #9CB4F1",
"EI 	c #9198FB",
"FI 	c #888CFE",
"GI 	c #7B88FF",
"HI 	c #72A2FA",
"II 	c #6DB1F3",
"JI 	c #68CCE3",
"KI 	c #65E2CC",
"LI 	c #62EEB7",
"MI 	c #5EF4A8",
"NI 	c #5BF6A0",
"OI 	c #5EF79E",
"PI 	c #61F89F",
"QI 	c #5FF6A3",
"RI 	c #69F5AA",
"SI 	c #75E8C8",
"TI 	c #6FE5CB",
"UI 	c #67DAD6",
"VI 	c #74CCE5",
"WI 	c #7CC8E8",
"XI 	c #7EC7E9",
"YI 	c #80C7E9",
"ZI 	c #81C6E9",
"`I 	c #82C7E9",
" J 	c #86C7E9",
".J 	c #95CCE3",
"+J 	c #98D9D6",
"@J 	c #8BE5CC",
"#J 	c #91E7C8",
"$J 	c #A4EABD",
"%J 	c #99F2B0",
"&J 	c #9DF5AA",
"*J 	c #A3F5A3",
"=J 	c #9EF79F",
"-J 	c #A2F79D",
";J 	c #9FF6A0",
">J 	c #9BF5A9",
",J 	c #98F0B7",
"'J 	c #94E3CD",
")J 	c #92CDE3",
"!J 	c #8EB4F2",
"~J 	c #8CA4F9",
"{J 	c #8492FD",
"]J 	c #7378FE",
"^J 	c #696CFB",
"/J 	c #535DF2",
"(J 	c #3646D7",
"_J 	c #2435B0",
":J 	c #262A9F",
"<J 	c #351EA4",
"[J 	c #4928C9",
"}J 	c #5E52F2",
"|J 	c #6D6BFC",
"1J 	c #DCCBAD",
"2J 	c #3250D9",
"3J 	c #8158F9",
"4J 	c #9495FB",
"5J 	c #19BBAE",
"6J 	c #8878FF",
"7J 	c #936FFD",
"8J 	c #A35EF6",
"9J 	c #C23FD7",
"0J 	c #D7279D",
"aJ 	c #D42BAB",
"bJ 	c #C13ED7",
"cJ 	c #A25CF5",
"dJ 	c #926DFD",
"eJ 	c #8779FF",
"fJ 	c #7A8DFE",
"gJ 	c #70A1F9",
"hJ 	c #6BB3F2",
"iJ 	c #57E4C3",
"jJ 	c #57F0AB",
"kJ 	c #59F5A0",
"lJ 	c #58F59D",
"mJ 	c #57F49F",
"nJ 	c #55F1A7",
"oJ 	c #59EDB5",
"pJ 	c #60E6C6",
"qJ 	c #63D9D6",
"rJ 	c #6DCBE5",
"sJ 	c #70C0EC",
"tJ 	c #72B4F2",
"uJ 	c #78ACF6",
"vJ 	c #79A8F9",
"wJ 	c #7AA5F9",
"xJ 	c #7BA2FA",
"yJ 	c #7DA0FB",
"zJ 	c #7F9EFB",
"AJ 	c #809EFB",
"BJ 	c #809FFB",
"CJ 	c #819FFB",
"DJ 	c #83A1FA",
"EJ 	c #85A3FA",
"FJ 	c #86A7F9",
"GJ 	c #87A9F7",
"HJ 	c #8DAFF5",
"IJ 	c #90BBEF",
"JJ 	c #94C5E8",
"KJ 	c #A3CFDC",
"LJ 	c #ADDEC8",
"MJ 	c #A7ECB6",
"NJ 	c #A5F2AA",
"OJ 	c #AAF3A2",
"PJ 	c #ABF39E",
"QJ 	c #A9F3A0",
"RJ 	c #A0F4A8",
"SJ 	c #9BEEB9",
"TJ 	c #99DCD5",
"UJ 	c #93BEEC",
"VJ 	c #8FA6F8",
"WJ 	c #8A99FB",
"XJ 	c #8590FE",
"YJ 	c #6892FC",
"ZJ 	c #50A9EE",
"`J 	c #3BD2C5",
" K 	c #3BE5A4",
".K 	c #39E79D",
"+K 	c #3DE5A7",
"@K 	c #45DDC0",
"#K 	c #51C7DE",
"$K 	c #5EACF2",
"%K 	c #6A95FB",
"&K 	c #7688FE",
"*K 	c #8A85FE",
"=K 	c #968DFC",
"-K 	c #AAA0F3",
";K 	c #B8BEDF",
">K 	c #C5D2C2",
",K 	c #CEDBA7",
"'K 	c #C8E49E",
")K 	c #C0E6A6",
"!K 	c #B3DBC9",
"~K 	c #A0B0F1",
"{K 	c #9194FC",
"]K 	c #8889FF",
"^K 	c #7C87FE",
"/K 	c #798EFF",
"(K 	c #6BB2F3",
"_K 	c #57F0AA",
":K 	c #5AF4A0",
"<K 	c #58F59E",
"[K 	c #56F49F",
"}K 	c #55F2A6",
"|K 	c #58ECB5",
"1K 	c #6CCAE5",
"2K 	c #71C1EC",
"3K 	c #73B5F3",
"4K 	c #77ACF7",
"5K 	c #7BA4F9",
"6K 	c #7E9FFB",
"7K 	c #85A1FA",
"8K 	c #86A4FA",
"9K 	c #86A8F9",
"0K 	c #89ACF7",
"aK 	c #90B4F2",
"bK 	c #90C1EC",
"cK 	c #9BCAE4",
"dK 	c #A0D9D5",
"eK 	c #A6E4C4",
"fK 	c #AEEAB4",
"gK 	c #AEF0A6",
"hK 	c #A5F59E",
"iK 	c #A3F6A0",
"jK 	c #A1F2AB",
"kK 	c #9AEAC0",
"lK 	c #94D9D8",
"mK 	c #91BEED",
"nK 	c #8EA8F8",
"oK 	c #899AFB",
"pK 	c #8490FE",
"qK 	c #6B70FC",
"rK 	c #5A62F6",
"sK 	c #3653DE",
"tK 	c #1D40B1",
"uK 	c #21319F",
"vK 	c #2D28A9",
"wK 	c #4637D7",
"xK 	c #625CF6",
"yK 	c #706DFD",
"zK 	c #7977FE",
"AK 	c #EFB1A7",
"BK 	c #5F74FB",
"CK 	c #424EE4",
"DK 	c #AF82F6",
"EK 	c #37A6E2",
"FK 	c #7B8CFF",
"GK 	c #19C1A6",
"HK 	c #35B5D8",
"IK 	c #A364F7",
"JK 	c #C444DA",
"KK 	c #D62DAB",
"LK 	c #D8289C",
"MK 	c #926FFD",
"NK 	c #7C89FE",
"OK 	c #7694FD",
"PK 	c #70A0F9",
"QK 	c #69B2F2",
"RK 	c #5FCCE1",
"SK 	c #55E4C2",
"TK 	c #4FEDA9",
"UK 	c #4AEF9E",
"VK 	c #4BF09E",
"WK 	c #51F0A6",
"XK 	c #54EBB5",
"YK 	c #57DFC9",
"ZK 	c #60CEDF",
"`K 	c #69BCEE",
" L 	c #70AEF6",
".L 	c #75A5F9",
"+L 	c #77A1FA",
"@L 	c #799CFB",
"#L 	c #7B98FD",
"$L 	c #7C95FE",
"%L 	c #7D92FD",
"&L 	c #7E8EFF",
"*L 	c #7E8CFF",
"=L 	c #7F8BFF",
"-L 	c #808BFE",
";L 	c #808CFE",
">L 	c #818DFF",
",L 	c #828EFE",
"'L 	c #8391FE",
")L 	c #8393FD",
"!L 	c #8596FD",
"~L 	c #889EFB",
"{L 	c #92ABF6",
"]L 	c #97B9EF",
"^L 	c #A1C6E4",
"/L 	c #ADD6D1",
"(L 	c #B9E1BA",
"_L 	c #B9EAA7",
":L 	c #AEF2A0",
"<L 	c #ADF29E",
"[L 	c #AAF2A4",
"}L 	c #A3EDB7",
"|L 	c #95B7F0",
"1L 	c #8EA1FA",
"2L 	c #8996FC",
"3L 	c #858DFE",
"4L 	c #549CF3",
"5L 	c #29B9CA",
"6L 	c #22CFA4",
"7L 	c #2FDDA1",
"8L 	c #3ADDB2",
"9L 	c #48CAD6",
"0L 	c #5EB1F1",
"aL 	c #6A9FF9",
"bL 	c #7294FC",
"cL 	c #908FFD",
"dL 	c #979BFA",
"eL 	c #C6BCD6",
"fL 	c #DACBB1",
"gL 	c #D9D49F",
"hL 	c #CCDEA6",
"iL 	c #BACFD0",
"jL 	c #A0A2F6",
"kL 	c #798BFE",
"lL 	c #7594FD",
"mL 	c #6F9FFA",
"nL 	c #69B1F3",
"oL 	c #60CCE0",
"pL 	c #55E3C2",
"qL 	c #4FEEA9",
"rL 	c #57E0C9",
"sL 	c #5FCEDE",
"tL 	c #69BBED",
"uL 	c #78A0FA",
"vL 	c #7B98FC",
"wL 	c #7B95FD",
"xL 	c #7C92FE",
"yL 	c #7F8CFE",
"zL 	c #808BFF",
"AL 	c #828EFF",
"BL 	c #8292FE",
"CL 	c #8495FD",
"DL 	c #8598FC",
"EL 	c #879CFC",
"FL 	c #88A1FB",
"GL 	c #8CA5F9",
"HL 	c #93ADF5",
"IL 	c #9DBBEC",
"JL 	c #A8CCDD",
"KL 	c #B0DDC7",
"LL 	c #B1E9B3",
"ML 	c #B4EDA6",
"NL 	c #B2F09F",
"OL 	c #A6F59E",
"PL 	c #A4F4A5",
"QL 	c #A1EEB6",
"RL 	c #9ADBD4",
"SL 	c #94BEED",
"TL 	c #8FA5F8",
"UL 	c #8897FC",
"VL 	c #818BFF",
"WL 	c #6B73FD",
"XL 	c #5A65F6",
"YL 	c #1549AB",
"ZL 	c #1C359E",
"`L 	c #3425B1",
" M 	c #5139DF",
".M 	c #645EF8",
"+M 	c #726FFD",
"@M 	c #E5A7C2",
"#M 	c #EDB7A0",
"$M 	c #E2C5A6",
"%M 	c #665EF8",
"&M 	c #18BEA8",
"*M 	c #678FFB",
"=M 	c #9E68F9",
"-M 	c #C353E2",
";M 	c #E03BB0",
">M 	c #DE2F9D",
",M 	c #D62CAA",
"'M 	c #C33FD7",
")M 	c #A35DF6",
"!M 	c #9071FD",
"~M 	c #788DFE",
"{M 	c #719BFB",
"]M 	c #69AFF4",
"^M 	c #5FCBE1",
"/M 	c #4EEEAA",
"(M 	c #47EE9E",
"_M 	c #45EAA8",
":M 	c #4BE0C0",
"<M 	c #59CFDC",
"[M 	c #65BBED",
"}M 	c #6EABF6",
"|M 	c #73A2F9",
"1M 	c #769BFB",
"2M 	c #7996FD",
"3M 	c #7D8AFF",
"4M 	c #838BFE",
"5M 	c #868FFE",
"6M 	c #8794FE",
"7M 	c #8999FC",
"8M 	c #8D9FFB",
"9M 	c #93A6F7",
"0M 	c #A1B4EF",
"aM 	c #AEC8DE",
"bM 	c #B6DBC6",
"cM 	c #BFE3AF",
"dM 	c #BDEAA1",
"eM 	c #B6EF9E",
"fM 	c #B1EEA6",
"gM 	c #A7E5C1",
"hM 	c #9ACCE2",
"iM 	c #93AFF4",
"jM 	c #8C9CFB",
"kM 	c #8891FE",
"lM 	c #5C92F8",
"mM 	c #33ACDB",
"nM 	c #1AC1A8",
"oM 	c #1BC89E",
"pM 	c #2ACAB9",
"qM 	c #4CBAE5",
"rM 	c #62A5F6",
"sM 	c #6F99FB",
"tM 	c #768FFE",
"uM 	c #7A89FF",
"vM 	c #8687FF",
"wM 	c #8C8CFD",
"xM 	c #A4A0F5",
"yM 	c #C9ADDD",
"zM 	c #E6BCAF",
"AM 	c #E3C99E",
"BM 	c #D4D2AF",
"CM 	c #B5BEE1",
"DM 	c #7B87FE",
"EM 	c #768EFD",
"FM 	c #7099FC",
"GM 	c #68A8F6",
"HM 	c #5DC7E3",
"IM 	c #54E2C4",
"JM 	c #4EEDA9",
"KM 	c #49EE9E",
"LM 	c #47ED9E",
"MM 	c #58CEDC",
"NM 	c #65BBEE",
"OM 	c #6EACF6",
"PM 	c #73A1FA",
"QM 	c #7895FD",
"RM 	c #7A90FE",
"SM 	c #7E87FF",
"TM 	c #8084FE",
"UM 	c #8185FE",
"VM 	c #8591FD",
"WM 	c #8895FD",
"XM 	c #8A9BFC",
"YM 	c #96ABF5",
"ZM 	c #A0B9EC",
"`M 	c #B3CAD8",
" N 	c #B9DEBE",
".N 	c #B4EAAC",
"+N 	c #B8EDA1",
"@N 	c #B3F09E",
"#N 	c #ABF1A4",
"$N 	c #A5EABA",
"%N 	c #9DD1DD",
"&N 	c #94B2F3",
"*N 	c #8D9FFA",
"=N 	c #8592FD",
"-N 	c #6B77FC",
";N 	c #5268F4",
">N 	c #2357CD",
",N 	c #183FA5",
"'N 	c #29289F",
")N 	c #3D20B3",
"!N 	c #523DE2",
"~N 	c #6663F9",
"{N 	c #7472FD",
"]N 	c #EFAAAC",
"^N 	c #B0A7EE",
"/N 	c #16C09D",
"(N 	c #3BAFE0",
"_N 	c #B557EB",
":N 	c #D93BBC",
"<N 	c #E4379E",
"[N 	c #E036A6",
"}N 	c #C741D5",
"|N 	c #A55EF5",
"1N 	c #6BA3F8",
"2N 	c #5CBDE9",
"3N 	c #4FDCC9",
"4N 	c #4CECAA",
"5N 	c #49EF9F",
"6N 	c #46EE9E",
"7N 	c #45E9A7",
"8N 	c #48DFBF",
"9N 	c #54CADD",
"0N 	c #65B3F1",
"aN 	c #6EA4F8",
"bN 	c #739BFC",
"cN 	c #7D86FF",
"dN 	c #91A0F9",
"eN 	c #9CAAF4",
"fN 	c #B0BBE5",
"gN 	c #C1D0CA",
"hN 	c #CADDAD",
"iN 	c #C6E49F",
"jN 	c #B7EEA0",
"kN 	c #AAF0AC",
"lN 	c #A4DFCB",
"mN 	c #99BFEB",
"nN 	c #91A4F8",
"oN 	c #8A96FD",
"pN 	c #858CFE",
"qN 	c #7583FE",
"rN 	c #658BFC",
"sN 	c #439AED",
"tN 	c #1EC5AB",
"uN 	c #3CB4DE",
"vN 	c #5F9DF7",
"wN 	c #6E92FC",
"xN 	c #788AFE",
"yN 	c #7C85FE",
"zN 	c #A99BF5",
"AN 	c #D8A5D4",
"BN 	c #EDB5A6",
"CN 	c #E3C8A0",
"DN 	c #ACA4F1",
"EN 	c #7989FE",
"FN 	c #7392FD",
"GN 	c #6B9EF9",
"HN 	c #60B5EE",
"IN 	c #4ED5D1",
"JN 	c #44E6AF",
"KN 	c #46ED9F",
"LN 	c #44E9A8",
"MN 	c #49DFC0",
"NN 	c #54CADE",
"ON 	c #7A8EFF",
"PN 	c #7B8AFF",
"QN 	c #8387FE",
"RN 	c #868EFE",
"SN 	c #8A94FD",
"TN 	c #8C9BFB",
"UN 	c #93A3F9",
"VN 	c #9DB0F2",
"WN 	c #ACC1E4",
"XN 	c #BFD2CA",
"YN 	c #C4E0AF",
"ZN 	c #C0E8A1",
"`N 	c #BCEB9F",
" O 	c #AEEEAA",
".O 	c #A1E5C5",
"+O 	c #9AC8E5",
"@O 	c #91A9F7",
"#O 	c #8796FD",
"$O 	c #7A87FE",
"%O 	c #4A65F0",
"&O 	c #224DC8",
"*O 	c #1C39A4",
"=O 	c #252CA0",
"-O 	c #362BBD",
";O 	c #554EED",
">O 	c #7D7CFE",
",O 	c #5FA2F6",
"'O 	c #6B8CFC",
")O 	c #AE61F3",
"!O 	c #D848C8",
"~O 	c #E236A1",
"{O 	c #D23DC5",
"]O 	c #AB5DF2",
"^O 	c #7F86FF",
"/O 	c #7197FB",
"(O 	c #63ADF3",
"_O 	c #52CCDA",
":O 	c #44E3B5",
"<O 	c #3EE8A1",
"[O 	c #41EB9E",
"}O 	c #45E9A8",
"|O 	c #54C9DE",
"1O 	c #63B2F2",
"2O 	c #6DA1F9",
"3O 	c #7397FC",
"4O 	c #778FFE",
"5O 	c #7A8AFE",
"6O 	c #8587FE",
"7O 	c #8C94FC",
"8O 	c #939DFA",
"9O 	c #9FA8F4",
"0O 	c #BBB9E0",
"aO 	c #CDCFBE",
"bO 	c #C6E3A6",
"cO 	c #B8ECA3",
"dO 	c #AAE9B9",
"eO 	c #9FD0DE",
"fO 	c #95ADF4",
"gO 	c #878EFE",
"hO 	c #8387FF",
"iO 	c #6E85FD",
"jO 	c #588CF8",
"kO 	c #25A0D3",
"lO 	c #10B1A3",
"mO 	c #13BAA1",
"nO 	c #549DF4",
"oO 	c #6A90FC",
"pO 	c #7788FF",
"qO 	c #9B8EFB",
"rO 	c #B998EE",
"sO 	c #E6A7C0",
"tO 	c #E6BDA9",
"uO 	c #C6AFDF",
"vO 	c #9D8FFA",
"wO 	c #7B85FF",
"xO 	c #778CFF",
"yO 	c #66A6F6",
"zO 	c #56C4E3",
"AO 	c #46DEBE",
"BO 	c #3FE8A3",
"CO 	c #3FE6A6",
"DO 	c #47DEC0",
"EO 	c #53CADE",
"FO 	c #63B2F1",
"GO 	c #6DA2F9",
"HO 	c #7398FC",
"IO 	c #778FFD",
"JO 	c #7B89FE",
"KO 	c #7D84FE",
"LO 	c #858AFE",
"MO 	c #888FFE",
"NO 	c #8C96FC",
"OO 	c #929EFA",
"PO 	c #9DA8F4",
"QO 	c #B2BAE5",
"RO 	c #CACCC6",
"SO 	c #CDDBA9",
"TO 	c #BEEA9F",
"UO 	c #ADECB1",
"VO 	c #A1D9D5",
"WO 	c #96B6F1",
"XO 	c #8A9CFB",
"YO 	c #6877FC",
"ZO 	c #4863EF",
"`O 	c #1C51C1",
" P 	c #1641A0",
".P 	c #252DA4",
"+P 	c #422CC9",
"@P 	c #5B56F2",
"#P 	c #6C6DFC",
"$P 	c #B8B3E5",
"%P 	c #4269EC",
"&P 	c #19B6B4",
"*P 	c #12BC9D",
"=P 	c #9274FD",
"-P 	c #A667F7",
";P 	c #CA49D7",
">P 	c #E238A7",
",P 	c #B355EC",
"'P 	c #6D9AFB",
")P 	c #59B5EC",
"!P 	c #48D8C8",
"~P 	c #3FE5A8",
"{P 	c #3CE79D",
"]P 	c #3AE4A3",
"^P 	c #3FDDBB",
"/P 	c #52C9DE",
"(P 	c #61B1F1",
"_P 	c #7297FC",
":P 	c #7A89FE",
"<P 	c #8078FF",
"[P 	c #7F75FE",
"}P 	c #8F92FC",
"|P 	c #989EF9",
"1P 	c #A9ADEF",
"2P 	c #C0C2D6",
"3P 	c #D0D2B4",
"4P 	c #CBE1A1",
"5P 	c #BFEA9F",
"6P 	c #B2ECAB",
"7P 	c #A7DDCC",
"8P 	c #9CB6EF",
"9P 	c #909DFB",
"0P 	c #8890FE",
"aP 	c #8488FF",
"bP 	c #7681FF",
"cP 	c #6786FC",
"dP 	c #468EF1",
"eP 	c #119FB9",
"fP 	c #0CAC9E",
"gP 	c #16B3B1",
"hP 	c #40A2E8",
"iP 	c #A58EF9",
"jP 	c #D296DE",
"kP 	c #F4A0A8",
"lP 	c #F3ABA0",
"mP 	c #DCB1C8",
"nP 	c #7A86FF",
"oP 	c #6C99FB",
"pP 	c #61ACF3",
"qP 	c #48CAD7",
"rP 	c #3DE2B0",
"sP 	c #3BE79E",
"tP 	c #39E59F",
"uP 	c #3CDFB3",
"vP 	c #4ACBD6",
"wP 	c #60B1F0",
"xP 	c #6CA2F9",
"yP 	c #8075FF",
"zP 	c #7E76FE",
"AP 	c #888CFF",
"BP 	c #8E93FD",
"CP 	c #949CFA",
"DP 	c #A6A9F1",
"EP 	c #BFC0D9",
"FP 	c #C9D5BB",
"GP 	c #CBDFA4",
"HP 	c #C2E89E",
"IP 	c #A8E4C2",
"JP 	c #9BC5E7",
"KP 	c #8EA2FA",
"LP 	c #7B8CFE",
"MP 	c #3A64E6",
"NP 	c #174DB3",
"OP 	c #1C379F",
"PP 	c #2A2AA9",
"QP 	c #433BD9",
"RP 	c #6162F8",
"SP 	c #7172FD",
"TP 	c #CCCAC5",
"UP 	c #CDAFD9",
"VP 	c #A4A5F3",
"WP 	c #B15FF1",
"XP 	c #17BFA0",
"YP 	c #5897F6",
"ZP 	c #8E78FE",
"`P 	c #9D6EFA",
" Q 	c #C55BE3",
".Q 	c #E340B1",
"+Q 	c #E2349D",
"@Q 	c #DC34AD",
"#Q 	c #C04FE2",
"$Q 	c #9870FC",
"%Q 	c #6AA0F9",
"&Q 	c #55C2E4",
"*Q 	c #3CDABB",
"=Q 	c #37E3A2",
"-Q 	c #39E69D",
";Q 	c #39E1AB",
">Q 	c #45D1CD",
",Q 	c #59B6EC",
"'Q 	c #6AA3F8",
")Q 	c #7197FC",
"!Q 	c #856DFD",
"~Q 	c #8267FD",
"{Q 	c #7F63FC",
"]Q 	c #9295FC",
"^Q 	c #9EA0F7",
"/Q 	c #B6B2E7",
"(Q 	c #CEC7C5",
"_Q 	c #D1D9A8",
":Q 	c #C7E49F",
"<Q 	c #C0E7A5",
"[Q 	c #B0DDC6",
"}Q 	c #9DBDEC",
"|Q 	c #93A2F9",
"1Q 	c #8589FE",
"2Q 	c #7381FE",
"3Q 	c #308EE2",
"4Q 	c #0A9DA9",
"5Q 	c #0BA69F",
"6Q 	c #1EA7C9",
"7Q 	c #5192F5",
"8Q 	c #8B82FF",
"9Q 	c #BD8EEE",
"0Q 	c #F096B7",
"aQ 	c #F79F9E",
"bQ 	c #ECA4B7",
"cQ 	c #B893F0",
"dQ 	c #9888FC",
"eQ 	c #738EFD",
"fQ 	c #689AFA",
"gQ 	c #57B3ED",
"hQ 	c #47D7C9",
"iQ 	c #38E1A7",
"jQ 	c #32E19D",
"kQ 	c #38E2A6",
"lQ 	c #3FD6C4",
"mQ 	c #54BCE7",
"nQ 	c #66A5F6",
"oQ 	c #7098FC",
"pQ 	c #7B86FF",
"qQ 	c #8366FD",
"rQ 	c #8064FC",
"sQ 	c #7A6CFE",
"tQ 	c #8A8CFE",
"uQ 	c #999FF8",
"vQ 	c #AEAEED",
"wQ 	c #CAC2CF",
"xQ 	c #D0D6AE",
"yQ 	c #C9E3A0",
"zQ 	c #BCEBA0",
"AQ 	c #B2E8B4",
"BQ 	c #A4CBDF",
"CQ 	c #8FA4F9",
"DQ 	c #798CFF",
"EQ 	c #5E76FA",
"FQ 	c #144BAB",
"GQ 	c #19399E",
"HQ 	c #2E2DB4",
"IQ 	c #4E4AE8",
"JQ 	c #676AFB",
"KQ 	c #8B83FF",
"LQ 	c #847EFE",
"MQ 	c #897BFF",
"NQ 	c #9773FC",
"OQ 	c #B064F2",
"PQ 	c #E04FC2",
"QQ 	c #EC449F",
"RQ 	c #E43CA6",
"SQ 	c #C846D7",
"TQ 	c #659EF9",
"UQ 	c #45C3DB",
"VQ 	c #3CE0B1",
"WQ 	c #37E49E",
"XQ 	c #31DFA0",
"YQ 	c #3AD9BA",
"ZQ 	c #4DC3E0",
"`Q 	c #62A9F4",
" R 	c #7590FE",
".R 	c #7988FF",
"+R 	c #9348F0",
"@R 	c #8727DB",
"#R 	c #7B22D6",
"$R 	c #7534E6",
"%R 	c #744CF3",
"&R 	c #755CFA",
"*R 	c #7C70FE",
"=R 	c #9798FA",
"-R 	c #AAA7F2",
";R 	c #C5BCD7",
">R 	c #D9CCB0",
",R 	c #D6D89F",
"'R 	c #C1E7A2",
")R 	c #ADE8BA",
"!R 	c #A4CAE0",
"~R 	c #97A4F7",
"{R 	c #8C93FD",
"]R 	c #7081FE",
"^R 	c #5B84FA",
"/R 	c #1F87D1",
"(R 	c #0590A2",
"_R 	c #0998A7",
":R 	c #2C98DD",
"<R 	c #5989F9",
"[R 	c #6F85FE",
"}R 	c #AF89F5",
"|R 	c #EA8EC5",
"1R 	c #FA919F",
"2R 	c #C494EA",
"3R 	c #9D87FB",
"4R 	c #718EFD",
"5R 	c #6799FA",
"6R 	c #50B2EB",
"7R 	c #35D0C0",
"8R 	c #34E0A2",
"9R 	c #36E49D",
"0R 	c #34DCAC",
"aR 	c #43C9D5",
"bR 	c #5DAEF1",
"cR 	c #6B9CF9",
"dR 	c #7391FD",
"eR 	c #8B55F7",
"fR 	c #8A41EF",
"gR 	c #832ADE",
"hR 	c #7823D7",
"iR 	c #6F36E7",
"jR 	c #7061FB",
"kR 	c #7676FF",
"lR 	c #8C8EFD",
"mR 	c #9497FB",
"nR 	c #A2A4F5",
"oR 	c #BEB6DF",
"pR 	c #D1CCBC",
"qR 	c #D3DAA3",
"rR 	c #CCE09F",
"sR 	c #BDE4B1",
"tR 	c #A4CFDD",
"uR 	c #8FAAF7",
"vR 	c #778DFE",
"wR 	c #5475F7",
"xR 	c #1F5DCC",
"yR 	c #1347A2",
"zR 	c #1C37A2",
"AR 	c #3339CB",
"BR 	c #5A5EF5",
"CR 	c #6D70FC",
"DR 	c #8888FE",
"ER 	c #385FE3",
"FR 	c #3C50E1",
"GR 	c #17BBA9",
"HR 	c #37AEDD",
"IR 	c #9177FD",
"JR 	c #A56DF8",
"KR 	c #CE55DB",
"LR 	c #E741A7",
"MR 	c #E93E9E",
"NR 	c #DC45C0",
"OR 	c #40C1D9",
"PR 	c #2DD6AB",
"QR 	c #2FDE9D",
"RR 	c #36E0A6",
"SR 	c #3CD3C5",
"TR 	c #53B5EA",
"UR 	c #68A0F9",
"VR 	c #7194FD",
"WR 	c #778BFF",
"XR 	c #B55DEE",
"YR 	c #C12AC4",
"ZR 	c #950AAA",
"`R 	c #6D07A3",
" S 	c #630CAC",
".S 	c #6715C1",
"+S 	c #6A27D9",
"@S 	c #6D42EE",
"#S 	c #725AF8",
"$S 	c #7768FD",
"%S 	c #8A87FE",
"&S 	c #9393FC",
"*S 	c #A19FF6",
"=S 	c #DAC6B6",
"-S 	c #D0DDA2",
";S 	c #C4E6A0",
">S 	c #BCE4B2",
",S 	c #A8CADF",
"'S 	c #98A3F8",
")S 	c #8E93FC",
"!S 	c #8689FF",
"~S 	c #6E81FD",
"{S 	c #0885AB",
"]S 	c #3688E7",
"^S 	c #5E84FB",
"/S 	c #A886F8",
"(S 	c #F5A1A6",
"_S 	c #D09BDF",
":S 	c #A185FB",
"<S 	c #8E82FE",
"[S 	c #7D82FE",
"}S 	c #728EFD",
"|S 	c #6599F9",
"1S 	c #4FB2EA",
"2S 	c #31CEBF",
"3S 	c #29D8A0",
"4S 	c #2CDBA0",
"5S 	c #38D8BA",
"6S 	c #4BC2DF",
"7S 	c #60A6F5",
"8S 	c #6E96FC",
"9S 	c #768CFE",
"0S 	c #8575FE",
"aS 	c #8A6BFD",
"bS 	c #8E60FA",
"cS 	c #934FF4",
"dS 	c #9733E3",
"eS 	c #A111B5",
"fS 	c #9208A7",
"gS 	c #6B08A6",
"hS 	c #481CB9",
"iS 	c #504EEC",
"jS 	c #6F75FD",
"kS 	c #898AFE",
"lS 	c #9C9CF9",
"mS 	c #B2ABEC",
"nS 	c #D6BCC7",
"oS 	c #DFCCA5",
"pS 	c #CEDF9F",
"qS 	c #B6EAAB",
"rS 	c #A7DCCE",
"sS 	c #91B0F4",
"tS 	c #728BFE",
"uS 	c #4570EF",
"vS 	c #135AB7",
"wS 	c #12479E",
"xS 	c #2335AE",
"yS 	c #4743E1",
"zS 	c #7275FE",
"AS 	c #7B7BFE",
"BS 	c #9889FD",
"CS 	c #5A93F7",
"DS 	c #16C09F",
"ES 	c #8B7BFE",
"FS 	c #9A72FC",
"GS 	c #BC64EC",
"HS 	c #E74DB7",
"IS 	c #EA3F9D",
"JS 	c #E23CAD",
"KS 	c #689BFA",
"LS 	c #41C1DA",
"MS 	c #2BD5AB",
"NS 	c #29D79C",
"OS 	c #40C7D5",
"PS 	c #5BADF0",
"QS 	c #6A9BFA",
"RS 	c #7390FD",
"SS 	c #E05FCC",
"TS 	c #E740A8",
"US 	c #B516B0",
"VS 	c #600BA8",
"WS 	c #5A0A9E",
"XS 	c #5A0CA5",
"YS 	c #5B14B9",
"ZS 	c #632EDD",
"`S 	c #6C4EF3",
" T 	c #7161FB",
".T 	c #786FFE",
"+T 	c #9F9BF8",
"@T 	c #BAADE7",
"#T 	c #D3C4C4",
"$T 	c #DBD0A4",
"%T 	c #D2DC9F",
"&T 	c #BEE2B2",
"*T 	c #AAC9DF",
"=T 	c #99A3F8",
"-T 	c #8687FE",
";T 	c #5583F8",
">T 	c #1882CA",
",T 	c #0781AC",
"'T 	c #6082FB",
")T 	c #7381FF",
"!T 	c #A582FA",
"~T 	c #D487DE",
"{T 	c #F78FA7",
"]T 	c #F993A1",
"^T 	c #E090D1",
"/T 	c #A584FA",
"(T 	c #7985FF",
"_T 	c #728DFD",
":T 	c #6599FA",
"<T 	c #4EB1EA",
"[T 	c #31CEBE",
"}T 	c #29D7A0",
"|T 	c #32CFBE",
"1T 	c #4FB4E9",
"2T 	c #659FF8",
"3T 	c #7093FD",
"4T 	c #9655F5",
"5T 	c #A91CC4",
"6T 	c #A60BA0",
"7T 	c #AB0C9E",
"8T 	c #9808A7",
"9T 	c #3D20B4",
"0T 	c #144BAD",
"aT 	c #6777FD",
"bT 	c #B1A4EF",
"cT 	c #D6B8CA",
"dT 	c #D7D3A8",
"eT 	c #C9E39E",
"fT 	c #C1E6A6",
"gT 	c #B0DBCA",
"hT 	c #8FAEF5",
"iT 	c #6986FC",
"jT 	c #2969DA",
"kT 	c #104FA7",
"lT 	c #1A39A0",
"mT 	c #3033BE",
"nT 	c #5158F0",
"oT 	c #696FFD",
"pT 	c #8F85FD",
"qT 	c #A06AF9",
"rT 	c #9382FD",
"sT 	c #D95AD3",
"tT 	c #EA43A1",
"uT 	c #D24CD2",
"vT 	c #6F98FB",
"wT 	c #41BFDB",
"xT 	c #2BD4AB",
"yT 	c #27D79C",
"zT 	c #2BD4AA",
"AT 	c #3EC3D7",
"BT 	c #5DA6F4",
"CT 	c #6C96FB",
"DT 	c #758DFE",
"ET 	c #B977F1",
"FT 	c #F26FB5",
"GT 	c #F763A1",
"HT 	c #DB46C5",
"IT 	c #712CDF",
"JT 	c #4F1EC1",
"KT 	c #4414A0",
"LT 	c #43149E",
"MT 	c #5111AB",
"NT 	c #5E1BC6",
"OT 	c #6437E5",
"PT 	c #6C59F7",
"QT 	c #756FFE",
"RT 	c #B4A5EE",
"ST 	c #D9B6C7",
"TT 	c #D3DB9F",
"UT 	c #C0E1B2",
"VT 	c #ABC7E0",
"WT 	c #98A0F8",
"XT 	c #8D8FFD",
"YT 	c #6A85FD",
"ZT 	c #5488F7",
"`T 	c #1786C8",
" U 	c #03829E",
".U 	c #0882AC",
"+U 	c #3984EA",
"@U 	c #6182FB",
"#U 	c #8E80FE",
"$U 	c #A281FA",
"%U 	c #CB81E6",
"&U 	c #F77CAB",
"*U 	c #FB7CA0",
"=U 	c #E681CC",
"-U 	c #A787F9",
";U 	c #9185FE",
">U 	c #718DFE",
",U 	c #6699F9",
"'U 	c #4DB0EA",
")U 	c #28D6A0",
"!U 	c #28D69F",
"~U 	c #4EB2E9",
"{U 	c #659CF9",
"]U 	c #7190FD",
"^U 	c #8C71FD",
"/U 	c #9561FA",
"(U 	c #9E46ED",
"_U 	c #B029D0",
":U 	c #BA19AF",
"<U 	c #B8119F",
"[U 	c #B40F9E",
"}U 	c #AC0EA7",
"|U 	c #A513B8",
"1U 	c #6D2ADC",
"2U 	c #0D71B4",
"3U 	c #0688A3",
"4U 	c #1E83D3",
"5U 	c #617CFB",
"6U 	c #727FFF",
"7U 	c #9794FB",
"8U 	c #ACA2F1",
"9U 	c #C8BAD7",
"0U 	c #D8D59F",
"aU 	c #C9E1A5",
"bU 	c #B0D9CB",
"cU 	c #89A9F8",
"dU 	c #557DF8",
"eU 	c #195DC4",
"fU 	c #1049A0",
"gU 	c #1C3BA7",
"hU 	c #3B45DA",
"iU 	c #5F68F9",
"jU 	c #7175FD",
"kU 	c #C9B3DB",
"lU 	c #6094F9",
"mU 	c #B560EE",
"nU 	c #14BBA2",
"oU 	c #16BEA1",
"pU 	c #9C73FB",
"qU 	c #EA52B5",
"rU 	c #EE489E",
"sU 	c #E546B4",
"tU 	c #B068F3",
"uU 	c #7692FE",
"vU 	c #43BEDD",
"wU 	c #2AD5AB",
"xU 	c #3EC2D7",
"yU 	c #5DA4F4",
"zU 	c #768BFF",
"AU 	c #9A7DFC",
"BU 	c #C27BEC",
"CU 	c #F77BAD",
"DU 	c #FB79A0",
"EU 	c #E46CCB",
"FU 	c #995AF7",
"GU 	c #744DF4",
"HU 	c #573EE5",
"IU 	c #3731C6",
"JU 	c #3223A8",
"KU 	c #40169F",
"LU 	c #4B0FA1",
"MU 	c #5014AF",
"NU 	c #5531DA",
"OU 	c #7476FF",
"PU 	c #B4A2EE",
"QU 	c #DAB5C7",
"RU 	c #E1C9A4",
"SU 	c #D5D99F",
"TU 	c #C5DCB6",
"UU 	c #ADBAE8",
"VU 	c #9799FB",
"WU 	c #8B8DFE",
"XU 	c #768AFF",
"YU 	c #5294F5",
"ZU 	c #188FC8",
"`U 	c #04879F",
" V 	c #0886AD",
".V 	c #3C87EB",
"+V 	c #6483FC",
"@V 	c #7581FF",
"#V 	c #8D80FF",
"$V 	c #A082FA",
"%V 	c #D27FE1",
"&V 	c #F870A7",
"*V 	c #F96CA1",
"=V 	c #E27DD0",
"-V 	c #A892F7",
";V 	c #868BFE",
">V 	c #6597FB",
",V 	c #4DAFEB",
"'V 	c #31CDBE",
")V 	c #28D7A0",
"!V 	c #28D79F",
"~V 	c #669AF9",
"{V 	c #9E65F9",
"]V 	c #B13EE0",
"^V 	c #B71CB9",
"/V 	c #C3179D",
"(V 	c #C019A6",
"_V 	c #B51FC0",
":V 	c #9D31DF",
"<V 	c #7A47F2",
"[V 	c #2E69DF",
"}V 	c #068DA6",
"|V 	c #089AA4",
"1V 	c #2791DA",
"2V 	c #5F80FA",
"3V 	c #7180FE",
"4V 	c #9492FC",
"5V 	c #A49DF6",
"6V 	c #E1C0B2",
"7V 	c #DBD29F",
"8V 	c #CCDEA7",
"9V 	c #B2D0D5",
"0V 	c #7F98FC",
"aV 	c #3A75EA",
"bV 	c #0E5AAD",
"cV 	c #12469F",
"dV 	c #263BBC",
"eV 	c #4F5AEF",
"fV 	c #6971FC",
"gV 	c #7779FF",
"hV 	c #ECA7B7",
"iV 	c #D39FD9",
"jV 	c #45A5EA",
"kV 	c #A86FF8",
"lV 	c #D95BD3",
"mV 	c #EF4CA3",
"nV 	c #EB46A3",
"oV 	c #D053D8",
"pV 	c #46BBE0",
"qV 	c #2BD4AC",
"rV 	c #28D79C",
"sV 	c #2AD4AB",
"tV 	c #3DC1D7",
"uV 	c #5CA3F5",
"vV 	c #6C93FC",
"wV 	c #7689FE",
"xV 	c #C57EEA",
"yV 	c #FB7D9F",
"zV 	c #E778CA",
"AV 	c #A36FF8",
"BV 	c #7160FA",
"CV 	c #5955F1",
"DV 	c #4040DA",
"EV 	c #362ABA",
"FV 	c #3320A6",
"GV 	c #2E23A1",
"HV 	c #2F2DB5",
"IV 	c #4D54EB",
"JV 	c #9B93FB",
"KV 	c #B6A0EE",
"LV 	c #DCB3C6",
"MV 	c #E6C2A3",
"NV 	c #DDCFA1",
"OV 	c #A4B1EF",
"PV 	c #9498FB",
"QV 	c #878FFE",
"RV 	c #7891FE",
"SV 	c #61A4F6",
"TV 	c #4FB6E8",
"UV 	c #0D9DAF",
"VV 	c #4191EE",
"WV 	c #6886FC",
"XV 	c #DB86D8",
"YV 	c #F989A5",
"ZV 	c #F499AC",
"`V 	c #CEB9D2",
" W 	c #A8B5EC",
".W 	c #99A5F7",
"+W 	c #8594FD",
"@W 	c #7F8EFE",
"#W 	c #768FFD",
"$W 	c #4DA9ED",
"%W 	c #2ECAC0",
"&W 	c #27D6A0",
"*W 	c #718EFE",
"=W 	c #9E73FB",
"-W 	c #C657E2",
";W 	c #D630B2",
">W 	c #C81C9F",
",W 	c #C117A1",
"'W 	c #C220B3",
")W 	c #B533D7",
"!W 	c #9A4CF1",
"~W 	c #815CFA",
"{W 	c #6469FA",
"]W 	c #1C79CF",
"^W 	c #0484A0",
"/W 	c #088BAA",
"(W 	c #3389E5",
"_W 	c #5E82FB",
":W 	c #7281FE",
"<W 	c #8A87FF",
"[W 	c #A59BF6",
"}W 	c #CAABDD",
"|W 	c #E5BCB0",
"1W 	c #E2C99F",
"2W 	c #D1D6AF",
"3W 	c #A2C3E6",
"4W 	c #1B68CA",
"5W 	c #0D51A0",
"6W 	c #193FA7",
"7W 	c #3A47DA",
"8W 	c #5E6BF9",
"9W 	c #C05CE8",
"0W 	c #BE6AEC",
"aW 	c #EB56B5",
"bW 	c #EF4A9D",
"cW 	c #E548B6",
"dW 	c #A46FF9",
"eW 	c #49AAEB",
"fW 	c #26CDAF",
"gW 	c #26D59D",
"hW 	c #29D4AB",
"iW 	c #5CA3F4",
"jW 	c #C680EA",
"kW 	c #A97CF8",
"lW 	c #6261F7",
"mW 	c #4B55EB",
"nW 	c #264BCA",
"oW 	c #104EA4",
"pW 	c #0F50A6",
"qW 	c #6173FB",
"rW 	c #8E89FE",
"sW 	c #9D93FA",
"tW 	c #BD9FEB",
"uW 	c #E8ADB9",
"vW 	c #E6C59F",
"wW 	c #D0DAA5",
"xW 	c #B8D7C9",
"yW 	c #9FB0F1",
"zW 	c #8AA0FA",
"AW 	c #7B9FFB",
"BW 	c #6FA4F9",
"CW 	c #61B7EE",
"DW 	c #53D5D3",
"EW 	c #49E6B5",
"FW 	c #38E3A2",
"GW 	c #23D09F",
"HW 	c #20BABC",
"IW 	c #6D87FD",
"JW 	c #7981FF",
"KW 	c #9885FD",
"LW 	c #CF8EE1",
"MW 	c #DBD2A2",
"NW 	c #B9EBA5",
"OW 	c #A9EBB6",
"PW 	c #9EDAD4",
"QW 	c #94BFEC",
"RW 	c #8BAAF7",
"SW 	c #81A1FB",
"TW 	c #70A0FA",
"UW 	c #56A6F1",
"VW 	c #29BBC9",
"WW 	c #1FCCA2",
"XW 	c #25D3A0",
"YW 	c #30CDBE",
"ZW 	c #659AFA",
"`W 	c #947AFE",
" X 	c #B273F4",
".X 	c #EA63BF",
"+X 	c #EE4BA3",
"@X 	c #DC33AB",
"#X 	c #C031CC",
"$X 	c #AC47E9",
"%X 	c #995AF6",
"&X 	c #8966FC",
"*X 	c #7570FD",
"=X 	c #187FCA",
"-X 	c #04819F",
";X 	c #6083FB",
">X 	c #968EFC",
",X 	c #A899F6",
"'X 	c #D6A6D4",
")X 	c #EBB8A7",
"!X 	c #DDD29F",
"~X 	c #C0DFB6",
"{X 	c #94BCED",
"]X 	c #4080EE",
"^X 	c #0E5DAD",
"/X 	c #104CA0",
"(X 	c #2245BF",
"_X 	c #5062F2",
":X 	c #6974FD",
"<X 	c #787BFF",
"[X 	c #715EFA",
"}X 	c #B26EF4",
"|X 	c #9671FC",
"1X 	c #857EFE",
"2X 	c #9179FE",
"3X 	c #A472F8",
"4X 	c #D865D8",
"5X 	c #F359A4",
"6X 	c #F04EA3",
"7X 	c #CE59DC",
"8X 	c #21BCBB",
"9X 	c #25CEA9",
"0X 	c #3CBFD6",
"aX 	c #5AA3F5",
"bX 	c #6B93FC",
"cX 	c #C582EA",
"dX 	c #F682AC",
"eX 	c #FB839E",
"fX 	c #E885C8",
"gX 	c #AB84F7",
"hX 	c #9380FE",
"iX 	c #7878FE",
"jX 	c #6C71FD",
"kX 	c #3468E4",
"lX 	c #096FAA",
"mX 	c #1C6FCD",
"nX 	c #5A75F8",
"oX 	c #9189FE",
"pX 	c #A394F9",
"qX 	c #CBA3E0",
"rX 	c #E5BBB1",
"sX 	c #E0CE9F",
"tX 	c #D2D9A8",
"uX 	c #B2CFD6",
"vX 	c #8DB6F2",
"wX 	c #75BAF1",
"xX 	c #5ECDDF",
"yX 	c #49E0BD",
"zX 	c #45EAA4",
"AX 	c #45EC9D",
"BX 	c #3FE8A1",
"CX 	c #37DAB6",
"DX 	c #43B7E1",
"EX 	c #6592FB",
"FX 	c #AC8EF6",
"GX 	c #D3ADD5",
"HX 	c #D2D3B2",
"IX 	c #C2E7A2",
"JX 	c #B6EF9D",
"KX 	c #A1EDB6",
"LX 	c #96DDD3",
"MX 	c #85C4EB",
"NX 	c #6AB7F1",
"OX 	c #3DC2D5",
"PX 	c #1FC9A7",
"QX 	c #1CC99D",
"RX 	c #27C7BA",
"SX 	c #4AB0E9",
"TX 	c #639AF9",
"UX 	c #718DFD",
"VX 	c #7986FE",
"WX 	c #C272EC",
"XX 	c #F46CAF",
"YX 	c #F9669F",
"ZX 	c #E55BC3",
"`X 	c #B05DF0",
" Y 	c #9C66FA",
".Y 	c #6D7CFE",
"+Y 	c #5582F8",
"@Y 	c #1784C9",
"#Y 	c #03839E",
"$Y 	c #0884AC",
"%Y 	c #3985E9",
"&Y 	c #6183FB",
"*Y 	c #8B86FF",
"=Y 	c #988EFB",
"-Y 	c #B49AF1",
";Y 	c #DDAEC8",
">Y 	c #E5C5A4",
",Y 	c #DAD4A1",
"'Y 	c #C1D6C3",
")Y 	c #76A5F9",
"!Y 	c #1970C8",
"~Y 	c #0A5A9F",
"{Y 	c #3E55E5",
"]Y 	c #6270FA",
"^Y 	c #F0A8AC",
"/Y 	c #AFACEE",
"(Y 	c #3766E5",
"_Y 	c #B0A6F0",
":Y 	c #887DFF",
"<Y 	c #B36EF2",
"[Y 	c #E85CBF",
"}Y 	c #F3549F",
"|Y 	c #EC53B2",
"1Y 	c #2FB3D3",
"2Y 	c #1AC3A1",
"3Y 	c #1CC7A2",
"4Y 	c #30BDCD",
"5Y 	c #56A2F3",
"6Y 	c #6A93FC",
"7Y 	c #7589FE",
"8Y 	c #9B82FC",
"9Y 	c #C284EB",
"0Y 	c #F689AE",
"aY 	c #E89BC3",
"bY 	c #B08BF5",
"cY 	c #6076FA",
"dY 	c #3A73E9",
"eY 	c #0876AC",
"fY 	c #04739F",
"gY 	c #196CC8",
"hY 	c #5473F6",
"iY 	c #948BFC",
"jY 	c #A695F7",
"kY 	c #CEA6DC",
"lY 	c #E9B7AB",
"mY 	c #E1CB9F",
"nY 	c #C1E0B1",
"oY 	c #89E3CE",
"pY 	c #61E8C2",
"qY 	c #4EEEA9",
"rY 	c #3CE7A0",
"sY 	c #41E3B1",
"tY 	c #48D2D0",
"uY 	c #6798FB",
"vY 	c #817AFE",
"wY 	c #9185FD",
"xY 	c #A195F9",
"yY 	c #B6B0E8",
"zY 	c #C3CCCB",
"AY 	c #C4DFB0",
"BY 	c #A8F3A3",
"CY 	c #97F0B6",
"DY 	c #66E2CC",
"EY 	c #28D0AF",
"FY 	c #21CF9D",
"GY 	c #24CCAD",
"HY 	c #3EB4E0",
"IY 	c #619AF8",
"JY 	c #708EFE",
"KY 	c #8D7EFE",
"LY 	c #A179FA",
"MY 	c #D171E0",
"NY 	c #F666A6",
"OY 	c #F65FA0",
"PY 	c #DF60CE",
"QY 	c #A86EF7",
"RY 	c #9473FD",
"SY 	c #6881FD",
"TY 	c #4F85F6",
"UY 	c #05939E",
"VY 	c #3D8AEC",
"WY 	c #9C90FB",
"XY 	c #B89EEE",
"YY 	c #E3AEC1",
"ZY 	c #D8D4A6",
"`Y 	c #AAD4D5",
" Z 	c #3B8EE9",
".Z 	c #0A60A7",
"+Z 	c #104AA2",
"@Z 	c #2B47CC",
"#Z 	c #5769F6",
"$Z 	c #6D77FD",
"%Z 	c #EFB3A0",
"&Z 	c #C3C7D0",
"*Z 	c #A075FA",
"=Z 	c #CD6AE3",
"-Z 	c #F058AB",
";Z 	c #F04EA0",
">Z 	c #D757D2",
",Z 	c #54AAF0",
"'Z 	c #1EC6AA",
")Z 	c #1AC79E",
"!Z 	c #26C3BB",
"~Z 	c #4CA8EC",
"{Z 	c #6694FB",
"]Z 	c #738AFF",
"^Z 	c #9882FC",
"/Z 	c #BA85F0",
"(Z 	c #F18FB7",
"_Z 	c #F99A9D",
":Z 	c #EE9FB6",
"<Z 	c #BA8EF0",
"[Z 	c #9A85FC",
"}Z 	c #767FFF",
"|Z 	c #657BFD",
"1Z 	c #4078EE",
"2Z 	c #0B6FB2",
"3Z 	c #165BBC",
"4Z 	c #4A6DF2",
"5Z 	c #6779FC",
"6Z 	c #777DFF",
"7Z 	c #AC98F4",
"8Z 	c #DAAACE",
"9Z 	c #E3C5A6",
"0Z 	c #C6E4A3",
"aZ 	c #7FF9A8",
"bZ 	c #52F29F",
"cZ 	c #48EE9E",
"dZ 	c #41E7A8",
"eZ 	c #42D7C5",
"fZ 	c #56BCE7",
"gZ 	c #67A4F8",
"hZ 	c #7192FD",
"iZ 	c #7E6FFE",
"jZ 	c #826DFD",
"kZ 	c #816BFD",
"lZ 	c #8A81FF",
"mZ 	c #9191FD",
"nZ 	c #9EA2F6",
"oZ 	c #B0B8E7",
"pZ 	c #C0CFCB",
"qZ 	c #C3E1AF",
"rZ 	c #ACF39F",
"sZ 	c #76F8A8",
"tZ 	c #2EDCA0",
"uZ 	c #23CDA7",
"vZ 	c #3BBFD6",
"wZ 	c #5BA0F6",
"xZ 	c #6C8FFC",
"yZ 	c #7786FE",
"zZ 	c #A778F9",
"AZ 	c #E173D1",
"BZ 	c #F564A7",
"CZ 	c #D165DE",
"DZ 	c #A375FA",
"EZ 	c #4386F0",
"FZ 	c #0E90B7",
"GZ 	c #11A0B6",
"HZ 	c #458EF0",
"IZ 	c #6784FC",
"JZ 	c #9F92F9",
"KZ 	c #C79EE5",
"LZ 	c #E8B3B3",
"MZ 	c #E2C9A0",
"NZ 	c #D0D8AC",
"OZ 	c #85BEEE",
"PZ 	c #126DBE",
"QZ 	c #194CB5",
"RZ 	c #4760ED",
"SZ 	c #6674FC",
"TZ 	c #777AFF",
"UZ 	c #C998E5",
"VZ 	c #3E62E8",
"WZ 	c #40ABE4",
"XZ 	c #9684FC",
"YZ 	c #937AFE",
"ZZ 	c #AA73F7",
"`Z 	c #E165CD",
" ` 	c #F45BA1",
".` 	c #EF53AA",
"+` 	c #8F7BFE",
"@` 	c #20BEB8",
"#` 	c #1DCB9E",
"$` 	c #23CAAD",
"%` 	c #3DB2E0",
"&` 	c #6196F9",
"*` 	c #708BFE",
"=` 	c #9582FD",
"-` 	c #AF86F6",
";` 	c #EA8AC5",
">` 	c #FA8C9E",
",` 	c #F58EAD",
"'` 	c #C48CEB",
")` 	c #9D86FC",
"!` 	c #697CFD",
"~` 	c #4C78F4",
"{` 	c #136FC0",
"]` 	c #07659F",
"^` 	c #0E5DAF",
"/` 	c #3E68EB",
"(` 	c #6277FB",
"_` 	c #747CFE",
":` 	c #978FFC",
"<` 	c #AE9DF3",
"[` 	c #D3B8CF",
"}` 	c #C2E0B3",
"|` 	c #79F7AB",
"1` 	c #4FEDAB",
"2` 	c #4BE0C1",
"3` 	c #54C8DF",
"4` 	c #63AEF3",
"5` 	c #6F9AFC",
"6` 	c #8358F9",
"7` 	c #7F4AF3",
"8` 	c #7B4FF5",
"9` 	c #775DFA",
"0` 	c #7768FC",
"a` 	c #8A4CF4",
"b` 	c #8138E9",
"c` 	c #7A3CEB",
"d` 	c #7954F7",
"e` 	c #7A66FD",
"f` 	c #9096FC",
"g` 	c #9DA5F6",
"h` 	c #AEBAE7",
"i` 	c #BBD2CC",
"j` 	c #B7E6B3",
"k` 	c #83F7AC",
"l` 	c #42E7AA",
"m` 	c #37C9CB",
"n` 	c #5AA5F4",
"o` 	c #967CFD",
"p` 	c #AE77F6",
"q` 	c #E96EC6",
"r` 	c #F9699F",
"s` 	c #F567AC",
"t` 	c #C56FEA",
"u` 	c #9D78FC",
"v` 	c #7482FE",
"w` 	c #6185FC",
"x` 	c #0A8FAD",
"y` 	c #1796C5",
"z` 	c #528CF5",
"A` 	c #6A84FD",
"B` 	c #A795F7",
"C` 	c #D0A4DB",
"D` 	c #EBB4AB",
"E` 	c #C4D6BF",
"F` 	c #3799E5",
"G` 	c #0862A2",
"H` 	c #1052A7",
"I` 	c #3457DE",
"J` 	c #5E71FA",
"K` 	c #9487FD",
"L` 	c #315FDE",
"M` 	c #4E58EE",
"N` 	c #827DFE",
"O` 	c #9A78FC",
"P` 	c #BA70EF",
"Q` 	c #EE63B8",
"R` 	c #F55A9F",
"S` 	c #E45AC5",
"T` 	c #13BBA1",
"U` 	c #1BC3A7",
"V` 	c #36BAD5",
"W` 	c #589DF5",
"X` 	c #6C8EFC",
"Y` 	c #E589CC",
"Z` 	c #FA8F9F",
"`` 	c #F59AAA",
"  .	c #CA99E4",
". .	c #5778F8",
"+ .	c #1D72CF",
"@ .	c #0767A1",
"# .	c #0C5AA6",
"$ .	c #5D75F9",
"% .	c #8B87FF",
"& .	c #9190FD",
"* .	c #9F9FF7",
"= .	c #A0BEEA",
"- .	c #7CD3E0",
"; .	c #65C6E7",
"> .	c #6BAEF5",
", .	c #719CFA",
"' .	c #778EFD",
") .	c #9942EC",
"! .	c #991ECF",
"~ .	c #810EB8",
"{ .	c #6D11BD",
"] .	c #6A26D8",
"^ .	c #6D48F1",
"/ .	c #725EF9",
"( .	c #7867FC",
"_ .	c #7B6DFE",
": .	c #7D71FF",
"< .	c #7F72FE",
"[ .	c #8172FF",
"} .	c #8967FC",
"| .	c #8E5FFA",
"1 .	c #9453F5",
"2 .	c #9F37E4",
"3 .	c #A31AC3",
"4 .	c #8509AF",
"5 .	c #690CAF",
"6 .	c #6519C7",
"7 .	c #6A38E6",
"8 .	c #796CFD",
"9 .	c #898BFE",
"0 .	c #8E98FB",
"a .	c #94A5F7",
"b .	c #9BB9EE",
"c .	c #83D0E3",
"d .	c #61C9E2",
"e .	c #62ABF4",
"f .	c #6F94FD",
"g .	c #897DFE",
"h .	c #9A7AFC",
"i .	c #BC75F0",
"j .	c #EE5DB5",
"k .	c #B96EF0",
"l .	c #9979FC",
"m .	c #5C87F9",
"n .	c #2C8DDF",
"o .	c #0999A6",
"p .	c #089EA0",
"q .	c #1F99D0",
"r .	c #5989F8",
"s .	c #6E84FD",
"t .	c #988CFC",
"u .	c #B096F3",
"v .	c #DFA5CB",
"w .	c #ECB9A3",
"x .	c #87C1EC",
"y .	c #0B6CB0",
"z .	c #0B57A1",
"A .	c #556BF6",
"B .	c #DDCAAE",
"C .	c #406CEC",
"D .	c #46AAE8",
"E .	c #17C29E",
"F .	c #A177FA",
"G .	c #CE6DE2",
"H .	c #F45FA9",
"I .	c #F458A2",
"J .	c #A776F8",
"K .	c #16B4B1",
"L .	c #13BB9F",
"M .	c #22B9C1",
"N .	c #4FA1F0",
"O .	c #A386F9",
"P .	c #DA8BD8",
"Q .	c #F797A3",
"R .	c #D9A0D5",
"S .	c #A68BF8",
"T .	c #717DFE",
"U .	c #5D78FA",
"V .	c #2E72E0",
"W .	c #0868A8",
"X .	c #0860A0",
"Y .	c #215CCD",
"Z .	c #888EFE",
"` .	c #8097FC",
" ..	c #7C96FD",
"...	c #8675FE",
"+..	c #9A50F3",
"@..	c #AA32DB",
"#..	c #B61AB7",
"$..	c #B310A3",
"%..	c #8405A4",
"&..	c #570AA0",
"*..	c #5010A7",
"=..	c #591DC7",
"-..	c #683CE9",
";..	c #7150F5",
">..	c #7C5CFA",
",..	c #7F5EFB",
"'..	c #825EFA",
")..	c #865CF9",
"!..	c #8A57F8",
"~..	c #8F4CF3",
"{..	c #993AE7",
"]..	c #AB26CE",
"^..	c #B918AE",
"/..	c #B611A0",
"(..	c #8C06A4",
"_..	c #560BA0",
":..	c #4F0EA0",
"<..	c #5313B1",
"[..	c #5F26D5",
"}..	c #6849F0",
"|..	c #7262FB",
"1..	c #848BFE",
"2..	c #7995FD",
"3..	c #8C7DFF",
"4..	c #A078FB",
"5..	c #C971E7",
"6..	c #F567AB",
"7..	c #F7629F",
"8..	c #E561C6",
"9..	c #6D83FD",
"0..	c #5689F8",
"a..	c #1D90CF",
"b..	c #0799A1",
"c..	c #0BA1A6",
"d..	c #2F9BDF",
"e..	c #5D89FA",
"f..	c #9E8EFA",
"g..	c #BF9AEB",
"h..	c #EBA7B7",
"i..	c #EEB79F",
"j..	c #208BD4",
"k..	c #095CA0",
"l..	c #1650B6",
"m..	c #4762EE",
"n..	c #6675FC",
"o..	c #767AFE",
"p..	c #A78FF7",
"q..	c #4948E5",
"r..	c #B37FF3",
"s..	c #7B8EFE",
"t..	c #927BFD",
"u..	c #A976F8",
"v..	c #E268CE",
"w..	c #F65DA1",
"x..	c #EE59B2",
"y..	c #50A8EE",
"z..	c #1ABFA9",
"A..	c #38ADDF",
"B..	c #5F95F9",
"C..	c #9E85FB",
"D..	c #C98AE8",
"E..	c #F79E9F",
"F..	c #E4A6C4",
"G..	c #AE93F5",
"H..	c #9687FD",
"I..	c #757EFF",
"J..	c #647AFC",
"K..	c #3E74EC",
"L..	c #0B6BB1",
"M..	c #095E9D",
"N..	c #1852BC",
"O..	c #4C66F1",
"P..	c #8E6EFD",
"Q..	c #975BF7",
"R..	c #A43AE5",
"S..	c #B01FC3",
"T..	c #BE17A7",
"U..	c #C1169D",
"V..	c #BC15A4",
"W..	c #880FBC",
"X..	c #411BAF",
"Y..	c #351DA0",
"Z..	c #4314A2",
"`..	c #5D10B4",
" +.	c #6C17C6",
".+.	c #7224D7",
"++.	c #7832E5",
"@+.	c #7E37E8",
"#+.	c #8437E8",
"$+.	c #8B32E4",
"%+.	c #9423D5",
"&+.	c #9C15C0",
"*+.	c #A40FAE",
"=+.	c #B510A2",
"-+.	c #C2169D",
";+.	c #BC17A8",
">+.	c #9014C3",
",+.	c #4A1CBB",
"'+.	c #371EA5",
")+.	c #3E179E",
"!+.	c #4B12A6",
"~+.	c #571AC2",
"{+.	c #6438E5",
"]+.	c #6C5AF8",
"^+.	c #756DFE",
"/+.	c #917BFE",
"(+.	c #DA6ED7",
"_+.	c #F55CA2",
":+.	c #907BFE",
"<+.	c #7881FF",
"[+.	c #6885FD",
"}+.	c #4B89F4",
"|+.	c #1395BF",
"1+.	c #079E9E",
"2+.	c #0FA1AF",
"3+.	c #3E94EB",
"4+.	c #6388FC",
"5+.	c #7683FE",
"6+.	c #DA9BD5",
"7+.	c #F0ACA6",
"8+.	c #E7C1A5",
"9+.	c #69B7F1",
"0+.	c #0866A4",
"a+.	c #0F53A9",
"b+.	c #3559DF",
"c+.	c #5F72FA",
"d+.	c #3056D9",
"e+.	c #665CF7",
"f+.	c #CD9DE1",
"g+.	c #9B98F9",
"h+.	c #14B4A9",
"i+.	c #897EFF",
"j+.	c #987AFD",
"k+.	c #B775F2",
"l+.	c #EE6BBB",
"m+.	c #F660A1",
"n+.	c #18B8AF",
"o+.	c #19C4A1",
"p+.	c #29BDC7",
"q+.	c #519CF2",
"r+.	c #9985FC",
"s+.	c #B98AF0",
"t+.	c #F095B8",
"u+.	c #F7A29D",
"v+.	c #EAAFB4",
"w+.	c #BB9EEC",
"x+.	c #4E74F4",
"y+.	c #095C9E",
"z+.	c #134DAB",
"A+.	c #3D56E4",
"B+.	c #5F71FA",
"C+.	c #7278FF",
"D+.	c #8A7AFE",
"E+.	c #946FFD",
"F+.	c #A254F3",
"G+.	c #B42FD3",
"H+.	c #BC1BAF",
"I+.	c #BB139F",
"J+.	c #C0169D",
"K+.	c #C31DAC",
"L+.	c #B029CE",
"M+.	c #853AEA",
"N+.	c #4C3EE0",
"O+.	c #2C31B7",
"P+.	c #391CA2",
"Q+.	c #66079F",
"R+.	c #7607AA",
"S+.	c #8408AC",
"T+.	c #9208A9",
"U+.	c #B512A2",
"V+.	c #BD1DB4",
"W+.	c #AB2FD9",
"X+.	c #8743EF",
"Y+.	c #3A39CF",
"Z+.	c #3027AE",
"`+.	c #4F15B1",
" @.	c #5C29D6",
".@.	c #674FF2",
"+@.	c #787AFE",
"@@.	c #9679FD",
"#@.	c #AE71F6",
"$@.	c #E766C7",
"%@.	c #F7619F",
"&@.	c #F25DAA",
"*@.	c #6286FC",
"=@.	c #3D8DEC",
"-@.	c #0C96B1",
";@.	c #16A2BD",
">@.	c #4C91F3",
",@.	c #6987FC",
"'@.	c #7882FF",
")@.	c #9C8AFB",
"!@.	c #ECA2B8",
"~@.	c #EEB5A0",
"{@.	c #BDCECF",
"]@.	c #0E7BBB",
"^@.	c #0B58A2",
"/@.	c #2353CB",
"(@.	c #566FF8",
"_@.	c #D3A7D8",
":@.	c #C256E4",
"<@.	c #499DEE",
"[@.	c #19BEA9",
"}@.	c #8B7DFE",
"|@.	c #C473EA",
"1@.	c #F468AE",
"2@.	c #F663A3",
"3@.	c #6C88FD",
"4@.	c #0EAEA2",
"5@.	c #19B8B4",
"6@.	c #9383FD",
"7@.	c #AB89F7",
"8@.	c #E493CD",
"9@.	c #F6A0A1",
"0@.	c #EFAEA6",
"a@.	c #CCA9DC",
"b@.	c #A290F9",
"c@.	c #6F7CFE",
"d@.	c #266DD8",
"e@.	c #0A5DA5",
"f@.	c #114AA1",
"g@.	c #2A46CB",
"h@.	c #5668F6",
"i@.	c #6C75FD",
"j@.	c #9478FD",
"k@.	c #AF62F2",
"l@.	c #C733C8",
"m@.	c #C71CA5",
"n@.	c #C71A9E",
"o@.	c #C31BA7",
"p@.	c #BB23C0",
"q@.	c #AD3AE0",
"r@.	c #9452F5",
"s@.	c #805AF9",
"t@.	c #514BE9",
"u@.	c #5216B7",
"v@.	c #5A0EAA",
"w@.	c #6009A3",
"x@.	c #7505A0",
"y@.	c #83049F",
"z@.	c #9506A0",
"A@.	c #A60BA3",
"B@.	c #AA10AD",
"C@.	c #AB1ABE",
"D@.	c #A92AD5",
"E@.	c #A043EC",
"F@.	c #8F58F8",
"G@.	c #825FFB",
"H@.	c #745FFA",
"I@.	c #6158F5",
"J@.	c #4248E1",
"K@.	c #2E33BC",
"L@.	c #2F24A4",
"M@.	c #3B199F",
"N@.	c #4913A7",
"O@.	c #4C24C7",
"P@.	c #5D5AF5",
"Q@.	c #9D76FB",
"R@.	c #C16CEB",
"S@.	c #EE59B3",
"T@.	c #F2519D",
"U@.	c #E952B6",
"V@.	c #B76AF0",
"W@.	c #5C89FA",
"X@.	c #2E93DF",
"Y@.	c #0A9EA6",
"Z@.	c #09A3A0",
"`@.	c #209FCD",
" #.	c #578DF8",
".#.	c #6D85FD",
"+#.	c #A78EF8",
"@#.	c #D99AD6",
"##.	c #E3C3A9",
"$#.	c #45ACE8",
"%#.	c #0864A2",
"&#.	c #145BB9",
"*#.	c #4A6CF1",
"=#.	c #6778FD",
"-#.	c #C991E6",
";#.	c #B55BED",
">#.	c #19C4A0",
",#.	c #8F7CFE",
"'#.	c #D673DC",
")#.	c #F767A6",
"!#.	c #22A5CF",
"~#.	c #0FAFA2",
"{#.	c #24ACCD",
"]#.	c #5795F6",
"^#.	c #6A8CFC",
"/#.	c #8D82FF",
"(#.	c #D090E2",
"_#.	c #F59DA9",
":#.	c #F2AB9F",
"<#.	c #DCB4C6",
"[#.	c #AB9AF4",
"}#.	c #958CFC",
"|#.	c #6378FB",
"1#.	c #3F6FEC",
"2#.	c #1061B4",
"3#.	c #1949B4",
"4#.	c #475CEC",
"5#.	c #7578FF",
"6#.	c #DC66D4",
"7#.	c #E845AA",
"8#.	c #D92DA4",
"9#.	c #CC28B4",
"0#.	c #BD3BD8",
"a#.	c #A352F1",
"b#.	c #9460FA",
"c#.	c #8969FC",
"d#.	c #806DFE",
"e#.	c #695BF8",
"f#.	c #6749F0",
"g#.	c #6526D7",
"h#.	c #771ACC",
"i#.	c #7F18C9",
"j#.	c #8418C9",
"k#.	c #911BCC",
"l#.	c #9D27D8",
"m#.	c #9A3CE8",
"n#.	c #954EF4",
"o#.	c #905BF9",
"p#.	c #8C65FC",
"q#.	c #876DFE",
"r#.	c #7972FE",
"s#.	c #4A58ED",
"t#.	c #2D46CE",
"u#.	c #2733B1",
"v#.	c #2136A9",
"w#.	c #184BB6",
"x#.	c #396AE7",
"y#.	c #797EFE",
"z#.	c #9179FD",
"A#.	c #A671F8",
"B#.	c #D966D7",
"C#.	c #F14FA1",
"D#.	c #D952CF",
"E#.	c #9178FD",
"F#.	c #6A86FD",
"G#.	c #538CF6",
"H#.	c #1C99CB",
"I#.	c #0AA4A0",
"J#.	c #0EAAA7",
"K#.	c #319FDF",
"L#.	c #5F8AFB",
"M#.	c #7284FE",
"N#.	c #BB93EE",
"O#.	c #ECA2BA",
"P#.	c #EDB6A1",
"Q#.	c #94CDE3",
"R#.	c #0777A8",
"S#.	c #0E5FAE",
"T#.	c #3D65EA",
"U#.	c #8E85FF",
"V#.	c #DBCBB0",
"W#.	c #3550DB",
"X#.	c #3BA2E5",
"Y#.	c #C559E3",
"Z#.	c #937CFE",
"`#.	c #A67AF9",
" $.	c #E36FCE",
".$.	c #F766A3",
"+$.	c #B683F2",
"@$.	c #14B6A7",
"#$.	c #17B8AC",
"$$.	c #9986FC",
"%$.	c #B98EF0",
"&$.	c #EE9AB9",
"*$.	c #F3AD9E",
"=$.	c #E3BEAF",
"-$.	c #BCAEE5",
";$.	c #9D91FA",
">$.	c #1C68CD",
",$.	c #0A5CA1",
"'$.	c #1349A5",
")$.	c #3649D7",
"!$.	c #5C68F7",
"~$.	c #6F74FD",
"{$.	c #8F80FE",
"]$.	c #AE7EF6",
"^$.	c #EF82BE",
"/$.	c #FA83A3",
"($.	c #F17BB9",
"_$.	c #CA68E5",
":$.	c #AA67F6",
"<$.	c #976DFB",
"[$.	c #8A72FD",
"}$.	c #7976FE",
"|$.	c #7669FD",
"1$.	c #7762FB",
"2$.	c #795CFA",
"3$.	c #7C59F9",
"4$.	c #7E57F8",
"5$.	c #8257F9",
"6$.	c #8559F9",
"7$.	c #8476FF",
"8$.	c #7879FE",
"9$.	c #6E75FE",
"0$.	c #5C71FA",
"a$.	c #436EEE",
"b$.	c #187ACB",
"c$.	c #0891A7",
"d$.	c #0A9CAA",
"e$.	c #3190E3",
"f$.	c #6980FD",
"g$.	c #7780FF",
"h$.	c #9875FC",
"i$.	c #B46BF1",
"j$.	c #E85ABF",
"k$.	c #F3539E",
"l$.	c #ED50AD",
"m$.	c #C260E7",
"n$.	c #7683FF",
"o$.	c #6489FB",
"p$.	c #4391EE",
"q$.	c #109EB6",
"r$.	c #14ABB5",
"s$.	c #4598EE",
"t$.	c #6589FC",
"u$.	c #A68EF8",
"v$.	c #D799D8",
"w$.	c #F1ACA7",
"x$.	c #D8CAB7",
"y$.	c #1793C6",
"z$.	c #0A63A7",
"A$.	c #2C67DC",
"B$.	c #5F79FB",
"C$.	c #B25EEF",
"D$.	c #967BFD",
"E$.	c #B27AF5",
"F$.	c #EE70BE",
"G$.	c #F665A6",
"H$.	c #6B91FD",
"I$.	c #11B6A3",
"J$.	c #23B5C5",
"K$.	c #5398F5",
"L$.	c #8580FE",
"M$.	c #A78BF8",
"N$.	c #DC98D4",
"O$.	c #F3AAA4",
"P$.	c #EBBCA1",
"Q$.	c #D1BFCB",
"R$.	c #A89CF5",
"S$.	c #938BFD",
"T$.	c #6075FA",
"U$.	c #336CE4",
"V$.	c #0E5BAC",
"W$.	c #11489E",
"X$.	c #273ABA",
"Y$.	c #4F53ED",
"Z$.	c #AA82F8",
"`$.	c #E78FC9",
" %.	c #EEAFA8",
".%.	c #D09DDE",
"+%.	c #A781F9",
"@%.	c #7C74FE",
"#%.	c #7E6EFE",
"$%.	c #7F6DFE",
"%%.	c #816DFE",
"&%.	c #826FFD",
"*%.	c #8375FE",
"=%.	c #8278FE",
"-%.	c #707FFE",
";%.	c #5E80FA",
">%.	c #3B88EB",
",%.	c #11A1B5",
"'%.	c #0EB09E",
")%.	c #16B2B4",
"!%.	c #4595EF",
"~%.	c #8F79FE",
"{%.	c #A26FF9",
"]%.	c #CD60E0",
"^%.	c #EE50A9",
"/%.	c #EF489E",
"(%.	c #E04CC2",
"_%.	c #AF68F4",
":%.	c #9575FD",
"<%.	c #7084FE",
"[%.	c #5C8CF9",
"}%.	c #2F9ADE",
"|%.	c #0DA9A7",
"1%.	c #0DAD9F",
"2%.	c #20A9C9",
"3%.	c #5591F7",
"4%.	c #9B89FC",
"5%.	c #B991F0",
"6%.	c #EDA0BA",
"7%.	c #EEB3A6",
"8%.	c #5AB6EC",
"9%.	c #0674A4",
"0%.	c #206CD1",
"a%.	c #EBA7B9",
"b%.	c #334EDA",
"c%.	c #8156F9",
"d%.	c #49ACEA",
"e%.	c #986DFB",
"f%.	c #5F90F9",
"g%.	c #B97AF1",
"h%.	c #F373B3",
"i%.	c #F376B5",
"j%.	c #1DABC5",
"k%.	c #11AEAC",
"l%.	c #3AA5E4",
"m%.	c #9C89FC",
"n%.	c #EDA1B6",
"o%.	c #F0B29E",
"p%.	c #E2C0B0",
"q%.	c #BBACE7",
"r%.	c #9B91FB",
"s%.	c #6978FD",
"t%.	c #1961C6",
"u%.	c #1F35A4",
"v%.	c #3C37CF",
"w%.	c #5B5FF5",
"x%.	c #6E70FD",
"y%.	c #8D82FE",
"z%.	c #A086FA",
"A%.	c #D18EE1",
"B%.	c #F59DA8",
"C%.	c #F3AAA0",
"D%.	c #DDB1C6",
"E%.	c #AD95F5",
"F%.	c #6D84FD",
"G%.	c #598AF8",
"H%.	c #2696D7",
"I%.	c #0BA5A4",
"J%.	c #0EAFA1",
"K%.	c #26AAD0",
"L%.	c #578EF8",
"M%.	c #9874FD",
"N%.	c #B268F2",
"O%.	c #E354C2",
"P%.	c #EF4A9F",
"Q%.	c #E945A8",
"R%.	c #C955DE",
"S%.	c #A16FF9",
"T%.	c #6988FC",
"U%.	c #4E8FF4",
"V%.	c #19A0C4",
"W%.	c #35A4E0",
"X%.	c #9386FD",
"Y%.	c #A48CF9",
"Z%.	c #DC95D3",
"`%.	c #F3A4A6",
" &.	c #8DBBF0",
".&.	c #0770A8",
"+&.	c #1A5DC4",
"@&.	c #5674F7",
"#&.	c #6B7CFE",
"$&.	c #36AEDD",
"%&.	c #997DFC",
"&&.	c #C778E9",
"*&.	c #F469AD",
"=&.	c #CE70E3",
"-&.	c #10A9AD",
";&.	c #18ADBC",
">&.	c #A98EF7",
",&.	c #DD9AD3",
"'&.	c #F3A7A3",
")&.	c #D1B7D1",
"!&.	c #A49AF7",
"~&.	c #928CFD",
"{&.	c #717BFF",
"]&.	c #1352B1",
"^&.	c #2535B0",
"/&.	c #6468FA",
"(&.	c #9986FD",
"_&.	c #BA8DEF",
":&.	c #EE99B9",
"<&.	c #F4AC9E",
"[&.	c #BDA7E8",
"}&.	c #6788FC",
"|&.	c #17A4BF",
"1&.	c #3B9FE7",
"2&.	c #618DFA",
"3&.	c #9076FD",
"4&.	c #CB5ADF",
"5&.	c #EC4BA9",
"6&.	c #EC469E",
"7&.	c #DE47C0",
"8&.	c #B163F2",
"9&.	c #9773FD",
"0&.	c #3A98E8",
"a&.	c #0EA5AF",
"b&.	c #0BAB9E",
"c&.	c #1AAEBD",
"d&.	c #4C99F1",
"e&.	c #678AFD",
"f&.	c #9C89FB",
"g&.	c #C58FE9",
"h&.	c #F29DAE",
"i&.	c #D4BDC8",
"j&.	c #0C86B6",
"k&.	c #0E6EB9",
"l&.	c #4C77F4",
"m&.	c #4DA0F0",
"n&.	c #15C09F",
"o&.	c #688DFD",
"p&.	c #8E7EFF",
"q&.	c #D87BDC",
"r&.	c #0EA8A9",
"s&.	c #6E87FE",
"t&.	c #9D8AFB",
"u&.	c #C393EA",
"v&.	c #F19FB1",
"w&.	c #EFB49E",
"x&.	c #DAC9B4",
"y&.	c #B5B2E8",
"z&.	c #9B92FB",
"A&.	c #556DF6",
"B&.	c #255FD3",
"C&.	c #0F50A3",
"D&.	c #183BA0",
"E&.	c #3631C4",
"F&.	c #5850EF",
"G&.	c #6A6AFB",
"H&.	c #7775FE",
"I&.	c #9285FE",
"J&.	c #AA8CF8",
"K&.	c #DD96D3",
"L&.	c #F4A5A3",
"M&.	c #EFB1A2",
"N&.	c #D3AFD3",
"O&.	c #A492F8",
"P&.	c #7284FF",
"Q&.	c #3395E3",
"R&.	c #0EA7AB",
"S&.	c #1EB1C1",
"T&.	c #4E96F3",
"U&.	c #9A6FFB",
"V&.	c #B760EE",
"W&.	c #E047BD",
"X&.	c #E93F9E",
"Y&.	c #C853DE",
"Z&.	c #A06CF9",
"`&.	c #8F77FE",
" *.	c #5591F6",
".*.	c #24A3D1",
"+*.	c #0FB0A2",
"@*.	c #10B3A3",
"#*.	c #2BA9D5",
"$*.	c #5A91F8",
"%*.	c #9686FD",
"&*.	c #AE8AF6",
"**.	c #EC97BF",
"=*.	c #EBAEB1",
"-*.	c #23A3CF",
";*.	c #0B75B3",
">*.	c #4775F1",
",*.	c #687DFD",
"'*.	c #D4D0B4",
")*.	c #439BEC",
"!*.	c #3AAEE0",
"~*.	c #DE7ED5",
"{*.	c #F682AE",
"]*.	c #0FA4AF",
"^*.	c #3E9CE9",
"/*.	c #6789FD",
"(*.	c #7285FF",
"_*.	c #9486FD",
":*.	c #AE8FF5",
"<*.	c #E09ECC",
"[*.	c #EFB4A2",
"}*.	c #E5C6A2",
"|*.	c #CDC3CA",
"1*.	c #A69FF4",
"2*.	c #6573FC",
"3*.	c #1657BA",
"4*.	c #173E9F",
"5*.	c #2A29A5",
"6*.	c #4131CF",
"7*.	c #5D5AF4",
"8*.	c #6E6BFD",
"9*.	c #9F88FB",
"0*.	c #C690E9",
"a*.	c #F4A79E",
"b*.	c #E3B1BD",
"c*.	c #B199F2",
"d*.	c #6C84FE",
"e*.	c #1C98CC",
"f*.	c #0AA5A0",
"g*.	c #0FACA7",
"h*.	c #30A4DC",
"i*.	c #5B8FF9",
"j*.	c #A964F5",
"k*.	c #D54CD0",
"l*.	c #E73EA3",
"m*.	c #E5399F",
"n*.	c #D741C4",
"o*.	c #AE61F2",
"p*.	c #638CFC",
"q*.	c #4099EB",
"r*.	c #15ADB5",
"s*.	c #10B79D",
"t*.	c #1AB8B2",
"u*.	c #42A1EA",
"v*.	c #8681FE",
"w*.	c #9F88FA",
"x*.	c #DF8FD3",
"y*.	c #F29FAE",
"z*.	c #0C64B0",
"A*.	c #3C69E9",
"B*.	c #737EFE",
"C*.	c #E3C7A3",
"D*.	c #CDC4CB",
"E*.	c #6098F9",
"F*.	c #C162E8",
"G*.	c #6C89FE",
"H*.	c #9B7FFC",
"I*.	c #DF74D3",
"J*.	c #F072BA",
"K*.	c #3AA7E3",
"L*.	c #15A5BA",
"M*.	c #5192F4",
"N*.	c #6C86FD",
"O*.	c #C096EB",
"P*.	c #E0C5AF",
"Q*.	c #9B96FA",
"R*.	c #335FE0",
"S*.	c #1749AF",
"T*.	c #1B389E",
"U*.	c #2C2BAD",
"V*.	c #4C3ADD",
"W*.	c #635CF6",
"X*.	c #9885FC",
"Y*.	c #B48CF3",
"Z*.	c #C3A2E6",
"`*.	c #9D8BFB",
" =.	c #6685FD",
".=.	c #458BF1",
"+=.	c #1096B8",
"@=.	c #08A19E",
"#=.	c #13A8B5",
"$=.	c #4398ED",
"%=.	c #638AFB",
"&=.	c #A066F9",
"*=.	c #C453E0",
"==.	c #E440AD",
"-=.	c #E63A9D",
";=.	c #DE3BB2",
">=.	c #BB55E7",
",=.	c #26A4D2",
"'=.	c #13B9A1",
")=.	c #29B1CF",
"!=.	c #9886FC",
"~=.	c #CD8DE4",
"{=.	c #F39CAE",
"]=.	c #86ABF8",
"^=.	c #0976AF",
"/=.	c #2973DC",
"(=.	c #687FFD",
"_=.	c #8469FD",
":=.	c #3CA5E5",
"<=.	c #C457E3",
"[=.	c #628FFB",
"}=.	c #8F7FFE",
"|=.	c #A580FA",
"1=.	c #E973C5",
"2=.	c #D964D6",
"3=.	c #1893C6",
"4=.	c #1FA2CC",
"5=.	c #A8A8F1",
"6=.	c #9592FC",
"7=.	c #8788FF",
"8=.	c #576AF7",
"9=.	c #275BD4",
"0=.	c #1447A7",
"a=.	c #232E9E",
"b=.	c #3C20B2",
"c=.	c #5237DE",
"d=.	c #716CFC",
"e=.	c #A789F9",
"f=.	c #DB90D7",
"g=.	c #F79BA4",
"h=.	c #F4A6A3",
"i=.	c #D6A3D5",
"j=.	c #A48DF9",
"k=.	c #7382FE",
"l=.	c #6186FB",
"m=.	c #378EE7",
"n=.	c #1AA0C6",
"o=.	c #518FF6",
"p=.	c #6A88FD",
"q=.	c #B450E9",
"r=.	c #E4389D",
"s=.	c #C947D7",
"t=.	c #419BEB",
"u=.	c #15AEB5",
"v=.	c #11B79D",
"w=.	c #1ABAB2",
"x=.	c #42A2EA",
"y=.	c #648FFA",
"z=.	c #8A82FE",
"A=.	c #B68AF3",
"B=.	c #F096B6",
"C=.	c #AEBFE4",
"D=.	c #0D98B3",
"E=.	c #2483D7",
"F=.	c #6981FD",
"G=.	c #F2ACA4",
"H=.	c #4950E8",
"I=.	c #BF82ED",
"J=.	c #A4A4F3",
"K=.	c #2CB5D1",
"L=.	c #8E80FF",
"M=.	c #AD81F7",
"N=.	c #EF81BE",
"O=.	c #B3A6ED",
"P=.	c #15AAB6",
"Q=.	c #2E9DDE",
"R=.	c #EBBD9E",
"S=.	c #DAD0A8",
"T=.	c #BEC4D7",
"U=.	c #9F9EF7",
"V=.	c #8F8FFD",
"W=.	c #2251C8",
"X=.	c #2B259F",
"Y=.	c #655BF7",
"Z=.	c #A087FA",
"`=.	c #CA8CE7",
" -.	c #F594AC",
".-.	c #E3A6C5",
"+-.	c #AD92F6",
"@-.	c #5A87F9",
"#-.	c #258ED8",
"$-.	c #089AA3",
"%-.	c #09A2A2",
"&-.	c #279DD6",
"*-.	c #5A8AF9",
"=-.	c #8579FE",
"--.	c #8D71FE",
";-.	c #9A65F9",
">-.	c #B24EEA",
",-.	c #D032BE",
"'-.	c #D92A9F",
")-.	c #DC2DA0",
"!-.	c #D33CC5",
"~-.	c #956FFC",
"{-.	c #5694F6",
"]-.	c #26A6D1",
"^-.	c #10B4A2",
"/-.	c #2AB2CF",
"(-.	c #5796F6",
"_-.	c #E795C7",
":-.	c #C0C0D8",
"<-.	c #19A3C2",
"[-.	c #2683DB",
"}-.	c #6A80FD",
"|-.	c #737FFF",
"1-.	c #7B7FFE",
"2-.	c #ECBD9F",
"3-.	c #BFBDDA",
"4-.	c #9F98F9",
"5-.	c #837DFE",
"6-.	c #13B4AB",
"7-.	c #22BEBB",
"8-.	c #8D80FE",
"9-.	c #AC83F7",
"0-.	c #EA86C5",
"a-.	c #96ADF4",
"b-.	c #1AA8C0",
"c-.	c #4599ED",
"d-.	c #7682FF",
"e-.	c #A48FF9",
"f-.	c #D09EDE",
"g-.	c #EDB1AB",
"h-.	c #E6C59E",
"i-.	c #D1D3B5",
"j-.	c #B1B7E7",
"k-.	c #9997FA",
"l-.	c #8B8CFE",
"m-.	c #6570FB",
"n-.	c #1E36A4",
"o-.	c #2C249F",
"p-.	c #3F1DB2",
"q-.	c #8880FE",
"r-.	c #BB8AF0",
"s-.	c #F092B8",
"t-.	c #F79E9E",
"u-.	c #B994EF",
"v-.	c #6B83FE",
"w-.	c #5387F6",
"x-.	c #1893C8",
"y-.	c #069A9F",
"z-.	c #0C9FAA",
"A-.	c #3796E6",
"B-.	c #6089FA",
"C-.	c #7383FF",
"D-.	c #867AFE",
"E-.	c #8D71FD",
"F-.	c #D829A0",
"G-.	c #CF33BF",
"H-.	c #B252EC",
"I-.	c #996AFA",
"J-.	c #43A4EA",
"K-.	c #D88DDA",
"L-.	c #D69ADA",
"M-.	c #287BDC",
"N-.	c #276AD9",
"O-.	c #3B51E1",
"P-.	c #678DFB",
"Q-.	c #A984F8",
"R-.	c #E58ACD",
"S-.	c #82A7F9",
"T-.	c #1C97CC",
"U-.	c #558DF7",
"V-.	c #AF94F4",
"W-.	c #DFA4CB",
"X-.	c #ECB9A2",
"Y-.	c #E0CCA1",
"Z-.	c #C6D1C4",
"`-.	c #A6AFEF",
" ;.	c #9596FC",
".;.	c #888BFE",
"+;.	c #8183FE",
"@;.	c #656EFB",
"#;.	c #244BC8",
"$;.	c #5535DE",
"%;.	c #675AF6",
"&;.	c #716AFD",
"*;.	c #9483FD",
"=;.	c #AE88F6",
"-;.	c #E88EC8",
";;.	c #F9989F",
">;.	c #F2A3AA",
",;.	c #C79CE5",
"';.	c #6783FC",
");.	c #4587F1",
"!;.	c #0E91B8",
"~;.	c #069C9D",
"{;.	c #4490EE",
"];.	c #6486FC",
"^;.	c #8678FF",
"/;.	c #8D70FD",
"(;.	c #9964FA",
"_;.	c #B14DEA",
":;.	c #D728A0",
"<;.	c #D628A0",
"[;.	c #CF31BF",
"};.	c #B150EA",
"|;.	c #9968FA",
"1;.	c #2CB6D0",
"2;.	c #CD89E5",
"3;.	c #E599C8",
"4;.	c #4387F0",
"5;.	c #1D6ACE",
"6;.	c #5F79FA",
"7;.	c #CE91E3",
"8;.	c #B361F1",
"9;.	c #BC5AEA",
"0;.	c #A182FB",
"a;.	c #D598DA",
"b;.	c #81CEE4",
"c;.	c #2EB1D5",
"d;.	c #9C8EFB",
"e;.	c #BD9AEC",
"f;.	c #E9ACB9",
"g;.	c #E7C39F",
"h;.	c #D3D8A6",
"i;.	c #A1A6F4",
"j;.	c #244AC7",
"k;.	c #1E35A4",
"l;.	c #2D249F",
"m;.	c #5634DE",
"n;.	c #6658F6",
"o;.	c #7169FD",
"p;.	c #A586F9",
"q;.	c #DC8CD7",
"r;.	c #F797A4",
"s;.	c #F6A0A3",
"t;.	c #D89BD7",
"u;.	c #A488F9",
"v;.	c #7581FE",
"w;.	c #6284FB",
"x;.	c #0989AE",
"y;.	c #048D9E",
"z;.	c #1693C4",
"A;.	c #4F8BF5",
"B;.	c #8678FE",
"C;.	c #8E6FFD",
"D;.	c #9963F9",
"E;.	c #B14CEA",
"F;.	c #CD31BE",
"G;.	c #D729A0",
"H;.	c #CE31BF",
"I;.	c #B14EEA",
"J;.	c #9965F9",
"K;.	c #8E73FD",
"L;.	c #35A7DF",
"M;.	c #14B6AA",
"N;.	c #BA88F0",
"O;.	c #E798C6",
"P;.	c #69A3F8",
"Q;.	c #1881CA",
"R;.	c #577FF8",
"S;.	c #3B63E8",
"T;.	c #9B6AFA",
"U;.	c #CFABD8",
"V;.	c #C158E5",
"W;.	c #AC80F7",
"X;.	c #7DA2FA",
"Y;.	c #54A2F2",
"Z;.	c #9188FE",
"`;.	c #A392F8",
" >.	c #CCA1E0",
".>.	c #E8B6AF",
"+>.	c #E4C79E",
"@>.	c #D3D4AD",
"#>.	c #B3C6DD",
"$>.	c #9CA3F6",
"%>.	c #8F92FD",
"&>.	c #8588FF",
"*>.	c #7276FD",
"=>.	c #254AC7",
"->.	c #1F35A5",
";>.	c #431AB0",
">>.	c #582AD5",
",>.	c #6F6CFD",
"'>.	c #A084FA",
")>.	c #CB89E5",
"!>.	c #F78BAA",
"~>.	c #E590CC",
"{>.	c #A889F8",
"]>.	c #9284FE",
"^>.	c #5F84FA",
"/>.	c #348AE6",
"(>.	c #0992A9",
"_>.	c #0694A0",
":>.	c #1A92CB",
"<>.	c #5787F8",
"[>.	c #8F71FD",
"}>.	c #9A61F8",
"|>.	c #AF48E8",
"1>.	c #CD2FBD",
"2>.	c #7488FF",
"3>.	c #49A1ED",
"4>.	c #1FB9BD",
"5>.	c #16C19D",
"6>.	c #19C0A8",
"7>.	c #37AFDE",
"8>.	c #5F95F8",
"9>.	c #AA84F7",
"0>.	c #E486CD",
"a>.	c #7481FF",
"b>.	c #5771F7",
"c>.	c #315CDE",
"d>.	c #5055EE",
"e>.	c #C05EE9",
"f>.	c #7D80FE",
"g>.	c #6C8DFD",
"h>.	c #A075FB",
"i>.	c #A145EC",
"j>.	c #6536E5",
"k>.	c #5E66F8",
"l>.	c #7680FE",
"m>.	c #948AFC",
"n>.	c #A896F7",
"o>.	c #D7A3D5",
"p>.	c #DCD19F",
"q>.	c #C3DFB2",
"r>.	c #ADC7E0",
"s>.	c #9AA1F8",
"t>.	c #8D90FD",
"u>.	c #8587FF",
"v>.	c #666DFB",
"w>.	c #4C5EEF",
"x>.	c #2549C8",
"y>.	c #2133A6",
"z>.	c #341D9E",
"A>.	c #4C29CD",
"B>.	c #605CF6",
"C>.	c #7274FE",
"D>.	c #9B83FB",
"E>.	c #C486EB",
"F>.	c #F68AAD",
"G>.	c #F9939E",
"H>.	c #E79DC4",
"I>.	c #AF8CF5",
"J>.	c #5C83FA",
"K>.	c #2489D8",
"L>.	c #0795A4",
"M>.	c #099EA2",
"N>.	c #2598D6",
"O>.	c #5A85F9",
"P>.	c #7083FE",
"Q>.	c #B53FE0",
"R>.	c #C422B5",
"S>.	c #D1229F",
"T>.	c #D527A0",
"U>.	c #CE30BE",
"V>.	c #8D72FE",
"W>.	c #8679FE",
"X>.	c #569FF4",
"Y>.	c #2CB8CF",
"Z>.	c #19C2A3",
"`>.	c #1AC69F",
" ,.	c #29BFC5",
".,.	c #529FF2",
"+,.	c #A784F9",
"@,.	c #E38ACF",
"#,.	c #7FA2FB",
"$,.	c #1C91CE",
"%,.	c #5887F9",
"&,.	c #8380FE",
"*,.	c #DBCAAE",
"=,.	c #406AED",
"-,.	c #C377EB",
";,.	c #3E4AE0",
">,.	c #3E6BEB",
",,.	c #767DFE",
"',.	c #8B85FE",
"),.	c #978DFC",
"!,.	c #B39AF1",
"~,.	c #DDAFC8",
"{,.	c #E3C6A4",
"],.	c #D4DA9E",
"^,.	c #ACC3E2",
"/,.	c #989DF9",
"(,.	c #8B8EFE",
"_,.	c #8486FF",
":,.	c #4C5FEF",
"<,.	c #2C48CF",
"[,.	c #2631AE",
"},.	c #262CA1",
"|,.	c #4252E5",
"1,.	c #6973FD",
"2,.	c #BB85F0",
"3,.	c #F89B9E",
"4,.	c #B98CF0",
"5,.	c #9983FD",
"6,.	c #6E80FE",
"7,.	c #1A84CC",
"8,.	c #078CAA",
"9,.	c #338CE4",
"0,.	c #5D84FB",
"a,.	c #9D74FB",
"b,.	c #C759E2",
"c,.	c #D731B2",
"d,.	c #CD1F9E",
"e,.	c #CE21A3",
"f,.	c #CC30BF",
"g,.	c #B04EEB",
"h,.	c #9866FA",
"i,.	c #8E72FE",
"j,.	c #6D8EFC",
"k,.	c #5A9CF6",
"l,.	c #39BAD8",
"m,.	c #24CEAA",
"n,.	c #1FCD9C",
"o,.	c #23C5B3",
"p,.	c #6393FA",
"q,.	c #7389FE",
"r,.	c #D59ADB",
"s,.	c #80D0E3",
"t,.	c #30B2D5",
"u,.	c #608CFB",
"v,.	c #D99CD5",
"w,.	c #7497FD",
"x,.	c #AA61F4",
"y,.	c #8A7DFE",
"z,.	c #CF7DE3",
"A,.	c #D278E1",
"B,.	c #2D76E0",
"C,.	c #307BE3",
"D,.	c #747DFF",
"E,.	c #8C87FF",
"F,.	c #9A90FC",
"G,.	c #B69EEF",
"H,.	c #DCB3C7",
"I,.	c #D9D4A0",
"J,.	c #C8D5BC",
"K,.	c #A8B5EB",
"L,.	c #959CFA",
"M,.	c #8A90FD",
"N,.	c #4F63F2",
"O,.	c #2A59D5",
"P,.	c #0D5AA8",
"Q,.	c #0A5EA4",
"R,.	c #2365D3",
"S,.	c #B083F5",
"T,.	c #EA88C5",
"U,.	c #FB899F",
"V,.	c #C386EB",
"W,.	c #5781F8",
"X,.	c #3783E8",
"Y,.	c #937BFE",
"Z,.	c #B175F5",
"`,.	c #EA65BF",
" '.	c #DE35AC",
".'.	c #C637CE",
"+'.	c #AF52ED",
"@'.	c #8C71FE",
"#'.	c #708EFD",
"$'.	c #3CAEE2",
"%'.	c #1FC3B0",
"&'.	c #20CF9E",
"*'.	c #27D0AB",
"='.	c #3BB9D9",
"-'.	c #5E9AF8",
";'.	c #6F8CFD",
">'.	c #A89AF5",
",'.	c #7FC1ED",
"''.	c #59AFF0",
")'.	c #B796F0",
"!'.	c #4AA4EE",
"~'.	c #8C7FFF",
"{'.	c #D17FE2",
"]'.	c #D37FE0",
"^'.	c #2C7FE0",
"/'.	c #2E7EE2",
"('.	c #B79FEE",
"_'.	c #E2AFC1",
":'.	c #E9BFA0",
"<'.	c #D8D4A4",
"['.	c #BAD8C7",
"}'.	c #A3B6ED",
"|'.	c #949EFA",
"1'.	c #8A92FE",
"2'.	c #5A73F9",
"3'.	c #3571E6",
"4'.	c #0878AC",
"5'.	c #1978CC",
"6'.	c #597AF9",
"7'.	c #9180FD",
"8'.	c #AC81F7",
"9'.	c #E882C9",
"0'.	c #FC809E",
"a'.	c #9D81FB",
"b'.	c #7580FF",
"c'.	c #BF79EE",
"d'.	c #F676AF",
"e'.	c #FA71A0",
"f'.	c #E864C3",
"g'.	c #B464F0",
"h'.	c #8E74FD",
"i'.	c #649AF9",
"j'.	c #4BB0E9",
"k'.	c #1CC99E",
"l'.	c #1FC9A6",
"m'.	c #38BDD5",
"n'.	c #599FF5",
"o'.	c #7786FF",
"p'.	c #7A8BFE",
"q'.	c #AFA7EF",
"r'.	c #3BACE1",
"s'.	c #38ACDE",
"t'.	c #8B81FF",
"u'.	c #D181E2",
"v'.	c #D282E0",
"w'.	c #2C82E0",
"x'.	c #2E81E1",
"y'.	c #7780FE",
"z'.	c #9089FE",
"A'.	c #9E93F9",
"B'.	c #C59FE6",
"C'.	c #E7B4B4",
"D'.	c #DECE9F",
"E'.	c #C8E2A4",
"F'.	c #B0E1C1",
"G'.	c #A0C5E5",
"H'.	c #95A4F7",
"I'.	c #8B93FD",
"J'.	c #727EFF",
"K'.	c #5F7CFB",
"L'.	c #377BE9",
"M'.	c #177ECA",
"N'.	c #E780C9",
"O'.	c #FC809F",
"P'.	c #9E80FC",
"Q'.	c #887FFE",
"R'.	c #C37EEB",
"S'.	c #E87AC8",
"T'.	c #AF77F6",
"U'.	c #9879FC",
"V'.	c #728FFE",
"W'.	c #659BF9",
"X'.	c #4DB1EA",
"Y'.	c #30CEBE",
"Z'.	c #27D5A0",
"`'.	c #23D2A1",
" ).	c #2EC3C5",
".).	c #53A4F2",
"+).	c #6992FC",
"@).	c #C3C7CF",
"#).	c #A49EF5",
"$).	c #644EF3",
"%).	c #CF85E3",
"&).	c #D195DF",
"*).	c #2F9BDE",
"=).	c #308BE3",
"-).	c #7484FF",
";).	c #928AFD",
">).	c #A395F9",
",).	c #C8A8E0",
"').	c #E1C0B3",
")).	c #D5D9A0",
"!).	c #BFE9A0",
"~).	c #B4E7B4",
"{).	c #A7CADF",
"]).	c #97A6F7",
"^).	c #8D96FD",
"/).	c #6082FC",
"().	c #3882E8",
"_).	c #5681F8",
":).	c #7280FE",
"<).	c #AA7FF7",
"[).	c #177FC8",
"}).	c #03809E",
"|).	c #397FE9",
"1).	c #757FFF",
"2).	c #9C81FB",
"3).	c #C580EA",
"4).	c #F681AD",
"5).	c #FB829F",
"6).	c #E983C8",
"7).	c #AD80F7",
"8).	c #9680FD",
"9).	c #7191FD",
"0).	c #4EB3EA",
"a).	c #4EAEEB",
"b).	c #6796FA",
"c).	c #8E6CFC",
"d).	c #3BA5E5",
"e).	c #C18BEC",
"f).	c #C0B7DE",
"g).	c #44C7D7",
"h).	c #8984FF",
"i).	c #928BFD",
"j).	c #A297F8",
"k).	c #C4ABE2",
"l).	c #D5C8BC",
"m).	c #CEE09E",
"n).	c #BDE3B2",
"o).	c #A8CBDD",
"p).	c #98A9F6",
"q).	c #8C99FC",
"r).	c #3687E7",
"s).	c #0889AB",
"t).	c #04899F",
"u).	c #1888CA",
"v).	c #5783F8",
"w).	c #9080FE",
"x).	c #AA80F8",
"y).	c #FC7F9F",
"z).	c #8B7FFF",
"A).	c #757FFE",
"B).	c #9B81FC",
"C).	c #C383EC",
"D).	c #F589AE",
"E).	c #FA939F",
"F).	c #B08AF5",
"G).	c #9585FD",
"H).	c #788CFE",
"I).	c #66A3F8",
"J).	c #51BAE6",
"K).	c #33D1BD",
"L).	c #4EB0EA",
"M).	c #6597FA",
"N).	c #728CFE",
"O).	c #4855EA",
"P).	c #BF8AED",
"Q).	c #5799F6",
"R).	c #64BFEB",
"S).	c #639BF9",
"T).	c #B4A8EC",
"U).	c #D7BBC7",
"V).	c #D1DD9F",
"W).	c #BBE6AF",
"X).	c #A6D7D4",
"Y).	c #97B6F1",
"Z).	c #82A0FB",
"`).	c #6495FB",
" !.	c #2F91E0",
".!.	c #079CA1",
"+!.	c #1F96CF",
"@!.	c #AB7FF7",
"#!.	c #C780E9",
"$!.	c #0780AC",
"%!.	c #7580FE",
"&!.	c #9982FC",
"*!.	c #BB84F1",
"=!.	c #F18FB8",
"-!.	c #F99B9E",
";!.	c #EEA0B6",
">!.	c #B992F0",
",!.	c #948DFD",
"'!.	c #7D92FE",
")!.	c #6F9BFB",
"!!.	c #61A9F4",
"~!.	c #4EC8DC",
"{!.	c #3FDFB4",
"]!.	c #2FDD9E",
"^!.	c #2AD99F",
"/!.	c #4EB2EA",
"(!.	c #659AF9",
"_!.	c #B9BCE0",
":!.	c #2F54D8",
"<!.	c #1FBFB4",
"[!.	c #9995FA",
"}!.	c #B2A3EF",
"|!.	c #D9B7C8",
"1!.	c #DCCEA6",
"2!.	c #B7ECA6",
"3!.	c #AAE0C7",
"4!.	c #8DC1EC",
"5!.	c #6CA9F7",
"6!.	c #2297D3",
"7!.	c #0692A1",
"8!.	c #0999A7",
"9!.	c #2D96DE",
"0!.	c #917FFE",
"a!.	c #F77FAB",
"b!.	c #C77FEA",
"c!.	c #9E7EFC",
"d!.	c #607FFC",
"e!.	c #AF85F5",
"f!.	c #FB8C9E",
"g!.	c #F58FAF",
"h!.	c #BE97EC",
"i!.	c #909DFA",
"j!.	c #60B8EE",
"k!.	c #49D3CF",
"l!.	c #36DFAB",
"m!.	c #37E49D",
"n!.	c #35D1BF",
"o!.	c #51B2EB",
"p!.	c #679AFA",
"q!.	c #5B74F9",
"r!.	c #484AE4",
"s!.	c #B37FF4",
"t!.	c #C45CE4",
"u!.	c #8B77FF",
"v!.	c #4E9AF3",
"w!.	c #B0A2F0",
"x!.	c #CFBAD0",
"y!.	c #D4D4AE",
"z!.	c #CFDE9F",
"A!.	c #BEE9A3",
"B!.	c #A3EBB9",
"C!.	c #80D5DF",
"D!.	c #23A5CE",
"E!.	c #058CA0",
"F!.	c #098DAD",
"G!.	c #3A8EE9",
"H!.	c #927FFE",
"I!.	c #AB7DF7",
"J!.	c #C67DEA",
"K!.	c #9D7EFB",
"L!.	c #8A7FFE",
"M!.	c #387DEA",
"N!.	c #607EFB",
"O!.	c #9281FD",
"P!.	c #A986F8",
"Q!.	c #E688CB",
"R!.	c #FA8BA0",
"S!.	c #F496AD",
"T!.	c #BAAAE8",
"U!.	c #85B7F2",
"V!.	c #62CEE0",
"W!.	c #48E0BD",
"X!.	c #3EE6A3",
"Y!.	c #34E29C",
"Z!.	c #33DDAA",
"`!.	c #42CFCE",
" ~.	c #56B1ED",
".~.	c #6999FB",
"+~.	c #7985FE",
"@~.	c #4B6CF2",
"#~.	c #675BF7",
"$~.	c #C5ADDF",
"%~.	c #4A9BEF",
"&~.	c #B263F1",
"*~.	c #32AADB",
"=~.	c #9592FB",
"-~.	c #C3B3DE",
";~.	c #D8C9B6",
">~.	c #CDDFA2",
",~.	c #BBEC9F",
"'~.	c #A1F2AD",
")~.	c #45DCC2",
"!~.	c #0CA8A2",
"~~.	c #4292EE",
"{~.	c #6687FC",
"]~.	c #947DFE",
"^~.	c #FA769F",
"/~.	c #C479EB",
"(~.	c #6C7EFD",
"_~.	c #577DF8",
":~.	c #047D9F",
"<~.	c #087BAB",
"[~.	c #3879E8",
"}~.	c #A187FA",
"|~.	c #DE8ED3",
"1~.	c #F79AA2",
"2~.	c #EDB4A8",
"3~.	c #A7DBCE",
"4~.	c #68EAC1",
"5~.	c #50EEA9",
"6~.	c #40EA9E",
"7~.	c #3ADDB3",
"8~.	c #46C5DA",
"9~.	c #5FA8F4",
"0~.	c #6C97FB",
"a~.	c #748CFE",
"b~.	c #394DDE",
"c~.	c #8D8EFD",
"d~.	c #3DABE3",
"e~.	c #A565F7",
"f~.	c #439CED",
"g~.	c #9F9CF8",
"h~.	c #B6AFE8",
"i~.	c #CDC8C7",
"j~.	c #CBDDAA",
"k~.	c #B3EEA1",
"l~.	c #70F6AB",
"m~.	c #26D1A3",
"n~.	c #1EB7BB",
"o~.	c #5297F4",
"p~.	c #6E87FD",
"q~.	c #B57AF3",
"r~.	c #ED6EBF",
"s~.	c #F8649D",
"t~.	c #F164B1",
"u~.	c #9A7BFC",
"v~.	c #6E7EFD",
"w~.	c #587CF8",
"x~.	c #1A79CC",
"y~.	c #05719F",
"z~.	c #3369E4",
"A~.	c #5D7AFA",
"B~.	c #8A82FF",
"C~.	c #9A86FD",
"D~.	c #C991E7",
"E~.	c #F1A3AD",
"F~.	c #DCCCA9",
"G~.	c #85F8AA",
"H~.	c #58F49F",
"I~.	c #41D6C5",
"J~.	c #54BAE8",
"K~.	c #66A2F7",
"L~.	c #7095FD",
"M~.	c #778BFE",
"N~.	c #9CA0F7",
"O~.	c #27A6D2",
"P~.	c #9598FB",
"Q~.	c #A4A6F4",
"R~.	c #B6BFDF",
"S~.	c #B7DCC3",
"T~.	c #85F2B8",
"U~.	c #42E1B7",
"V~.	c #3EBADB",
"W~.	c #6792FB",
"X~.	c #C079EE",
"Y~.	c #F473B1",
"Z~.	c #FA6B9E",
"`~.	c #EC65BE",
" {.	c #B473F3",
".{.	c #987BFD",
"+{.	c #5C7CF9",
"@{.	c #2475D8",
"#{.	c #0769A4",
"${.	c #2566D6",
"%{.	c #6F7BFE",
"&{.	c #AA8FF7",
"*{.	c #DDA8CC",
"={.	c #BEDFB8",
"-{.	c #70F7AB",
";{.	c #57EFB0",
">{.	c #4FE0C2",
",{.	c #55C8E0",
"'{.	c #62AEF2",
"){.	c #6C9CFA",
"!{.	c #7888FE",
"~{.	c #8A8AFE",
"{{.	c #8D92FD",
"]{.	c #8F9CFB",
"^{.	c #92AAF7",
"/{.	c #84BDF0",
"({.	c #68B9EF",
"_{.	c #689EF9",
":{.	c #738CFE",
"<{.	c #C776E9",
"[{.	c #F773AB",
"}{.	c #FA729F",
"|{.	c #E770C9",
"1{.	c #AB76F7",
"2{.	c #947BFD",
"3{.	c #3476E6",
"4{.	c #0871AA",
"5{.	c #1A68CA",
"6{.	c #5574F8",
"7{.	c #8984FE",
"8{.	c #97C4E9",
"9{.	c #74CEE3",
"0{.	c #6CBFED",
"a{.	c #6DADF5",
"b{.	c #7395FC",
"c{.	c #778CFE",
"d{.	c #F1ADA5",
"e{.	c #22B0C9",
"f{.	c #7E92FE",
"g{.	c #A479FA",
"h{.	c #D372DF",
"i{.	c #F667A6",
"j{.	c #F761A1",
"k{.	c #DF66CF",
"l{.	c #A577F9",
"m{.	c #647CFC",
"n{.	c #3E77ED",
"o{.	c #0B6FB1",
"p{.	c #165ABC",
"q{.	c #4B6EF2",
"r{.	c #878BFE",
"s{.	c #8096FD",
"t{.	c #7B97FD",
"u{.	c #7992FD",
"v{.	c #798DFE",
"w{.	c #344ED9",
"x{.	c #937CFD",
"y{.	c #A977F8",
"z{.	c #E16FCF",
"A{.	c #F967A0",
"B{.	c #F45FA7",
"C{.	c #D066DF",
"D{.	c #A277FA",
"E{.	c #687CFC",
"F{.	c #4B77F3",
"G{.	c #126FBF",
"H{.	c #06699E",
"I{.	c #0D65B0",
"J{.	c #3F6DEC",
"K{.	c #8087FE",
"L{.	c #A967F5",
"M{.	c #977AFD",
"N{.	c #B375F3",
"O{.	c #EC6ABF",
"P{.	c #F7619D",
"Q{.	c #F05EAF",
"R{.	c #9C78FC",
"S{.	c #6C7CFE",
"T{.	c #5578F8",
"U{.	c #1A74CB",
"V{.	c #056D9F",
"W{.	c #0B62AA",
"X{.	c #3663E3",
"Y{.	c #5E75FB",
"Z{.	c #CD9CE0",
"`{.	c #9B9AF9",
" ].	c #4EA1F1",
".].	c #9C78FB",
"+].	c #F36AB0",
"@].	c #E95DBD",
"#].	c #B36EF3",
"$].	c #7C7FFE",
"%].	c #5C78F9",
"&].	c #2572D8",
"*].	c #0865A4",
"=].	c #0C56A2",
"-].	c #2855D2",
";].	c #5870F7",
">].	c #B2B4E9",
",].	c #6F86FD",
"'].	c #C157E5",
")].	c #A376FA",
"!].	c #D26CDF",
"~].	c #F562A6",
"{].	c #F65CA0",
"]].	c #A772F8",
"^].	c #9279FD",
"/].	c #7E80FE",
"(].	c #747EFF",
"_].	c #6279FB",
":].	c #3973EA",
"<].	c #0B67AF",
"[].	c #1A4FBC",
"}].	c #6876FC",
"|].	c #37A2E2",
"1].	c #569AF4",
"2].	c #AC72F6",
"3].	c #E366CB",
"4].	c #F65B9F",
"5].	c #F156A6",
"6].	c #CE60DF",
"7].	c #A174FA",
"8].	c #787FFE",
"9].	c #687BFD",
"0].	c #4C74F4",
"a].	c #146AC1",
"b].	c #085D9E",
"c].	c #124FAC",
"d].	c #3C5CE5",
"e].	c #6172FA",
"f].	c #C098EA",
"g].	c #C357E3",
"h].	c #40A3E9",
"i].	c #897CFE",
"j].	c #9B76FC",
"k].	c #BC6FEE",
"l].	c #EE61B6",
"m].	c #F5589E",
"n].	c #EB55B5",
"o].	c #BA68EE",
"p].	c #9A76FC",
"q].	c #246ED7",
"r].	c #0961A4",
"s].	c #0D53A3",
"t].	c #2952D2",
"u].	c #596DF7",
"v].	c #6E77FE",
"w].	c #CCCBC6",
"x].	c #494CE8",
"y].	c #BD80EF",
"z].	c #A473F9",
"A].	c #D165DF",
"B].	c #F3529F",
"C].	c #AB6EF6",
"D].	c #9378FD",
"E].	c #0C65AF",
"F].	c #0B589E",
"G].	c #1B4DBC",
"H].	c #4D64F2",
"I].	c #6874FC",
"J].	c #466BEF",
"K].	c #3350DA",
"L].	c #775AFA",
"M].	c #BD5BE9",
"N].	c #15B6AB",
"O].	c #E65EC4",
"P].	c #F3519F",
"Q].	c #CA5BE0",
"R].	c #A072FB",
"S].	c #6879FD",
"T].	c #4D72F4",
"U].	c #1568C1",
"V].	c #095B9E",
"W].	c #144CAB",
"X].	c #3E55E4",
"Y].	c #606EFA",
"Z].	c #3762E4",
"`].	c #9F73FA",
" ^.	c #C468E8",
".^.	c #F05BAF",
"+^.	c #F4539D",
"@^.	c #9775FC",
"#^.	c #5B75F9",
"$^.	c #276BD8",
"%^.	c #0B5CA4",
"&^.	c #1248A1",
"*^.	c #2D41CA",
"=^.	c #5563F4",
"-^.	c #6C72FD",
";^.	c #DFCAA4",
">^.	c #654EF3",
",^.	c #41A6E7",
"'^.	c #9377FE",
")^.	c #A96EF6",
"!^.	c #DB5BD1",
"~^.	c #F04FA1",
"{^.	c #D456D5",
"]^.	c #9077FD",
"^^.	c #406EED",
"/^.	c #115EB6",
"(^.	c #1E3CAF",
"_^.	c #444FE5",
":^.	c #636DFB",
"<^.	c #8879FF",
"[^.	c #BF64EA",
"}^.	c #E647B2",
"|^.	c #BC5EEA",
"1^.	c #9B72FB",
"2^.	c #7C89FF",
"3^.	c #838CFE",
"4^.	c #8287FF",
"5^.	c #5672F7",
"6^.	c #2465D4",
"7^.	c #0D55A4",
"8^.	c #5861F5",
"9^.	c #7879FF",
"0^.	c #E9BEA2",
"a^.	c #BE94ED",
"b^.	c #B561EF",
"c^.	c #9476FD",
"d^.	c #A96BF6",
"e^.	c #D959D2",
"f^.	c #EE4CA3",
"g^.	c #9275FE",
"h^.	c #7889FE",
"i^.	c #7593FD",
"j^.	c #74AAF7",
"k^.	c #7DC7E8",
"l^.	c #88C4EA",
"m^.	c #8182FE",
"n^.	c #6375FC",
"o^.	c #416CEC",
"p^.	c #125CB6",
"q^.	c #104B9E",
"r^.	c #1F3BAF",
"s^.	c #454DE5",
"t^.	c #636AFA",
"u^.	c #7375FD",
"v^.	c #DDCAAD",
"w^.	c #8D79FE",
"x^.	c #9E70FA",
"y^.	c #BF5DE8",
"z^.	c #E649B2",
"A^.	c #ED449D",
"B^.	c #BC5BEA",
"C^.	c #6E91FD",
"D^.	c #5DA4F5",
"E^.	c #4AD0D3",
"F^.	c #75F3B4",
"G^.	c #A4EDB5",
"H^.	c #A6CBDF",
"I^.	c #939FF9",
"J^.	c #8C8FFE",
"K^.	c #5770F7",
"L^.	c #2464D5",
"M^.	c #0E53A3",
"N^.	c #3335C5",
"O^.	c #5658F1",
"P^.	c #AC62F3",
"Q^.	c #897BFE",
"R^.	c #9673FD",
"S^.	c #AF67F3",
"T^.	c #DD4FC8",
"U^.	c #E93FA0",
"V^.	c #E63CA3",
"W^.	c #D24AD0",
"X^.	c #A668F6",
"Y^.	c #5EA0F6",
"Z^.	c #36BDD4",
"`^.	c #26D1AA",
" /.	c #6CF2B4",
"./.	c #C6DAB7",
"+/.	c #A8BAE9",
"@/.	c #9799FA",
"#/.	c #1459B9",
"$/.	c #14429F",
"%/.	c #3F40DA",
"&/.	c #6065F8",
"*/.	c #7B7AFF",
"=/.	c #C4BCD9",
"-/.	c #CC9DE0",
";/.	c #B367F2",
">/.	c #14B4AA",
",/.	c #C958DF",
"'/.	c #EA49AA",
")/.	c #EB419E",
"!/.	c #DC40BB",
"~/.	c #B65BED",
"{/.	c #996FFC",
"]/.	c #5D99F7",
"^/.	c #3AB2DE",
"//.	c #23CCAC",
"(/.	c #23D29E",
"_/.	c #68E6C7",
":/.	c #DECCA7",
"</.	c #DCD1A2",
"[/.	c #C2D4C5",
"}/.	c #A4B0EF",
"|/.	c #5A70F8",
"1/.	c #1150AA",
"2/.	c #15409E",
"3/.	c #5150ED",
"4/.	c #676BFB",
"5/.	c #7576FE",
"6/.	c #3565E4",
"7/.	c #D3A8D6",
"8/.	c #9A6EFB",
"9/.	c #B75FEE",
"0/.	c #DF46BD",
"a/.	c #E640A8",
"b/.	c #C751DD",
"c/.	c #A16AF8",
"d/.	c #718BFD",
"e/.	c #6298FA",
"f/.	c #45ADE7",
"g/.	c #20C1B5",
"h/.	c #1CCA9E",
"i/.	c #29D2AB",
"j/.	c #6ED0E1",
"k/.	c #DEBABF",
"l/.	c #E5C69F",
"m/.	c #D3D8A5",
"n/.	c #A2A5F4",
"o/.	c #9192FD",
"p/.	c #8688FE",
"q/.	c #6775FD",
"r/.	c #4D6CF4",
"s/.	c #104AA0",
"t/.	c #2034A4",
"u/.	c #3D35CF",
"v/.	c #5B5CF4",
"w/.	c #6D6EFC",
"x/.	c #EEB4A1",
"y/.	c #644FF1",
"z/.	c #B75AED",
"A/.	c #A861F4",
"B/.	c #D348CF",
"C/.	c #E73DA3",
"D/.	c #E439A0",
"E/.	c #D640C4",
"F/.	c #AD60F2",
"G/.	c #6496FA",
"H/.	c #4BADEB",
"I/.	c #2ECABE",
"J/.	c #21CF9F",
"K/.	c #20CCA2",
"L/.	c #39C4D0",
"M/.	c #7AB0F6",
"N/.	c #BEAFE4",
"O/.	c #E6BAB0",
"P/.	c #E3C89F",
"Q/.	c #D3D3AE",
"R/.	c #B3C4DD",
"S/.	c #8E91FD",
"T/.	c #1451B1",
"U/.	c #2A2DAD",
"V/.	c #4B3CDE",
"W/.	c #6260F7",
"X/.	c #7170FD",
"Y/.	c #7B79FE",
"Z/.	c #374DDB",
"`/.	c #8F6CFC",
" (.	c #C45AE3",
".(.	c #7287FF",
"+(.	c #9171FD",
"@(.	c #C84DDC",
"#(.	c #DF37AB",
"$(.	c #E1349C",
"%(.	c #DE3AB3",
"&(.	c #BA54E8",
"*(.	c #6893FB",
"=(.	c #4DA3EF",
"-(.	c #2AC2C3",
";(.	c #25D2A1",
">(.	c #26D59F",
",(.	c #2FCAC0",
"'(.	c #55ADEE",
")(.	c #7C9EFC",
"!(.	c #9E9EF7",
"~(.	c #D5A6D6",
"{(.	c #DDD09F",
"](.	c #C4DEB2",
"^(.	c #AEC2E1",
"/(.	c #9A9CF9",
"((.	c #6C76FE",
"_(.	c #576CF7",
":(.	c #275ED4",
"<(.	c #1348A7",
"[(.	c #20319F",
"}(.	c #3627B5",
"|(.	c #4F46E7",
"1(.	c #9D65F9",
"2(.	c #BA51E6",
"3(.	c #DF3EB4",
"4(.	c #DC34AA",
"5(.	c #C546D9",
"6(.	c #9073FD",
"7(.	c #7689FF",
"8(.	c #6A93FB",
"9(.	c #58A2F4",
"0(.	c #2FBACF",
"a(.	c #1BC5A3",
"b(.	c #1FCDA0",
"c(.	c #2DCBBD",
"d(.	c #4CAEEA",
"e(.	c #6898FA",
"f(.	c #7E90FE",
"g(.	c #B39AF2",
"h(.	c #DDADC8",
"i(.	c #E5C4A4",
"j(.	c #DAD4A0",
"k(.	c #C8D4BD",
"l(.	c #A9B4EC",
"m(.	c #959AFA",
"n(.	c #8A8EFD",
"o(.	c #8386FF",
"p(.	c #6774FC",
"q(.	c #4A68F0",
"r(.	c #2053C7",
"s(.	c #1740A2",
"t(.	c #2131A1",
"u(.	c #3A2CC4",
"v(.	c #5A4CEE",
"w(.	c #6A65FA",
"x(.	c #7671FE",
"y(.	c #9C8BFC",
"z(.	c #EDA3B6",
"A(.	c #9E98FA",
"B(.	c #324FD9",
"C(.	c #8159F9",
"D(.	c #D29EDB",
"E(.	c #47AAE9",
"F(.	c #A270F9",
"G(.	c #19BBAF",
"H(.	c #B34FE9",
"I(.	c #D133BD",
"J(.	c #DD2F9F",
"K(.	c #E134A2",
"L(.	c #CF42CD",
"M(.	c #A85FF4",
"N(.	c #5AA2F5",
"O(.	c #3CC0D6",
"P(.	c #26D0A9",
"Q(.	c #1FCE9C",
"R(.	c #24C8B2",
"S(.	c #46B0E6",
"T(.	c #6399F9",
"U(.	c #8B88FF",
"V(.	c #9B90FB",
"W(.	c #B89DEE",
"X(.	c #EABEA0",
"Y(.	c #D9D4A3",
"Z(.	c #A3B3EE",
"`(.	c #949AFB",
" _.	c #898DFE",
"._.	c #8385FE",
"+_.	c #636FFB",
"@_.	c #4263EB",
"#_.	c #1752B9",
"$_.	c #193B9F",
"%_.	c #4826C8",
"&_.	c #5D4CEE",
"*_.	c #6B65FA",
"=_.	c #7672FE",
"-_.	c #375EE3",
";_.	c #414EE4",
">_.	c #7C8CFE",
",_.	c #9A65FA",
"'_.	c #D8289F",
")_.	c #D82AA0",
"!_.	c #D135C0",
"~_.	c #B056ED",
"{_.	c #976DFC",
"]_.	c #2AD4AA",
"^_.	c #27D69C",
"/_.	c #29D2AA",
"(_.	c #3CBCDA",
"__.	c #5E9CF7",
":_.	c #6E8FFD",
"<_.	c #8F88FD",
"[_.	c #CBE0A4",
"}_.	c #B6D9C7",
"|_.	c #939AFB",
"1_.	c #5D6CF9",
"2_.	c #355CE1",
"3_.	c #1B44B2",
"4_.	c #232E9F",
"5_.	c #351FA4",
"6_.	c #4A25C7",
"7_.	c #5E4BEE",
"8_.	c #6C65FB",
"9_.	c #E2C6A6",
"0_.	c #4C6FF3",
"a_.	c #2E5AD9",
"b_.	c #655DF7",
"c_.	c #688AFC",
"d_.	c #9965FA",
"e_.	c #CF31BE",
"f_.	c #CF32BE",
"g_.	c #B250EB",
"h_.	c #8C74FE",
"i_.	c #3EC1D6",
"j_.	c #28D79D",
"k_.	c #3DC0D7",
"l_.	c #A395F8",
"m_.	c #CAA7DF",
"n_.	c #E2BEB2",
"o_.	c #DBD39E",
"p_.	c #CAE0A5",
"q_.	c #B5DAC7",
"r_.	c #929AFB",
"s_.	c #898EFE",
"t_.	c #5B69F7",
"u_.	c #3557DF",
"v_.	c #1D41B2",
"w_.	c #242C9F",
"x_.	c #351FA5",
"y_.	c #5E4BEF",
"z_.	c #3A4DDE",
"A_.	c #CE32BE",
"B_.	c #B14FEA",
"C_.	c #8D73FE",
"D_.	c #5CA4F4",
"E_.	c #28D89D",
"F_.	c #3EC0D6",
"G_.	c #5CA2F5",
"H_.	c #6C91FD",
"I_.	c #8884FF",
"J_.	c #A598F7",
"K_.	c #C9A9DF",
"L_.	c #E2BFB2",
"M_.	c #C9E1A4",
"N_.	c #B5DBC8",
"O_.	c #8485FE",
"P_.	c #6C73FD",
"Q_.	c #5B67F7",
"R_.	c #3655DE",
"S_.	c #1D40B2",
"T_.	c #351EA5",
"U_.	c #4A24C7",
"V_.	c #6D65FB",
"W_.	c #C693E8",
"X_.	c #8E70FD",
"Y_.	c #9A63F9",
"Z_.	c #B14DE9",
"`_.	c #9A66FA",
" :.	c #6C96FC",
".:.	c #3FC2D6",
"+:.	c #2AD5AA",
"@:.	c #3EC1D7",
"#:.	c #938DFD",
"$:.	c #A499F7",
"%:.	c #CAAADE",
"&:.	c #B5DAC8",
"*:.	c #A1B4EE",
"=:.	c #939BFA",
"-:.	c #5B66F7",
";:.	c #1E40B1",
">:.	c #242D9F",
",:.	c #361EA5",
"':.	c #4A25C8",
"):.	c #5F4AEE",
"!:.	c #6D63FA",
"~:.	c #7670FE",
"{:.	c #B9B2E6",
"]:.	c #3CA5E6",
"^:.	c #817EFE",
"/:.	c #9A60F8",
"(:.	c #B04BE9",
"_:.	c #CD30BE",
"::.	c #7B86FE",
"<:.	c #748EFE",
"[:.	c #6B9AFB",
"}:.	c #5DACF1",
"|:.	c #2CD6AB",
"1:.	c #2BD5AA",
"2:.	c #3DC1D6",
"3:.	c #C9AADE",
"4:.	c #E1BFB1",
"5:.	c #C9E0A4",
"6:.	c #B4DAC8",
"7:.	c #A1B5EE",
"8:.	c #939CFA",
"9:.	c #8A8FFD",
"0:.	c #1D3FB2",
"a:.	c #5F48ED",
"b:.	c #6C60F9",
"c:.	c #6C94FB",
"d:.	c #8E77FD",
"e:.	c #9068FC",
"f:.	c #9B59F6",
"g:.	c #AD3CE2",
"h:.	c #C728BA",
"i:.	c #D5279F",
"j:.	c #7988FE",
"k:.	c #7291FE",
"l:.	c #689DFA",
"m:.	c #57B5EB",
"n:.	c #46D7C8",
"o:.	c #2BDB9D",
"p:.	c #2CD5AA",
"q:.	c #3FC1D7",
"r:.	c #C9AADF",
"s:.	c #B4DBC7",
"t:.	c #9FB7EE",
"u:.	c #939EFA",
"v:.	c #8992FE",
"w:.	c #8589FF",
"x:.	c #7679FF",
"y:.	c #3655DF",
"z:.	c #1E3FB2",
"A:.	c #252C9F",
"B:.	c #381CA4",
"C:.	c #501DC1",
"D:.	c #6039E4",
"E:.	c #6A58F7",
"F:.	c #7971FE",
"G:.	c #EBA5BA",
"H:.	c #426AEE",
"I:.	c #7C58F9",
"J:.	c #BE59E8",
"K:.	c #8676FE",
"L:.	c #8B6DFD",
"M:.	c #9E50F2",
"N:.	c #B735D6",
"O:.	c #C31FB0",
"P:.	c #C81C9D",
"Q:.	c #D124A0",
"R:.	c #B04DEA",
"S:.	c #9966F9",
"T:.	c #66A3F7",
"U:.	c #53BBE7",
"V:.	c #37D4BE",
"W:.	c #35E1A2",
"X:.	c #36E49E",
"Y:.	c #32DAAD",
"Z:.	c #40C2D7",
"`:.	c #5EA3F5",
" <.	c #6D93FC",
".<.	c #DBD49F",
"+<.	c #C7E3A4",
"@<.	c #AFE2C1",
"#<.	c #9FC6E5",
"$<.	c #8C95FD",
"%<.	c #7679FE",
"&<.	c #5C66F8",
"*<.	c #3754DF",
"=<.	c #1F3EB3",
"-<.	c #2B26A0",
";<.	c #4C17B3",
"><.	c #5A2FDB",
",<.	c #694EF4",
"'<.	c #7161FA",
")<.	c #AEA8EE",
"!<.	c #36AEDE",
"~<.	c #8D67FB",
"{<.	c #A542E9",
"]<.	c #B625C7",
"^<.	c #C71DA7",
"/<.	c #CD1E9D",
"(<.	c #C81FA7",
"_<.	c #C32DC5",
":<.	c #AD4DEB",
"<<.	c #9765FA",
"[<.	c #758EFE",
"}<.	c #6E98FB",
"|<.	c #60A8F5",
"1<.	c #3FE0B5",
"2<.	c #30DF9E",
"3<.	c #39D8BA",
"4<.	c #4BC0E0",
"5<.	c #60A3F6",
"6<.	c #6E93FC",
"7<.	c #A399F7",
"8<.	c #C8ABDF",
"9<.	c #E0C1B3",
"0<.	c #D4D9A0",
"a<.	c #BEEAA1",
"b<.	c #B3E8B4",
"c<.	c #A7CBDE",
"d<.	c #97A9F6",
"e<.	c #8E98FC",
"f<.	c #6D71FD",
"g<.	c #5D66F8",
"h<.	c #3D53E2",
"i<.	c #2B36BD",
"j<.	c #361C9F",
"k<.	c #4B14AB",
"l<.	c #5A1FCB",
"m<.	c #6E58F8",
"n<.	c #7565FC",
"o<.	c #CE95E1",
"p<.	c #17BDA7",
"q<.	c #915EF9",
"r<.	c #9B4DF1",
"s<.	c #AC31DA",
"t<.	c #BB1CB5",
"u<.	c #C318A0",
"v<.	c #C61A9D",
"w<.	c #CB23AD",
"x<.	c #BC37D5",
"y<.	c #9666FA",
"z<.	c #798AFF",
"A<.	c #6B9FFA",
"B<.	c #5EB4EF",
"C<.	c #47D1CF",
"D<.	c #37DFAB",
"E<.	c #34E1A3",
"F<.	c #36D2C0",
"G<.	c #51B4EA",
"H<.	c #669EF9",
"I<.	c #7092FD",
"J<.	c #A199F8",
"K<.	c #C3ACE2",
"L<.	c #D4C9BC",
"M<.	c #D3D8A3",
"N<.	c #BAE6AF",
"O<.	c #A4D7D4",
"P<.	c #9AB5F0",
"Q<.	c #848AFF",
"R<.	c #6F72FD",
"S<.	c #6367FA",
"T<.	c #4D56ED",
"U<.	c #2C41C9",
"V<.	c #2A2BA9",
"W<.	c #39199E",
"X<.	c #5713B6",
"Y<.	c #6126D6",
"Z<.	c #6A47F0",
"`<.	c #7767FC",
" [.	c #D3CFB4",
".[.	c #A16BF9",
"+[.	c #A266F8",
"@[.	c #8163FC",
"#[.	c #7D63FC",
"$[.	c #7E79FE",
"%[.	c #954DF3",
"&[.	c #A133E0",
"*[.	c #AE1EC2",
"=[.	c #B23DE0",
"-[.	c #9E59F6",
";[.	c #9169FC",
">[.	c #8A74FE",
",[.	c #847BFF",
"'[.	c #7790FE",
")[.	c #709AFB",
"![.	c #68A7F6",
"~[.	c #56BDE7",
"{[.	c #40D8C1",
"][.	c #3BE5A3",
"^[.	c #33E29D",
"/[.	c #42D0CE",
"([.	c #56B2ED",
"_[.	c #7290FD",
":[.	c #7987FE",
"<[.	c #9C99FA",
"[[.	c #B3A9ED",
"}[.	c #D6BBC8",
"|[.	c #DCCFA6",
"1[.	c #C8E39F",
"2[.	c #B8EBA6",
"3[.	c #ACDFC6",
"4[.	c #9BBFEB",
"5[.	c #92A6F8",
"6[.	c #8B98FC",
"7[.	c #868EFF",
"8[.	c #8287FE",
"9[.	c #7274FD",
"0[.	c #565BF2",
"a[.	c #3A43D8",
"b[.	c #2D2EB4",
"c[.	c #371CA2",
"d[.	c #47129E",
"e[.	c #4D10A5",
"f[.	c #6D4CF3",
"g[.	c #735DF9",
"h[.	c #7A6FFE",
"i[.	c #7D75FE",
"j[.	c #854CF4",
"k[.	c #7352F6",
"l[.	c #7672FD",
"m[.	c #727BFF",
"n[.	c #5370F7",
"o[.	c #3356DC",
"p[.	c #CAB2DA",
"q[.	c #5895F7",
"r[.	c #9F75FA",
"s[.	c #8E55F7",
"t[.	c #6C42EE",
"u[.	c #704BF2",
"v[.	c #7960FA",
"w[.	c #7C71FE",
"x[.	c #7E7AFE",
"y[.	c #7F7DFE",
"z[.	c #866EFD",
"A[.	c #8A66FC",
"B[.	c #8E5DF9",
"C[.	c #944CF3",
"D[.	c #A91CC2",
"E[.	c #B111A9",
"F[.	c #B7119E",
"G[.	c #C0169E",
"H[.	c #BB2ECE",
"I[.	c #A64BED",
"J[.	c #9760F9",
"K[.	c #788FFE",
"L[.	c #62B7EE",
"M[.	c #55D6D3",
"N[.	c #45E4B2",
"O[.	c #35E29F",
"P[.	c #34E29F",
"Q[.	c #45C5DA",
"R[.	c #6D98FB",
"S[.	c #758DFD",
"T[.	c #9896FB",
"U[.	c #AFA4EF",
"V[.	c #CFBCD0",
"W[.	c #D4D3AE",
"X[.	c #BFE8A3",
"Y[.	c #ACE8B8",
"Z[.	c #9FD1DD",
"`[.	c #95B1F3",
" }.	c #8894FD",
".}.	c #6D6DFD",
"+}.	c #6161F8",
"@}.	c #4A4EE8",
"#}.	c #3934CB",
"$}.	c #3524AE",
"%}.	c #381BA0",
"&}.	c #49119F",
"*}.	c #580FAB",
"=}.	c #6119C4",
"-}.	c #6831E2",
";}.	c #6F4BF3",
">}.	c #745BF9",
",}.	c #7B6BFD",
"'}.	c #8178FE",
")}.	c #8276FF",
"!}.	c #944AF1",
"~}.	c #9B43EC",
"{}.	c #7F57F8",
"]}.	c #5175F6",
"^}.	c #647FFD",
"/}.	c #3054D9",
"(}.	c #3FA5E8",
"_}.	c #9B6EFA",
":}.	c #9D6CF9",
"<}.	c #AE89F6",
"[}.	c #AB9BF4",
"}}.	c #625AF5",
"|}.	c #6442EC",
"1}.	c #6F49F2",
"2}.	c #7D66FC",
"3}.	c #7D72FE",
"4}.	c #8668FD",
"5}.	c #8E58F8",
"6}.	c #9E32E0",
"7}.	c #B012A9",
"8}.	c #B6109F",
"9}.	c #BA16A8",
"0}.	c #BA22C0",
"a}.	c #AF3BE0",
"b}.	c #7C87FF",
"c}.	c #6FA2FA",
"d}.	c #68B2F3",
"e}.	c #5ACBDF",
"f}.	c #44EAA4",
"g}.	c #41EB9D",
"h}.	c #39D4BF",
"i}.	c #65A2F7",
"j}.	c #9593FC",
"k}.	c #A4A1F5",
"l}.	c #D9C9B6",
"m}.	c #CEDFA1",
"n}.	c #BFEA9E",
"o}.	c #B0EEAA",
"p}.	c #9AC9E5",
"q}.	c #8B9DFB",
"r}.	c #8793FD",
"s}.	c #838BFF",
"t}.	c #787AFF",
"u}.	c #7271FD",
"v}.	c #6B67FB",
"w}.	c #5E5AF4",
"x}.	c #4347E0",
"y}.	c #332FBE",
"z}.	c #4F0E9F",
"A}.	c #6B2DDF",
"B}.	c #7143EE",
"C}.	c #7453F6",
"D}.	c #765DFA",
"E}.	c #7964FB",
"F}.	c #7B6AFD",
"G}.	c #7F7BFE",
"H}.	c #8174FF",
"I}.	c #826CFD",
"J}.	c #855DFB",
"K}.	c #8846F1",
"L}.	c #913DEB",
"M}.	c #9B41EB",
"N}.	c #945AF8",
"O}.	c #60B2F1",
"P}.	c #54ABEF",
"Q}.	c #8683FE",
"R}.	c #7296FC",
"S}.	c #17C0A0",
"T}.	c #9488FC",
"U}.	c #A3A1F6",
"V}.	c #A0B8EC",
"W}.	c #8EB5F2",
"X}.	c #738DFE",
"Y}.	c #6957F6",
"Z}.	c #7030E2",
"`}.	c #6F2ADC",
" |.	c #733CEB",
".|.	c #7C54F7",
"+|.	c #7C69FD",
"@|.	c #7C6BFE",
"#|.	c #7D6EFE",
"$|.	c #8073FE",
"%|.	c #816FFE",
"&|.	c #8468FD",
"*|.	c #875EFA",
"=|.	c #8D4BF3",
"-|.	c #923AE9",
";|.	c #9925D6",
">|.	c #A417BE",
",|.	c #B010A9",
"'|.	c #B50F9E",
")|.	c #BA15A7",
"!|.	c #AC36DE",
"~|.	c #9D50F2",
"{|.	c #9361FA",
"]|.	c #8C6CFD",
"^|.	c #8777FF",
"/|.	c #7E87FE",
"(|.	c #71A2F9",
"_|.	c #6AB2F3",
":|.	c #5FCDE0",
"<|.	c #4CEDA9",
"[|.	c #3FEA9E",
"}|.	c #3BE69F",
"||.	c #48D1D0",
"1|.	c #59B3EE",
"2|.	c #6A9DF9",
"3|.	c #7291FD",
"4|.	c #7889FF",
"5|.	c #9E9BF8",
"6|.	c #B7AFE8",
"7|.	c #CEC7C6",
"8|.	c #CFDAA9",
"9|.	c #BEE99F",
"0|.	c #9FDCD2",
"a|.	c #95C0EC",
"b|.	c #8FA9F7",
"c|.	c #8693FD",
"d|.	c #6762FA",
"e|.	c #453BDA",
"f|.	c #3B26BB",
"g|.	c #3E19A7",
"h|.	c #520C9F",
"i|.	c #660FB7",
"j|.	c #702FE0",
"k|.	c #7343EF",
"l|.	c #7551F6",
"m|.	c #785AF9",
"n|.	c #7A5EFA",
"o|.	c #7B63FC",
"p|.	c #7D6DFD",
"q|.	c #7E70FE",
"r|.	c #8171FE",
"s|.	c #836AFE",
"t|.	c #8367FD",
"u|.	c #8466FC",
"v|.	c #845EFB",
"w|.	c #8453F7",
"x|.	c #8743F0",
"y|.	c #9030E2",
"z|.	c #9B25D5",
"A|.	c #8B24D7",
"B|.	c #7748F3",
"C|.	c #67B4F1",
"D|.	c #60BAEC",
"E|.	c #67A8F6",
"F|.	c #7292FD",
"G|.	c #BFBFDA",
"H|.	c #CCA4E0",
"I|.	c #B16FF3",
"J|.	c #BE5CEA",
"K|.	c #14BE9F",
"L|.	c #9493FC",
"M|.	c #A0A8F3",
"N|.	c #A1BAEC",
"O|.	c #A3B3EF",
"P|.	c #A088FA",
"Q|.	c #6A4EF2",
"R|.	c #6022D1",
"S|.	c #6D19C9",
"T|.	c #741ED2",
"U|.	c #782ADE",
"V|.	c #793DEC",
"W|.	c #7B4DF5",
"X|.	c #7B5FFB",
"Y|.	c #7D60FB",
"Z|.	c #7D62FC",
"`|.	c #7E62FC",
" 1.	c #7E62FB",
".1.	c #7F62FB",
"+1.	c #8061FB",
"@1.	c #855AF9",
"#1.	c #8755F8",
"$1.	c #874BF3",
"%1.	c #8A3FEC",
"&1.	c #8E34E5",
"*1.	c #9524D5",
"=1.	c #9F0DAF",
"-1.	c #A40AA3",
";1.	c #AC0C9E",
">1.	c #B915A8",
",1.	c #B620C0",
"'1.	c #9260F9",
")1.	c #8D6BFC",
"!1.	c #7A91FE",
"~1.	c #7699FC",
"{1.	c #70A3F9",
"]1.	c #6AB3F2",
"^1.	c #60CDE0",
"/1.	c #56E3C2",
"(1.	c #4EEDAA",
"_1.	c #49EF9E",
":1.	c #40E7A8",
"<1.	c #42D7C4",
"[1.	c #55BDE7",
"}1.	c #66A6F7",
"|1.	c #6F97FB",
"11.	c #9698FB",
"21.	c #C9D6BB",
"31.	c #CBE0A5",
"41.	c #AEF1A3",
"51.	c #A2EDB6",
"61.	c #93C0EC",
"71.	c #8A9FFB",
"81.	c #8695FD",
"91.	c #706CFC",
"01.	c #6760F9",
"a1.	c #463ADA",
"b1.	c #3C26BC",
"c1.	c #4515A8",
"d1.	c #530C9F",
"e1.	c #5F09A0",
"f1.	c #690FB7",
"g1.	c #7018C7",
"h1.	c #7634E5",
"i1.	c #794AF3",
"j1.	c #7A53F7",
"k1.	c #7B57F9",
"l1.	c #7C5AF9",
"m1.	c #7D5EFA",
"n1.	c #7E5FFB",
"o1.	c #7F60FB",
"p1.	c #8160FB",
"q1.	c #835DFA",
"r1.	c #835CFA",
"s1.	c #835BF9",
"t1.	c #8355F7",
"u1.	c #8E30E3",
"v1.	c #921DCE",
"w1.	c #8F11BE",
"x1.	c #9310BA",
"y1.	c #8550F6",
"z1.	c #599CF5",
"A1.	c #45BCE0",
"B1.	c #59BBE9",
"C1.	c #66AAF5",
"D1.	c #37A4E3",
"E1.	c #9594FB",
"F1.	c #AEAAEF",
"G1.	c #BCC4D9",
"H1.	c #AAD1D7",
"I1.	c #99A4F7",
"J1.	c #8454F8",
"K1.	c #7117C8",
"L1.	c #680DB3",
"M1.	c #6C0DB3",
"N1.	c #700FB9",
"O1.	c #7318C8",
"P1.	c #7820D3",
"Q1.	c #782CE0",
"R1.	c #7B3BEB",
"S1.	c #7F3FEE",
"T1.	c #7F3EEC",
"U1.	c #7F3CEC",
"V1.	c #7F3BEB",
"W1.	c #7F3DEC",
"X1.	c #803DED",
"Y1.	c #813AEB",
"Z1.	c #8238E9",
"`1.	c #8932E4",
" 2.	c #8B23D7",
".2.	c #8D1ACB",
"+2.	c #9312BF",
"@2.	c #8F0CB1",
"#2.	c #9609AB",
"$2.	c #A5099E",
"%2.	c #A80A9E",
"&2.	c #AB0DA2",
"*2.	c #B21FC2",
"=2.	c #AA36DF",
"-2.	c #9B50F3",
";2.	c #9162FA",
">2.	c #7A95FD",
",2.	c #769DFB",
"'2.	c #6CB5F1",
")2.	c #55E4C3",
"!2.	c #4FEEAA",
"~2.	c #53C8DE",
"{2.	c #62AFF2",
"]2.	c #6C9EFA",
"^2.	c #9093FC",
"/2.	c #9A9EF8",
"(2.	c #ADAEED",
"_2.	c #C8C3CF",
":2.	c #CADBB1",
"<2.	c #BEE9A1",
"[2.	c #B4F09E",
"}2.	c #ABF2A3",
"|2.	c #99DDD2",
"12.	c #91C5E9",
"22.	c #8DB2F4",
"32.	c #8AA4F9",
"42.	c #869BFC",
"52.	c #7678FF",
"62.	c #716DFD",
"72.	c #6A61F9",
"82.	c #5B51F0",
"92.	c #5138DE",
"02.	c #4D23C8",
"a2.	c #4E16B4",
"b2.	c #520FA6",
"c2.	c #560B9F",
"d2.	c #5F089E",
"e2.	c #67079F",
"f2.	c #6807A4",
"g2.	c #7009AA",
"h2.	c #700BB2",
"i2.	c #7112BE",
"j2.	c #7917C8",
"k2.	c #7819CC",
"l2.	c #7624D8",
"m2.	c #7A33E5",
"n2.	c #7D37E9",
"o2.	c #803AEB",
"p2.	c #843AEA",
"q2.	c #8830E3",
"r2.	c #8521D5",
"s2.	c #821CCF",
"t2.	c #861CCE",
"u2.	c #8F17C6",
"v2.	c #8B0EB8",
"w2.	c #910CB2",
"x2.	c #9D0CAE",
"y2.	c #9E11B5",
"z2.	c #822CE0",
"A2.	c #48AEE8",
"B2.	c #47D4CD",
"C2.	c #4DD0D4",
"D2.	c #58B6EB",
"E2.	c #6D97FB",
"F2.	c #7E82FE",
"G2.	c #CD8FE4",
"H2.	c #BDDBBF",
"I2.	c #AECFD8",
"J2.	c #8499FD",
"K2.	c #7E4EF5",
"L2.	c #6214BD",
"M2.	c #6B0AAB",
"N2.	c #7007A6",
"O2.	c #6B09A8",
"P2.	c #780AAF",
"Q2.	c #800AB0",
"R2.	c #810AB0",
"S2.	c #8009AE",
"T2.	c #7D09AE",
"U2.	c #7D0AB1",
"V2.	c #830AB2",
"W2.	c #8309AE",
"X2.	c #8108AC",
"Y2.	c #8409AC",
"Z2.	c #9208AA",
"`2.	c #90059F",
" 3.	c #9806A0",
".3.	c #AA1AC0",
"+3.	c #A52BD7",
"@3.	c #9E41EA",
"#3.	c #9657F6",
"$3.	c #8A76FF",
"%3.	c #7C95FD",
"&3.	c #789DFC",
"*3.	c #75A6F8",
"=3.	c #72B3F4",
"-3.	c #6DC6E9",
";3.	c #66DAD6",
">3.	c #5AE8BF",
",3.	c #62B1F1",
"'3.	c #6CA0F9",
")3.	c #7295FD",
"!3.	c #8C8EFE",
"~3.	c #9397FB",
"{3.	c #9FA4F5",
"]3.	c #B1B8E6",
"^3.	c #C2CFCA",
"/3.	c #C3E0B0",
"(3.	c #BCEBA1",
"_3.	c #B3F19E",
":3.	c #A6F4A3",
"<3.	c #9CF2AF",
"[3.	c #99E7C5",
"}3.	c #93D1DF",
"|3.	c #8EBCEE",
"13.	c #8BACF7",
"23.	c #87A3FA",
"33.	c #7069FD",
"43.	c #695CF8",
"53.	c #604AEF",
"63.	c #5736DF",
"73.	c #5024C9",
"83.	c #5714B7",
"93.	c #5B0DAB",
"03.	c #6B06A0",
"a3.	c #63079E",
"b3.	c #6B069E",
"c3.	c #7005A0",
"d3.	c #6A07A4",
"e3.	c #7608AA",
"f3.	c #7E09AD",
"g3.	c #7F08AE",
"h3.	c #7F09AE",
"i3.	c #8809AE",
"j3.	c #8D06A4",
"k3.	c #8005A1",
"l3.	c #8605A3",
"m3.	c #9A09A7",
"n3.	c #8F0CB4",
"o3.	c #8324D8",
"p3.	c #60B7EE",
"q3.	c #53E7BB",
"r3.	c #47E5B5",
"s3.	c #46D9C5",
"t3.	c #53C0E5",
"u3.	c #689FF9",
"v3.	c #B7B3E6",
"w3.	c #3A4BDD",
"x3.	c #3FABE4",
"y3.	c #7385FF",
"z3.	c #A7A2F4",
"A3.	c #BAC1DC",
"B3.	c #B7DDC1",
"C3.	c #B5E8B2",
"D3.	c #B4E9AF",
"E3.	c #97E7C6",
"F3.	c #8EA3F9",
"G3.	c #5C33DF",
"H3.	c #7B0CB6",
"I3.	c #8507A9",
"J3.	c #8305A5",
"K3.	c #8105A3",
"L3.	c #7B04A2",
"M3.	c #7904A1",
"N3.	c #8805A1",
"O3.	c #8705A0",
"P3.	c #8005A0",
"Q3.	c #8104A0",
"R3.	c #8404A0",
"S3.	c #A00AA5",
"T3.	c #960AAC",
"U3.	c #9F0FB3",
"V3.	c #9E17C2",
"W3.	c #981FCF",
"X3.	c #A02FDE",
"Y3.	c #9B47EF",
"Z3.	c #935EF9",
"`3.	c #7E99FC",
" 4.	c #7AA2FA",
".4.	c #74BBF0",
"+4.	c #6FC9E6",
"@4.	c #69DBD6",
"#4.	c #64EAC0",
"$4.	c #60F1AE",
"%4.	c #5CF5A3",
"&4.	c #53F39E",
"*4.	c #49DFBF",
"=4.	c #63B1F2",
"-4.	c #778EFE",
";4.	c #7A88FE",
">4.	c #8889FE",
",4.	c #9EA6F5",
"'4.	c #B0BAE6",
")4.	c #C0D0CB",
"!4.	c #C0E2B0",
"~4.	c #B3EFA3",
"{4.	c #ACF39D",
"]4.	c #A9F4A0",
"^4.	c #9FF4A8",
"/4.	c #97F0B7",
"(4.	c #8ED2DF",
"_4.	c #8AC2EC",
":4.	c #88B3F3",
"<4.	c #86A7F8",
"[4.	c #829FFB",
"}4.	c #7F97FD",
"|4.	c #7172FE",
"14.	c #6C66FB",
"24.	c #6856F6",
"34.	c #6045ED",
"44.	c #6130DE",
"54.	c #6521D0",
"64.	c #5919C2",
"74.	c #680EB5",
"84.	c #760AAF",
"94.	c #630BAD",
"04.	c #5F0AA5",
"a4.	c #7405A1",
"b4.	c #7E05A1",
"c4.	c #7F05A1",
"d4.	c #8806A3",
"e4.	c #9C0BA8",
"f4.	c #9313C1",
"g4.	c #6839E8",
"h4.	c #6269F9",
"i4.	c #758EFD",
"j4.	c #5EDCD2",
"k4.	c #53ECB0",
"l4.	c #52EEAB",
"m4.	c #49E8B3",
"n4.	c #51DCCA",
"o4.	c #59C6E3",
"p4.	c #64A6F6",
"q4.	c #DBA0D2",
"r4.	c #14BDA2",
"s4.	c #9DA3F7",
"t4.	c #B3BBE4",
"u4.	c #BAD6C9",
"v4.	c #ADEFA8",
"w4.	c #97F4AC",
"x4.	c #A0EABE",
"y4.	c #A5CFDD",
"z4.	c #9DA9F4",
"A4.	c #7F4FF6",
"B4.	c #9537E6",
"C4.	c #9037E7",
"D4.	c #852DE1",
"E4.	c #8527DB",
"F4.	c #8726D9",
"G4.	c #942ADC",
"H4.	c #9F3BE5",
"I4.	c #964EF3",
"J4.	c #935BF8",
"K4.	c #8F6AFC",
"L4.	c #878CFE",
"M4.	c #7FA7F9",
"N4.	c #7CB6F3",
"O4.	c #79C1EC",
"P4.	c #74CBE6",
"Q4.	c #71DBD8",
"R4.	c #6CE7C7",
"S4.	c #6AF0B7",
"T4.	c #66F4AB",
"U4.	c #57F49E",
"V4.	c #55F3A2",
"W4.	c #51EDAD",
"X4.	c #4DE0C1",
"Y4.	c #56CADE",
"Z4.	c #7B88FE",
"`4.	c #8C92FC",
" 5.	c #929CFB",
".5.	c #9CA8F5",
"+5.	c #ABBBE8",
"@5.	c #B1D3D2",
"#5.	c #BAE0BA",
"$5.	c #B8EBA8",
"%5.	c #ABF39F",
"&5.	c #9FF7A0",
"*5.	c #96F6A7",
"=5.	c #93F4B1",
"-5.	c #91EDBF",
";5.	c #8CE3CF",
">5.	c #8AD3DF",
",5.	c #86C6EA",
"'5.	c #84BEEF",
")5.	c #81B1F5",
"!5.	c #7FA5F9",
"~5.	c #7898FD",
"{5.	c #7793FD",
"]5.	c #768DFE",
"^5.	c #7687FF",
"/5.	c #6E73FE",
"(5.	c #7163FA",
"_5.	c #6354F4",
":5.	c #5F42EA",
"<5.	c #6F3BE9",
"[5.	c #7169FC",
"}5.	c #7ABBF0",
"|5.	c #65E9C2",
"15.	c #56F1A9",
"25.	c #55F2A4",
"35.	c #54F2A5",
"45.	c #53EFAC",
"55.	c #53E6BD",
"65.	c #56D6D4",
"75.	c #5EBBEB",
"85.	c #6BA0F9",
"95.	c #7494FD",
"05.	c #7C86FF",
"a5.	c #ECA3B7",
"b5.	c #9E97FA",
"c5.	c #8C8BFD",
"d5.	c #D2A1DA",
"e5.	c #46A2EB",
"f5.	c #BF55E5",
"g5.	c #8A90FE",
"h5.	c #8F96FC",
"i5.	c #97A1F9",
"j5.	c #A2B5EE",
"k5.	c #ADCCDB",
"l5.	c #AEE0C5",
"m5.	c #A5EDB5",
"n5.	c #A7F1AA",
"o5.	c #A1F5A3",
"p5.	c #A1F6A1",
"q5.	c #9CF7A0",
"r5.	c #99F7A4",
"s5.	c #94F5AE",
"t5.	c #8CF2B5",
"u5.	c #92EFBB",
"v5.	c #8FE4CC",
"w5.	c #86DCD7",
"x5.	c #85DBD8",
"y5.	c #87DBD8",
"z5.	c #8AD9DA",
"A5.	c #8DCCE4",
"B5.	c #89BBEF",
"C5.	c #81BBF1",
"D5.	c #7BC9E7",
"E5.	c #7CDCD7",
"F5.	c #7EE4CE",
"G5.	c #7FE6CB",
"H5.	c #7CE7CA",
"I5.	c #72EAC5",
"J5.	c #70F0B7",
"K5.	c #76F6AD",
"L5.	c #6CF6AA",
"M5.	c #66F7A3",
"N5.	c #65F89F",
"O5.	c #60F89E",
"P5.	c #61F79F",
"Q5.	c #58F4A3",
"R5.	c #55E6BF",
"S5.	c #59D7D4",
"T5.	c #61C3E7",
"U5.	c #69AFF3",
"V5.	c #7397FD",
"W5.	c #8486FE",
"X5.	c #8F9AFC",
"Y5.	c #95A4F8",
"Z5.	c #A2B2F0",
"`5.	c #ADC8DE",
" 6.	c #B1DDC7",
".6.	c #B0E9B4",
"+6.	c #ABF1A7",
"@6.	c #9EF79E",
"#6.	c #9AF89F",
"$6.	c #98F8A1",
"%6.	c #92F8A7",
"&6.	c #89F7AC",
"*6.	c #8EF4B1",
"=6.	c #8CEEBF",
"-6.	c #83E9C8",
";6.	c #80E7CA",
">6.	c #7DE6CC",
",6.	c #7DE5CD",
"'6.	c #7DE4CE",
")6.	c #7DE3D0",
"!6.	c #7CE1D1",
"~6.	c #7CE1D2",
"{6.	c #7AE0D4",
"]6.	c #77DED4",
"^6.	c #6DE1D0",
"/6.	c #6BEBC0",
"(6.	c #74F2B5",
"_6.	c #6AF4B0",
":6.	c #66F6A8",
"<6.	c #6EF9A2",
"[6.	c #61F7A0",
"}6.	c #5CF5A2",
"|6.	c #54EFAA",
"16.	c #53E8B9",
"26.	c #56DAD0",
"36.	c #5EC4E6",
"46.	c #69ADF4",
"56.	c #719DFB",
"66.	c #7790FD",
"76.	c #798BFF",
"86.	c #7B8EFF",
"96.	c #8588FE",
"06.	c #868CFE",
"a6.	c #8B96FD",
"b6.	c #8D9DFA",
"c6.	c #94A8F7",
"d6.	c #99B7F0",
"e6.	c #A2C8E3",
"f6.	c #A3DAD2",
"g6.	c #AAE5C0",
"h6.	c #A3EFB2",
"i6.	c #A6F2A8",
"j6.	c #96F8A2",
"k6.	c #9CF89F",
"l6.	c #84FAA0",
"m6.	c #82FA9F",
"n6.	c #83FBA0",
"o6.	c #8EFAA1",
"p6.	c #95F7A5",
"q6.	c #88F7AB",
"r6.	c #78F7AD",
"s6.	c #6AF7A8",
"t6.	c #71FAA2",
"u6.	c #7CFB9E",
"v6.	c #73FB9E",
"w6.	c #6AF9A0",
"x6.	c #60F3AB",
"y6.	c #5CEDB6",
"z6.	c #60E5C6",
"A6.	c #5FD7D6",
"B6.	c #70A5F8",
"C6.	c #739DFB",
"D6.	c #7595FD",
"E6.	c #788EFE",
"F6.	c #8890FD",
"G6.	c #8C97FC",
"H6.	c #8FA0FA",
"I6.	c #95AAF6",
"J6.	c #9EBAED",
"K6.	c #A4CCDE",
"L6.	c #A3DECD",
"M6.	c #A8E8BD",
"N6.	c #A2F1AF",
"O6.	c #A4F3A6",
"P6.	c #96F9A1",
"Q6.	c #8CFB9F",
"R6.	c #83FB9F",
"S6.	c #7FFB9E",
"T6.	c #7BFBA0",
"U6.	c #6BF9A0",
"V6.	c #72FAA0",
"W6.	c #69F8A0",
"X6.	c #5FF5A4",
"Y6.	c #68F4AC",
"Z6.	c #60F0B3",
"`6.	c #5DE8C1",
" 7.	c #60DCD2",
".7.	c #60C8E4",
"+7.	c #69B3F2",
"@7.	c #70A4F9",
"#7.	c #749CFB",
"$7.	c #7796FC",
"%7.	c #7990FE",
"&7.	c #787DFE",
"*7.	c #B366F1",
"=7.	c #8899FC",
"-7.	c #8A9EFA",
";7.	c #97BEEC",
">7.	c #9FCEE0",
",7.	c #94DFD2",
"'7.	c #93E6C9",
")7.	c #A3E9BE",
"!7.	c #94F2B2",
"~7.	c #83F7AD",
"{7.	c #81F7AD",
"]7.	c #98F5AA",
"^7.	c #9DF6A3",
"/7.	c #88FAA0",
"(7.	c #77FA9F",
"_7.	c #64F8A1",
":7.	c #68F6A7",
"<7.	c #7BF7AC",
"[7.	c #7DF7AC",
"}7.	c #7BF7AD",
"|7.	c #6DF5AE",
"17.	c #60EFB6",
"27.	c #6DE9C4",
"37.	c #6DE4CC",
"47.	c #63D9D7",
"57.	c #6AC8E6",
"67.	c #71ADF6",
"77.	c #74A3F9",
"87.	c #759DFB",
"97.	c #7891FD",
"07.	c #8893FD",
"a7.	c #8A99FC",
"b7.	c #8CA0FA",
"c7.	c #93B2F3",
"d7.	c #97C0EA",
"e7.	c #9ECFDE",
"f7.	c #94E0D0",
"g7.	c #93E7C8",
"h7.	c #A2E9BD",
"i7.	c #94F3B1",
"j7.	c #84F7AD",
"k7.	c #7BF6AD",
"l7.	c #6CF5AE",
"m7.	c #60EEB6",
"n7.	c #6DE9C5",
"o7.	c #64D8D8",
"p7.	c #6CC8E7",
"q7.	c #6FBDEE",
"r7.	c #6FB0F4",
"s7.	c #73A6F9",
"t7.	c #7698FC",
"u7.	c #7893FD",
"v7.	c #7B89FF",
"w7.	c #F1A8AB",
"x7.	c #3750DE",
"y7.	c #A570F9",
"z7.	c #668CFB",
"A7.	c #1FB6BE",
"B7.	c #848EFE",
"C7.	c #8692FD",
"D7.	c #8797FD",
"E7.	c #879CFB",
"F7.	c #88A6F8",
"G7.	c #8AABF7",
"H7.	c #8EB4F3",
"I7.	c #89BFED",
"J7.	c #84C5EA",
"K7.	c #83C6EA",
"L7.	c #94CCE4",
"M7.	c #96DAD7",
"N7.	c #86E5CD",
"O7.	c #79E6CA",
"P7.	c #6BE0D0",
"Q7.	c #6DD3DF",
"R7.	c #79C9E7",
"S7.	c #7CC7E9",
"T7.	c #7AC6EA",
"U7.	c #72BAF0",
"V7.	c #75AFF6",
"W7.	c #77A8F8",
"X7.	c #77A3F9",
"Y7.	c #7994FD",
"Z7.	c #7B8BFF",
"`7.	c #8691FE",
" 8.	c #87A1FA",
".8.	c #88A5F9",
"+8.	c #8AAAF7",
"@8.	c #81C6EA",
"#8.	c #7FC7E9",
"$8.	c #80C6EA",
"%8.	c #7FC7EA",
"&8.	c #7EC6EA",
"*8.	c #7CC5EA",
"=8.	c #76C3EC",
"-8.	c #73BAF0",
";8.	c #76AFF6",
">8.	c #77A4F9",
",8.	c #79A0FA",
"'8.	c #799BFC",
")8.	c #7997FD",
"!8.	c #7A92FD",
"~8.	c #5891F8",
"{8.	c #28A6D4",
"]8.	c #8494FD",
"^8.	c #8397FD",
"/8.	c #839AFC",
"(8.	c #839CFC",
"_8.	c #829EFC",
":8.	c #84A2FA",
"<8.	c #83A4F9",
"[8.	c #81A6F9",
"}8.	c #7EA7F9",
"|8.	c #7CA5FA",
"18.	c #7CA3FA",
"28.	c #7D9EFB",
"38.	c #7D9DFB",
"48.	c #7D9BFC",
"58.	c #7B99FC",
"68.	c #7C8BFF",
"78.	c #838AFE",
"88.	c #8494FE",
"98.	c #829CFB",
"08.	c #819EFC",
"a8.	c #7F9FFC",
"b8.	c #809FFC",
"c8.	c #7D9CFC",
"d8.	c #7C9BFC",
"e8.	c #7B96FD",
"f8.	c #7D89FE",
"g8.	c #7D87FF",
"h8.	c #DBC9B1",
"i8.	c #B8B0E7",
"j8.	c #9A91FB",
"k8.	c #8B87FE",
"l8.	c #3551DB",
"m8.	c #8C6DFD",
"n8.	c #4297ED",
"o8.	c #1BBCB1",
"p8.	c #8185FF",
"q8.	c #8188FE",
"r8.	c #8090FE",
"s8.	c #7F8AFF",
"t8.	c #8088FE",
"u8.	c #808AFF",
"v8.	c #7E8AFE",
"w8.	c #DB9ED2",
"x8.	c #EABEA2",
"y8.	c #D0BFCB",
"z8.	c #A799F6",
"A8.	c #9289FE",
"B8.	c #6F83FE",
"C8.	c #598AF9",
"D8.	c #249CD4",
"E8.	c #0FAFA3",
"F8.	c #12B8A1",
"G8.	c #29B0CF",
"H8.	c #9D8BFA",
"I8.	c #C194EC",
"J8.	c #EEA0B7",
"K8.	c #E3BFB1",
"L8.	c #BAA5EA",
"M8.	c #9989FC",
"N8.	c #8057F8",
"O8.	c #6A82FD",
"P8.	c #4987F3",
"Q8.	c #1093BB",
"R8.	c #08A29F",
"S8.	c #14ACB2",
"T8.	c #3D9DE9",
"U8.	c #AD8CF6",
"V8.	c #DE94D2",
"W8.	c #F2A8A5",
"X8.	c #D59ED9",
"Y8.	c #9F87FA",
"Z8.	c #8C83FF",
"`8.	c #6681FC",
" 9.	c #3F82ED",
".9.	c #0985AF",
"+9.	c #4C89F4",
"@9.	c #6585FC",
"#9.	c #A584F9",
"$9.	c #CD87E4",
"%9.	c #F789AA",
"&9.	c #FA8AA0",
"*9.	c #E389CE",
"=9.	c #A483FA",
"-9.	c #4D71F3",
";9.	c #C5B0DF",
">9.	c #4EA1F0",
",9.	c #767FFE",
"'9.	c #3C7EEC",
")9.	c #087EAD",
"!9.	c #047C9F",
"~9.	c #1778C8",
"{9.	c #5077F6",
"]9.	c #6778FC",
"^9.	c #7F7AFE",
"/9.	c #807AFE",
"(9.	c #807BFE",
"_9.	c #A378FA",
":9.	c #C979E7",
"<9.	c #E67CCB",
"[9.	c #A57EF9",
"}9.	c #677DFC",
"|9.	c #3F7AED",
"19.	c #0A73B0",
"29.	c #06689F",
"39.	c #1A58C2",
"49.	c #5060F1",
"59.	c #6765F9",
"69.	c #7769FC",
"79.	c #7E6AFD",
"89.	c #806BFD",
"99.	c #7F6CFE",
"09.	c #806CFE",
"a9.	c #7F6CFD",
"b9.	c #846BFD",
"c9.	c #9069FC",
"d9.	c #CC65E3",
"e9.	c #F566AA",
"f9.	c #F867A0",
"g9.	c #E36CCD",
"h9.	c #A478FA",
"i9.	c #5F97F8",
"j9.	c #B65FEE",
"k9.	c #6A7CFE",
"l9.	c #4B76F3",
"m9.	c #1267BB",
"n9.	c #0D519F",
"o9.	c #2137AD",
"p9.	c #4C36D9",
"q9.	c #6549F0",
"r9.	c #7452F6",
"s9.	c #7D53F7",
"t9.	c #8055F7",
"u9.	c #7F54F8",
"v9.	c #8154F8",
"w9.	c #8554F7",
"x9.	c #9252F5",
"y9.	c #D243CB",
"z9.	c #ED47A2",
"A9.	c #EE4BA4",
"B9.	c #D25CDA",
"C9.	c #8569FD",
"D9.	c #D4A3D8",
"E9.	c #BCABE7",
"F9.	c #707CFE",
"G9.	c #5D75FA",
"H9.	c #262BA0",
"I9.	c #4A14AB",
"J9.	c #6613BE",
"K9.	c #7616C7",
"L9.	c #7D17C9",
"M9.	c #8018C9",
"N9.	c #7F17CA",
"O9.	c #8017CA",
"P9.	c #7F18CA",
"Q9.	c #8018CA",
"R9.	c #8117C9",
"S9.	c #9017C8",
"T9.	c #AA17BC",
"U9.	c #CC21A6",
"V9.	c #DE309D",
"W9.	c #DE3DB6",
"X9.	c #B75EED",
"Y9.	c #9774FC",
"Z9.	c #494FE9",
"`9.	c #A5A5F3",
" 0.	c #6D94FC",
".0.	c #B05EF1",
"+0.	c #767DFF",
"@0.	c #506BF3",
"#0.	c #2750CE",
"$0.	c #282EAB",
"%0.	c #4513A1",
"&0.	c #6607A0",
"*0.	c #7A049F",
"=0.	c #7E049E",
"-0.	c #80039E",
";0.	c #81049F",
">0.	c #82049F",
",0.	c #8D059F",
"'0.	c #A70B9F",
")0.	c #C2179F",
"!0.	c #CE27AF",
"~0.	c #C045DD",
"{0.	c #9E69F9",
"]0.	c #976FFB",
"^0.	c #6A71FC",
"/0.	c #5862F5",
"(0.	c #4244DE",
"_0.	c #4623C3",
":0.	c #660EB3",
"<0.	c #7E09AC",
"[0.	c #7F09AC",
"}0.	c #7F08AD",
"|0.	c #8008AD",
"10.	c #8009AC",
"20.	c #7F09AD",
"30.	c #8009AD",
"40.	c #8208AC",
"50.	c #8C09AE",
"60.	c #A410B2",
"70.	c #B522C4",
"80.	c #AF40E4",
"90.	c #9C60F8",
"00.	c #7270FD",
"a0.	c #6A55F5",
"b0.	c #7144EF",
"c0.	c #793CEB",
"d0.	c #7D39EB",
"e0.	c #7F39EA",
"f0.	c #8038EA",
"g0.	c #7F39E9",
"h0.	c #8038E9",
"i0.	c #833AEA",
"j0.	c #893CEC",
"k0.	c #9244EF",
"l0.	c #9454F6",
"m0.	c #9065FB",
"n0.	c #8C70FD",
"o0.	c #BB5AEA",
"p0.	c #7A79FF",
"q0.	c #796DFE",
"r0.	c #8062FB",
"s0.	c #8464FC",
"t0.	c #8574FF",
"u0.	c #3C62E8",
"v0.	c #9A6BFA",
"w0.	c #A367F8",
"x0.	c #8074FF",
"y0.	c #8076FF",
"z0.	c #5772F8",
"A0.	c #315CDD",
"B0.	c #5056EE",
"C0.	c #8E75FE",
"D0.	c #3DADE3",
"E0.	c #3766E4",
"F0.	c #B0A8EE",
"G0.	c #2E57D8",
"H0.	c #8E6BFC",
"I0.	c #9B79FB",
"J0.	c #C08AED",
"K0.	c #CFACDA",
"L0.	c #845EFA",
"M0.	c #A371F9",
"N0.	c #345CE1",
"O0.	c #5392F5",
"P0.	c #3664E5",
"Q0.	c #3DACE4",
"R0.	c #B45FEE",
"S0.	c #9075FE",
"T0.	c #2F61DD",
"U0.	c #3BA6E3",
"V0.	c #B15FF0",
"W0.	c #344FD9",
"X0.	c #4AABEB",
"Y0.	c #7D8CFF",
"Z0.	c #AA66F6",
"`0.	c #668BFB",
" a.	c #3FA4E7",
".a.	c #4E9FF0",
"+a.	c #A36BF9",
"@a.	c #B2ADEC",
"#a.	c #4B90F3",
"$a.	c #C258E5",
"%a.	c #5270F6",
"&a.	c #C392EA",
"*a.	c #CCAADC",
"=a.	c #A296F8",
"-a.	c #6784FD",
";a.	c #3893E8",
">a.	c #5197F4",
",a.	c #BE70EE",
"'a.	c #B866EF",
")a.	c #2D62DD",
"!a.	c #957CFD",
"~a.	c #D89CD7",
"{a.	c #B698F1",
"]a.	c #5B83F9",
"^a.	c #308AE2",
"/a.	c #728AFE",
"(a.	c #CB78E6",
"_a.	c #4B7BF4",
":a.	c #2577D9",
"<a.	c #DA8DD9",
"[a.	c #C78DE9",
"}a.	c #567FF8",
"|a.	c #2E7FE1",
"1a.	c #CD7FE5",
"2a.	c #A481F9",
"3a.	c #4F7FF6",
"4a.	c #247FD8",
"5a.	c #5E7EFB",
"6a.	c #D97EDB",
"7a.	c #CC7FE5",
"8a.	c #967FFD",
"9a.	c #587DF8",
"0a.	c #2F75E1",
"aa.	c #7A76FF",
"ba.	c #CC8EE5",
"ca.	c #A691F8",
"da.	c #7F83FE",
"ea.	c #7F82FE",
"fa.	c #8083FE",
"ga.	c #8082FE",
"ha.	c #2487D8",
"ia.	c #637EFB",
"ja.	c #D86FDA",
"ka.	c #CA72E6",
"la.	c #617BFB",
"ma.	c #346CE4",
"na.	c #5B68F8",
"oa.	c #C196EA",
"pa.	c #B2A9ED",
"qa.	c #8E96FC",
"ra.	c #7289FD",
"sa.	c #4894F1",
"ta.	c #2999DB",
"ua.	c #D761D8",
"va.	c #BD68ED",
"wa.	c #8F7AFD",
"xa.	c #827FFE",
"ya.	c #416EED",
"za.	c #3D59E5",
"Aa.	c #9972FC",
"Ba.	c #BBB0E5",
"Ca.	c #9FBBEC",
"Da.	c #8CA9F8",
"Ea.	c #8599FD",
"Fa.	c #8193FE",
"Ga.	c #8092FE",
"Ha.	c #7F92FE",
"Ia.	c #8091FE",
"Ja.	c #8091FD",
"Ka.	c #7598FC",
"La.	c #65A8F6",
"Ma.	c #41B4E2",
"Na.	c #3FA2E8",
"Oa.	c #AB61F3",
"Pa.	c #D055D9",
"Qa.	c #A96AF6",
"Ra.	c #8A7BFE",
"Sa.	c #5B73F9",
"Ta.	c #3E57E4",
"Ua.	c #5646E9",
"Va.	c #977BFC",
"Wa.	c #A9BDE7",
"Xa.	c #9CCCE1",
"Ya.	c #8CC8E7",
"Za.	c #82C5EA",
"`a.	c #80C4EA",
" b.	c #7FC4EB",
".b.	c #7FC5EB",
"+b.	c #80C5EA",
"@b.	c #80C5EB",
"#b.	c #7FC4EA",
"$b.	c #7EC4EB",
"%b.	c #79C4EB",
"&b.	c #68C8E7",
"*b.	c #58CBDE",
"=b.	c #52BBE7",
"-b.	c #8771FE",
";b.	c #C042DB",
">b.	c #B951E7",
",b.	c #9570FD",
"'b.	c #596BF7",
")b.	c #424FE4",
"!b.	c #5240E5",
"~b.	c #815FFB",
"{b.	c #9A96FA",
"]b.	c #90B6F2",
"^b.	c #82BEEE",
"/b.	c #81BFEE",
"(b.	c #80C0EE",
"_b.	c #7FBFEE",
":b.	c #80BFEE",
"<b.	c #80C0ED",
"[b.	c #7FC0EE",
"}b.	c #7FBFED",
"|b.	c #80BFED",
"1b.	c #76BFEE",
"2b.	c #66B6F0",
"3b.	c #6896FA",
"4b.	c #965EF8",
"5b.	c #BB3FDD",
"6b.	c #B44AE7",
"7b.	c #9867FA",
"8b.	c #7A7CFE",
"9b.	c #5C6AF8",
"0b.	c #4C4BE7",
"ab.	c #5A33DE",
"bb.	c #752FE3",
"cb.	c #8237E8",
"db.	c #803BEB",
"eb.	c #803CEC",
"fb.	c #803DEC",
"gb.	c #7F3CED",
"hb.	c #803CED",
"ib.	c #7F3DED",
"jb.	c #7E3DEC",
"kb.	c #7C3CEB",
"lb.	c #7E36E8",
"mb.	c #962FE0",
"nb.	c #AD32DA",
"ob.	c #AE48E8",
"pb.	c #6A6BFC",
"qb.	c #6654F4",
"rb.	c #7240ED",
"sb.	c #7D38EA",
"tb.	c #8538E9",
"ub.	c #943FEB",
"vb.	c #9953F4",
"wb.	c #8F6AFD",
"xb.	c #8777FE",
"yb.	c #7B75FF",
"zb.	c #7E6CFD",
"Ab.	c #816CFD",
"Bb.	c #846EFD",
"Cb.	c #817CFE",
"Db.	c #807CFE",
"      .  +  @     .  @  .     @  .        .  @  .  @                 +     @  .     .        +  +  +     +     @     .  @  @  .  +        @        +  +  @     .     +  .  @  .  +  .  +  +  @  +     .  @     .  +     @  @  @  @  .  +  +  .     .  .     +        @     @  +  @  @  .     +     @  +  @  @  .  @        @  @  +  .  .  .  .  .     +     .  .  .  +  .     .  .  @  @  .  @  .     .  .  +              +  .  @           +  @        +  @  @  +  .  .     @  @           @     @  @     @  +  .  @  +        .     .  @  .  @  @  .              @  .     +  @  @  .  +  @  +  +  @  +  .  @     +  @  +     +  .     .        .  .     @  +  +  .  .  .     .     +     @  +  .  .     +  +     @  .  @     +     .  +  +  +  +     +     @  .     +  +  +     @  +     .        .  +  @     .  @  .     @  .        .  @  .  @                 +     @  .     .        +  +  +     +     @     .  @  @  .  +        @        +  +  @     .     +  .  @  .  +  .  +  +  @  +     .  @     .  +     @  @  @  @  .  +  +  .     .  .     +        @     @  +  @  @  .     +     @  +  @  @  .  @        @  @  +  .  .  .  .  .     +     .  .  .  +  .     .  .  @  @  .  @  .     .  .  +              +  .  @           +  @        +  @  @  +  .  .     @  @           @     @  @     @  +  .  @  +        .     .  @  .  @  @  .              @  .     +  @  @  .  +  @  +  +  @  +  .  @     +  @  +     +  .     .        .  .     @  +  +  .  .  .     .     +     @  +  .  .     +  +     @  .  @     +     .  +  +  +  +     +     @  .     +  +  +     @  +     .  ",
"+  @  @  .  +  @  +  +  @  +  .  @     +  @  +     +  .     .        .  .     @  +  +  .  .  .     .     +     @  +  .  .     +  +     @  .  @     +     .  +  +  +  +     +     @  .     +  +  +     @  +     .        .  +  @     .  @  .     @  .        .  @  .  @                 +     @  .     .        +  +  +     +     @     .  @  @  .  +        @        +  +  @     .     +  .  @  .  +  .  +  +  @  +     .  @     .  +     @  @  @  @  .  +  +  .     .  .     +        @     @  +  @  @  .     +     @  +  @  @  .  @        @  @  +  .  .  .  .  .     +     .  .  .  +  .     .  .  @  @  .  @  .     .  .  +              +  .  @           +  @        +  @  @  +  .  .     @  @           @     @  @     @  +  .  @  +        .     .  @  .  @  @  .              @  .     +  @  @  .  +  @  +  +  @  +  .  @     +  @  +     +  .     .        .  .     @  +  +  .  .  .     .     +     @  +  .  .     +  +     @  .  @     +     .  +  +  +  +     +     @  .     +  +  +     @  +     .        .  +  @     .  @  .     @  .        .  @  .  @                 +     @  .     .        +  +  +     +     @     .  @  @  .  +        @        +  +  @     .     +  .  @  .  +  .  +  +  @  +     .  @     .  +     @  @  @  @  .  +  +  .     .  .     +        @     @  +  @  @  .     +     @  +  @  @  .  @        @  @  +  .  .  .  .  .     +     .  .  .  +  .     .  .  @  @  .  @  .     .  .  +              +  .  @           +  @        +  @  @  +  .  .     @  @           @     @  @     @  +  .  @  +        .     .  @  .  @  @  .              @  .     ",
"+     +     @  .     +  +  +     @  +     .        .  +  @     .  @  .     @  .        .  @  .  @                 +     @  .     .        +  +  +     +     @     .  @  @  .  +        @        +  +  @     .     +  .  @  .  +  .  +  +  @  +     .  @     .  +     @  @  @  @  .  +  +  .     .  .     +        @     @  +  @  @  .     +     @  +  @  @  .  @        @  @  +  .  .  .  .  .     +     .  .  .  +  .     .  .  @  @  .  @  .     .  .  +              +  .  @           +  @        +  @  @  +  .  .     @  @           @     @  @     @  +  .  @  +        .     .  @  .  @  @  .              @  .     +  @  @  .  +  @  +  +  @  +  .  @     +  @  +     +  .     .        .  .     @  +  +  .  .  .     .     +     @  +  .  .     +  +     @  .  @     +     .  +  +  +  +     +     @  .     +  +  +     @  +     .        .  +  @     .  @  .     @  .        .  @  .  @                 +     @  .     .        +  +  +     +     @     .  @  @  .  +        @        +  +  @     .     +  .  @  .  +  .  +  +  @  +     .  @     .  +     @  @  @  @  .  +  +  .     .  .     +        @     @  +  @  @  .     +     @  +  @  @  .  @        @  @  +  .  .  .  .  .     +     .  .  .  +  .     .  .  @  @  .  @  .     .  .  +              +  .  @           +  @        +  @  @  +  .  .     @  @           @     @  @     @  +  .  @  +        .     .  @  .  @  @  .              @  .     +  @  @  .  +  @  +  +  @  +  .  @     +  @  +     +  .     .        .  .     @  +  +  .  .  .     .     +     @  +  .  .     +  +     @  .  @     +     .  +  +  +  ",
"@           +  @        +  @  @  +  .  .     @  @           @     @  @     @  +  .  @  +        .     .  @  .  @  @  .              @  .     +  @  @  .  +  @  +  +  @  +  .  @     +  @  +     +  .     .        .  .     @  +  +  .  .  .     .     +     @  +  .  .     +  +     @  .  @     +     .  +  +  +  +     +     @  .     +  +  +     @  +     .        .  +  @     .  @  .     @  .        .  @  .  @                 +     @  .     .        +  +  +     +     @     .  @  @  .  +        @        +  +  @     .     +  .  @  .  +  .  +  +  @  +     .  @     .  +     @  @  @  @  .  +  +  .     .  .     +        @     @  +  @  @  .     +     @  +  @  @  .  @        @  @  +  .  .  .  .  .     +     .  .  .  +  .     .  .  @  @  .  @  .     .  .  +              +  .  @           +  @        +  @  @  +  .  .     @  @           @     @  @     @  +  .  @  +        .     .  @  .  @  @  .              @  .     +  @  @  .  +  @  +  +  @  +  .  @     +  @  +     +  .     .        .  .     @  +  +  .  .  .     .     +     @  +  .  .     +  +     @  .  @     +     .  +  +  +  +     +     @  .     +  +  +     @  +     .        .  +  @     .  @  .     @  .        .  @  .  @                 +     @  .     .        +  +  +     +     @     .  @  @  .  +        @        +  +  @     .     +  .  @  .  +  .  +  +  @  +     .  @     .  +     @  @  @  @  .  +  +  .     .  .     +        @     @  +  @  @  .     +     @  +  @  @  .  @        @  @  +  .  .  .  .  .     +     .  .  .  +  .     .  .  @  @  .  @  .     .  .  +              +  .  ",
".        .  .     @  +  +  .  .  .     .     +     @  +  .  .     +  +     @  .  @     +     .  +  +  +  +     +     @  .     +  +  +     @  +     .        .  +  @     .  @  .     @  .        .  @  .  @                 +     @  .     .        +  +  +     +     @     .  @  @  .  +        @        +  +  @     .     +  .  @  .  +  .  +  +  @  +     .  @     .  +     @  @  @  @  .  +  +  .     .  .     +        @     @  +  @  @  .     +     @  +  @  @  .  @        @  @  +  .  .  .  .  .     +     .  .  .  +  .     .  .  @  @  .  @  .     .  .  +              +  .  @           +  @        +  @  @  +  .  .     @  @           @     @  @     @  +  .  @  +        .     .  @  .  @  @  .              @  .     +  @  @  .  +  @  +  +  @  +  .  @     +  @  +     +  .     .        .  .     @  +  +  .  .  .     .     +     @  +  .  .     +  +     @  .  @     +     .  +  +  +  +     +     @  .     +  +  +     @  +     .        .  +  @     .  @  .     @  .        .  @  .  @                 +     @  .     .        +  +  +     +     @     .  @  @  .  +        @        +  +  @     .     +  .  @  .  +  .  +  +  @  +     .  @     .  +     @  @  @  @  .  +  +  .     .  .     +        @     @  +  @  @  .     +     @  +  @  @  .  @        @  @  +  .  .  .  .  .     +     .  .  .  +  .     .  .  @  @  .  @  .     .  .  +              +  .  @           +  @        +  @  @  +  .  .     @  @           @     @  @     @  +  .  @  +        .     .  @  .  @  @  .              @  .     +  @  @  .  +  @  +  +  @  +  .  @     +  @  +     +  .     ",
"   @  .  @     +     .  +  +  +  +     +     @  .     +  +  +     @  +     .        .  +  @     .  @  .     @  .        .  @  .  @                 +     @  .     .        +  +  +     +     @     .  @  @  .  +        @        +  +  @     .     +  .  @  .  +  .  +  +  @  +     .  @     .  +     @  @  @  @  .  +  +  .     .  .     +        @     @  +  @  @  .     +     @  +  @  @  .  @        @  @  +  .  .  .  .  .     +     .  .  .  +  .     .  .  @  @  .  @  .     .  .  +              +  .  @           +  @        +  @  @  +  .  .     @  @           @     @  @     @  +  .  @  +        .     .  @  .  @  @  .              @  .     +  @  @  .  +  @  +  +  @  +  .  @     +  @  +     +  .     .        .  .     @  +  +  .  .  .     .     +     @  +  .  .     +  +     @  .  @     +     .  +  +  +  +     +     @  .     +  +  +     @  +     .        .  +  @     .  @  .     @  .        .  @  .  @                 +     @  .     .        +  +  +     +     @     .  @  @  .  +        @        +  +  @     .     +  .  @  .  +  .  +  +  @  +     .  @     .  +     @  @  @  @  .  +  +  .     .  .     +        @     @  +  @  @  .     +     @  +  @  @  .  @        @  @  +  .  .  .  .  .     +     .  .  .  +  .     .  .  @  @  .  @  .     .  .  +              +  .  @           +  @        +  @  @  +  .  .     @  @           @     @  @     @  +  .  @  +        .     .  @  .  @  @  .              @  .     +  @  @  .  +  @  +  +  @  +  .  @     +  @  +     +  .     .        .  .     @  +  +  .  .  .     .     +     @  +  .  .     +  +  ",
"@  +     .        .  +  @     .  @  .     @  .        .  @  .  @                 +     @  .     .        +  +  +     +     @     .  @  @  .  +        @        +  +  @     .     +  .  @  .  +  .  +  +  @  +     .  @     .  +     @  @  @  @  .  +  +  .     .  .     +        @     @  +  @  @  .     +     @  +  @  @  .  @        @  @  +  .  .  .  .  .     +     .  .  .  +  .     .  .  @  @  .  @  .     .  .  +              +  .  @           +  @        +  @  @  +  .  .     @  @           @     @  @     @  +  .  @  +        .     .  @  .  @  @  .              @  .     +  @  @  .  +  @  +  +  @  +  .  @     +  @  +     +  .     .        .  .     @  +  +  .  .  .     .     +     @  +  .  .     +  +     @  .  @     +     .  +  +  +  +     +     @  .     +  +  +     @  +     .        .  +  @     .  @  .     @  .        .  @  .  @                 +     @  .     .        +  +  +     +     @     .  @  @  .  +        @        +  +  @     .     +  .  @  .  +  .  +  +  @  +     .  @     .  +     @  @  @  @  .  +  +  .     .  .     +        @     @  +  @  @  .     +     @  +  @  @  .  @        @  @  +  .  .  .  .  .     +     .  .  .  +  .     .  .  @  @  .  @  .     .  .  +              +  .  @           +  @        +  @  @  +  .  .     @  @           @     @  @     @  +  .  @  +        .     .  @  .  @  @  .              @  .     +  @  @  .  +  @  +  +  @  +  .  @     +  @  +     +  .     .        .  .     @  +  +  .  .  .     .     +     @  +  .  .     +  +     @  .  @     +     .  +  +  +  +     +     @  .     +  +  +     ",
".  @  @  .              @  .     +  @  @  .  +  @  +  +  @  +  .  @     +  @  +     +  .     .        .  .     @  +  +  .  .  .     .     +     @  +  .  .     +  +     @  .  @     +     .  +  +  +  +     +     @  .     +  +  +     @  +     .        .  +  @     .  @  .     @  .        .  @  .  @                 +     @  .     .        +  +  +     +     @     .  @  @  .  +        @        +  +  @     .     +  .  @  .  +  .  +  +  @  +     .  @     .  +     @  @  @  @  .  +  +  .     .  .     +        @     @  +  @  @  .     +     @  +  @  @  .  @        @  @  +  .  .  .  .  .     +     .  .  .  +  .     .  .  @  @  .  @  .     .  .  +              +  .  @           +  @        +  @  @  +  .  .     @  @           @     @  @     @  +  .  @  +        .     .  @  .  @  @  .              @  .     +  @  @  .  +  @  +  +  @  +  .  @     +  @  +     +  .     .        .  .     @  +  +  .  .  .     .     +     @  +  .  .     +  +     @  .  @     +     .  +  +  +  +     +     @  .     +  +  +     @  +     .        .  +  @     .  @  .     @  .        .  @  .  @                 +     @  .     .        +  +  +     +     @     .  @  @  .  +        @        +  +  @     .     +  .  @  .  +  .  +  +  @  +     .  @     .  +     @  @  @  @  .  +  +  .     .  .     +        @     @  +  @  @  .     +     @  +  @  @  .  @        @  @  +  .  .  .  .  .     +     .  .  .  +  .     .  .  @  @  .  @  .     .  .  +              +  .  @           +  @        +  @  @  +  .  .     @  @           @     @  @     @  +  .  @  +        .     .  @  ",
"   +     .  +  +  +  +     +     @  .     +  +  +     @  +     .        .  +  @     .  @  .     @  .        .  @  .  @                 +     @  .     .        +  +  +     +     @     .  @  @  .  +        @        +  +  @     .     +  .  @  .  +  .  +  +  @  +     .  @     .  +     @  @  @  @  .  +  +  .     .  .     +        @     @  +  @  @  .     +     @  +  @  @  .  @        @  @  +  .  .  .  .  .     +     .  .  .  +  .     .  .  @  @  .  @  .     .  .  +              +  .  @           +  @        +  @  @  +  .  .     @  @           @     @  @     @  +  .  @  +        .     .  @  .  @  @  .              @  .     +  @  @  .  +  @  +  +  @  +  .  @     +  @  +     +  .     .        .  .     @  +  +  .  .  .     .     +     @  +  .  .     +  +     @  .  @     +     .  +  +  +  +     +     @  .     +  +  +     @  +     .        .  +  @     .  @  .     @  .        .  @  .  @                 +     @  .     .        +  +  +     +     @     .  @  @  .  +        @        +  +  @     .     +  .  @  .  +  .  +  +  @  +     .  @     .  +     @  @  @  @  .  +  +  .     .  .     +        @     @  +  @  @  .     +     @  +  @  @  .  @        @  @  +  .  .  .  .  .     +     .  .  .  +  .     .  .  @  @  .  @  .     .  .  +              +  .  @           +  @        +  @  @  +  .  .     @  @           @     @  @     @  +  .  @  +        .     .  @  .  @  @  .              @  .     +  @  @  .  +  @  +  +  @  +  .  @     +  @  +     +  .     .        .  .     @  +  +  .  .  .     .     +     @  +  .  .     +  +     @  .  @  ",
"+  @  @  +  .  .     @  @           @     @  @     @  +  .  @  +        .     .  @  .  @  @  .              @  .     +  @  @  .  +  @  +  +  @  +  .  @     +  @  +     +  .     .        .  .     @  +  +  .  .  .     .     +     @  +  .  .     +  +     @  .  @     +     .  +  +  +  +     +     @  .     +  +  +     @  +     .        .  +  @     .  @  .     @  .        .  @  .  @                 +     @  .     .        +  +  +     +     @     .  @  @  .  +        @        +  +  @     .     +  .  @  .  +  .  +  +  @  +     .  @     .  +     @  @  @  @  .  +  +  .     .  .     +        @     @  +  @  @  .     +     @  +  @  @  .  @        @  @  +  .  .  .  .  .     +     .  .  .  +  .     .  .  @  @  .  @  .     .  .  +              +  .  @           +  @        +  @  @  +  .  .     @  @           @     @  @     @  +  .  @  +        .     .  @  .  @  @  .              @  .     +  @  @  .  +  @  +  +  @  +  .  @     +  @  +     +  .     .        .  .     @  +  +  .  .  .     .     +     @  +  .  .     +  +     @  .  @     +     .  +  +  +  +     +     @  .     +  +  +     @  +     .        .  +  @     .  @  .     @  .        .  @  .  @                 +     @  .     .        +  +  +     +     @     .  @  @  .  +        @        +  +  @     .     +  .  @  .  +  .  +  +  @  +     .  @     .  +     @  @  @  @  .  +  +  .     .  .     +        @     @  +  @  @  .     +     @  +  @  @  .  @        @  @  +  .  .  .  .  .     +     .  .  .  +  .     .  .  @  @  .  @  .     .  .  +              +  .  @           +  @        ",
".  @        @  @  +  .  .  .  .  .     +     .  .  .  +  .     .  .  @  @  .  @  .     .  .  +              +  .  @           +  @        +  @  @  +  .  .     @  @           @     @  @     @  +  .  @  +        .     .  @  .  @  @  .              @  .     +  @  @  .  +  @  +  +  @  +  .  @     +  @  +     +  .     .        .  .     @  +  +  .  .  .     .     +     @  +  .  .     +  +     @  .  @     +     .  +  +  +  +     +     @  .     +  +  +     @  +     .        .  +  @     .  @  .     @  .        .  @  .  @                 +     @  .     .        +  +  +     +     @     .  @  @  .  +        @        +  +  @     .     +  .  @  .  +  .  +  +  @  +     .  @     .  +     @  @  @  @  .  +  +  .     .  .     +        @     @  +  @  @  .     +     @  +  @  @  .  @        @  @  +  .  .  .  .  .     +     .  .  .  +  .     .  .  @  @  .  @  .     .  .  +              +  .  @           +  @        +  @  @  +  .  .     @  @           @     @  @     @  +  .  @  +        .     .  @  .  @  @  .              @  .     +  @  @  .  +  @  +  +  @  +  .  @     +  @  +     +  .     .        .  .     @  +  +  .  .  .     .     +     @  +  .  .     +  +     @  .  @     +     .  +  +  +  +     +     @  .     +  +  +     @  +     .        .  +  @     .  @  .     @  .        .  @  .  @                 +     @  .     .        +  +  +     +     @     .  @  @  .  +        @        +  +  @     .     +  .  @  .  +  .  +  +  @  +     .  @     .  +     @  @  @  @  .  +  +  .     .  .     +        @     @  +  @  @  .     +     @  +  @  @  ",
"   @  .     +  +  +     @  +     .        .  +  @     .  @  .     @  .        .  @  .  @                 +     @  .     .        +  +  +     +     @     .  @  @  .  +        @        +  +  @     .     +  .  @  .  +  .  +  +  @  +     .  @     .  +     @  @  @  @  .  +  +  .     .  .     +        @     @  +  @  @  .     +     @  +  @  @  .  @        @  @  +  .  .  .  .  .     +     .  .  .  +  .     .  .  @  @  .  @  .     .  .  +              +  .  @           +  @        +  @  @  +  .  .     @  @           @     @  @     @  +  .  @  +        .     .  @  .  @  @  .              @  .     +  @  @  .  +  @  +  +  @  +  .  @     +  @  +     +  .     .        .  .     @  +  +  .  .  .     .     +     @  +  .  .     +  +     @  .  @     +     .  +  +  +  +     +     @  .     +  +  +     @  +     .        .  +  @     .  @  .     @  .        .  @  .  @                 +     @  .     .        +  +  +     +     @     .  @  @  .  +        @        +  +  @     .     +  .  @  .  +  .  +  +  @  +     .  @     .  +     @  @  @  @  .  +  +  .     .  .     +        @     @  +  @  @  .     +     @  +  @  @  .  @        @  @  +  .  .  .  .  .     +     .  .  .  +  .     .  .  @  @  .  @  .     .  .  +              +  .  @           +  @        +  @  @  +  .  .     @  @           @     @  @     @  +  .  @  +        .     .  @  .  @  @  .              @  .     +  @  @  .  +  @  +  +  @  +  .  @     +  @  +     +  .     .        .  .     @  +  +  .  .  .     .     +     @  +  .  .     +  +     @  .  @     +     .  +  +  +  +     +  ",
"@  .  @        @  @  +  .  .  .  .  .     +     .  .  .  +  .     .  .  @  @  .  @  .     .  .  +              +  .  @           +  @        +  @  @  +  .  .     @  @           @     @  @     @  +  .  @  +        .     .  @  .  @  @  .              @  .     +  @  @  .  +  @  +  +  @  +  .  @     +  @  +     +  .     .        .  .     @  +  +  .  .  .     .     +     @  +  .  .     +  +     @  .  @     +     .  +  +  +  +     +     @  .     +  +  +     @  +     .        .  +  @     .  @  .     @  .        .  @  .  @                 +     @  .     .        +  +  +     +     @     .  @  @  .  +        @        +  +  @     .     +  .  @  .  +  .  +  +  @  +     .  @     .  +     @  @  @  @  .  +  +  .     .  .     +        @     @  +  @  @  .     +     @  +  @  @  .  @        @  @  +  .  .  .  .  .     +     .  .  .  +  .     .  .  @  @  .  @  .     .  .  +              +  .  @           +  @        +  @  @  +  .  .     @  @           @     @  @     @  +  .  @  +        .     .  @  .  @  @  .              @  .     +  @  @  .  +  @  +  +  @  +  .  @     +  @  +     +  .     .        .  .     @  +  +  .  .  .     .     +     @  +  .  .     +  +     @  .  @     +     .  +  +  +  +     +     @  .     +  +  +     @  +     .        .  +  @     .  @  .     @  .        .  @  .  @                 +     @  .     .        +  +  +     +     @     .  @  @  .  +        @        +  +  @     .     +  .  @  .  +  .  +  +  @  +     .  @     .  +     @  @  @  @  .  +  +  .     .  .     +        @     @  +  @  @  .     +     @  +  @  ",
".  +  @  +  +  @  +  .  @     +  @  +     +  .     .        .  .     @  +  +  .  .  .     .     +     @  +  .  .     +  +     @  .  @     +     .  +  +  +  +     +     @  .     +  +  +     @  +     .        .  +  @     .  @  .     @  .        .  @  .  @                 +     @  .     .        +  +  +     +     @     .  @  @  .  +        @        +  +  @     .     +  .  @  .  +  .  +  +  @  +     .  @     .  +     @  @  @  @  .  +  +  .     .  .     +        @     @  +  @  @  .     +     @  +  @  @  .  @        @  @  +  .  .  .  .  .     +     .  .  .  +  .     .  .  @  @  .  @  .     .  .  +              +  .  @           +  @        +  @  @  +  .  .     @  @           @     @  @     @  +  .  @  +        .     .  @  .  @  @  .              @  .     +  @  @  .  +  @  +  +  @  +  .  @     +  @  +     +  .     .        .  .     @  +  +  .  .  .     .     +     @  +  .  .     +  +     @  .  @     +     .  +  +  +  +     +     @  .     +  +  +     @  +     .        .  +  @     .  @  .     @  .        .  @  .  @                 +     @  .     .        +  +  +     +     @     .  @  @  .  +        @        +  +  @     .     +  .  @  .  +  .  +  +  @  +     .  @     .  +     @  @  @  @  .  +  +  .     .  .     +        @     @  +  @  @  .     +     @  +  @  @  .  @        @  @  +  .  .  .  .  .     +     .  .  .  +  .     .  .  @  @  .  @  .     .  .  +              +  .  @           +  @        +  @  @  +  .  .     @  @           @     @  @     @  +  .  @  +        .     .  @  .  @  @  .              @  .     +  @  @  ",
"+     .  @     .  +     @  @  @  @  .  +  +  .     .  .     +        @     @  +  @  @  .     +     @  +  @  @  .  @        @  @  +  .  .  .  .  .     +     .  .  .  +  .     .  .  @  @  .  @  .     .  .  +              +  .  @           +  @        +  @  @  +  .  .     @  @           @     @  @     @  +  .  @  +        .     .  @  .  @  @  .              @  .     +  @  @  .  +  @  +  +  @  +  .  @     +  @  +     +  .     .        .  .     @  +  +  .  .  .     .     +     @  +  .  .     +  +     @  .  @     +     .  +  +  +  +     +     @  .     +  +  +     @  +     .        .  +  @     .  @  .     @  .        .  @  .  @                 +     @  .     .        +  +  +     +     @     .  @  @  .  +        @        +  +  @     .     +  .  @  .  +  .  +  +  @  +     .  @     .  +     @  @  @  @  .  +  +  .     .  .     +        @     @  +  @  @  .     +     @  +  @  @  .  @        @  @  +  .  .  .  .  .     +     .  .  .  +  .     .  .  @  @  .  @  .     .  .  +              +  .  @           +  @        +  @  @  +  .  .     @  @           @     @  @     @  +  .  @  +        .     .  @  .  @  @  .              @  .     +  @  @  .  +  @  +  +  @  +  .  @     +  @  +     +  .     .        .  .     @  +  +  .  .  .     .     +     @  +  .  .     +  +     @  .  @     +     .  +  +  +  +     +     @  .     +  +  +     @  +     .        .  +  @     .  @  .     @  .        .  @  .  @                 +     @  .     .        +  +  +     +     @     .  @  @  .  +        @        +  +  @     .     +  .  @  .  +  .  +  +  @  ",
"   .        +  +  +     +     @     .  @  @  .  +        @        +  +  @     .     +  .  @  .  +  .  +  +  @  +     .  @     .  +     @  @  @  @  .  +  +  .     .  .     +        @     @  +  @  @  .     +     @  +  @  @  .  @        @  @  +  .  .  .  .  .     +     .  .  .  +  .     .  .  @  @  .  @  .     .  .  +              +  .  @           +  @        +  @  @  +  .  .     @  @           @     @  @     @  +  .  @  +        .     .  @  .  @  @  .              @  .     +  @  @  .  +  @  +  +  @  +  .  @     +  @  +     +  .     .        .  .     @  +  +  .  .  .     .     +     @  +  .  .     +  +     @  .  @     +     .  +  +  +  +     +     @  .     +  +  +     @  +     .        .  +  @     .  @  .     @  .        .  @  .  @                 +     @  .     .        +  +  +     +     @     .  @  @  .  +        @        +  +  @     .     +  .  @  .  +  .  +  +  @  +     .  @     .  +     @  @  @  @  .  +  +  .     .  .     +        @     @  +  @  @  .     +     @  +  @  @  .  @        @  @  +  .  .  .  .  .     +     .  .  .  +  .     .  .  @  @  .  @  .     .  .  +              +  .  @           +  @        +  @  @  +  .  .     @  @           @     @  @     @  +  .  @  +        .     .  @  .  @  @  .              @  .     +  @  @  .  +  @  +  +  @  +  .  @     +  @  +     +  .     .        .  .     @  +  +  .  .  .     .     +     @  +  .  .     +  +     @  .  @     +     .  +  +  +  +     +     @  .     +  +  +     @  +     .        .  +  @     .  @  .     @  .        .  @  .  @                 +     @  .  ",
"   @     .  @  @  .  +        @        +  +  @     .     +  .  @  .  +  .  +  +  @  +     .  @     .  +     @  @  @  @  .  +  +  .     .  .     +        @     @  +  @  @  .     +     @  +  @  @  .  @        @  @  +  .  .  .  .  .     +     .  .  .  +  .     .  .  @  @  .  @  .     .  .  +              +  .  @           +  @        +  @  @  +  .  .     @  @           @     @  @     @  +  .  @  +        .     .  @  .  @  @  .              @  .     +  @  @  .  +  @  +  +  @  +  .  @     +  @  +     +  .     .        .  .     @  +  +  .  .  .     .     +     @  +  .  .     +  +     @  .  @     +     .  +  +  +  +     +     @  .     +  +  +     @  +     .        .  +  @     .  @  .     @  .        .  @  .  @                 +     @  .     .        +  +  +     +     @     .  @  @  .  +        @        +  +  @     .     +  .  @  .  +  .  +  +  @  +     .  @     .  +     @  @  @  @  .  +  +  .     .  .     +        @     @  +  @  @  .     +     @  +  @  @  .  @        @  @  +  .  .  .  .  .     +     .  .  .  +  .     .  .  @  @  .  @  .     .  .  +              +  .  @           +  @        +  @  @  +  .  .     @  @           @     @  @     @  +  .  @  +        .     .  @  .  @  @  .              @  .     +  @  @  .  +  @  +  +  @  +  .  @     +  @  +     +  .     .        .  .     @  +  +  .  .  .     .     +     @  +  .  .     +  +     @  .  @     +     .  +  +  +  +     +     @  .     +  +  +     @  +     .        .  +  @     .  @  .     @  .        .  @  .  @                 +     @  .     .        +  +  +     +  ",
"   +     .  .  .  +  .     .  .  @  @  .  @  .     .  .  +              +  .  @           +  @        +  @  @  +  .  .     @  @           @     @  @     @  +  .  @  +        .     .  @  .  @  @  .              @  .     +  @  @  .  +  @  +  +  @  +  .  @     +  @  +     +  .     .        .  .     @  +  +  .  .  .     .     +     @  +  .  .     +  +     @  .  @     +     .  +  +  +  +     +     @  .     +  +  +     @  +     .        .  +  @     .  @  .     @  .        .  @  .  @                 +     @  .     .        +  +  +     +     @     .  @  @  .  +        @        +  +  @     .     +  .  @  .  +  .  +  +  @  +     .  @     .  +     @  @  @  @  .  +  +  .     .  .     +        @     @  +  @  @  .     +     @  +  @  @  .  @        @  @  +  .  .  .  .  .     +     .  .  .  +  .     .  .  @  @  .  @  .     .  .  +              +  .  @           +  @        +  @  @  +  .  .     @  @           @     @  @     @  +  .  @  +        .     .  @  .  @  @  .              @  .     +  @  @  .  +  @  +  +  @  +  .  @     +  @  +     +  .     .        .  .     @  +  +  .  .  .     .     +     @  +  .  .     +  +     @  .  @     +     .  +  +  +  +     +     @  .     +  +  +     @  +     .        .  +  @     .  @  .     @  .        .  @  .  @                 +     @  .     .        +  +  +     +     @     .  @  @  .  +        @        +  +  @     .     +  .  @  .  +  .  +  +  @  +     .  @     .  +     @  @  @  @  .  +  +  .     .  .     +        @     @  +  @  @  .     +     @  +  @  @  .  @        @  @  +  .  .  .  .  .  ",
".     .        .  .     @  +  +  .  .  .     .     +     @  +  .  .     +  +     @  .  @     +     .  +  +  +  +     +     @  .     +  +  +     @  +     .        .  +  @     .  @  .     @  .        .  @  .  @                 +     @  .     .        +  +  +     +     @     .  @  @  .  +        @        +  +  @     .     +  .  @  .  +  .  +  +  @  +     .  @     .  +     @  @  @  @  .  +  +  .     .  .     +        @     @  +  @  @  .     +     @  +  @  @  .  @        @  @  +  .  .  .  .  .     +     .  .  .  +  .     .  .  @  @  .  @  .     .  .  +              +  .  @           +  @        +  @  @  +  .  .     @  @           @     @  @     @  +  .  @  +        .     .  @  .  @  @  .              @  .     +  @  @  .  +  @  +  +  @  +  .  @     +  @  +     +  .     .        .  .     @  +  +  .  .  .     .     +     @  +  .  .     +  +     @  .  @     +     .  +  +  +  +     +     @  .     +  +  +     @  +     .        .  +  @     .  @  .     @  .        .  @  .  @                 +     @  .     .        +  +  +     +     @     .  @  @  .  +        @        +  +  @     .     +  .  @  .  +  .  +  +  @  +     .  @     .  +     @  @  @  @  .  +  +  .     .  .     +        @     @  +  @  @  .     +     @  +  @  @  .  @        @  @  +  .  .  .  .  .     +     .  .  .  +  .     .  .  @  @  .  @  .     .  .  +              +  .  @           +  @        +  @  @  +  .  .     @  @           @     @  @     @  +  .  @  +        .     .  @  .  @  @  .              @  .     +  @  @  .  +  @  +  +  @  +  .  @     +  @  +     +  ",
"@  +  .  @  +        .     .  @  .  @  @  .              @  .     +  @  @  .  +  @  +  +  @  +  .  @     +  @  +     +  .     .        .  .     @  +  +  .  .  .     .     +     @  +  .  .     +  +     @  .  @     +     .  +  +  +  +     +     @  .     +  +  +     @  +     .        .  +  @     .  @  .     @  .        .  @  .  @                 +     @  .     .        +  +  +     +     @     .  @  @  .  +        @        +  +  @     .     +  .  @  .  +  .  +  +  @  +     .  @     .  +     @  @  @  @  .  +  +  .     .  .     +        @     @  +  @  @  .     +     @  +  @  @  .  @        @  @  +  .  .  .  .  .     +     .  .  .  +  .     .  .  @  @  .  @  .     .  .  +              +  .  @           +  @        +  @  @  +  .  .     @  @           @     @  @     @  +  .  @  +        .     .  @  .  @  @  .              @  .     +  @  @  .  +  @  +  +  @  +  .  @     +  @  +     +  .     .        .  .     @  +  +  .  .  .     .     +     @  +  .  .     +  +     @  .  @     +     .  +  +  +  +     +     @  .     +  +  +     @  +     .        .  +  @     .  @  .     @  .        .  @  .  @                 +     @  .     .        +  +  +     +     @     .  @  @  .  +        @        +  +  @     .     +  .  @  .  +  .  +  +  @  +     .  @     .  +     @  @  @  @  .  +  +  .     .  .     +        @     @  +  @  @  .     +     @  +  @  @  .  @        @  @  +  .  .  .  .  .     +     .  .  .  +  .     .  .  @  @  .  @  .     .  .  +              +  .  @           +  @        +  @  @  +  .  .     @  @           @     @  @     ",
"+     .        .  +  @     .  @  .     @  .        .  @  .  @                 +     @  .     .        +  +  +     +     @     .  @  @  .  +        @        +  +  @     .     +  .  @  .  +  .  +  +  @  +     .  @     .  +     @  @  @  @  .  +  +  .     .  .     +        @     @  +  @  @  .     +     @  +  @  @  .  @        @  @  +  .  .  .  .  .     +     .  .  .  +  .     .  .  @  @  .  @  .     .  .  +              +  .  @           +  @        +  @  @  +  .  .     @  @           @     @  @     @  +  .  @  +        .     .  @  .  @  @  .              @  .     +  @  @  .  +  @  +  +  @  +  .  @     +  @  +     +  .     .        .  .     @  +  +  .  .  .     .     +     @  +  .  .     +  +     @  .  @     +     .  +  +  +  +     +     @  .     +  +  +     @  +     .        .  +  @     .  @  .     @  .        .  @  .  @                 +     @  .     .        +  +  +     +     @     .  @  @  .  +        @        +  +  @     .     +  .  @  .  +  .  +  +  @  +     .  @     .  +     @  @  @  @  .  +  +  .     .  .     +        @     @  +  @  @  .     +     @  +  @  @  .  @        @  @  +  .  .  .  .  .     +     .  .  .  +  .     .  .  @  @  .  @  .     .  .  +              +  .  @           +  @        +  @  @  +  .  .     @  @           @     @  @     @  +  .  @  +        .     .  @  .  @  @  .              @  .     +  @  @  .  +  @  +  +  @  +  .  @     +  @  +     +  .     .        .  .     @  +  +  .  .  .     .     +     @  +  .  .     +  +     @  .  @     +     .  +  +  +  +     +     @  .     +  +  +     @  ",
"   .     .  @  .  @  @  .              @  .     +  @  @  .  +  @  +  +  @  +  .  @     +  @  +     +  .     .        .  .     @  +  +  .  .  .     .     +     @  +  .  .     +  +     @  .  @     +     .  +  +  +  +     +     @  .     +  +  +     @  +     .        .  +  @     .  @  .     @  .        .  @  .  @                 +     @  .     .        +  +  +     +     @     .  @  @  .  +        @        +  +  @     .     +  .  @  .  +  .  +  +  @  +     .  @     .  +     @  @  @  @  .  +  +  .     .  .     +        @     @  +  @  @  .     +     @  +  @  @  .  @        @  @  +  .  .  .  .  .     +     .  .  .  +  .     .  .  @  @  .  @  .     .  .  +              +  .  @           +  @        +  @  @  +  .  .     @  @           @     @  @     @  +  .  @  +        .     .  @  .  @  @  .              @  .     +  @  @  .  +  @  +  +  @  +  .  @     +  @  +     +  .     .        .  .     @  +  +  .  .  .     .     +     @  +  .  .     +  +     @  .  @     +     .  +  +  +  +     +     @  .     +  +  +     @  +     .        .  +  @     .  @  .     @  .        .  @  .  @                 +     @  .     .        +  +  +     +     @     .  @  @  .  +        @        +  +  @     .     +  .  @  .  +  .  +  +  @  +     .  @     .  +     @  @  @  @  .  +  +  .     .  .     +        @     @  +  @  @  .     +     @  +  @  @  .  @        @  @  +  .  .  .  .  .     +     .  .  .  +  .     .  .  @  @  .  @  .     .  .  +              +  .  @           +  @        +  @  @  +  .  .     @  @           @     @  @     @  +  .  @  +     ",
"   .        .  .     @  +  +  .  .  .     .     +     @  +  .  .     +  +     @  .  @     +     .  +  +  +  +     +     @  .     +  +  +     @  +     .        .  +  @     .  @  .     @  .        .  @  .  @                 +     @  .     .        +  +  +     +     @     .  @  @  .  +        @        +  +  @     .     +  .  @  .  +  .  +  +  @  +     .  @     .  +     @  @  @  @  .  +  +  .     .  .     +        @     @  +  @  @  .     +     @  +  @  @  .  @        @  @  +  .  .  .  .  .     +     .  .  .  +  .     .  .  @  @  .  @  .     .  .  +              +  .  @           +  @        +  @  @  +  .  .     @  @           @     @  @     @  +  .  @  +        .     .  @  .  @  @  .              @  .     +  @  @  .  +  @  +  +  @  +  .  @     +  @  +     +  .     .        .  .     @  +  +  .  .  .     .     +     @  +  .  .     +  +     @  .  @     +     .  +  +  +  +     +     @  .     +  +  +     @  +     .        .  +  @     .  @  .     @  .        .  @  .  @                 +     @  .     .        +  +  +     +     @     .  @  @  .  +        @        +  +  @     .     +  .  @  .  +  .  +  +  @  +     .  @     .  +     @  @  @  @  .  +  +  .     .  .     +        @     @  +  @  @  .     +     @  +  @  @  .  @        @  @  +  .  .  .  .  .     +     .  .  .  +  .     .  .  @  @  .  @  .     .  .  +              +  .  @           +  @        +  @  @  +  .  .     @  @           @     @  @     @  +  .  @  +        .     .  @  .  @  @  .              @  .     +  @  @  .  +  @  +  +  @  +  .  @     +  @  +     +  .  ",
".  +  .  +  +  @  +     .  @     .  +     @  @  @  @  .  +  +  .     .  .     +        @     @  +  @  @  .     +     @  +  @  @  .  @        @  @  +  .  .  .  .  .     +     .  .  .  +  .     .  .  @  @  .  @  .     .  .  +              +  .  @           +  @        +  @  @  +  .  .     @  @           @     @  @     @  +  .  @  +        .     .  @  .  @  @  .              @  .     +  @  @  .  +  @  +  +  @  +  .  @     +  @  +     +  .     .        .  .     @  +  +  .  .  .     .     +     @  +  .  .     +  +     @  .  @     +     .  +  +  +  +     +     @  .     +  +  +     @  +     .        .  +  @     .  @  .     @  .        .  @  .  @                 +     @  .     .        +  +  +     +     @     .  @  @  .  +        @        +  +  @     .     +  .  @  .  +  .  +  +  @  +     .  @     .  +     @  @  @  @  .  +  +  .     .  .     +        @     @  +  @  @  .     +     @  +  @  @  .  @        @  @  +  .  .  .  .  .     +     .  .  .  +  .     .  .  @  @  .  @  .     .  .  +              +  .  @           +  @        +  @  @  +  .  .     @  @           @     @  @     @  +  .  @  +        .     .  @  .  @  @  .              @  .     +  @  @  .  +  @  +  +  @  +  .  @     +  @  +     +  .     .        .  .     @  +  +  .  .  .     .     +     @  +  .  .     +  +     @  .  @     +     .  +  +  +  +     +     @  .     +  +  +     @  +     .        .  +  @     .  @  .     @  .        .  @  .  @                 +     @  .     .        +  +  +     +     @     .  @  @  .  +        @        +  +  @     .     +  .  @  ",
"@  @  .  +        @        +  +  @     .     +  .  @  .  +  .  +  +  @  +     .  @     .  +     @  @  @  @  .  +  +  .     .  .     +        @     @  +  @  @  .     +     @  +  @  @  .  @        @  @  +  .  .  .  .  .     +     .  .  .  +  .     .  .  @  @  .  @  .     .  .  +              +  .  @           +  @        +  @  @  +  .  .     @  @           @     @  @     @  +  .  @  +        .     .  @  .  @  @  .              @  .     +  @  @  .  +  @  +  +  @  +  .  @     +  @  +     +  .     .        .  .     @  +  +  .  .  .     .     +     @  +  .  .     +  +     @  .  @     +     .  +  +  +  +     +     @  .     +  +  +     @  +     .        .  +  @     .  @  .     @  .        .  @  .  @                 +     @  .     .        +  +  +     +     @     .  @  @  .  +        @        +  +  @     .     +  .  @  .  +  .  +  +  @  +     .  @     .  +     @  @  @  @  .  +  +  .     .  .     +        @     @  +  @  @  .     +     @  +  @  @  .  @        @  @  +  .  .  .  .  .     +     .  .  .  +  .     .  .  @  @  .  @  .     .  .  +              +  .  @           +  @        +  @  @  +  .  .     @  @           @     @  @     @  +  .  @  +        .     .  @  .  @  @  .              @  .     +  @  @  .  +  @  +  +  @  +  .  @     +  @  +     +  .     .        .  .     @  +  +  .  .  .     .     +     @  +  .  .     +  +     @  .  @     +     .  +  +  +  +     +     @  .     +  +  +     @  +     .        .  +  @     .  @  .     @  .        .  @  .  @                 +     @  .     .        +  +  +     +     @     .  ",
"@        @  @  +  .  .  .  .  .     +     .  .  .  +  .     .  .  @  @  .  @  .     .  .  +              +  .  @           +  @        +  @  @  +  .  .     @  @           @     @  @     @  +  .  @  +        .     .  @  .  @  @  .              @  .     +  @  @  .  +  @  +  +  @  +  .  @     +  @  +     +  .     .        .  .     @  +  +  .  .  .     .     +     @  +  .  .     +  +     @  .  @     +     .  +  +  +  +     +     @  .     +  +  +     @  +     .        .  +  @     .  @  .     @  .        .  @  .  @                 +     @  .     .        +  +  +     +     @     .  @  @  .  +        @        +  +  @     .     +  .  @  .  +  .  +  +  @  +     .  @     .  +     @  @  @  @  .  +  +  .     .  .     +        @     @  +  @  @  .     +     @  +  @  @  .  @        @  @  +  .  .  .  .  .     +     .  .  .  +  .     .  .  @  @  .  @  .     .  .  +              +  .  @           +  @        +  @  @  +  .  .     @  @           @     @  @     @  +  .  @  +        .     .  @  .  @  @  .              @  .     +  @  @  .  +  @  +  +  @  +  .  @     +  @  +     +  .     .        .  .     @  +  +  .  .  .     .     +     @  +  .  .     +  +     @  .  @     +     .  +  +  +  +     +     @  .     +  +  +     @  +     .        .  +  @     .  @  .     @  .        .  @  .  @                 +     @  .     .        +  +  +     +     @     .  @  @  .  +        @        +  +  @     .     +  .  @  .  +  .  +  +  @  +     .  @     .  +     @  @  @  @  .  +  +  .     .  .     +        @     @  +  @  @  .     +     @  +  @  @  .  ",
"   .  .  @  @  .  @  .     .  .  +              +  .  @           +  @        +  @  @  +  .  .     @  @           @     @  @     @  +  .  @  +        .     .  @  .  @  @  .              @  .     +  @  @  .  +  @  +  +  @  +  .  @     +  @  +     +  .     .        .  .     @  +  +  .  .  .     .     +     @  +  .  .     +  +     @  .  @     +     .  +  +  +  +     +     @  .     +  +  +     @  +     .        .  +  @     .  @  .     @  .        .  @  .  @                 +     @  .     .        +  +  +     +     @     .  @  @  .  +        @        +  +  @     .     +  .  @  .  +  .  +  +  @  +     .  @     .  +     @  @  @  @  .  +  +  .     .  .     +        @     @  +  @  @  .     +     @  +  @  @  .  @        @  @  +  .  .  .  .  .     +     .  .  .  +  .     .  .  @  @  .  @  .     .  .  +              +  .  @           +  @        +  @  @  +  .  .     @  @           @     @  @     @  +  .  @  +        .     .  @  .  @  @  .              @  .     +  @  @  .  +  @  +  +  @  +  .  @     +  @  +     +  .     .        .  .     @  +  +  .  .  .     .     +     @  +  .  .     +  +     @  .  @     +     .  +  +  +  +     +     @  .     +  +  +     @  +     .        .  +  @     .  @  .     @  .        .  @  .  @                 +     @  .     .        +  +  +     +     @     .  @  @  .  +        @        +  +  @     .     +  .  @  .  +  .  +  +  @  +     .  @     .  +     @  @  @  @  .  +  +  .     .  .     +        @     @  +  @  @  .     +     @  +  @  @  .  @        @  @  +  .  .  .  .  .     +     .  .  .  +  .  ",
"      +     @  .     .        +  +  +     +     @     .  @  @  .  +        @        +  +  @     .     +  .  @  .  +  .  +  +  @  +     .  @     .  +     @  @  @  @  .  +  +  .     .  .     +        @     @  +  @  @  .     +     @  +  @  @  .  @        @  @  +  .  .  .  .  .     +     .  .  .  +  .     .  .  @  @  .  @  .     .  .  +              +  .  @           +  @        +  @  @  +  .  .     @  @           @     @  @     @  +  .  @  +        .     .  @  .  @  @  .              @  .     +  @  @  .  +  @  +  +  @  +  .  @     +  @  +     +  .     .        .  .     @  +  +  .  .  .     .     +     @  +  .  .     +  +     @  .  @     +     .  +  +  +  +     +     @  .     +  +  +     @  +     .        .  +  @     .  @  .     @  .        .  @  .  @                 +     @  .     .        +  +  +     +     @     .  @  @  .  +        @        +  +  @     .     +  .  @  .  +  .  +  +  @  +     .  @     .  +     @  @  @  @  .  +  +  .     .  .     +        @     @  +  @  @  .     +     @  +  @  @  .  @        @  @  +  .  .  .  .  .     +     .  .  .  +  .     .  .  @  @  .  @  .     .  .  +              +  .  @           +  @        +  @  @  +  .  .     @  @           @     @  @     @  +  .  @  +        .     .  @  .  @  @  .              @  .     +  @  @  .  +  @  +  +  @  +  .  @     +  @  +     +  .     .        .  .     @  +  +  .  .  .     .     +     @  +  .  .     +  +     @  .  @     +     .  +  +  +  +     +     @  .     +  +  +     @  +     .        .  +  @     .  @  .     @  .        .  @  .  @           ",
"@  +  .  .  .  .  .     +     .  .  .  +  .     .  .  @  @  .  @  .     .  .  +              +  .  @           +  @        +  @  @  +  .  .     @  @           @     @  @     @  +  .  @  +        .     .  @  .  @  @  .              @  .     +  @  @  .  +  @  +  +  @  +  .  @     +  @  +     +  .     .        .  .     @  +  +  .  .  .     .     +     @  +  .  .     +  +     @  .  @     +     .  +  +  +  +     +     @  .     +  +  +     @  +     .        .  +  @     .  @  .     @  .        .  @  .  @                 +     @  .     .        +  +  +     +     @     .  @  @  .  +        @        +  +  @     .     +  .  @  .  +  .  +  +  @  +     .  @     .  +     @  @  @  @  .  +  +  .     .  .     +        @     @  +  @  @  .     +     @  +  @  @  .  @        @  @  +  .  .  .  .  .     +     .  .  .  +  .     .  .  @  @  .  @  .     .  .  +              +  .  @           +  @        +  @  @  +  .  .     @  @           @     @  @     @  +  .  @  +        .     .  @  .  @  @  .              @  .     +  @  @  .  +  @  +  +  @  +  .  @     +  @  +     +  .     .        .  .     @  +  +  .  .  .     .     +     @  +  .  .     +  +     @  .  @     +     .  +  +  +  +     +     @  .     +  +  +     @  +     .        .  +  @     .  @  .     @  .        .  @  .  @                 +     @  .     .        +  +  +     +     @     .  @  @  .  +        @        +  +  @     .     +  .  @  .  +  .  +  +  @  +     .  @     .  +     @  @  @  @  .  +  +  .     .  .     +        @     @  +  @  @  .     +     @  +  @  @  .  @        @  ",
"@  @     @  +  .  @  +        .     .  @  .  @  @  .              @  .     +  @  @  .  +  @  +  +  @  +  .  @     +  @  +     +  .     .        .  .     @  +  +  .  .  .     .     +     @  +  .  .     +  +     @  .  @     +     .  +  +  +  +     +     @  .     +  +  +     @  +     .        .  +  @     .  @  .     @  .        .  @  .  @                 +     @  .     .        +  +  +     +     @     .  @  @  .  +        @        +  +  @     .     +  .  @  .  +  .  +  +  @  +     .  @     .  +     @  @  @  @  .  +  +  .     .  .     +        @     @  +  @  @  .     +     @  +  @  @  .  @        @  @  +  .  .  .  .  .     +     .  .  .  +  .     .  .  @  @  .  @  .     .  .  +              +  .  @           +  @        +  @  @  +  .  .     @  @           @     @  @     @  +  .  @  +        .     .  @  .  @  @  .              @  .     +  @  @  .  +  @  +  +  @  +  .  @     +  @  +     +  .     .        .  .     @  +  +  .  .  .     .     +     @  +  .  .     +  +     @  .  @     +     .  +  +  +  +     +     @  .     +  +  +     @  +     .        .  +  @     .  @  .     @  .        .  @  .  @                 +     @  .     .        +  +  +     +     @     .  @  @  .  +        @        +  +  @     .     +  .  @  .  +  .  +  +  @  +     .  @     .  +     @  @  @  @  .  +  +  .     .  .     +        @     @  +  @  @  .     +     @  +  @  @  .  @        @  @  +  .  .  .  .  .     +     .  .  .  +  .     .  .  @  @  .  @  .     .  .  +              +  .  @           +  @        +  @  @  +  .  .     @  @           @     ",
".  .  @  @  .  @  .     .  .  +              +  .  @           +  @        +  @  @  +  .  .     @  @           @     @  @     @  +  .  @  +        .     .  @  .  @  @  .              @  .     +  @  @  .  +  @  +  +  @  +  .  @     +  @  +     +  .     .        .  .     @  +  +  .  .  .     .     +     @  +  .  .     +  +     @  .  @     +     .  +  +  +  +     +     @  .     +  +  +     @  +     .        .  +  @     .  @  .     @  .        .  @  .  @                 +     @  .     .        +  +  +     +     @     .  @  @  .  +        @        +  +  @     .     +  .  @  .  +  .  +  +  @  +     .  @     .  +     @  @  @  @  .  +  +  .     .  .     +        @     @  +  @  @  .     +     @  +  @  @  .  @        @  @  +  .  .  .  .  .     +     .  .  .  +  .     .  .  @  @  .  @  .     .  .  +              +  .  @           +  @        +  @  @  +  .  .     @  @           @     @  @     @  +  .  @  +        .     .  @  .  @  @  .              @  .     +  @  @  .  +  @  +  +  @  +  .  @     +  @  +     +  .     .        .  .     @  +  +  .  .  .     .     +     @  +  .  .     +  +     @  .  @     +     .  +  +  +  +     +     @  .     +  +  +     @  +     .        .  +  @     .  @  .     @  .        .  @  .  @                 +     @  .     .        +  +  +     +     @     .  @  @  .  +        @        +  +  @     .     +  .  @  .  +  .  +  +  @  +     .  @     .  +     @  @  @  @  .  +  +  .     .  .     +        @     @  +  @  @  .     +     @  +  @  @  .  @        @  @  +  .  .  .  .  .     +     .  .  .  +  .     ",
"   @  +  .  .     +  +     @  .  @     +     .  +  +  +  +     +     @  .     +  +  +     @  +     .        .  +  @     .  @  .     @  .        .  @  .  @                 +     @  .     .        +  +  +     +     @     .  @  @  .  +        @        +  +  @     .     +  .  @  .  +  .  +  +  @  +     .  @     .  +     @  @  @  @  .  +  +  .     .  .     +        @     @  +  @  @  .     +     @  +  @  @  .  @        @  @  +  .  .  .  .  .     +     .  .  .  +  .     .  .  @  @  .  @  .     .  .  +              +  .  @           +  @        +  @  @  +  .  .     @  @           @     @  @     @  +  .  @  +        .     .  @  .  @  @  .              @  .     +  @  @  .  +  @  +  +  @  +  .  @     +  @  +     +  .     .        .  .     @  +  +  .  .  .     .     +     @  +  .  .     +  +     @  .  @     +     .  +  +  +  +     +     @  .     +  +  +     @  +     .        .  +  @     .  @  .     @  .        .  @  .  @                 +     @  .     .        +  +  +     +     @     .  @  @  .  +        @        +  +  @     .     +  .  @  .  +  .  +  +  @  +     .  @     .  +     @  @  @  @  .  +  +  .     .  .     +        @     @  +  @  @  .     +     @  +  @  @  .  @        @  @  +  .  .  .  .  .     +     .  .  .  +  .     .  .  @  @  .  @  .     .  .  +              +  .  @           +  @        +  @  @  +  .  .     @  @           @     @  @     @  +  .  @  +        .     .  @  .  @  @  .              @  .     +  @  @  .  +  @  +  +  @  +  .  @     +  @  +     +  .     .        .  .     @  +  +  .  .  .     .     +  ",
"@  +     +  .     .        .  .     @  +  +  .  .  .     .     +     @  +  .  .     +  +     @  .  @     +     .  +  +  +  +     +     @  .     +  +  +     @  +     .        .  +  @     .  @  .     @  .        .  @  .  @                 +     @  .     .        +  +  +     +     @     .  @  @  .  +        @        +  +  @     .     +  .  @  .  +  .  +  +  @  +     .  @     .  +     @  @  @  @  .  +  +  .     .  .     +        @     @  +  @  @  .     +     @  +  @  @  .  @        @  @  +  .  .  .  .  .     +     .  .  .  +  .     .  .  @  @  .  @  .     .  .  +              +  .  @           +  @        +  @  @  +  .  .     @  @           @     @  @     @  +  .  @  +        .     .  @  .  @  @  .              @  .     +  @  @  .  +  @  +  +  @  +  .  @     +  @  +     +  .     .        .  .     @  +  +  .  .  .     .     +     @  +  .  .     +  +     @  .  @     +     .  +  +  +  +     +     @  .     +  +  +     @  +     .        .  +  @     .  @  .     @  .        .  @  .  @                 +     @  .     .        +  +  +     +     @     .  @  @  .  +        @        +  +  @     .     +  .  @  .  +  .  +  +  @  +     .  @     .  +     @  @  @  @  .  +  +  .     .  .     +        @     @  +  @  @  .     +     @  +  @  @  .  @        @  @  +  .  .  .  .  .     +     .  .  .  +  .     .  .  @  @  .  @  .     .  .  +              +  .  @           +  @        +  @  @  +  .  .     @  @           @     @  @     @  +  .  @  +        .     .  @  .  @  @  .              @  .     +  @  @  .  +  @  +  +  @  +  .  @     +  ",
"      .     .  @  .  @  @  .              @  .     +  @  @  .  +  @  +  +  @  +  .  @     +  @  +     +  .     .        .  .     @  +  +  .  .  .     .     +     @  +  .  .     +  +     @  .  @     +     .  +  +  +  +     +     @  .     +  +  +     @  +     .        .  +  @     .  @  .     @  .        .  @  .  @                 +     @  .     .        +  +  +     +     @     .  @  @  .  +        @        +  +  @     .     +  .  @  .  +  .  +  +  @  +     .  @     .  +     @  @  @  @  .  +  +  .     .  .     +        @     @  +  @  @  .     +     @  +  @  @  .  @        @  @  +  .  .  .  .  .     +     .  .  .  +  .     .  .  @  @  .  @  .     .  .  +              +  .  @           +  @        +  @  @  +  .  .     @  @           @     @  @     @  +  .  @  +        .     .  @  .  @  @  .              @  .     +  @  @  .  +  @  +  +  @  +  .  @     +  @  +     +  .     .        .  .     @  +  +  .  .  .     .     +     @  +  .  .     +  +     @  .  @     +     .  +  +  +  +     +     @  .     +  +  +     @  +     .        .  +  @     .  @  .     @  .        .  @  .  @                 +     @  .     .        +  +  +     +     @     .  @  @  .  +        @        +  +  @     .     +  .  @  .  +  .  +  +  @  +     .  @     .  +     @  @  @  @  .  +  +  .     .  .     +        @     @  +  @  @  .     +     @  +  @  @  .  @        @  @  +  .  .  .  .  .     +     .  .  .  +  .     .  .  @  @  .  @  .     .  .  +              +  .  @           +  @        +  @  @  +  .  .     @  @           @     @  @     @  +  .  @  +  ",
"+     +     @     .  @  @  .  +        @        +  +  @     .     +  .  @  .  +  .  +  +  @  +     .  @     .  +     @  @  @  @  .  +  +  .     .  .     +        @     @  +  @  @  .     +     @  +  @  @  .  @        @  @  +  .  .  .  .  .     +     .  .  .  +  .     .  .  @  @  .  @  .     .  .  +              +  .  @           +  @        +  @  @  +  .  .     @  @           @     @  @     @  +  .  @  +        .     .  @  .  @  @  .              @  .     +  @  @  .  +  @  +  +  @  +  .  @     +  @  +     +  .     .        .  .     @  +  +  .  .  .     .     +     @  +  .  .     +  +     @  .  @     +     .  +  +  +  +     +     @  .     +  +  +     @  +     .        .  +  @     .  @  .     @  .        .  @  .  @                 +     @  .     .        +  +  +     +     @     .  @  @  .  +        @        +  +  @     .     +  .  @  .  +  .  +  +  @  +     .  @     .  +     @  @  @  @  .  +  +  .     .  .     +        @     @  +  @  @  .     +     @  +  @  @  .  @        @  @  +  .  .  .  .  .     +     .  .  .  +  .     .  .  @  @  .  @  .     .  .  +              +  .  @           +  @        +  @  @  +  .  .     @  @           @     @  @     @  +  .  @  +        .     .  @  .  @  @  .              @  .     +  @  @  .  +  @  +  +  @  +  .  @     +  @  +     +  .     .        .  .     @  +  +  .  .  .     .     +     @  +  .  .     +  +     @  .  @     +     .  +  +  +  +     +     @  .     +  +  +     @  +     .        .  +  @     .  @  .     @  .        .  @  .  @                 +     @  .     .        +  +  ",
"   @  .     +  @  @  .  +  @  +  +  @  +  .  @     +  @  +     +  .     .        .  .     @  +  +  .  .  .     .     +     @  +  .  .     +  +     @  .  @     +     .  +  +  +  +     +     @  .     +  +  +     @  +     .        .  +  @     .  @  .     @  .        .  @  .  @                 +     @  .     .        +  +  +     +     @     .  @  @  .  +        @        +  +  @     .     +  .  @  .  +  .  +  +  @  +     .  @     .  +     @  @  @  @  .  +  +  .     .  .     +        @     @  +  @  @  .     +     @  +  @  @  .  @        @  @  +  .  .  .  .  .     +     .  .  .  +  .     .  .  @  @  .  @  .     .  .  +              +  .  @           +  @        +  @  @  +  .  .     @  @           @     @  @     @  +  .  @  +        .     .  @  .  @  @  .              @  .     +  @  @  .  +  @  +  +  @  +  .  @     +  @  +     +  .     .        .  .     @  +  +  .  .  .     .     +     @  +  .  .     +  +     @  .  @     +     .  +  +  +  +     +     @  .     +  +  +     @  +     .        .  +  @     .  @  .     @  .        .  @  .  @                 +     @  .     .        +  +  +     +     @     .  @  @  .  +        @        +  +  @     .     +  .  @  .  +  .  +  +  @  +     .  @     .  +     @  @  @  @  .  +  +  .     .  .     +        @     @  +  @  @  .     +     @  +  @  @  .  @        @  @  +  .  .  .  .  .     +     .  .  .  +  .     .  .  @  @  .  @  .     .  .  +              +  .  @           +  @        +  @  @  +  .  .     @  @           @     @  @     @  +  .  @  +        .     .  @  .  @  @  .           ",
".  .     +  +     @  .  @     +     .  +  +  +  +     +     @  .     +  +  +     @  +     .        .  +  @     .  @  .     @  .        .  @  .  @                 +     @  .     .        +  +  +     +     @     .  @  @  .  +        @        +  +  @     .     +  .  @  .  +  .  +  +  @  +     .  @     .  +     @  @  @  @  .  +  +  .     .  .     +        @     @  +  @  @  .     +     @  +  @  @  .  @        @  @  +  .  .  .  .  .     +     .  .  .  +  .     .  .  @  @  .  @  .     .  .  +              +  .  @           +  @        +  @  @  +  .  .     @  @           @     @  @     @  +  .  @  +        .     .  @  .  @  @  .              @  .     +  @  @  .  +  @  +  +  @  +  .  @     +  @  +     +  .     .        .  .     @  +  +  .  .  .     .     +     @  +  .  .     +  +     @  .  @     +     .  +  +  +  +     +     @  .     +  +  +     @  +     .        .  +  @     .  @  .     @  .        .  @  .  @                 +     @  .     .        +  +  +     +     @     .  @  @  .  +        @        +  +  @     .     +  .  @  .  +  .  +  +  @  +     .  @     .  +     @  @  @  @  .  +  +  .     .  .     +        @     @  +  @  @  .     +     @  +  @  @  .  @        @  @  +  .  .  .  .  .     +     .  .  .  +  .     .  .  @  @  .  @  .     .  .  +              +  .  @           +  @        +  @  @  +  .  .     @  @           @     @  @     @  +  .  @  +        .     .  @  .  @  @  .              @  .     +  @  @  .  +  @  +  +  @  +  .  @     +  @  +     +  .     .        .  .     @  +  +  .  .  .     .     +     @  +  ",
"@  .        .  @  .  @                 +     @  .     .        +  +  +     +     @     .  @  @  .  +        @        +  +  @     .     +  .  @  .  +  .  +  +  @  +     .  @     .  +     @  @  @  @  .  +  +  .     .  .     +        @     @  +  @  @  .     +     @  +  @  @  .  @        @  @  +  .  .  .  .  .     +     .  .  .  +  .     .  .  @  @  .  @  .     .  .  +              +  .  @           +  @        +  @  @  +  .  .     @  @           @     @  @     @  +  .  @  +        .     .  @  .  @  @  .              @  .     +  @  @  .  +  @  +  +  @  +  .  @     +  @  +     +  .     .        .  .     @  +  +  .  .  .     .     +     @  +  .  .     +  +     @  .  @     +     .  +  +  +  +     +     @  .     +  +  +     @  +     .        .  +  @     .  @  .     @  .        .  @  .  @                 +     @  .     .        +  +  +     +     @     .  @  @  .  +        @        +  +  @     .     +  .  @  .  +  .  +  +  @  +     .  @     .  +     @  @  @  @  .  +  +  .     .  .     +        @     @  +  @  @  .     +     @  +  @  @  .  @        @  @  +  .  .  .  .  .     +     .  .  .  +  .     .  .  @  @  .  @  .     .  .  +              +  .  @           +  @        +  @  @  +  .  .     @  @           @     @  @     @  +  .  @  +        .     .  @  .  @  @  .              @  .     +  @  @  .  +  @  +  +  @  +  .  @     +  @  +     +  .     .        .  .     @  +  +  .  .  .     .     +     @  +  .  .     +  +     @  .  @     +     .  +  +  +  +     +     @  .     +  +  +     @  +     .        .  +  @     .  @  .     ",
".     +     .  .  .  +  .     .  .  @  @  .  @  .     .  .  +              +  .  @           +  @        +  @  @  +  .  .     @  @           @     @  @     @  +  .  @  +        .     .  @  .  @  @  .              @  .     +  @  @  .  +  @  +  +  @  +  .  @     +  @  +     +  .     .        .  .     @  +  +  .  .  .     .     +     @  +  .  .     +  +     @  .  @     +     .  +  +  +  +     +     @  .     +  +  +     @  +     .        .  +  @     .  @  .     @  .        .  @  .  @                 +     @  .     .        +  +  +     +     @     .  @  @  .  +        @        +  +  @     .     +  .  @  .  +  .  +  +  @  +     .  @     .  +     @  @  @  @  .  +  +  .     .  .     +        @     @  +  @  @  .     +     @  +  @  @  .  @        @  @  +  .  .  .  .  .     +     .  .  .  +  .     .  .  @  @  .  @  .     .  .  +              +  .  @           +  @        +  @  @  +  .  .     @  @           @     @  @     @  +  .  @  +        .     .  @  .  @  @  .              @  .     +  @  @  .  +  @  +  +  @  +  .  @     +  @  +     +  .     .        .  .     @  +  +  .  .  .     .     +     @  +  .  .     +  +     @  .  @     +     .  +  +  +  +     +     @  .     +  +  +     @  +     .        .  +  @     .  @  .     @  .        .  @  .  @                 +     @  .     .        +  +  +     +     @     .  @  @  .  +        @        +  +  @     .     +  .  @  .  +  .  +  +  @  +     .  @     .  +     @  @  @  @  .  +  +  .     .  .     +        @     @  +  @  @  .     +     @  +  @  @  .  @        @  @  +  .  .  .  .  ",
"   .  @  @  .  +        @        +  +  @     .     +  .  @  .  +  .  +  +  @  +     .  @     .  +     @  @  @  @  .  +  +  .     .  .     +        @     @  +  @  @  .     +     @  +  @  @  .  @        @  @  +  .  .  .  .  .     +     .  .  .  +  .     .  .  @  @  .  @  .     .  .  +              +  .  @           +  @        +  @  @  +  .  .     @  @           @     @  @     @  +  .  @  +        .     .  @  .  @  @  .              @  .     +  @  @  .  +  @  +  +  @  +  .  @     +  @  +     +  .     .        .  .     @  +  +  .  .  .     .     +     @  +  .  .     +  +     @  .  @     +     .  +  +  +  +     +     @  .     +  +  +     @  +     .        .  +  @     .  @  .     @  .        .  @  .  @                 +     @  .     .        +  +  +     +     @     .  @  @  .  +        @        +  +  @     .     +  .  @  .  +  .  +  +  @  +     .  @     .  +     @  @  @  @  .  +  +  .     .  .     +        @     @  +  @  @  .     +     @  +  @  @  .  @        @  @  +  .  .  .  .  .     +     .  .  .  +  .     .  .  @  @  .  @  .     .  .  +              +  .  @           +  @        +  @  @  +  .  .     @  @           @     @  @     @  +  .  @  +        .     .  @  .  @  @  .              @  .     +  @  @  .  +  @  +  +  @  +  .  @     +  @  +     +  .     .        .  .     @  +  +  .  .  .     .     +     @  +  .  .     +  +     @  .  @     +     .  +  +  +  +     +     @  .     +  +  +     @  +     .        .  +  @     .  @  .     @  .        .  @  .  @                 +     @  .     .        +  +  +     +     @  ",
".  @  .  +  .  +  +  @  +     .  @     .  +     @  @  @  @  .  +  +  .     .  .     +        @     @  +  @  @  .     +     @  +  @  @  .  @        @  @  +  .  .  .  .  .     +     .  .  .  +  .     .  .  @  @  .  @  .     .  .  +              +  .  @           +  @        +  @  @  +  .  .     @  @           @     @  @     @  +  .  @  +        .     .  @  .  @  @  .              @  .     +  @  @  .  +  @  +  +  @  +  .  @     +  @  +     +  .     .        .  .     @  +  +  .  .  .     .     +     @  +  .  .     +  +     @  .  @     +     .  +  +  +  +     +     @  .     +  +  +     @  +     .        .  +  @     .  @  .     @  .        .  @  .  @                 +     @  .     .        +  +  +     +     @     .  @  @  .  +        @        +  +  @     .     +  .  @  .  +  .  +  +  @  +     .  @     .  +     @  @  @  @  .  +  +  .     .  .     +        @     @  +  @  @  .     +     @  +  @  @  .  @        @  @  +  .  .  .  .  .     +     .  .  .  +  .     .  .  @  @  .  @  .     .  .  +              +  .  @           +  @        +  @  @  +  .  .     @  @           @     @  @     @  +  .  @  +        .     .  @  .  @  @  .              @  .     +  @  @  .  +  @  +  +  @  +  .  @     +  @  +     +  .     .        .  .     @  +  +  .  .  .     .     +     @  +  .  .     +  +     @  .  @     +     .  +  +  +  +     +     @  .     +  +  +     @  +     .        .  +  @     .  @  .     @  .        .  @  .  @                 +     @  .     .        +  +  +     +     @     .  @  @  .  +        @        +  +  @     .     +  ",
"@        +  @  @  +  .  .     @  @           @     @  @     @  +  .  @  +        .     .  @  .  @  @  .              @  .     +  @  @  .  +  @  +  +  @  +  .  @     +  @  +     +  .     .        .  .     @  +  +  .  .  .     .     +     @  +  .  .     +  +     @  .  @     +     .  +  +  +  +     +     @  .     +  +  +     @  +     .        .  +  @     .  @  .     @  .        .  @  .  @                 +     @  .     .        +  +  +     +     @     .  @  @  .  +        @        +  +  @     .     +  .  @  .  +  .  +  +  @  +     .  @     .  +     @  @  @  @  .  +  +  .     .  .     +        @     @  +  @  @  .     +     @  +  @  @  .  @        @  @  +  .  .  .  .  .     +     .  .  .  +  .     .  .  @  @  .  @  .     .  .  +              +  .  @           +  @        +  @  @  +  .  .     @  @           @     @  @     @  +  .  @  +        .     .  @  .  @  @  .              @  .     +  @  @  .  +  @  +  +  @  +  .  @     +  @  +     +  .     .        .  .     @  +  +  .  .  .     .     +     @  +  .  .     +  +     @  .  @     +     .  +  +  +  +     +     @  .     +  +  +     @  +     .        .  +  @     .  @  .     @  .        .  @  .  @                 +     @  .     .        +  +  +     +     @     .  @  @  .  +        @        +  +  @     .     +  .  @  .  +  .  +  +  @  +     .  @     .  +     @  @  @  @  .  +  +  .     .  .     +        @     @  +  @  @  .     +     @  +  @  @  .  @        @  @  +  .  .  .  .  .     +     .  .  .  +  .     .  .  @  @  .  @  .     .  .  +              +  .  @           +  ",
"+  @     .  @  .     @  .        .  @  .  @                 +     @  .     .        +  +  +     +     @     .  @  @  .  +        @        +  +  @     .     +  .  @  .  +  .  +  +  @  +     .  @     .  +     @  @  @  @  .  +  +  .     .  .     +        @     @  +  @  @  .     +     @  +  @  @  .  @        @  @  +  .  .  .  .  .     +     .  .  .  +  .     .  .  @  @  .  @  .     .  .  +              +  .  @           +  @        +  @  @  +  .  .     @  @           @     @  @     @  +  .  @  +        .     .  @  .  @  @  .              @  .     +  @  @  .  +  @  +  +  @  +  .  @     +  @  +     +  .     .        .  .     @  +  +  .  .  .     .     +     @  +  .  .     +  +     @  .  @     +     .  +  +  +  +     +     @  .     +  +  +     @  +     .        .  +  @     .  @  .     @  .        .  @  .  @                 +     @  .     .        +  +  +     +     @     .  @  @  .  +        @        +  +  @     .     +  .  @  .  +  .  +  +  @  +     .  @     .  +     @  @  @  @  .  +  +  .     .  .     +        @     @  +  @  @  .     +     @  +  @  @  .  @        @  @  +  .  .  .  .  .     +     .  .  .  +  .     .  .  @  @  .  @  .     .  .  +              +  .  @           +  @        +  @  @  +  .  .     @  @           @     @  @     @  +  .  @  +        .     .  @  .  @  @  .              @  .     +  @  @  .  +  @  +  +  @  +  .  @     +  @  +     +  .     .        .  .     @  +  +  .  .  .     .     +     @  +  .  .     +  +     @  .  @     +     .  +  +  +  +     +     @  .     +  +  +     @  +     .        .  ",
"+  @  +  +  @  +  .  @     +  @  +     +  .     .        .  .     @  +  +  .  .  .     .     +     @  +  .  .     +  +     @  .  @     +     .  +  +  +  +     +     @  .     +  +  +     @  +     .        .  +  @     .  @  .     @  .        .  @  .  @                 +     @  .     .        +  +  +     +     @     .  @  @  .  +        @        +  +  @     .     +  .  @  .  +  .  +  +  @  +     .  @     .  +     @  @  @  @  .  +  +  .     .  .     +        @     @  +  @  @  .     +     @  +  @  @  .  @        @  @  +  .  .  .  .  .     +     .  .  .  +  .     .  .  @  @  .  @  .     .  .  +              +  .  @           +  @        +  @  @  +  .  .     @  @           @     @  @     @  +  .  @  +        .     .  @  .  @  @  .              @  .     +  @  @  .  +  @  +  +  @  +  .  @     +  @  +     +  .     .        .  .     @  +  +  .  .  .     .     +     @  +  .  .     +  +     @  .  @     +     .  +  +  +  +     +     @  .     +  +  +     @  +     .        .  +  @     .  @  .     @  .        .  @  .  @                 +     @  .     .        +  +  +     +     @     .  @  @  .  +        @        +  +  @     .     +  .  @  .  +  .  +  +  @  +     .  @     .  +     @  @  @  @  .  +  +  .     .  .     +        @     @  +  @  @  .     +     @  +  @  @  .  @        @  @  +  .  .  .  .  .     +     .  .  .  +  .     .  .  @  @  .  @  .     .  .  +              +  .  @           +  @        +  @  @  +  .  .     @  @           @     @  @     @  +  .  @  +        .     .  @  .  @  @  .              @  .     +  @  @  .  ",
"   .  +  +  +  +     +     @  .     +  +  +     @  +     .        .  +  @     .  @  .     @  .        .  @  .  @                 +     @  .     .        +  +  +     +     @     .  @  @  .  +        @        +  +  @     .     +  .  @  .  +  .  +  +  @  +     .  @     .  +     @  @  @  @  .  +  +  .     .  .     +        @     @  +  @  @  .     +     @  +  @  @  .  @        @  @  +  .  .  .  .  .     +     .  .  .  +  .     .  .  @  @  .  @  .     .  .  +              +  .  @           +  @        +  @  @  +  .  .     @  @           @     @  @     @  +  .  @  +        .     .  @  .  @  @  .              @  .     +  @  @  .  +  @  +  +  @  +  .  @     +  @  +     +  .     .        .  .     @  +  +  .  .  .     .     +     @  +  .  .     +  +     @  .  @     +     .  +  +  +  +     +     @  .     +  +  +     @  +     .        .  +  @     .  @  .     @  .        .  @  .  @                 +     @  .     .        +  +  +     +     @     .  @  @  .  +        @        +  +  @     .     +  .  @  .  +  .  +  +  @  +     .  @     .  +     @  @  @  @  .  +  +  .     .  .     +        @     @  +  @  @  .     +     @  +  @  @  .  @        @  @  +  .  .  .  .  .     +     .  .  .  +  .     .  .  @  @  .  @  .     .  .  +              +  .  @           +  @        +  @  @  +  .  .     @  @           @     @  @     @  +  .  @  +        .     .  @  .  @  @  .              @  .     +  @  @  .  +  @  +  +  @  +  .  @     +  @  +     +  .     .        .  .     @  +  +  .  .  .     .     +     @  +  .  .     +  +     @  .  @     +  ",
".        +  +  +     +     @     .  @  @  .  +        @        +  +  @     .     +  .  @  .  +  .  +  +  @  +     .  @     .  +     @  @  @  @  .  +  +  .     .  .     +        @     @  +  @  @  .     +     @  +  @  @  .  @        @  @  +  .  .  .  .  .     +     .  .  .  +  .     .  .  @  @  .  @  .     .  .  +              +  .  @           +  @        +  @  @  +  .  .     @  @           @     @  @     @  +  .  @  +        .     .  @  .  @  @  .              @  .     +  @  @  .  +  @  +  +  @  +  .  @     +  @  +     +  .     .        .  .     @  +  +  .  .  .     .     +     @  +  .  .     +  +     @  .  @     +     .  +  +  +  +     +     @  .     +  +  +     @  +     .        .  +  @     .  @  .     @  .        .  @  .  @                 +     @  .     .        +  +  +     +     @     .  @  @  .  +        @        +  +  @     .     +  .  @  .  +  .  +  +  @  +     .  @     .  +     @  @  @  @  .  +  +  .     .  .     +        @     @  +  @  @  .     +     @  +  @  @  .  @        @  @  +  .  .  .  .  .     +     .  .  .  +  .     .  .  @  @  .  @  .     .  .  +              +  .  @           +  @        +  @  @  +  .  .     @  @           @     @  @     @  +  .  @  +        .     .  @  .  @  @  .              @  .     +  @  @  .  +  @  +  +  @  +  .  @     +  @  +     +  .     .        .  .     @  +  +  .  .  .     .     +     @  +  .  .     +  +     @  .  @     +     .  +  +  +  +     +     @  .     +  +  +     @  +     .        .  +  @     .  @  .     @  .        .  @  .  @                 +     @  .     ",
"+  .  @  +        .     .  @  .  @  @  .              @  .     +  @  @  .  +  @  +  +  @  +  .  @     +  @  +     +  .     .        .  .     @  +  +  .  .  .     .     +     @  +  .  .     +  +     @  .  @     +     .  +  +  +  +     +     @  .     +  +  +     @  +     .        .  +  @     .  @  .     @  .        .  @  .  @                 +     @  .     .        +  +  +     +     @     .  @  @  .  +        @        +  +  @     .     +  .  @  .  +  .  +  +  @  +     .  @     .  +     @  @  @  @  .  +  +  .     .  .     +        @     @  +  @  @  .     +     @  +  @  @  .  @        @  @  +  .  .  .  .  .     +     .  .  .  +  .     .  .  @  @  .  @  .     .  .  +              +  .  @           +  @        +  @  @  +  .  .     @  @           @     @  @     @  +  .  @  +        .     .  @  .  @  @  .              @  .     +  @  @  .  +  @  +  +  @  +  .  @     +  @  +     +  .     .        .  .     @  +  +  .  .  .     .     +     @  +  .  .     +  +     @  .  @     +     .  +  +  +  +     +     @  .     +  +  +     @  +     .        .  +  @     .  @  .     @  .        .  @  .  @                 +     @  .     .        +  +  +     +     @     .  @  @  .  +        @        +  +  @     .     +  .  @  .  +  .  +  +  @  +     .  @     .  +     @  @  @  @  .  +  +  .     .  .     +        @     @  +  @  @  .     +     @  +  @  @  .  @        @  @  +  .  .  .  .  .     +     .  .  .  +  .     .  .  @  @  .  @  .     .  .  +              +  .  @           +  @        +  @  @  +  .  .     @  @           @     @  @     @  ",
".  @  .  @  @  .              @  .     +  @  @  .  +  @  +  +  @  +  .  @     +  @  +     +  .     .        .  .     @  +  +  .  .  .     .     +     @  +  .  .     +  +     @  .  @     +     .  +  +  +  +     +     @  .     +  +  +     @  +     .        .  +  @     .  @  .     @  .        .  @  .  @                 +     @  .     .        +  +  +     +     @     .  @  @  .  +        @        +  +  @     .     +  .  @  .  +  .  +  +  @  +     .  @     .  +     @  @  @  @  .  +  +  .     .  .     +        @     @  +  @  @  .     +     @  +  @  @  .  @        @  @  +  .  .  .  .  .     +     .  .  .  +  .     .  .  @  @  .  @  .     .  .  +              +  .  @           +  @        +  @  @  +  .  .     @  @           @     @  @     @  +  .  @  +        .     .  @  .  @  @  .              @  .     +  @  @  .  +  @  +  +  @  +  .  @     +  @  +     +  .     .        .  .     @  +  +  .  .  .     .     +     @  +  .  .     +  +     @  .  @     +     .  +  +  +  +     +     @  .     +  +  +     @  +     .        .  +  @     .  @  .     @  .        .  @  .  @                 +     @  .     .        +  +  +     +     @     .  @  @  .  +        @        +  +  @     .     +  .  @  .  +  .  +  +  @  +     .  @     .  +     @  @  @  @  .  +  +  .     .  .     +        @     @  +  @  @  .     +     @  +  @  @  .  @        @  @  +  .  .  .  .  .     +     .  .  .  +  .     .  .  @  @  .  @  .     .  .  +              +  .  @           +  @        +  @  @  +  .  .     @  @           @     @  @     @  +  .  @  +        .     ",
"+     @  .     .        +  +  +     +     @     .  @  @  .  +        @        +  +  @     .     +  .  @  .  +  .  +  +  @  +     .  @     .  +     @  @  @  @  .  +  +  .     .  .     +        @     @  +  @  @  .     +     @  +  @  @  .  @        @  @  +  .  .  .  .  .     +     .  .  .  +  .     .  .  @  @  .  @  .     .  .  +              +  .  @           +  @        +  @  @  +  .  .     @  @           @     @  @     @  +  .  @  +        .     .  @  .  @  @  .              @  .     +  @  @  .  +  @  +  +  @  +  .  @     +  @  +     +  .     .        .  .     @  +  +  .  .  .     .     +     @  +  .  .     +  +     @  .  @     +     .  +  +  +  +     +     @  .     +  +  +     @  +     .        .  +  @     .  @  .     @  .        .  @  .  @                 +     @  .     .        +  +  +     +     @     .  @  @  .  +        @        +  +  @     .     +  .  @  .  +  .  +  +  @  +     .  @     .  +     @  @  @  @  .  +  +  .     .  .     +        @     @  +  @  @  .     +     @  +  @  @  .  @        @  @  +  .  .  .  .  .     +     .  .  .  +  .     .  .  @  @  .  @  .     .  .  +              +  .  @           +  @        +  @  @  +  .  .     @  @           @     @  @     @  +  .  @  +        .     .  @  .  @  @  .              @  .     +  @  @  .  +  @  +  +  @  +  .  @     +  @  +     +  .     .        .  .     @  +  +  .  .  .     .     +     @  +  .  .     +  +     @  .  @     +     .  +  +  +  +     +     @  .     +  +  +     @  +     .        .  +  @     .  @  .     @  .        .  @  .  @                 ",
"   @  +  @  @  .  @        @  @  +  .  .  .  .  .     +     .  .  .  +  .     .  .  @  @  .  @  .     .  .  +              +  .  @           +  @        +  @  @  +  .  .     @  @           @     @  @     @  +  .  @  +        .     .  @  .  @  @  .              @  .     +  @  @  .  +  @  +  +  @  +  .  @     +  @  +     +  .     .        .  .     @  +  +  .  .  .     .     +     @  +  .  .     +  +     @  .  @     +     .  +  +  +  +     +     @  .     +  +  +     @  +     .        .  +  @     .  @  .     @  .        .  @  .  @                 +     @  .     .        +  +  +     +     @     .  @  @  .  +        @        +  +  @     .     +  .  @  .  +  .  +  +  @  +     .  @     .  +     @  @  @  @  .  +  +  .     .  .     +        @     @  +  @  @  .     +     @  +  @  @  .  @        @  @  +  .  .  .  .  .     +     .  .  .  +  .     .  .  @  @  .  @  .     .  .  +              +  .  @           +  @        +  @  @  +  .  .     @  @           @     @  @     @  +  .  @  +        .     .  @  .  @  @  .              @  .     +  @  @  .  +  @  +  +  @  +  .  @     +  @  +     +  .     .        .  .     @  +  +  .  .  .     .     +     @  +  .  .     +  +     @  .  @     +     .  +  +  +  +     +     @  .     +  +  +     @  +     .        .  +  @     .  @  .     @  .        .  @  .  @                 +     @  .     .        +  +  +     +     @     .  @  @  .  +        @        +  +  @     .     +  .  @  .  +  .  +  +  @  +     .  @     .  +     @  @  @  @  .  +  +  .     .  .     +        @     @  +  @  @  .     +  ",
".        .  +  @     .  @  .     @  .        .  @  .  @                 +     @  .     .        +  +  +     +     @     .  @  @  .  +        @        +  +  @     .     +  .  @  .  +  .  +  +  @  +     .  @     .  +     @  @  @  @  .  +  +  .     .  .     +        @     @  +  @  @  .     +     @  +  @  @  .  @        @  @  +  .  .  .  .  .     +     .  .  .  +  .     .  .  @  @  .  @  .     .  .  +              +  .  @           +  @        +  @  @  +  .  .     @  @           @     @  @     @  +  .  @  +        .     .  @  .  @  @  .              @  .     +  @  @  .  +  @  +  +  @  +  .  @     +  @  +     +  .     .        .  .     @  +  +  .  .  .     .     +     @  +  .  .     +  +     @  .  @     +     .  +  +  +  +     +     @  .     +  +  +     @  +     .        .  +  @     .  @  .     @  .        .  @  .  @                 +     @  .     .        +  +  +     +     @     .  @  @  .  +        @        +  +  @     .     +  .  @  .  +  .  +  +  @  +     .  @     .  +     @  @  @  @  .  +  +  .     .  .     +        @     @  +  @  @  .     +     @  +  @  @  .  @        @  @  +  .  .  .  .  .     +     .  .  .  +  .     .  .  @  @  .  @  .     .  .  +              +  .  @           +  @        +  @  @  +  .  .     @  @           @     @  @     @  +  .  @  +        .     .  @  .  @  @  .              @  .     +  @  @  .  +  @  +  +  @  +  .  @     +  @  +     +  .     .        .  .     @  +  +  .  .  .     .     +     @  +  .  .     +  +     @  .  @     +     .  +  +  +  +     +     @  .     +  +  +     @  +     ",
"+  +  +     @  +     .        .  +  @     .  @  .     @  .        .  @  .  @                 +     @  .     .        +  +  +     +     @     .  @  @  .  +        @        +  +  @     .     +  .  @  .  +  .  +  +  @  +     .  @     .  +     @  @  @  @  .  +  +  .     .  .     +        @     @  +  @  @  .     +     @  +  @  @  .  @        @  @  +  .  .  .  .  .     +     .  .  .  +  .     .  .  @  @  .  @  .     .  .  +              +  .  @           +  @        +  @  @  +  .  .     @  @           @     @  @     @  +  .  @  +        .     .  @  .  @  @  .              @  .     +  @  @  .  +  @  +  +  @  +  .  @     +  @  +     +  .     .        .  .     @  +  +  .  .  .     .     +     @  +  .  .     +  +     @  .  @     +     .  +  +  +  +     +     @  .     +  +  +     @  +     .        .  +  @     .  @  .     @  .        .  @  .  @                 +     @  .     .        +  +  +     +     @     .  @  @  .  +        @        +  +  @     .     +  .  @  .  +  .  +  +  @  +     .  @     .  +     @  @  @  @  .  +  +  .     .  .     +        @     @  +  @  @  .     +     @  +  @  @  .  @        @  @  +  .  .  .  .  .     +     .  .  .  +  .     .  .  @  @  .  @  .     .  .  +              +  .  @           +  @        +  @  @  +  .  .     @  @           @     @  @     @  +  .  @  +        .     .  @  .  @  @  .              @  .     +  @  @  .  +  @  +  +  @  +  .  @     +  @  +     +  .     .        .  .     @  +  +  .  .  .     .     +     @  +  .  .     +  +     @  .  @     +     .  +  +  +  +     +     @  .     ",
".     +  .  @  .  +  .  +  +  @  +     .  @     .  +     @  @  @  @  .  +  +  .     .  .     +        @     @  +  @  @  .     +     @  +  @  @  .  @        @  @  +  .  .  .  .  .     +     .  .  .  +  .     .  .  @  @  .  @  .     .  .  +              +  .  @           +  @        +  @  @  +  .  .     @  @           @     @  @     @  +  .  @  +        .     .  @  .  @  @  .              @  .     +  @  @  .  +  @  +  +  @  +  .  @     +  @  +     +  .     .        .  .     @  +  +  .  .  .     .     +     @  +  .  .     +  +     @  .  @     +     .  +  +  +  +     +     @  .     +  +  +     @  +     .        .  +  @     .  @  .     @  .        .  @  .  @                 +     @  .     .        +  +  +     +     @     .  @  @  .  +        @        +  +        .     +  .  @  .  +  .  +  +  @  +     .  @     .  +     @  @  @  @  .  +  +  .     .  .     +        @     @  +  @  @  .     +     @  +  @  @  .  @        @  @  +  .  .  .  .  .     +     .  .  .  +  .     .  .  @  @  .  @  .     .  .  +              +  .  @           +  @        +  @  @  +  .  .     @  @           @     @  @     @  +  .  @  +        .     .  @  .  @  @  .              @  .     +  @  @  .  +  @  +  +  @  +  .  @     +  @  +     +  .     .        .  .     @  +  +  .  .  .     .     +     @  +  .  .     +  +     @  .  @     +     .  +  +  +  +     +     @  .     +  +  +     @  +     .        .  +  @     .  @  .     @  .        .  @  .  @                 +     @  .     .        +  +  +     +     @     .  @  @  .  +        @        +  +  @     ",
".     @  @           @     @  @     @  +  .  @  +        .     .  @  .  @  @  .              @  .     +  @  @  .  +  @  +  +  @  +  .  @     +  @  +     +  .     .        .  .     @  +  +  .  .  .     .     +     @  +  .  .     +  +     @  .  @     +     .  +  +  +  +     +     @  .     +  +  +     @  +     .        .  +  @     .  @  .     @  .        .  @  .  @                 +     @  .     .        +  +  +     +     @     .  @  @  .  +        @        +  +  @     .     +  .  @  .  +  .  +  +  @  +     .  @     .  +     @  @  @  @  .  +  +  .     .  .     +        @     @  +  @  @  .     +     @  +  @  @  .  @        @  @  +  .  .  .  .  .     +     .  .  .  +  .     .  .  @  @  .  @  .     .  .  +              +  .  @           +  @        .        #  $  $  #  %  .           @     @  @     @  +  .  @  +        .     .  @  .  @  @  .              @  .     +  @  @  .  +  @  +  +  @  +  .  @     +  @  +     +  .     .        .  .     @  +  +  .  .  .     .     +     @  +  .  .     +  +     @  .  @     +     .  +  +  +  +     +     @  .     +  +  +     @  +     .        .  +  @     .  @  .     @  .        .  @  .  @                 +     @  .     .        +  +  +     +     @     .  @  @  .  +        @        +  +  @     .     +  .  @  .  +  .  +  +  @  +     .  @     .  +     @  @  @  @  .  +  +  .     .  .     +        @     @  +  @  @  .     +     @  +  @  @  .  @        @  @  +  .  .  .  .  .     +     .  .  .  +  .     .  .  @  @  .  @  .     .  .  +              +  .  @           +  @        +  @  @  +  .  ",
"@     .  @  .     @  .        .  @  .  @                 +     @  .     .        +  +  +     +     @     .  @  @  .  +        @        +  +  @     .     +  .  @  .  +  .  +  +  @  +     .  @     .  +     @  @  @  @  .  +  +  .     .  .     +        @     @  +  @  @  .     +     @  +  @  @  .  @        @  @  +  .  .  .  .  .     +     .  .  .  +  .     .  .  @  @  .  @  .     .  .  +              +  .  @           +  @        +  @  @  +  .  .     @  @           @     @  @     @  +  .  @  +        .     .  @  .  @  @  .              @  .     +  @  @  .  +  @  +  +  @  +  .  @     +  @  +     +  .     .        .  .     @  +  +  .  .  .     .     +     @  +  .  .     +  +     @  .  @     +     .  +  +  +  +     +     @  .     +  +  +     @  +  &  #  *  =  -  ;  >  >  ,  '  $  %     .        .  @  .  @                 +     @  .     .        +  +  +     +     @     .  @  @  .  +        @        +  +  @     .     +  .  @  .  +  .  +  +  @  +     .  @     .  +     @  @  @  @  .  +  +  .     .  .     +        @     @  +  @  @  .     +     @  +  @  @  .  @        @  @  +  .  .  .  .  .     +     .  .  .  +  .     .  .  @  @  .  @  .     .  .  +              +  .  @           +  @        +  @  @  +  .  .     @  @           @     @  @     @  +  .  @  +        .     .  @  .  @  @  .              @  .     +  @  @  .  +  @  +  +  @  +  .  @     +  @  +     +  .     .        .  .     @  +  +  .  .  .     .     +     @  +  .  .     +  +     @  .  @     +     .  +  +  +  +     +     @  .     +  +  +     @  +     .        .  +  ",
"   +     @  +  @  @  .  @        @  @  +  .  .  .  .  .     +     .  .  .  +  .     .  .  @  @  .  @  .     .  .  +              +  .  @           +  @        +  @  @  +  .  .     @  @           @     @  @     @  +  .  @  +        .     .  @  .  @  @  .              @  .     +  @  @  .  +  @  +  +  @  +  .  @     +  @  +     +  .     .        .  .     @  +  +  .  .  .     .     +     @  +  .  .     +  +     @  .  @     +     .  +  +  +  +     +     @  .     +  +  +     @  +     .        .  +  @     .  @  .     @  .        .  @  .  @                 +     @  .     .        +  +  +     +     @     .  @  @  .  +        @        +  +  @     .     +  .  @  .  +  .  +  +  @  +     .  @     .  +     @  @  @  @  .  +  +  .     .  .     +        )  !  ~  {  ]  ^  /  (  _  :  <  [  }  %  .  @        @  @  +  .  .  .  .  .     +     .  .  .  +  .     .  .  @  @  .  @  .     .  .  +              +  .  @           +  @        +  @  @  +  .  .     @  @           @     @  @     @  +  .  @  +        .     .  @  .  @  @  .              @  .     +  @  @  .  +  @  +  +  @  +  .  @     +  @  +     +  .     .        .  .     @  +  +  .  .  .     .     +     @  +  .  .     +  +     @  .  @     +     .  +  +  +  +     +     @  .     +  +  +     @  +     .        .  +  @     .  @  .     @  .        .  @  .  @                 +     @  .     .        +  +  +     +     @     .  @  @  .  +        @        +  +  @     .     +  .  @  .  +  .  +  +  @  +     .  @     .  +     @  @  @  @  .  +  +  .     .  .     +        @     @  +  @  @  .  ",
".     .  .  @  @  .  @  .     .  .  +              +  .  @           +  @        +  @  @  +  .  .     @  @           @     @  @     @  +  .  @  +        .     .  @  .  @  @  .              @  .     +  @  @  .  +  @  +  +  @  +  .  @     +  @  +     +  .     .        .  .     @  +  +  .  .  .     .     +     @  +  .  .     +  +     @  .  @     +     .  +  +  +  +     +     @  .     +  +  +     @  +     .        .  +  @     .  @  .     @  .        .  @  .  @                 +     @  .     .        +  +  +     +     @     .  @  @  .  +        @        +  +  @     .     +  .  @  .  +  .  +  +  @  +     .  @     .  +     @  @  @  @  .  +  +  .     .  .     +        @     @  +  @  @  .     +     @  +  @  @  .  @        @  @  +  .  .  .     &  |  1  2  3  4  5  6  7  8  9  0  a  b  c  .  .     .  .  +              +  .  @           +  @        +  @  @  +  .  .     @  @           @     @  @     @  +  .  @  +        .     .  @  .  @  @  .              @  .     +  @  @  .  +  @  +  +  @  +  .  @     +  @  +     +  .     .        .  .     @  +  +  .  .  .     .     +     @  +  .  .     +  +     @  .  @     +     .  +  +  +  +     +     @  .     +  +  +     @  +     .        .  +  @     .  @  .     @  .        .  @  .  @                 +     @  .     .        +  +  +     +     @     .  @  @  .  +        @        +  +  @     .     +  .  @  .  +  .  +  +  @  +     .  @     .  +     @  @  @  @  .  +  +  .     .  .     +        @     @  +  @  @  .     +     @  +  @  @  .  @        @  @  +  .  .  .  .  .     +     .  .  .  +  ",
"         +  .  @           +  @        +  @  @  +  .  .     @  @           @     @  @     @  +  .  @  +        .     .  @  .  @  @  .              @  .     +  @  @  .  +  @  +  +  @  +  .  @     +  @  +     +  .     .        .  .     @  +  +  .  .  .     .     +     @  +  .  .     +  +     @  .  @     +     .  +  +  +  +     +     @  .     +  +  +     @  +     .        .  +  @     .  @  .     @  .        .  @  .  @                 +     @  .     .        +  +  +     +     @     .  @  @  .  +        @        +  +  @     .     +  .  @  .  +  .  +  +  @  +     .  @     .  +     @  @  @  @  .  +  +  .     .  .     +        @     @  +  @  @  .     +     @  +  @  @  .  @        @  @  +  .  .  .  .  .     +     .  .  .  +  .     .  .     )  |  d  e  f  g  h  i  j  k  l  m  n  o  p  q  }  %  .  +        +  @  @  +  .  .     @  @           @     @  @     @  +  .  @  +        .     .  @  .  @  @  .              @  .     +  @  @  .  +  @  +  +  @  +  .  @     +  @  +     +  .     .        .  .     @  +  +  .  .  .     .     +     @  +  .  .     +  +     @  .  @     +     .  +  +  +  +     +     @  .     +  +  +     @  +     .        .  +  @     .  @  .     @  .        .  @  .  @                 +     @  .     .        +  +  +     +     @     .  @  @  .  +        @        +  +  @     .     +  .  @  .  +  .  +  +  @  +     .  @     .  +     @  @  @  @  .  +  +  .     .  .     +        @     @  +  @  @  .     +     @  +  @  @  .  @        @  @  +  .  .  .  .  .     +     .  .  .  +  .     .  .  @  @  .  @  .     .  .  +     ",
"@  .     .  .  +              +  .  @           +  @        +  @  @  +  .  .     @  @           @     @  @     @  +  .  @  +        .     .  @  .  @  @  .              @  .     +  @  @  .  +  @  +  +  @  +  .  @     +  @  +     +  .     .        .  .     @  +  +  .  .  .     .     +     @  +  .  .     +  +     @  .  @     +     .  +  +  +  +     +     @  .     +  +  +     @  +     .        .  +  @     .  @  .     @  .        .  @  .  @                 +     @  .     .        +  +  +     +     @     .  @  @  .  +        @        +  +  @     .     +  .  @  .  +  .  +  +  @  +     .  @     .  +     @  @  @  @  .  +  +  .     .  .     +        @     @  +  @  @  .     +     @  +  @  @  .  @        @  @  +  .  .  .  .  .     +           r  s  t  u  v  w  x  y  z  A  B  C  D  E  F  G  H  }  .  +  .  @           +  @        +  @  @  +  .  .     @  @           @     @  @     @  +  .  @  +        .     .  @  .  @  @  .              @  .     +  @  @  .  +  @  +  +  @  +  .  @     +  @  +     +  .     .        .  .     @  +  +  .  .  .     .     +     @  +  .  .     +  +     @  .  @     +     .  +  +  +  +     +     @  .     +  +  +     @  +     .        .  +  @     .  @  .     @  .        .  @  .  @                 +     @  .     .        +  +  +     +     @     .  @  @  .  +        @        +  +  @     .     +  .  @  .  +  .  +  +  @  +     .  @     .  +     @  @  @  @  .  +  +  .     .  .     +        @     @  +  @  @  .     +     @  +  @  @  .  @        @  @  +  .  .  .  .  .     +     .  .  .  +  .     .  .  @  @  .  ",
"      +  .  @           +  @        +  @  @  +  .  .     @  @           @     @  @     @  +  .  @  +        .     .  @  .  @  @  .              @  .     +  @  @  .  +  @  +  +  @  +  .  @     +  @  +     +  .     .        .  .     @  +  +  .  .  .     .     +     @  +  .  .     +  +     @  .  @     +     .  +  +  +  +     +     @  .     +  +  +     @  +     .        .  +  @     .  @  .     @  .        .  @  .  @                 +     @  .     .        +  +  +     +     @     .  @  @  .  +        @        +  +  @     .     +  .  @  .  +  .  +  +  @  +     .  @     .  +     @  @  @  @  .  +  +  .     .  .     +        @     @  +  @  @  .     +     @  +  @  @  .  @        @  @  +  .  .  .  .  .     +     .  .  .  +  .     .  .     I  J  K  L  M  N  O  P  Q  R  S  T  U  V  W  X  Y  Z  `   . .     +  @  @  +  .  .     @  @           @     @  @     @  +  .  @  +        .     .  @  .  @  @  .              @  .     +  @  @  .  +  @  +  +  @  +  .  @     +  @  +     +  .     .        .  .     @  +  +  .  .  .     .     +     @  +  .  .     +  +     @  .  @     +     .  +  +  +  +     +     @  .     +  +  +     @  +     .        .  +  @     .  @  .     @  .        .  @  .  @                 +     @  .     .        +  +  +     +     @     .  @  @  .  +        @        +  +  @     .     +  .  @  .  +  .  +  +  @  +     .  @     .  +     @  @  @  @  .  +  +  .     .  .     +        @     @  +  @  @  .     +     @  +  @  @  .  @        @  @  +  .  .  .  .  .     +     .  .  .  +  .     .  .  @  @  .  @  .     .  .  +        ",
"@  @  .  +  @  +  +  @  +  .  @     +  @  +     +  .     .        .  .     @  +  +  .  .  .     .     +     @  +  .  .     +  +     @  .  @     +     .  +  +  +  +     +     @  .     +  +  +     @  +     .        .  +  @     .  @  .     @  .        .  @  .  @                 +     @  .     .        +  +  +     +     @     .  @  @  .  +        @        +  +  @     .     +  .  @  .  +  .  +  +  @  +     .  @     .  +     @  @  @  @  .  +  +  .     .  .     +        @     @  +  @  @  .     +     @  +  @  @  .  @        @  @  +  .  .  .  .  .     +     .  .  .  +  .     .  .  @  @  .  @  .     .  .  +              +  .  @           +  @        +  @  @  +  .  .     @  @           @     @  @     @  +  .  @  +        .     .  @  .  )  .. +. @. #. $. %. &. *. =. -. ;. >. ,. '. ). !. ~. {. ]. ^. .     +  @  +     +  .     .        .  .     @  +  +  .  .  .     .     +     @  +  .  .     +  +     @  .  @     +     .  +  +  +  +     +     @  .     +  +  +     @  +     .        .  +  @     .  @  .     @  .        .  @  .  @                 +     @  .     .        +  +  +     +     @     .  @  @  .  +        @        +  +  @     .     +  .  @  .  +  .  +  +  @  +     .  @     .  +     @  @  @  @  .  +  +  .     .  .     +        @     @  +  @  @  .     +     @  +  @  @  .  @        @  @  +  .  .  .  .  .     +     .  .  .  +  .     .  .  @  @  .  @  .     .  .  +              +  .  @           +  @        +  @  @  +  .  .     @  @           @     @  @     @  +  .  @  +        .     .  @  .  @  @  .              @  .     +  ",
"   +  +  @     .     +  .  @  .  +  .  +  +  @  +     .  @     .  +     @  @  @  @  .  +  +  .     .  .     +        @     @  +  @  @  .     +     @  +  @  @  .  @        @  @  +  .  .  .  .  .     +     .  .  .  +  .     .  .  @  @  .  @  .     .  .  +              +  .  @           +  @        +  @  @  +  .  .     @  @           @     @  @     @  +  .  @  +        .     .  @  .  @  @  .              @  .     +  @  @  .  +  @  +  +  @  +  .  @     +  @  +     +  .     .        .  .     @  +  +  .  .  .     .     +     @  +  .  .     +  +     @  .  @     +     .  +  +  +  +     +     @  .     +  +  +     @  +     .        .  +  @     .  @  .     @  .        .  @  .  @                 +     @  .     .        +  +  +     +  )  I  /. (. _. :. <. [. }. |. 1. 2. 3. 4. 5. 6. 7. 8. 9. 0. a. b. c. +  .  +  +  @  +     .  @     .  +     @  @  @  @  .  +  +  .     .  .     +        @     @  +  @  @  .     +     @  +  @  @  .  @        @  @  +  .  .  .  .  .     +     .  .  .  +  .     .  .  @  @  .  @  .     .  .  +              +  .  @           +  @        +  @  @  +  .  .     @  @           @     @  @     @  +  .  @  +        .     .  @  .  @  @  .              @  .     +  @  @  .  +  @  +  +  @  +  .  @     +  @  +     +  .     .        .  .     @  +  +  .  .  .     .     +     @  +  .  .     +  +     @  .  @     +     .  +  +  +  +     +     @  .     +  +  +     @  +     .        .  +  @     .  @  .     @  .        .  @  .  @                 +     @  .     .        +  +  +     +     @     .  @  @  .  +        @     ",
".  @     +     .  +  +  +  +     +     @  .     +  +  +     @  +     .        .  +  @     .  @  .     @  .        .  @  .  @                 +     @  .     .        +  +  +     +     @     .  @  @  .  +        @        +  +  @     .     +  .  @  .  +  .  +  +  @  +     .  @     .  +     @  @  @  @  .  +  +  .     .  .     +        @     @  +  @  @  .     +     @  +  @  @  .  @        @  @  +  .  .  .  .  .     +     .  .  .  +  .     .  .  @  @  .  @  .     .  .  +              +  .  @           +  @        +  @  @  +  .  .     @  @           @     @  @     @  +  .  @  +        .     .  @  .  @  @  .              @  .     +  @  @  .  +  @  +  +  @  +  .  @     +  @  +     +  .     .        .  .     @  +  +  .  .  .     .  )  .. d. e. f. g. h. i. j. k. l. m. n. o. p. q. r. s. t. u. v. w. ^. .     @  .     +  +  +     @  +     .        .  +  @     .  @  .     @  .        .  @  .  @                 +     @  .     .        +  +  +     +     @     .  @  @  .  +        @        +  +  @     .     +  .  @  .  +  .  +  +  @  +     .  @     .  +     @  @  @  @  .  +  +  .     .  .     +        @     @  +  @  @  .     +     @  +  @  @  .  @        @  @  +  .  .  .  .  .     +     .  .  .  +  .     .  .  @  @  .  @  .     .  .  +              +  .  @           +  @        +  @  @  +  .  .     @  @           @     @  @     @  +  .  @  +        .     .  @  .  @  @  .              @  .     +  @  @  .  +  @  +  +  @  +  .  @     +  @  +     +  .     .        .  .     @  +  +  .  .  .     .     +     @  +  .  .     +  +     @  ",
"   @  @     @  +  .  @  +        .     .  @  .  @  @  .              @  .     +  @  @  .  +  @  +  +  @  +  .  @     +  @  +     +  .     .        .  .     @  +  +  .  .  .     .     +     @  +  .  .     +  +     @  .  @     +     .  +  +  +  +     +     @  .     +  +  +     @  +     .        .  +  @     .  @  .     @  .        .  @  .  @                 +     @  .     .        +  +  +     +     @     .  @  @  .  +        @        +  +  @     .     +  .  @  .  +  .  +  +  @  +     .  @     .  +     @  @  @  @  .  +  +  .     .  .     +        @     @  +  @  @  .     +     @  +  @  @  .  @        @  @  +  .  .  .  .  .     +     .  .  .  +  .     .  .  @  @  .  @  .     .  .  +              +  .  @           +  @           .. x. y. z. A. B. C. D. E. F. G. H. I. J. K. L. M. N. O. P. Q. R. S. c. .  .  @  .  @  @  .              @  .     +  @  @  .  +  @  +  +  @  +  .  @     +  @  +     +  .     .        .  .     @  +  +  .  .  .     .     +     @  +  .  .     +  +     @  .  @     +     .  +  +  +  +     +     @  .     +  +  +     @  +     .        .  +  @     .  @  .     @  .        .  @  .  @                 +     @  .     .        +  +  +     +     @     .  @  @  .  +        @        +  +  @     .     +  .  @  .  +  .  +  +  @  +     .  @     .  +     @  @  @  @  .  +  +  .     .  .     +        @     @  +  @  @  .     +     @  +  @  @  .  @        @  @  +  .  .  .  .  .     +     .  .  .  +  .     .  .  @  @  .  @  .     .  .  +              +  .  @           +  @        +  @  @  +  .  .     @  @           @  ",
"@     .  +     @  @  @  @  .  +  +  .     .  .     +        @     @  +  @  @  .     +     @  +  @  @  .  @        @  @  +  .  .  .  .  .     +     .  .  .  +  .     .  .  @  @  .  @  .     .  .  +              +  .  @           +  @        +  @  @  +  .  .     @  @           @     @  @     @  +  .  @  +        .     .  @  .  @  @  .              @  .     +  @  @  .  +  @  +  +  @  +  .  @     +  @  +     +  .     .        .  .     @  +  +  .  .  .     .     +     @  +  .  .     +  +     @  .  @     +     .  +  +  +  +     +     @  .     +  +  +     @  +     .        .  +  @     .  @  .     @  .        .  @  .  @                 +     @  .     .        +  +  +     +     @     .  @  @  .  +        @        +  +  @        T. J  U. V. W. X. Y. Z. `.  + .+ +  .  ++ @+ #+ $+ %+ &+ *+ =+ -+ ;+ w. `  c.    .  .     +        @     @  +  @  @  .     +     @  +  @  @  .  @        @  @  +  .  .  .  .  .     +     .  .  .  +  .     .  .  @  @  .  @  .     .  .  +              +  .  @           +  @        +  @  @  +  .  .     @  @           @     @  @     @  +  .  @  +        .     .  @  .  @  @  .              @  .     +  @  @  .  +  @  +  +  @  +  .  @     +  @  +     +  .     .        .  .     @  +  +  .  .  .     .     +     @  +  .  .     +  +     @  .  @     +     .  +  +  +  +     +     @  .     +  +  +     @  +     .        .  +  @     .  @  .     @  .        .  @  .  @                 +     @  .     .        +  +  +     +     @     .  @  @  .  +        @        +  +  @     .     +  .  @  .  +  .  +  +  @  +     .  ",
".  @  @  .  +        @        +  +  @     .     +  .  @  .  +  .  +  +  @  +     .  @     .  +     @  @  @  @  .  +  +  .     .  .     +        @     @  +  @  @  .     +     @  +  @  @  .  @        @  @  +  .  .  .  .  .     +     .  .  .  +  .     .  .  @  @  .  @  .     .  .  +              +  .  @           +  @        +  @  @  +  .  .     @  @           @     @  @     @  +  .  @  +        .     .  @  .  @  @  .              @  .     +  @  @  .  +  @  +  +  @  +  .  @     +  @  +     +  .     .        .  .     @  +  +  .  .  .     .     +     @  +  .  .     +  +     @  .  @     +     .  +  +  +  +     +     @  .     +  +  +     @  +     .        .  +  @     .  @  .     @  .        .  @  .  @                 +     )  r  +. >+ ,+ '+ )+ !+ ~+ {+ ]+ ^+ +        /+ (+ _+ :+ <+ [+ }+ |+ 1+ 2+ 3+ 4+ .  .     +  .  @  .  +  .  +  +  @  +     .  @     .  +     @  @  @  @  .  +  +  .     .  .     +        @     @  +  @  @  .     +     @  +  @  @  .  @        @  @  +  .  .  .  .  .     +     .  .  .  +  .     .  .  @  @  .  @  .     .  .  +              +  .  @           +  @        +  @  @  +  .  .     @  @           @     @  @     @  +  .  @  +        .     .  @  .  @  @  .              @  .     +  @  @  .  +  @  +  +  @  +  .  @     +  @  +     +  .     .        .  .     @  +  +  .  .  .     .     +     @  +  .  .     +  +     @  .  @     +     .  +  +  +  +     +     @  .     +  +  +     @  +     .        .  +  @     .  @  .     @  .        .  @  .  @                 +     @  .     .        +  +  +     +     @     ",
".  @     +  @  +     +  .     .        .  .     @  +  +  .  .  .     .     +     @  +  .  .     +  +     @  .  @     +     .  +  +  +  +     +     @  .     +  +  +     @  +     .        .  +  @     .  @  .     @  .        .  @  .  @                 +     @  .     .        +  +  +     +     @     .  @  @  .  +        @        +  +  @     .     +  .  @  .  +  .  +  +  @  +     .  @     .  +     @  @  @  @  .  +  +  .     .  .     +        @     @  +  @  @  .     +     @  +  @  @  .  @        @  @  +  .  .  .  .  .     +     .  .  .  +  .     .  .  @  @  .  @  .     .  .  +              +  .  @           +  @        +  @  @  +  .  .     @  @           @     @  @     @  +  .  @  +        .     .  @  .  @  @  .           r  x. 5+ 6+ 7+ 8+ 9+ 0+ a+ b+ c+ G. +  +  .  ++ d+ e+ f+ g+ h+ i+ j+ k+ l+ m+ b. c. .     @  +  +  .  .  .     .     +     @  +  .  .     +  +     @  .  @     +     .  +  +  +  +     +     @  .     +  +  +     @  +     .        .  +  @     .  @  .     @  .        .  @  .  @                 +     @  .     .        +  +  +     +     @     .  @  @  .  +        @        +  +  @     .     +  .  @  .  +  .  +  +  @  +     .  @     .  +     @  @  @  @  .  +  +  .     .  .     +        @     @  +  @  @  .     +     @  +  @  @  .  @        @  @  +  .  .  .  .  .     +     .  .  .  +  .     .  .  @  @  .  @  .     .  .  +              +  .  @           +  @        +  @  @  +  .  .     @  @           @     @  @     @  +  .  @  +        .     .  @  .  @  @  .              @  .     +  @  @  .  +  @  +  +  @  +  ",
"      +  @        +  @  @  +  .  .     @  @           @     @  @     @  +  .  @  +        .     .  @  .  @  @  .              @  .     +  @  @  .  +  @  +  +  @  +  .  @     +  @  +     +  .     .        .  .     @  +  +  .  .  .     .     +     @  +  .  .     +  +     @  .  @     +     .  +  +  +  +     +     @  .     +  +  +     @  +     .        .  +  @     .  @  .     @  .        .  @  .  @                 +     @  .     .        +  +  +     +     @     .  @  @  .  +        @        +  +  @     .     +  .  @  .  +  .  +  +  @  +     .  @     .  +     @  @  @  @  .  +  +  .     .  .     +        @     @  +  @  @  .     +     @  +  @  @  .  @        @  @  +  .  .  .  .  .     +     .  .  .  +  .     .  .  @  @     .. +. n+ o+ p+ q+ r+ s+ t+ .+ G. .  @           ++ u+ v+ w+ x+ y+ z+ A+ B+ C+ D+ 4+ .           @     @  @     @  +  .  @  +        .     .  @  .  @  @  .              @  .     +  @  @  .  +  @  +  +  @  +  .  @     +  @  +     +  .     .        .  .     @  +  +  .  .  .     .     +     @  +  .  .     +  +     @  .  @     +     .  +  +  +  +     +     @  .     +  +  +     @  +     .        .  +  @     .  @  .     @  .        .  @  .  @                 +     @  .     .        +  +  +     +     @     .  @  @  .  +        @        +  +  @     .     +  .  @  .  +  .  +  +  @  +     .  @     .  +     @  @  @  @  .  +  +  .     .  .     +        @     @  +  @  @  .     +     @  +  @  @  .  @        @  @  +  .  .  .  .  .     +     .  .  .  +  .     .  .  @  @  .  @  .     .  .  +              +  .  @     ",
"      .  @  .  @                 +     @  .     .        +  +  +     +     @     .  @  @  .  +        @        +  +  @     .     +  .  @  .  +  .  +  +  @  +     .  @     .  +     @  @  @  @  .  +  +  .     .  .     +        @     @  +  @  @  .     +     @  +  @  @  .  @        @  @  +  .  .  .  .  .     +     .  .  .  +  .     .  .  @  @  .  @  .     .  .  +              +  .  @           +  @        +  @  @  +  .  .     @  @           @     @  @     @  +  .  @  +        .     .  @  .  @  @  .              @  .     +  @  @  .  +  @  +  +  @  +  .  @     +  @  +     +  .     .        .  .     @  +  +  .  .  .     .     +     @  +  .  .     +  +     @  .  @     +     .  +  +  +  +     +     @  .     +  +  +     )  I  /. E+ F+ G+ H+ I+ J+ K+ b+ G. +  @  @  .        @  /+ L+ M+ N+ O+ P+ Q+ R+ S+ T+ S. c.    .        +  +  +     +     @     .  @  @  .  +        @        +  +  @     .     +  .  @  .  +  .  +  +  @  +     .  @     .  +     @  @  @  @  .  +  +  .     .  .     +        @     @  +  @  @  .     +     @  +  @  @  .  @        @  @  +  .  .  .  .  .     +     .  .  .  +  .     .  .  @  @  .  @  .     .  .  +              +  .  @           +  @        +  @  @  +  .  .     @  @           @     @  @     @  +  .  @  +        .     .  @  .  @  @  .              @  .     +  @  @  .  +  @  +  +  @  +  .  @     +  @  +     +  .     .        .  .     @  +  +  .  .  .     .     +     @  +  .  .     +  +     @  .  @     +     .  +  +  +  +     +     @  .     +  +  +     @  +     .        .  +  @     .  @  .     @  .  ",
"@  @  +  .  .     @  @           @     @  @     @  +  .  @  +        .     .  @  .  @  @  .              @  .     +  @  @  .  +  @  +  +  @  +  .  @     +  @  +     +  .     .        .  .     @  +  +  .  .  .     .     +     @  +  .  .     +  +     @  .  @     +     .  +  +  +  +     +     @  .     +  +  +     @  +     .        .  +  @     .  @  .     @  .        .  @  .  @                 +     @  .     .        +  +  +     +     @     .  @  @  .  +        @        +  +  @     .     +  .  @  .  +  .  +  +  @  +     .  @     .  +     @  @  @  @  .  +  +  .     .  .     +        @     @  +  @  @  .     +     @  +  @  @  .  @        @  @  +  .  .  .  .  .     +     .  .  .  +  .     .  .  @  @  .  @  .     .     )  U+ U. V+ W+ X+ Y+ Z+ `+  @ .@ ^+ +        +  @  @  @  ++ @+ +@ @@ #@ $@ %@ &@ *@ =@ -@ ^. .  @  +  .  @  +        .     .  @  .  @  @  .              @  .     +  @  @  .  +  @  +  +  @  +  .  @     +  @  +     +  .     .        .  .     @  +  +  .  .  .     .     +     @  +  .  .     +  +     @  .  @     +     .  +  +  +  +     +     @  .     +  +  +     @  +     .        .  +  @     .  @  .     @  .        .  @  .  @                 +     @  .     .        +  +  +     +     @     .  @  @  .  +        @        +  +  @     .     +  .  @  .  +  .  +  +  @  +     .  @     .  +     @  @  @  @  .  +  +  .     .  .     +        @     @  +  @  @  .     +     @  +  @  @  .  @        @  @  +  .  .  .  .  .     +     .  .  .  +  .     .  .  @  @  .  @  .     .  .  +              +  .  @           +  @        +  ",
".  @  .     @  .        .  @  .  @                 +     @  .     .        +  +  +     +     @     .  @  @  .  +        @        +  +  @     .     +  .  @  .  +  .  +  +  @  +     .  @     .  +     @  @  @  @  .  +  +  .     .  .     +        @     @  +  @  @  .     +     @  +  @  @  .  @        @  @  +  .  .  .  .  .     +     .  .  .  +  .     .  .  @  @  .  @  .     .  .  +              +  .  @           +  @        +  @  @  +  .  .     @  @           @     @  @     @  +  .  @  +        .     .  @  .  @  @  .              @  .     +  @  @  .  +  @  +  +  @  +  .  @     +  @  +     +  .     .        .  .     @  +  +  .  .  .     .     +     @  +  .  .     +  +     @  .  @     +     .  +  +  +  +     +     )  r  /. >+ ;@ >@ ,@ '@ )@ !@ ]+ ^+ +  .  +  @     .  @  .  @  /+ (+ ~@ {@ ]@ ^@ /@ (@ _@ :@ <@ c. .  +     @  .     .        +  +  +     +     @     .  @  @  .  +        @        +  +  @     .     +  .  @  .  +  .  +  +  @  +     .  @     .  +     @  @  @  @  .  +  +  .     .  .     +        @     @  +  @  @  .     +     @  +  @  @  .  @        @  @  +  .  .  .  .  .     +     .  .  .  +  .     .  .  @  @  .  @  .     .  .  +              +  .  @           +  @        +  @  @  +  .  .     @  @           @     @  @     @  +  .  @  +        .     .  @  .  @  @  .              @  .     +  @  @  .  +  @  +  +  @  +  .  @     +  @  +     +  .     .        .  .     @  +  +  .  .  .     .     +     @  +  .  .     +  +     @  .  @     +     .  +  +  +  +     +     @  .     +  +  +     @  +     .        .  +  @     ",
"@     @  +  @  @  .     +     @  +  @  @  .  @        @  @  +  .  .  .  .  .     +     .  .  .  +  .     .  .  @  @  .  @  .     .  .  +              +  .  @           +  @        +  @  @  +  .  .     @  @           @     @  @     @  +  .  @  +        .     .  @  .  @  @  .              @  .     +  @  @  .  +  @  +  +  @  +  .  @     +  @  +     +  .     .        .  .     @  +  +  .  .  .     .     +     @  +  .  .     +  +     @  .  @     +     .  +  +  +  +     +     @  .     +  +  +     @  +     .        .  +  @     .  @  .     @  .        .  @  .  @                 +     @  .     .        +  +  +     +     @     .  @  @  .  +        @        +  +  @     .     +  .  @  .  +  .  +  +  @  +     .  @        )  U+ [@ }@ |@ 1@ 2@ 3@ 4@  @ 5@ ^+ .     +        @     @  +  ++ @+ e+ 6@ 7@ 8@ 9@ 0@ a@ ;+ b@ `  c.    @  @  +  .  .  .  .  .     +     .  .  .  +  .     .  .  @  @  .  @  .     .  .  +              +  .  @           +  @        +  @  @  +  .  .     @  @           @     @  @     @  +  .  @  +        .     .  @  .  @  @  .              @  .     +  @  @  .  +  @  +  +  @  +  .  @     +  @  +     +  .     .        .  .     @  +  +  .  .  .     .     +     @  +  .  .     +  +     @  .  @     +     .  +  +  +  +     +     @  .     +  +  +     @  +     .        .  +  @     .  @  .     @  .        .  @  .  @                 +     @  .     .        +  +  +     +     @     .  @  @  .  +        @        +  +  @     .     +  .  @  .  +  .  +  +  @  +     .  @     .  +     @  @  @  @  .  +  +  .     .  .     +        ",
"   @  +  .  @  +        .     .  @  .  @  @  .              @  .     +  @  @  .  +  @  +  +  @  +  .  @     +  @  +     +  .     .        .  .     @  +  +  .  .  .     .     +     @  +  .  .     +  +     @  .  @     +     .  +  +  +  +     +     @  .     +  +  +     @  +     .        .  +  @     .  @  .     @  .        .  @  .  @                 +     @  .     .        +  +  +     +     @     .  @  @  .  +        @        +  +  @     .     +  .  @  .  +  .  +  +  @  +     .  @     .  +     @  @  @  @  .  +  +  .     .  .     +        @     @  +  @  @  .     +     @  +  @  @  .  @        @  @  +  .  .  .  .  .     +     .  .  .  +  .     .  .  @  @  .  @  .     .  .  +              +  .  @           +  @  )  J  c@ d@ e@ f@ g@ h@ i@ j@ k@ ^+ .     @     @  @     @  +     @  ++ l@ m@ :+ n@ o@ p@ q@ r@ s@ <@ }  .        @  .     +  @  @  .  +  @  +  +  @  +  .  @     +  @  +     +  .     .        .  .     @  +  +  .  .  .     .     +     @  +  .  .     +  +     @  .  @     +     .  +  +  +  +     +     @  .     +  +  +     @  +     .        .  +  @     .  @  .     @  .        .  @  .  @                 +     @  .     .        +  +  +     +     @     .  @  @  .  +        @        +  +  @     .     +  .  @  .  +  .  +  +  @  +     .  @     .  +     @  @  @  @  .  +  +  .     .  .     +        @     @  +  @  @  .     +     @  +  @  @  .  @        @  @  +  .  .  .  .  .     +     .  .  .  +  .     .  .  @  @  .  @  .     .  .  +              +  .  @           +  @        +  @  @  +  .  .     @  @           @     @  @  ",
"   +     @  .     +  +  +     @  +     .        .  +  @     .  @  .     @  .        .  @  .  @                 +     @  .     .        +  +  +     +     @     .  @  @  .  +        @        +  +  @     .     +  .  @  .  +  .  +  +  @  +     .  @     .  +     @  @  @  @  .  +  +  .     .  .     +        @     @  +  @  @  .     +     @  +  @  @  .  @        @  @  +  .  .  .  .  .     +     .  .  .  +  .     .  .  @  @  .  @  .     .  .  +              +  .  @           +  @        +  @  @  +  .  .     @  @           @     @  @     @  +  .  @  +        .     .  @  .  @  @  .              @  .     +  @  @  .  +  @  +  +  @  +  .  @     +  @  +     +  .     .        .  .     @  +  +  .  .  .     .     +     @  )  U+ t@ u@ v@ w@ x@ y@ z@ b+ 5@ ^+    .  +  +  +  +     +     @  .  ++ A@ B@ C@ D@ E@ F@ G@ H@ I@ b@ S. c. +     .  @  .     @  .        .  @  .  @                 +     @  .     .        +  +  +     +     @     .  @  @  .  +        @        +  +  @     .     +  .  @  .  +  .  +  +  @  +     .  @     .  +     @  @  @  @  .  +  +  .     .  .     +        @     @  +  @  @  .     +     @  +  @  @  .  @        @  @  +  .  .  .  .  .     +     .  .  .  +  .     .  .  @  @  .  @  .     .  .  +              +  .  @           +  @        +  @  @  +  .  .     @  @           @     @  @     @  +  .  @  +        .     .  @  .  @  @  .              @  .     +  @  @  .  +  @  +  +  @  +  .  @     +  @  +     +  .     .        .  .     @  +  +  .  .  .     .     +     @  +  .  .     +  +     @  .  @     +     .  +  +  +  +  ",
"@  .     +  @  @  .  +  @  +  +  @  +  .  @     +  @  +     +  .     .        .  .     @  +  +  .  .  .     .     +     @  +  .  .     +  +     @  .  @     +     .  +  +  +  +     +     @  .     +  +  +     @  +     .        .  +  @     .  @  .     @  .        .  @  .  @                 +     @  .     .        +  +  +     +     @     .  @  @  .  +        @        +  +  @     .     +  .  @  .  +  .  +  +  @  +     .  @     .  +     @  @  @  @  .  +  +  .     .  .     +        @     @  +  @  @  .     +     @  +  @  @  .  @        @  @  +  .  .  .  .  .     +     .  .  .  +  .     .  .  @  @  .  @  .     .  .  +              +  .  @           +  @        +  @  @  +  .  .     @  @           @     @  @     )  .. +. J@ K@ L@ M@ N@ O@ P@ .+ ^+ +  @  .              @  .     +  @  @  ++ u+ _+ Q@ R@ S@ T@ U@ V@ C+ W@ 4+ .     +  .     .        .  .     @  +  +  .  .  .     .     +     @  +  .  .     +  +     @  .  @     +     .  +  +  +  +     +     @  .     +  +  +     @  +     .        .  +  @     .  @  .     @  .        .  @  .  @                 +     @  .     .        +  +  +     +     @     .  @  @  .  +        @        +  +  @     .     +  .  @  .  +  .  +  +  @  +     .  @     .  +     @  @  @  @  .  +  +  .     .  .     +        @     @  +  @  @  .     +     @  +  @  @  .  @        @  @  +  .  .  .  .  .     +     .  .  .  +  .     .  .  @  @  .  @  .     .  .  +              +  .  @           +  @        +  @  @  +  .  .     @  @           @     @  @     @  +  .  @  +        .     .  @  .  @  @  .              ",
"@     .     +  .  @  .  +  .  +  +  @  +     .  @     .  +     @  @  @  @  .  +  +  .     .  .     +        @     @  +  @  @  .     +     @  +  @  @  .  @        @  @  +  .  .  .  .  .     +     .  .  .  +  .     .  .  @  @  .  @  .     .  .  +              +  .  @           +  @        +  @  @  +  .  .     @  @           @     @  @     @  +  .  @  +        .     .  @  .  @  @  .              @  .     +  @  @  .  +  @  +  +  @  +  .  @     +  @  +     +  .     .        .  .     @  +  +  .  .  .     .     +     @  +  .  .     +  +     @  .  @     +     .  +  +  +  +     +     @  .     +  +  +     @  +     .        .  +  @     .  @  .     @  .        .  @  .  @                 +     @  .     .        @  r  U+ X@ Y@ Z@ /+ `@  # .# F. +# +        @        +  +  @     .     +     ++ @# B@ ## $# %# &# *# =# -# a. ;# c. +     @  @  @  @  .  +  +  .     .  .     +        @     @  +  @  @  .     +     @  +  @  @  .  @        @  @  +  .  .  .  .  .     +     .  .  .  +  .     .  .  @  @  .  @  .     .  .  +              +  .  @           +  @        +  @  @  +  .  .     @  @           @     @  @     @  +  .  @  +        .     .  @  .  @  @  .              @  .     +  @  @  .  +  @  +  +  @  +  .  @     +  @  +     +  .     .        .  .     @  +  +  .  .  .     .     +     @  +  .  .     +  +     @  .  @     +     .  +  +  +  +     +     @  .     +  +  +     @  +     .        .  +  @     .  @  .     @  .        .  @  .  @                 +     @  .     .        +  +  +     +     @     .  @  @  .  +        @        +  +  ",
"@  +  +  .  .  .     .     +     @  +  .  .     +  +     @  .  @     +     .  +  +  +  +     +     @  .     +  +  +     @  +     .        .  +  @     .  @  .     @  .        .  @  .  @                 +     @  .     .        +  +  +     +     @     .  @  @  .  +        @        +  +  @     .     +  .  @  .  +  .  +  +  @  +     .  @     .  +     @  @  @  @  .  +  +  .     .  .     +        @     @  +  @  @  .     +     @  +  @  @  .  @        @  @  +  .  .  .  .  .     +     .  .  .  +  .     .  .  @  @  .  @  .     .  .  +              +  .  @           +  @        +  @  @  +  .  .     @  @           @     @  @     @  +  .  @  +        .     .  @  .  @  @  .              @  .     +  @  @  .  +  @  )  .. ># ,# '# )# !# ~# {# ]# .@ ^+ .     .        .  .     @  +  +  .  .  .     @  @+ ^# /# (# _# :# <# [# =@ }# ^. .  .  @     +     .  +  +  +  +     +     @  .     +  +  +     @  +     .        .  +  @     .  @  .     @  .        .  @  .  @                 +     @  .     .        +  +  +     +     @     .  @  @  .  +        @        +  +  @     .     +  .  @  .  +  .  +  +  @  +     .  @     .  +     @  @  @  @  .  +  +  .     .  .     +        @     @  +  @  @  .     +     @  +  @  @  .  @        @  @  +  .  .  .  .  .     +     .  .  .  +  .     .  .  @  @  .  @  .     .  .  +              +  .  @           +  @        +  @  @  +  .  .     @  @           @     @  @     @  +  .  @  +        .     .  @  .  @  @  .              @  .     +  @  @  .  +  @  +  +  @  +  .  @     +  @  +     +  .     .        .  .     ",
"   +  @        +  @  @  +  .  .     @  @           @     @  @     @  +  .  @  +        .     .  @  .  @  @  .              @  .     +  @  @  .  +  @  +  +  @  +  .  @     +  @  +     +  .     .        .  .     @  +  +  .  .  .     .     +     @  +  .  .     +  +     @  .  @     +     .  +  +  +  +     +     @  .     +  +  +     @  +     .        .  +  @     .  @  .     @  .        .  @  .  @                 +     @  .     .        +  +  +     +     @     .  @  @  .  +        @        +  +  @     .     +  .  @  .  +  .  +  +  @  +     .  @     .  +     @  @  @  @  .  +  +  .     .  .     +        @     @  +  @  @  .     +     @  +  @  @  .  @        @  @  +  .  .  .  .  .     +     .  .  .  +  .  )  r  /. >+ |# 1# 2# 3# ~+ 4# ]+ 5@ +           +  .  @           +  @        +  @  @  @# (+ 5# 6# 7# 8# 9# (@ 0# a# D+ c. .     @  +  .  @  +        .     .  @  .  @  @  .              @  .     +  @  @  .  +  @  +  +  @  +  .  @     +  @  +     +  .     .        .  .     @  +  +  .  .  .     .     +     @  +  .  .     +  +     @  .  @     +     .  +  +  +  +     +     @  .     +  +  +     @  +     .        .  +  @     .  @  .     @  .        .  @  .  @                 +     @  .     .        +  +  +     +     @     .  @  @  .  +        @        +  +  @     .     +  .  @  .  +  .  +  +  @  +     .  @     .  +     @  @  @  @  .  +  +  .     .  .     +        @     @  +  @  @  .     +     @  +  @  @  .  @        @  @  +  .  .  .  .  .     +     .  .  .  +  .     .  .  @  @  .  @  .     .  .  +              +  .  @        ",
".  @  .  @                 +     @  .     .        +  +  +     +     @     .  @  @  .  +        @        +  +  @     .     +  .  @  .  +  .  +  +  @  +     .  @     .  +     @  @  @  @  .  +  +  .     .  .     +        @     @  +  @  @  .     +     @  +  @  @  .  @        @  @  +  .  .  .  .  .     +     .  .  .  +  .     .  .  @  @  .  @  .     .  .  +              +  .  @           +  @        +  @  @  +  .  .     @  @           @     @  @     @  +  .  @  +        .     .  @  .  @  @  .              @  .     +  @  @  .  +  @  +  +  @  +  .  @     +  @  +     +  .     .        .  .     @  +  +  .  .  .     .     +     @  +  .  .     +  +     @  .  @     +     .  +  +  +  +     +     @  .     @  )  U+ K  b# c# d# e# f# g# b+ .@ +  @  .  @  .     @  .        .  @  .  @              ++ A@ e+ h# i# j# k# l# a@ m# n# o# %  +     @     .  @  @  .  +        @        +  +  @     .     +  .  @  .  +  .  +  +  @  +     .  @     .  +     @  @  @  @  .  +  +  .     .  .     +        @     @  +  @  @  .     +     @  +  @  @  .  @        @  @  +  .  .  .  .  .     +     .  .  .  +  .     .  .  @  @  .  @  .     .  .  +              +  .  @           +  @        +  @  @  +  .  .     @  @           @     @  @     @  +  .  @  +        .     .  @  .  @  @  .              @  .     +  @  @  .  +  @  +  +  @  +  .  @     +  @  +     +  .     .        .  .     @  +  +  .  .  .     .     +     @  +  .  .     +  +     @  .  @     +     .  +  +  +  +     +     @  .     +  +  +     @  +     .        .  +  @     .  @  .     @  .        ",
"+  +     @  +     .        .  +  @     .  @  .     @  .        .  @  .  @                 +     @  .     .        +  +  +     +     @     .  @  @  .  +        @        +  +  @     .     +  .  @  .  +  .  +  +  @  +     .  @     .  +     @  @  @  @  .  +  +  .     .  .     +        @     @  +  @  @  .     +     @  +  @  @  .  @        @  @  +  .  .  .  .  .     +     .  .  .  +  .     .  .  @  @  .  @  .     .  .  +              +  .  @           +  @        +  @  @  +  .  .     @  @           @     @  @     @  +  .  @  +        .     .  @  .  @  @  .              @  .     +  @  @  .  +  @  +  +  @  +  .  @     +  @  +     +  .     .        .  .     @  +  +  .  .  .     .     +     @  +  .     )  r  +. p# q# r# s# t# u# P@ ]+ G. +  +  +     +     @  .     +  +  +     @  +     .        ++ v# v+ :+ w# x# y# z# r@ A# D+ ^. .  @  .  @                 +     @  .     .        +  +  +     +     @     .  @  @  .  +        @        +  +  @     .     +  .  @  .  +  .  +  +  @  +     .  @     .  +     @  @  @  @  .  +  +  .     .  .     +        @     @  +  @  @  .     +     @  +  @  @  .  @        @  @  +  .  .  .  .  .     +     .  .  .  +  .     .  .  @  @  .  @  .     .  .  +              +  .  @           +  @        +  @  @  +  .  .     @  @           @     @  @     @  +  .  @  +        .     .  @  .  @  @  .              @  .     +  @  @  .  +  @  +  +  @  +  .  @     +  @  +     +  .     .        .  .     @  +  +  .  .  .     .     +     @  +  .  .     +  +     @  .  @     +     .  +  +  +  +     +     @  .     +  ",
"+     +  .     .        .  .     @  +  +  .  .  .     .     +     @  +  .  .     +  +     @  .  @     +     .  +  +  +  +     +     @  .     +  +  +     @  +     .        .  +  @     .  @  .     @  .        .  @  .  @                 +     @  .     .        +  +  +     +     @     .  @  @  .  +        @        +  +  @     .     +  .  @  .  +  .  +  +  @  +     .  @     .  +     @  @  @  @  .  +  +  .     .  .     +        @     @  +  @  @  .     +     @  +  @  @  .  @        @  @  +  .  .  .  .  .     +     .  .  .  +  .     .  .  @  @  .  @  .     .  .  +              +  .  @           +  @        +  @  @  +  .  .     @  @           @     @  @     @  +  .  @  +        .     .  @  .  @  @     r  /. t@ u@ B# C# D# E# F# b+ 5@ ^+ @  +  +  @  +  .  @     +  @  +     +  .     .        .     A@ G# H# I# J# K# L# M# N# m+ O# c. @  +  .  .     +  +     @  .  @     +     .  +  +  +  +     +     @  .     +  +  +     @  +     .        .  +  @     .  @  .     @  .        .  @  .  @                 +     @  .     .        +  +  +     +     @     .  @  @  .  +        @        +  +  @     .     +  .  @  .  +  .  +  +  @  +     .  @     .  +     @  @  @  @  .  +  +  .     .  .     +        @     @  +  @  @  .     +     @  +  @  @  .  @        @  @  +  .  .  .  .  .     +     .  .  .  +  .     .  .  @  @  .  @  .     .  .  +              +  .  @           +  @        +  @  @  +  .  .     @  @           @     @  @     @  +  .  @  +        .     .  @  .  @  @  .              @  .     +  @  @  .  +  @  +  +  @  +  .  @     +  @  ",
"@  +  .  @     +  @  +     +  .     .        .  .     @  +  +  .  .  .     .     +     @  +  .  .     +  +     @  .  @     +     .  +  +  +  +     +     @  .     +  +  +     @  +     .        .  +  @     .  @  .     @  .        .  @  .  @                 +     @  .     .        +  +  +     +     @     .  @  @  .  +        @        +  +  @     .     +  .  @  .  +  .  +  +  @  +     .  @     .  +     @  @  @  @  .  +  +  .     .  .     +        @     @  +  @  @  .     +     @  +  @  @  .  @        @  @  +  .  .  .  .  .     +     .  .  .  +  .     .  .  @  @  .  @  .     .  .  +              +  .  @           +  @        +  @  @  +  .  .     @  @           @     @  @     @  +  .  @  +        )  J  P# Q# R# S# T# U# V#  @ .@ +  @  .     +  @  @  .  +  @  +  +  @  +  .  @     +  @  +     +  ++ l@ W# @@ X# Y# Z# `#  $ .$ +$ `  %  .     .     +     @  +  .  .     +  +     @  .  @     +     .  +  +  +  +     +     @  .     +  +  +     @  +     .        .  +  @     .  @  .     @  .        .  @  .  @                 +     @  .     .        +  +  +     +     @     .  @  @  .  +        @        +  +  @     .     +  .  @  .  +  .  +  +  @  +     .  @     .  +     @  @  @  @  .  +  +  .     .  .     +        @     @  +  @  @  .     +     @  +  @  @  .  @        @  @  +  .  .  .  .  .     +     .  .  .  +  .     .  .  @  @  .  @  .     .  .  +              +  .  @           +  @        +  @  @  +  .  .     @  @           @     @  @     @  +  .  @  +        .     .  @  .  @  @  .              @  .     +  @  @  .  +  @  +  +  ",
".     +        @     @  +  @  @  .     +     @  +  @  @  .  @        @  @  +  .  .  .  .  .     +     .  .  .  +  .     .  .  @  @  .  @  .     .  .  +              +  .  @           +  @        +  @  @  +  .  .     @  @           @     @  @     @  +  .  @  +        .     .  @  .  @  @  .              @  .     +  @  @  .  +  @  +  +  @  +  .  @     +  @  +     +  .     .        .  .     @  +  +  .  .  .     .     +     @  +  .  .     +  +     @  .  @     +     .  +  +  +  +     +     @  .     +  +  +     @  +     .        .  +  @     .  @  .     @  .        .  @  .  @                 +     @  .     .        +  +  +     +     @     .  @  @  .  +        @        +  +  @     .     +  .  @     I  @$ y. #$ $$ c. %$ J+ &$ ]+ 5@ +  .  @  @  @  @  .  +  +  .     .  .     +        @     @  +  @  ++ @# L+ ## *$ =$ -$ ;$ >$ ,$ 2+ S. c.    @  +  .  .  .  .  .     +     .  .  .  +  .     .  .  @  @  .  @  .     .  .  +              +  .  @           +  @        +  @  @  +  .  .     @  @           @     @  @     @  +  .  @  +        .     .  @  .  @  @  .              @  .     +  @  @  .  +  @  +  +  @  +  .  @     +  @  +     +  .     .        .  .     @  +  +  .  .  .     .     +     @  +  .  .     +  +     @  .  @     +     .  +  +  +  +     +     @  .     +  +  +     @  +     .        .  +  @     .  @  .     @  .        .  @  .  @                 +     @  .     .        +  +  +     +     @     .  @  @  .  +        @        +  +  @     .     +  .  @  .  +  .  +  +  @  +     .  @     .  +     @  @  @  @  .  +  +  .     .  ",
"+  .     .        .  .     @  +  +  .  .  .     .     +     @  +  .  .     +  +     @  .  @     +     .  +  +  +  +     +     @  .     +  +  +     @  +     .        .  +  @     .  @  .     @  .        .  @  .  @                 +     @  .     .        +  +  +     +     @     .  @  @  .  +        @        +  +  @     .     +  .  @  .  +  .  +  +  @  +     .  @     .  +     @  @  @  @  .  +  +  .     .  .     +        @     @  +  @  @  .     +     @  +  @  @  .  @        @  @  +  .  .  .  .  .     +     .  .  .  +  .     .  .  @  @  .  @  .     .  .  +              +  .  @           +  @        +  @  @  +  .  .     @  @           @     @  @     @  +  .  @  +        .     .  @  .  @  @     )  U+ U. '$ )$ !$ ~$ ~# {$ ]$ .@ G. @  +  +  @  +  .  @     +  @  +     +  .     .        .  .     @  @  ++ A@ W# ^$ /$ ($ _$ =+ :$ <$ n# `  c.    +  +     @  .  @     +     .  +  +  +  +     +     @  .     +  +  +     @  +     .        .  +  @     .  @  .     @  .        .  @  .  @                 +     @  .     .        +  +  +     +     @     .  @  @  .  +        @        +  +  @     .     +  .  @  .  +  .  +  +  @  +     .  @     .  +     @  @  @  @  .  +  +  .     .  .     +        @     @  +  @  @  .     +     @  +  @  @  .  @        @  @  +  .  .  .  .  .     +     .  .  .  +  .     .  .  @  @  .  @  .     .  .  +              +  .  @           +  @        +  @  @  +  .  .     @  @           @     @  @     @  +  .  @  +        .     .  @  .  @  @  .              @  .     +  @  @  .  +  @  +  +  @  +  .  @     +  @  +     ",
"@  .  +  @  +  +  @  +  .  @     +  @  +     +  .     .        .  .     @  +  +  .  .  .     .     +     @  +  .  .     +  +     @  .  @     +     .  +  +  +  +     +     @  .     +  +  +     @  +     .        .  +  @     .  @  .     @  .        .  @  .  @                 +     @  .     .        +  +  +     +     @     .  @  @  .  +        @        +  +  @     .     +  .  @  .  +  .  +  +  @  +     .  @     .  +     @  @  @  @  .  +  +  .     .  .     +        @     @  +  @  @  .     +     @  +  @  @  .  @        @  @  +  .  .  .  .  .     +     .  .  .  +  .     .  .  @  @  .  @  .     .  .  +              +  .  @           +  @        +  @  @  +  .  .     @  @           @     @  @  )  .. /. [$ }$ |$ 1$ 2$ 3$ 4# ]+ G. .  @  @  .              @  .     +  @  @  .  +  @  +  +  @  +  .  @     @  /+ (+ 4$ 6# 5$ 6$ 7$ 8$ 9$ 0$ D+ c. .  .  +  .  .  .     .     +     @  +  .  .     +  +     @  .  @     +     .  +  +  +  +     +     @  .     +  +  +     @  +     .        .  +  @     .  @  .     @  .        .  @  .  @                 +     @  .     .        +  +  +     +     @     .  @  @  .  +        @        +  +  @     .     +  .  @  .  +  .  +  +  @  +     .  @     .  +     @  @  @  @  .  +  +  .     .  .     +        @     @  +  @  @  .     +     @  +  @  @  .  @        @  @  +  .  .  .  .  .     +     .  .  .  +  .     .  .  @  @  .  @  .     .  .  +              +  .  @           +  @        +  @  @  +  .  .     @  @           @     @  @     @  +  .  @  +        .     .  @  .  @  @  .              @  .     +  @  ",
"+  .     .  .     +        @     @  +  @  @  .     +     @  +  @  @  .  @        @  @  +  .  .  .  .  .     +     .  .  .  +  .     .  .  @  @  .  @  .     .  .  +              +  .  @           +  @        +  @  @  +  .  .     @  @           @     @  @     @  +  .  @  +        .     .  @  .  @  @  .              @  .     +  @  @  .  +  @  +  +  @  +  .  @     +  @  +     +  .     .        .  .     @  +  +  .  .  .     .     +     @  +  .  .     +  +     @  .  @     +     .  +  +  +  +     +     @  .     +  +  +     @  +     .        .  +  @     .  @  .     @  .        .  @  .  @                 +     @  .     .        +  +  +     +     @     .  @  @  .  +        @        +  +  @     T. a$ K  6+ b$ c$ d$ e$ a+ b+ c+ G. @  .  @     .  +     @  @  @  @  .  +  +  .     .  .     +        @     @  @  A@ #+ f$ g$ h$ i$ j$ k$ l$ b@ m$ .  .     @  @  +  .  .  .  .  .     +     .  .  .  +  .     .  .  @  @  .  @  .     .  .  +              +  .  @           +  @        +  @  @  +  .  .     @  @           @     @  @     @  +  .  @  +        .     .  @  .  @  @  .              @  .     +  @  @  .  +  @  +  +  @  +  .  @     +  @  +     +  .     .        .  .     @  +  +  .  .  .     .     +     @  +  .  .     +  +     @  .  @     +     .  +  +  +  +     +     @  .     +  +  +     @  +     .        .  +  @     .  @  .     @  .        .  @  .  @                 +     @  .     .        +  +  +     +     @     .  @  @  .  +        @        +  +  @     .     +  .  @  .  +  .  +  +  @  +     .  @     .  +     @  @  @  @  .  +  ",
".  .     +     .  .  .  +  .     .  .  @  @  .  @  .     .  .  +              +  .  @           +  @        +  @  @  +  .  .     @  @           @     @  @     @  +  .  @  +        .     .  @  .  @  @  .              @  .     +  @  @  .  +  @  +  +  @  +  .  @     +  @  +     +  .     .        .  .     @  +  +  .  .  .     .     +     @  +  .  .     +  +     @  .  @     +     .  +  +  +  +     +     @  .     +  +  +     @  +     .        .  +  @     .  @  .     @  .        .  @  .  @                 +     @  .     .        +  +  +     +     @     .  @  @  .  +        @        +  +  @     .     +  .  @  .  +  .  +  +  @  +     .  @     .  +     @  @  @  @  .  +  +  .     .  .        )  .. c@ n$ o$ p$ q$ r$ s$ P@ ]+ ^+ +  +  @  @  .  @        @  @  +  .  .  .  .  .     +     .  .  .  +  .     .  .  ++ (+ t$ u$ v$ w$ x$ y$ z$ {. <@ ^. .  +  .  @           +  @        +  @  @  +  .  .     @  @           @     @  @     @  +  .  @  +        .     .  @  .  @  @  .              @  .     +  @  @  .  +  @  +  +  @  +  .  @     +  @  +     +  .     .        .  .     @  +  +  .  .  .     .     +     @  +  .  .     +  +     @  .  @     +     .  +  +  +  +     +     @  .     +  +  +     @  +     .        .  +  @     .  @  .     @  .        .  @  .  @                 +     @  .     .        +  +  +     +     @     .  @  @  .  +        @        +  +  @     .     +  .  @  .  +  .  +  +  @  +     .  @     .  +     @  @  @  @  .  +  +  .     .  .     +        @     @  +  @  @  .     +     @  +  @  @  .  @        @  @  +  .  .  .  ",
"+     @  .     +  +  +     @  +     .        .  +  @     .  @  .     @  .        .  @  .  @                 +     @  .     .        +  +  +     +     @     .  @  @  .  +        @        +  +  @     .     +  .  @  .  +  .  +  +  @  +     .  @     .  +     @  @  @  @  .  +  +  .     .  .     +        @     @  +  @  @  .     +     @  +  @  @  .  @        @  @  +  .  .  .  .  .     +     .  .  .  +  .     .  .  @  @  .  @  .     .  .  +              +  .  @           +  @        +  @  @  +  .  .     @  @           @     @  @     @  +  .  @  +        .     .  @  .  @  @  .              @  .     +  @  @  .  +  @  +  +  @  +  .  @     +  @  +     +  .     .        .  .     @  +  +  .     T. /. (. _. A$ B$ C$ D$ E$ F$ 5@ ^+ +     @  .  @     +     .  +  +  +  +     +     @  .     +  +  +     @  +     .  )  d+ G$ H$ I$ J$ K$ L$ M$ 0. b@ S. c. .  .  @  .  @                 +     @  .     .        +  +  +     +     @     .  @  @  .  +        @        +  +  @     .     +  .  @  .  +  .  +  +  @  +     .  @     .  +     @  @  @  @  .  +  +  .     .  .     +        @     @  +  @  @  .     +     @  +  @  @  .  @        @  @  +  .  .  .  .  .     +     .  .  .  +  .     .  .  @  @  .  @  .     .  .  +              +  .  @           +  @        +  @  @  +  .  .     @  @           @     @  @     @  +  .  @  +        .     .  @  .  @  @  .              @  .     +  @  @  .  +  @  +  +  @  +  .  @     +  @  +     +  .     .        .  .     @  +  +  .  .  .     .     +     @  +  .  .     +  +     @  .  @     +     .  +  +  +  +     ",
"      .  .     @  +  +  .  .  .     .     +     @  +  .  .     +  +     @  .  @     +     .  +  +  +  +     +     @  .     +  +  +     @  +     .        .  +  @     .  @  .     @  .        .  @  .  @                 +     @  .     .        +  +  +     +     @     .  @  @  .  +        @        +  +  @     .     +  .  @  .  +  .  +  +  @  +     .  @     .  +     @  @  @  @  .  +  +  .     .  .     +        @     @  +  @  @  .     +     @  +  @  @  .  @        @  @  +  .  .  .  .  .     +     .  .  .  +  .     .  .  @  @  .  @  .     .  .  +              +  .  @           +  @        +  @  @  +  .  .     @  @           @     @  @     @  +  .  @  +        .     .  @  .  @  @  .     T. J  d. Q# N$ O$ P$ Q$ R$  @ .+ S$ +  +  @  +  .  @     +  @  +     +  .     .        .  .     @  +  +  .  .  .     .  @  ++ @+ T$ U$ V$ W$ X$ t. Y$ Z$ `$ `  .     +     .  +  +  +  +     +     @  .     +  +  +     @  +     .        .  +  @     .  @  .     @  .        .  @  .  @                 +     @  .     .        +  +  +     +     @     .  @  @  .  +        @        +  +  @     .     +  .  @  .  +  .  +  +  @  +     .  @     .  +     @  @  @  @  .  +  +  .     .  .     +        @     @  +  @  @  .     +     @  +  @  @  .  @        @  @  +  .  .  .  .  .     +     .  .  .  +  .     .  .  @  @  .  @  .     .  .  +              +  .  @           +  @        +  @  @  +  .  .     @  @           @     @  @     @  +  .  @  +        .     .  @  .  @  @  .              @  .     +  @  @  .  +  @  +  +  @  +  .  @     +  @  +     +  .     .  ",
"@  .     .        +  +  +     +     @     .  @  @  .  +        @        +  +  @     .     +  .  @  .  +  .  +  +  @  +     .  @     .  +     @  @  @  @  .  +  +  .     .  .     +        @     @  +  @  @  .     +     @  +  @  @  .  @        @  @  +  .  .  .  .  .     +     .  .  .  +  .     .  .  @  @  .  @  .     .  .  +              +  .  @           +  @        +  @  @  +  .  .     @  @           @     @  @     @  +  .  @  +        .     .  @  .  @  @  .              @  .     +  @  @  .  +  @  +  +  @  +  .  @     +  @  +     +  .     .        .  .     @  +  +  .  .  .     .     +     @  +  .  .     +  +     @  .  @     +     .  +  +  +  +     +     @  .     +  +  +     @     .. /.  % #$ .% +% t# )@ &$ F. 5@ +  @  .        .  @  .  @                 +     @  .     .        +  +  +     +     @        /+ G$ @% #% $% %% &% >$ ,$ 2+ 3+ c. .  .     +  .  @  .  +  .  +  +  @  +     .  @     .  +     @  @  @  @  .  +  +  .     .  .     +        @     @  +  @  @  .     +     @  +  @  @  .  @        @  @  +  .  .  .  .  .     +     .  .  .  +  .     .  .  @  @  .  @  .     .  .  +              +  .  @           +  @        +  @  @  +  .  .     @  @           @     @  @     @  +  .  @  +        .     .  @  .  @  @  .              @  .     +  @  @  .  +  @  +  +  @  +  .  @     +  @  +     +  .     .        .  .     @  +  +  .  .  .     .     +     @  +  .  .     +  +     @  .  @     +     .  +  +  +  +     +     @  .     +  +  +     @  +     .        .  +  @     .  @  .     @  .        .  @  .  @                 +     ",
".  +  .     .  .  @  @  .  @  .     .  .  +              +  .  @           +  @        +  @  @  +  .  .     @  @           @     @  @     @  +  .  @  +        .     .  @  .  @  @  .              @  .     +  @  @  .  +  @  +  +  @  +  .  @     +  @  +     +  .     .        .  .     @  +  +  .  .  .     .     +     @  +  .  .     +  +     @  .  @     +     .  +  +  +  +     +     @  .     +  +  +     @  +     .        .  +  @     .  @  .     @  .        .  @  .  @                 +     @  .     .        +  +  +     +     @     .  @  @  .  +        @        +  +  @     .     +  .  @  .  +  .  +  +  @  +     .  @     .  +     @  @  @  @  .  +  +  .     .  .     +        @     @  )  U+ K  *% =% -% ;% >% 4@  + c+ ^+ @        @  @  +  .  .  .  .  .     +     .  .  .  +  .     .  .  @  @  .  @  .     .  .  @  ++ @+ #+ 6@ ,% '% )% <# !% ~% n# `  %     +  @  @  +  .  .     @  @           @     @  @     @  +  .  @  +        .     .  @  .  @  @  .              @  .     +  @  @  .  +  @  +  +  @  +  .  @     +  @  +     +  .     .        .  .     @  +  +  .  .  .     .     +     @  +  .  .     +  +     @  .  @     +     .  +  +  +  +     +     @  .     +  +  +     @  +     .        .  +  @     .  @  .     @  .        .  @  .  @                 +     @  .     .        +  +  +     +     @     .  @  @  .  +        @        +  +  @     .     +  .  @  .  +  .  +  +  @  +     .  @     .  +     @  @  @  @  .  +  +  .     .  .     +        @     @  +  @  @  .     +     @  +  @  @  .  @        @  @  +  .  .  .  .  .     +     .  .  ",
"   .  .     +        @     @  +  @  @  .     +     @  +  @  @  .  @        @  @  +  .  .  .  .  .     +     .  .  .  +  .     .  .  @  @  .  @  .     .  .  +              +  .  @           +  @        +  @  @  +  .  .     @  @           @     @  @     @  +  .  @  +        .     .  @  .  @  @  .              @  .     +  @  @  .  +  @  +  +  @  +  .  @     +  @  +     +  .     .        .  .     @  +  +  .  .  .     .     +     @  +  .  .     +  +     @  .  @     +     .  +  +  +  +     +     @  .     +  +  +     @  +     .        .  +  @     .  @  .     @  .        .  @  .  @                 +     @  .     .        +  +  +     +     @     .  @  @  .  +        @        +  +  )  J  +. {% ]% ^% )+ /% (% _% ]+ G. @  +     .  @     .  +     @  @  @  @  .  +  +  .     .  .     +        @     @  +  @  @  .     @  @# (+ v+ :+ :% <% [% }% |% A# 3+ 4+ .  .  .  .  .     +     .  .  .  +  .     .  .  @  @  .  @  .     .  .  +              +  .  @           +  @        +  @  @  +  .  .     @  @           @     @  @     @  +  .  @  +        .     .  @  .  @  @  .              @  .     +  @  @  .  +  @  +  +  @  +  .  @     +  @  +     +  .     .        .  .     @  +  +  .  .  .     .     +     @  +  .  .     +  +     @  .  @     +     .  +  +  +  +     +     @  .     +  +  +     @  +     .        .  +  @     .  @  .     @  .        .  @  .  @                 +     @  .     .        +  +  +     +     @     .  @  @  .  +        @        +  +  @     .     +  .  @  .  +  .  +  +  @  +     .  @     .  +     @  @  @  @  .  +  +  .  ",
".  .  +              +  .  @           +  @        +  @  @  +  .  .     @  @           @     @  @     @  +  .  @  +        .     .  @  .  @  @  .              @  .     +  @  @  .  +  @  +  +  @  +  .  @     +  @  +     +  .     .        .  .     @  +  +  .  .  .     .     +     @  +  .  .     +  +     @  .  @     +     .  +  +  +  +     +     @  .     +  +  +     @  +     .        .  +  @     .  @  .     @  .        .  @  .  @                 +     @  .     .        +  +  +     +     @     .  @  @  .  +        @        +  +  @     .     +  .  @  .  +  .  +  +  @  +     .  @     .  +     @  @  @  @  .  +  +  .     .  .     +        @     @  +  @  @  .     +     @  +  @     T. x. (. 1% 2% 3% 4% 5% z@ 6% 5@ ^+    +     .  .  .  +  .     .  .  @  @  .  @  .     .  .  +              +  .  @           +  @     )  /+ e+ f+ 7% h+ 8% 9% H@ I@ b@ b. %  .     @  @     @  +  .  @  +        .     .  @  .  @  @  .              @  .     +  @  @  .  +  @  +  +  @  +  .  @     +  @  +     +  .     .        .  .     @  +  +  .  .  .     .     +     @  +  .  .     +  +     @  .  @     +     .  +  +  +  +     +     @  .     +  +  +     @  +     .        .  +  @     .  @  .     @  .        .  @  .  @                 +     @  .     .        +  +  +     +     @     .  @  @  .  +        @        +  +  @     .     +  .  @  .  +  .  +  +  @  +     .  @     .  +     @  @  @  @  .  +  +  .     .  .     +        @     @  +  @  @  .     +     @  +  @  @  .  @        @  @  +  .  .  .  .  .     +     .  .  .  +  .     .  .  @  @  .  @  .     ",
"@                 +     @  .     .        +  +  +     +     @     .  @  @  .  +        @        +  +  @     .     +  .  @  .  +  .  +  +  @  +     .  @     .  +     @  @  @  @  .  +  +  .     .  .     +        @     @  +  @  @  .     +     @  +  @  @  .  @        @  @  +  .  .  .  .  .     +     .  .  .  +  .     .  .  @  @  .  @  .     .  .  +              +  .  @           +  @        +  @  @  +  .  .     @  @           @     @  @     @  +  .  @  +        .     .  @  .  @  @  .              @  .     +  @  @  .  +  @  +  +  @  +  .  @     +  @  +     +  .     .        .  .     @  +  +  .  .  .     .     +     @  +  .  .     +  +     @  .  @     +     .  +  +  +  +     )  0% a% b% c% d% M@ e% f% t+ ]+ +  .        .  +  @     .  @  .     @  .        .  @  .  @                 +     @  .     .        +  +  +  ++ u+ _+ g% h% i% j% k% Y$ l% W@ ^. .  .     +  +  @     .     +  .  @  .  +  .  +  +  @  +     .  @     .  +     @  @  @  @  .  +  +  .     .  .     +        @     @  +  @  @  .     +     @  +  @  @  .  @        @  @  +  .  .  .  .  .     +     .  .  .  +  .     .  .  @  @  .  @  .     .  .  +              +  .  @           +  @        +  @  @  +  .  .     @  @           @     @  @     @  +  .  @  +        .     .  @  .  @  @  .              @  .     +  @  @  .  +  @  +  +  @  +  .  @     +  @  +     +  .     .        .  .     @  +  +  .  .  .     .     +     @  +  .  .     +  +     @  .  @     +     .  +  +  +  +     +     @  .     +  +  +     @  +     .        .  +  @     .  @  .     @  .        .  @  .  ",
"@  +        .     .  @  .  @  @  .              @  .     +  @  @  .  +  @  +  +  @  +  .  @     +  @  +     +  .     .        .  .     @  +  +  .  .  .     .     +     @  +  .  .     +  +     @  .  @     +     .  +  +  +  +     +     @  .     +  +  +     @  +     .        .  +  @     .  @  .     @  .        .  @  .  @                 +     @  .     .        +  +  +     +     @     .  @  @  .  +        @        +  +  @     .     +  .  @  .  +  .  +  +  @  +     .  @     .  +     @  @  @  @  .  +  +  .     .  .     +        @     @  +  @  @  .     +     @  +  @  @  .  @        @  @  +  .  .  .  .  .     +     .  .  .  +  .     .  .  @  @  .  @  .     .  .  +              r  /. m% n% o% p% q% r% K+ ]+ 5@ +  @  +  .  .     @  @           @     @  @     @  +  .  @  +        .     .  @  .  @  @  .              @  @  d+ J. M+ s% t% u% v% w% x% y% m$ 4+ .     +  @  +     +  .     .        .  .     @  +  +  .  .  .     .     +     @  +  .  .     +  +     @  .  @     +     .  +  +  +  +     +     @  .     +  +  +     @  +     .        .  +  @     .  @  .     @  .        .  @  .  @                 +     @  .     .        +  +  +     +     @     .  @  @  .  +        @        +  +  @     .     +  .  @  .  +  .  +  +  @  +     .  @     .  +     @  @  @  @  .  +  +  .     .  .     +        @     @  +  @  @  .     +     @  +  @  @  .  @        @  @  +  .  .  .  .  .     +     .  .  .  +  .     .  .  @  @  .  @  .     .  .  +              +  .  @           +  @        +  @  @  +  .  .     @  @           @     @  @     @  +  .  ",
"   +     @  +  .  .     +  +     @  .  @     +     .  +  +  +  +     +     @  .     +  +  +     @  +     .        .  +  @     .  @  .     @  .        .  @  .  @                 +     @  .     .        +  +  +     +     @     .  @  @  .  +        @        +  +  @     .     +  .  @  .  +  .  +  +  @  +     .  @     .  +     @  @  @  @  .  +  +  .     .  .     +        @     @  +  @  @  .     +     @  +  @  @  .  @        @  @  +  .  .  .  .  .     +     .  .  .  +  .     .  .  @  @  .  @  .     .  .  +              +  .  @           +  @        +  @  @  +  .  .     @  @           @     @  @     @  +  .  @  +        .     .  @  .  @  @  .              @  .     +  @  @  )  .. z% ,# A% B% !# r+ C%  @ .+ S$ +     +  .     .        .  .     @  +  +  .  .  .     .     +     @  +  .  .     +  +     @  .  @     +     .  ++ @+ D% E% q. F% G% H% *@ I% }# `   .    @  +     .        .  +  @     .  @  .     @  .        .  @  .  @                 +     @  .     .        +  +  +     +     @     .  @  @  .  +        @        +  +  @     .     +  .  @  .  +  .  +  +  @  +     .  @     .  +     @  @  @  @  .  +  +  .     .  .     +        @     @  +  @  @  .     +     @  +  @  @  .  @        @  @  +  .  .  .  .  .     +     .  .  .  +  .     .  .  @  @  .  @  .     .  .  +              +  .  @           +  @        +  @  @  +  .  .     @  @           @     @  @     @  +  .  @  +        .     .  @  .  @  @  .              @  .     +  @  @  .  +  @  +  +  @  +  .  @     +  @  +     +  .     .        .  .     @  +  +  .  .  .     .  ",
"+  @  +  .  @     +  @  +     +  .     .        .  .     @  +  +  .  .  .     .     +     @  +  .  .     +  +     @  .  @     +     .  +  +  +  +     +     @  .     +  +  +     @  +     .        .  +  @     .  @  .     @  .        .  @  .  @                 +     @  .     .        +  +  +     +     @     .  @  @  .  +        @        +  +  @     .     +  .  @  .  +  .  +  +  @  +     .  @     .  +     @  @  @  @  .  +  +  .     .  .     +        @     @  +  @  @  .     +     @  +  @  @  .  @        @  @  +  .  .  .  .  .     +     .  .  .  +  .     .  .  @  @  .  @  .     .  .  +              +  .  @           +  @        +  @  @  +  .  .     @  @           @        r  +. >+ J% .% K% L% M% N% ]+ G. +  @  .  @  @  .              @  .     +  @  @  .  +  @  +  +  @  +  .  @     +  @  +     +  .     .        .  .  @  /+ (+ ## O% P% Q% R% S% _@ T% <@ c. .  .  .     +  +     @  .  @     +     .  +  +  +  +     +     @  .     +  +  +     @  +     .        .  +  @     .  @  .     @  .        .  @  .  @                 +     @  .     .        +  +  +     +     @     .  @  @  .  +        @        +  +  @     .     +  .  @  .  +  .  +  +  @  +     .  @     .  +     @  @  @  @  .  +  +  .     .  .     +        @     @  +  @  @  .     +     @  +  @  @  .  @        @  @  +  .  .  .  .  .     +     .  .  .  +  .     .  .  @  @  .  @  .     .  .  +              +  .  @           +  @        +  @  @  +  .  .     @  @           @     @  @     @  +  .  @  +        .     .  @  .  @  @  .              @  .     +  @  @  .  +  @  +  ",
"   +  @  @  +  .  .     @  @           @     @  @     @  +  .  @  +        .     .  @  .  @  @  .              @  .     +  @  @  .  +  @  +  +  @  +  .  @     +  @  +     +  .     .        .  .     @  +  +  .  .  .     .     +     @  +  .  .     +  +     @  .  @     +     .  +  +  +  +     +     @  .     +  +  +     @  +     .        .  +  @     .  @  .     @  .        .  @  .  @                 +     @  .     .        +  +  +     +     @     .  @  @  .  +        @        +  +  @     .     +  .  @  .  +  .  +  +  @  +     .  @     .  +     @  @  @  @  .  +  +  .     .  .     +        @     @  +  @  @  .     +     @  +  @  @  .  @        @  @  +  .  .  .  .  .     )  U+ K  b# U% V% W% X% 4@  @ c+ +  +  @  .     .  .  +              +  .  @           +  @        +  @  @  +  .  .     @  @           @     @  @     @  @  A@ #+ Y% Z% `%  & .& +& @& m+ `  .  .              @  .     +  @  @  .  +  @  +  +  @  +  .  @     +  @  +     +  .     .        .  .     @  +  +  .  .  .     .     +     @  +  .  .     +  +     @  .  @     +     .  +  +  +  +     +     @  .     +  +  +     @  +     .        .  +  @     .  @  .     @  .        .  @  .  @                 +     @  .     .        +  +  +     +     @     .  @  @  .  +        @        +  +  @     .     +  .  @  .  +  .  +  +  @  +     .  @     .  +     @  @  @  @  .  +  +  .     .  .     +        @     @  +  @  @  .     +     @  +  @  @  .  @        @  @  +  .  .  .  .  .     +     .  .  .  +  .     .  .  @  @  .  @  .     .  .  +              +  .  @           +  @     ",
"@  .  +  +  .     .  .     +        @     @  +  @  @  .     +     @  +  @  @  .  @        @  @  +  .  .  .  .  .     +     .  .  .  +  .     .  .  @  @  .  @  .     .  .  +              +  .  @           +  @        +  @  @  +  .  .     @  @           @     @  @     @  +  .  @  +        .     .  @  .  @  @  .              @  .     +  @  @  .  +  @  +  +  @  +  .  @     +  @  +     +  .     .        .  .     @  +  +  .  .  .     .     +     @  +  .  .     +  +     @  .  @     +     .  +  +  +  +     +     @  .     +  +  +     @  +     .        .  +  @     .  @  .     @  .        .  @  .  @                 +     @  .     .        +  +  +     +     @     .  @  @     r  +. p# e@ #& $& %& && *& .+ ^+ +  +  .  @  .  +  .  +  +  @  +     .  @     .  +     @  @  @  @  .  +  +  .     .  .     +        @     @  +  @  @  .     =& l@ -& ;& w# >& ,& z# r@ A# <@ c. .  .  .  .  .  .     +     .  .  .  +  .     .  .  @  @  .  @  .     .  .  +              +  .  @           +  @        +  @  @  +  .  .     @  @           @     @  @     @  +  .  @  +        .     .  @  .  @  @  .              @  .     +  @  @  .  +  @  +  +  @  +  .  @     +  @  +     +  .     .        .  .     @  +  +  .  .  .     .     +     @  +  .  .     +  +     @  .  @     +     .  +  +  +  +     +     @  .     +  +  +     @  +     .        .  +  @     .  @  .     @  .        .  @  .  @                 +     @  .     .        +  +  +     +     @     .  @  @  .  +        @        +  +  @     .     +  .  @  .  +  .  +  +  @  +     .  @     .  +     @  @  @  ",
"@  @  .  +  +  .     .  .     +        @     @  +  @  @  .     +     @  +  @  @  .  @        @  @  +  .  .  .  .  .     +     .  .  .  +  .     .  .  @  @  .  @  .     .  .  +              +  .  @           +  @        +  @  @  +  .  .     @  @           @     @  @     @  +  .  @  +        .     .  @  .  @  @  .              @  .     +  @  @  .  +  @  +  +  @  +  .  @     +  @  +     +  .     .        .  .     @  +  +  .  .  .     .     +     @  +  .  .     +  +     @  .  @     +     .  +  +  +  +     +     @  .     +  +  +     @  +     .        .  +  @     .  @  .     @  .        .  @  .  @                 +     @  .     .        +  +  +     +     @     .  @  I  s  '& u@ )& !& ~& {& ]& b+ 5@ +  .     +  .  @  .  +  .  +  +  @  +     .  @     .  +     @  @  @  @  .  +  +  .     .  .     +        @     @  +  @  @  .     /+ ^& H# I# /& (& L# _& I@ b@ b.  . +  .  .  .  .  .     +     .  .  .  +  .     .  .  @  @  .  @  .     .  .  +              +  .  @           +  @        +  @  @  +  .  .     @  @           @     @  @     @  +  .  @  +        .     .  @  .  @  @  .              @  .     +  @  @  .  +  @  +  +  @  +  .  @     +  @  +     +  .     .        .  .     @  +  +  .  .  .     .     +     @  +  .  .     +  +     @  .  @     +     .  +  +  +  +     +     @  .     +  +  +     @  +     .        .  +  @     .  @  .     @  .        .  @  .  @                 +     @  .     .        +  +  +     +     @     .  @  @  .  +        @        +  +  @     .     +  .  @  .  +  .  +  +  @  +     .  @     .  +     @  @  ",
"@           @     @  @     @  +  .  @  +        .     .  @  .  @  @  .              @  .     +  @  @  .  +  @  +  +  @  +  .  @     +  @  +     +  .     .        .  .     @  +  +  .  .  .     .     +     @  +  .  .     +  +     @  .  @     +     .  +  +  +  +     +     @  .     +  +  +     @  +     .        .  +  @     .  @  .     @  .        .  @  .  @                 +     @  .     .        +  +  +     +     @     .  @  @  .  +        @        +  +  @     .     +  .  @  .  +  .  +  +  @  +     .  @     .  +     @  @  @  @  .  +  +  .     .  .     +        @     @  +  @  @  .     +     @  +  @  @  .  @        @  @  +  .  .  .  .  .     +     .  .  .  +  .  T. .. P# :& <& [& }& |& 1& t+ .@ G. .           +  .  @           +  @        +  @  @  +  .  .     @  @           @     @  @     @  +  .  @  +        .     .  @  .  =& (+ 2& U$ X# 3& j% `# Y$ {. W@ 4+ .  .  +  @  +  +  @  +  .  @     +  @  +     +  .     .        .  .     @  +  +  .  .  .     .     +     @  +  .  .     +  +     @  .  @     +     .  +  +  +  +     +     @  .     +  +  +     @  +     .        .  +  @     .  @  .     @  .        .  @  .  @                 +     @  .     .        +  +  +     +     @     .  @  @  .  +        @        +  +  @     .     +  .  @  .  +  .  +  +  @  +     .  @     .  +     @  @  @  @  .  +  +  .     .  .     +        @     @  +  @  @  .     +     @  +  @  @  .  @        @  @  +  .  .  .  .  .     +     .  .  .  +  .     .  .  @  @  .  @  .     .  .  +              +  .  @           +  @        +  @  @  +  .  .     @  ",
"@  .  @  .     .  .  +              +  .  @           +  @        +  @  @  +  .  .     @  @           @     @  @     @  +  .  @  +        .     .  @  .  @  @  .              @  .     +  @  @  .  +  @  +  +  @  +  .  @     +  @  +     +  .     .        .  .     @  +  +  .  .  .     .     +     @  +  .  .     +  +     @  .  @     +     .  +  +  +  +     +     @  .     +  +  +     @  +     .        .  +  @     .  @  .     @  .        .  @  .  @                 +     @  .     .        +  +  +     +     @     .  @  @  .  +        @        +  +  @     .     +  .  @  .  +  .  +  +  @  +     .  @     .  +     @  @  @  @  .  +  +  .     .  .     +        @     @     r  x. 4& 5& 6& @# 7& 8& .# F. 5@ +  +     @  @  +  .  .  .  .  .     +     .  .  .  +  .     .  .  @  @  .  @  .     .  .  +              +  .  @           +  @        @# G$ 9& 0& %# a& b& =# S+ a. ;# c. .     @  @     @  +  .  @  +        .     .  @  .  @  @  .              @  .     +  @  @  .  +  @  +  +  @  +  .  @     +  @  +     +  .     .        .  .     @  +  +  .  .  .     .     +     @  +  .  .     +  +     @  .  @     +     .  +  +  +  +     +     @  .     +  +  +     @  +     .        .  +  @     .  @  .     @  .        .  @  .  @                 +     @  .     .        +  +  +     +     @     .  @  @  .  +        @        +  +  @     .     +  .  @  .  +  .  +  +  @  +     .  @     .  +     @  @  @  @  .  +  +  .     .  .     +        @     @  +  @  @  .     +     @  +  @  @  .  @        @  @  +  .  .  .  .  .     +     .  .  .  +  .     .  .  @  ",
"      @  .     +  @  @  .  +  @  +  +  @  +  .  @     +  @  +     +  .     .        .  .     @  +  +  .  .  .     .     +     @  +  .  .     +  +     @  .  @     +     .  +  +  +  +     +     @  .     +  +  +     @  +     .        .  +  @     .  @  .     @  .        .  @  .  @                 +     @  .     .        +  +  +     +     @     .  @  @  .  +        @        +  +  @     .     +  .  @  .  +  .  +  +  @  +     .  @     .  +     @  @  @  @  .  +  +  .     .  .     +        @     @  +  @  @  .     +     @  +  @  @  .  @        @  @  +  .  .  .  .  .     +     .  .  .  +  .     .  .  @  @  .  @  .     .  .  +              +  .  @           +  @     T. J  K  c& d& e& f& g& h& ]$ 5@ +  @  @     @  @     @  +  .  @  +        .     .  @  .  @  @  .              @  .     +  @  @  .  +  @  +  +  @  +  .  @     +  @  +     ++ @+ #+ ^$ (# F% i& <# j& =@ n# k& c. .  .     .     +     @  +  .  .     +  +     @  .  @     +     .  +  +  +  +     +     @  .     +  +  +     @  +     .        .  +  @     .  @  .     @  .        .  @  .  @                 +     @  .     .        +  +  +     +     @     .  @  @  .  +        @        +  +  @     .     +  .  @  .  +  .  +  +  @  +     .  @     .  +     @  @  @  @  .  +  +  .     .  .     +        @     @  +  @  @  .     +     @  +  @  @  .  @        @  @  +  .  .  .  .  .     +     .  .  .  +  .     .  .  @  @  .  @  .     .  .  +              +  .  @           +  @        +  @  @  +  .  .     @  @           @     @  @     @  +  .  @  +        .     .  @  .  @  @  .        ",
"      +  +  @     .     +  .  @  .  +  .  +  +  @  +     .  @     .  +     @  @  @  @  .  +  +  .     .  .     +        @     @  +  @  @  .     +     @  +  @  @  .  @        @  @  +  .  .  .  .  .     +     .  .  .  +  .     .  .  @  @  .  @  .     .  .  +              +  .  @           +  @        +  @  @  +  .  .     @  @           @     @  @     @  +  .  @  +        .     .  @  .  @  @  .              @  .     +  @  @  .  +  @  +  +  @  +  .  @     +  @  +     +  .     .        .  .     @  +  +  .  .  .     .     +     @  +  .  .     +  +     @  .  @     +     .  +  +  +  +     +     @  .     +  +  +     @  +     .        .  +  @     .  @  .     @     l& +. m& n& 1# 2# o& ~+ {+ .+ ^+ +  .  @  .     .        +  +  +     +     @     .  @  @  .  +        @        +  +  @     .     +  .  @  .  +  .  +  +  @  +     .  @        /+ (+ p& q& r& 8# s& t& _@ 0$ <@ 4+ .     +        @     @  +  @  @  .     +     @  +  @  @  .  @        @  @  +  .  .  .  .  .     +     .  .  .  +  .     .  .  @  @  .  @  .     .  .  +              +  .  @           +  @        +  @  @  +  .  .     @  @           @     @  @     @  +  .  @  +        .     .  @  .  @  @  .              @  .     +  @  @  .  +  @  +  +  @  +  .  @     +  @  +     +  .     .        .  .     @  +  +  .  .  .     .     +     @  +  .  .     +  +     @  .  @     +     .  +  +  +  +     +     @  .     +  +  +     @  +     .        .  +  @     .  @  .     @  .        .  @  .  @                 +     @  .     .        +  +  +     +     @     .  @  @  .  +        @  ",
"   .  @  .  @  @  .              @  .     +  @  @  .  +  @  +  +  @  +  .  @     +  @  +     +  .     .        .  .     @  +  +  .  .  .     .     +     @  +  .  .     +  +     @  .  @     +     .  +  +  +  +     +     @  .     +  +  +     @  +     .        .  +  @     .  @  .     @  .        .  @  .  @                 +     @  .     .        +  +  +     +     @     .  @  @  .  +        @        +  +  @     .     +  .  @  .  +  .  +  +  @  +     .  @     .  +     @  @  @  @  .  +  +  .     .  .     +        @     @  +  @  @  .     +     @  +  @  @  .  @        @  @  +  .  .  .  .  .     +     .  .  .  +  .     .  .  @  @  .  @  .     .  .  +           r  U+ u& v& w& x& y& z& a+ b+ 5@ ^+ @  @  +  .  .     @  @           @     @  @     @  +  .  @  +        .     .  @  .  @  @  .              @  .     +  @  @  .  +  @  +  +  @  ++ A@ e+ f+ A& `% B& C& D& E& F& S. c.    .  .     @  +  +  .  .  .     .     +     @  +  .  .     +  +     @  .  @     +     .  +  +  +  +     +     @  .     +  +  +     @  +     .        .  +  @     .  @  .     @  .        .  @  .  @                 +     @  .     .        +  +  +     +     @     .  @  @  .  +        @        +  +  @     .     +  .  @  .  +  .  +  +  @  +     .  @     .  +     @  @  @  @  .  +  +  .     .  .     +        @     @  +  @  @  .     +     @  +  @  @  .  @        @  @  +  .  .  .  .  .     +     .  .  .  +  .     .  .  @  @  .  @  .     .  .  +              +  .  @           +  @        +  @  @  +  .  .     @  @           @     @  @     @  +  .  @  +        .  ",
"   +     @  .     .        +  +  +     +     @     .  @  @  .  +        @        +  +  @     .     +  .  @  .  +  .  +  +  @  +     .  @     .  +     @  @  @  @  .  +  +  .     .  .     +        @     @  +  @  @  .     +     @  +  @  @  .  @        @  @  +  .  .  .  .  .     +     .  .  .  +  .     .  .  @  @  .  @  .     .  .  +              +  .  @           +  @        +  @  @  +  .  .     @  @           @     @  @     @  +  .  @  +        .     .  @  .  @  @  .              @  .     +  @  @  .  +  @  +  +  @  +  .  @     +  @  +     +  .     .        .  .     @  +  +  .  .  .     .     +     @  +  .  .     +  +     @  .  @     +     .  +  @  +     J  +. n$ G& H& I& t# u# t+ .+ G. +     .        .  +  @     .  @  .     @  .        .  @  .  @                 +     @  .     .        +  +  +     +     @     .  @  @  .  +        @# (+ J& ;& K& L& M& N& ~. C+ ]. 4+ .  +  .  +  +  @  +     .  @     .  +     @  @  @  @  .  +  +  .     .  .     +        @     @  +  @  @  .     +     @  +  @  @  .  @        @  @  +  .  .  .  .  .     +     .  .  .  +  .     .  .  @  @  .  @  .     .  .  +              +  .  @           +  @        +  @  @  +  .  .     @  @           @     @  @     @  +  .  @  +        .     .  @  .  @  @  .              @  .     +  @  @  .  +  @  +  +  @  +  .  @     +  @  +     +  .     .        .  .     @  +  +  .  .  .     .     +     @  +  .  .     +  +     @  .  @     +     .  +  +  +  +     +     @  .     +  +  +     @  +     .        .  +  @     .  @  .     @  .        .  @  .  @              ",
"@  +     .  @     .  +     @  @  @  @  .  +  +  .     .  .     +        @     @  +  @  @  .     +     @  +  @  @  .  @        @  @  +  .  .  .  .  .     +     .  .  .  +  .     .  .  @  @  .  @  .     .  .  +              +  .  @           +  @        +  @  @  +  .  .     @  @           @     @  @     @  +  .  @  +        .     .  @  .  @  @  .              @  .     +  @  @  .  +  @  +  +  @  +  .  @     +  @  +     +  .     .        .  .     @  +  +  .  .  .     .     +     @  +  .  .     +  +     @  .  @     +     .  +  +  +  +     +     @  .     +  +  +     @  +     .        .  +  @     .  @  .     @  .        .  @  .  @                 +        r  x. t@ O& P& Q& C$ R& S& b+ G. +     .  @  @  .  +        @        +  +  @     .     +  .  @  .  +  .  +  +  @  +     .  @     .  +     @  @  @  @  .  +  +  .     .  .     +        ++ d+ G# T& I# U& V& W& X& Y& m+ S.  . .  .  @        @  @  +  .  .  .  .  .     +     .  .  .  +  .     .  .  @  @  .  @  .     .  .  +              +  .  @           +  @        +  @  @  +  .  .     @  @           @     @  @     @  +  .  @  +        .     .  @  .  @  @  .              @  .     +  @  @  .  +  @  +  +  @  +  .  @     +  @  +     +  .     .        .  .     @  +  +  .  .  .     .     +     @  +  .  .     +  +     @  .  @     +     .  +  +  +  +     +     @  .     +  +  +     @  +     .        .  +  @     .  @  .     @  .        .  @  .  @                 +     @  .     .        +  +  +     +     @     .  @  @  .  +        @        +  +  @     .     +  .  @  .  +  .  +  +  ",
"@  .  +        @        +  +  @     .     +  .  @  .  +  .  +  +  @  +     .  @     .  +     @  @  @  @  .  +  +  .     .  .     +        @     @  +  @  @  .     +     @  +  @  @  .  @        @  @  +  .  .  .  .  .     +     .  .  .  +  .     .  .  @  @  .  @  .     .  .  +              +  .  @           +  @        +  @  @  +  .  .     @  @           @     @  @     @  +  .  @  +        .     .  @  .  @  @  .              @  .     +  @  @  .  +  @  +  +  @  +  .  @     +  @  +     +  .     .        .  .     @  +  +  .  .  .     .     +     @  +  .  .     +  +     @  .  @     +     .  +  +  +  +     +     @  .     +  +  +     @  +     .           )  .. a% Z& f. ]% `&  * `+ .* .@ ^+ +  .  @                 +     @  .     .        +  +  +     +     @     .  @  @  .  +        @        +  +  @     .     +  .  @  .  +  .  +  +  @  +  @  ++ v# 2& @@ +* @* #* $* u. v. -@ %*  . .     .  .     +        @     @  +  @  @  .     +     @  +  @  @  .  @        @  @  +  .  .  .  .  .     +     .  .  .  +  .     .  .  @  @  .  @  .     .  .  +              +  .  @           +  @        +  @  @  +  .  .     @  @           @     @  @     @  +  .  @  +        .     .  @  .  @  @  .              @  .     +  @  @  .  +  @  +  +  @  +  .  @     +  @  +     +  .     .        .  .     @  +  +  .  .  .     .     +     @  +  .  .     +  +     @  .  @     +     .  +  +  +  +     +     @  .     +  +  +     @  +     .        .  +  @     .  @  .     @  .        .  @  .  @                 +     @  .     .        +  +  +     +     @     .  @  ",
"+     @  .  @     +     .  +  +  +  +     +     @  .     +  +  +     @  +     .        .  +  @     .  @  .     @  .        .  @  .  @                 +     @  .     .        +  +  +     +     @     .  @  @  .  +        @        +  +  @     .     +  .  @  .  +  .  +  +  @  +     .  @     .  +     @  @  @  @  .  +  +  .     .  .     +        @     @  +  @  @  .     +     @  +  @  @  .  @        @  @  +  .  .  .  .  .     +     .  .  .  +  .     .  .  @  @  .  @  .     .  .  +              +  .  @           +  @        +  @  @  +  .  .     @  @           @     @  @     @  +  .  @  +        .     .  @  .  @  @  .              @  .     +  @  @     @  .. x. &* ** =* `  -* ;* K+ F. 5@ +  +  .     .        .  .     @  +  +  .  .  .     .     +     @  +  .  .     +  +     @  .  @     +     .  +  +  +  +     +     @  .     +  +  +     @  +  )  @# G$ M+ >* ,* '* )* !* ~* a# S. c. .        .  @  .  @                 +     @  .     .        +  +  +     +     @     .  @  @  .  +        @        +  +  @     .     +  .  @  .  +  .  +  +  @  +     .  @     .  +     @  @  @  @  .  +  +  .     .  .     +        @     @  +  @  @  .     +     @  +  @  @  .  @        @  @  +  .  .  .  .  .     +     .  .  .  +  .     .  .  @  @  .  @  .     .  .  +              +  .  @           +  @        +  @  @  +  .  .     @  @           @     @  @     @  +  .  @  +        .     .  @  .  @  @  .              @  .     +  @  @  .  +  @  +  +  @  +  .  @     +  @  +     +  .     .        .  .     @  +  +  .  .  .     .     +     @  +  .  .     +  ",
"   .        .  +  @     .  @  .     @  .        .  @  .  @                 +     @  .     .        +  +  +     +     @     .  @  @  .  +        @        +  +  @     .     +  .  @  .  +  .  +  +  @  +     .  @     .  +     @  @  @  @  .  +  +  .     .  .     +        @     @  +  @  @  .     +     @  +  @  @  .  @        @  @  +  .  .  .  .  .     +     .  .  .  +  .     .  .  @  @  .  @  .     .  .  +              +  .  @           +  @        +  @  @  +  .  .     @  @           @     @  @     @  +  .  @  +        .     .  @  .  @  @  .              @  .     +  @  @  .  +  @  +  +  @  +  .  @     +  @  +     +  .     .        .  .     @  .     T. U+ K  '$ W. !$ Y. {* ]* .* .@ ^+ +  +  +     @  .  @     +     .  +  +  +  +     +     @  .     +  +  +     @  +     .        .  +  @     .  @  .     @  .        .  @  .  @                 +  ++ @+ #+ ^* /* (* _* :* <* m# n# `  %  +     .  @  @  .  +        @        +  +  @     .     +  .  @  .  +  .  +  +  @  +     .  @     .  +     @  @  @  @  .  +  +  .     .  .     +        @     @  +  @  @  .     +     @  +  @  @  .  @        @  @  +  .  .  .  .  .     +     .  .  .  +  .     .  .  @  @  .  @  .     .  .  +              +  .  @           +  @        +  @  @  +  .  .     @  @           @     @  @     @  +  .  @  +        .     .  @  .  @  @  .              @  .     +  @  @  .  +  @  +  +  @  +  .  @     +  @  +     +  .     .        .  .     @  +  +  .  .  .     .     +     @  +  .  .     +  +     @  .  @     +     .  +  +  +  +     +     @  .     +  +  +     @  +  ",
"   +  +  +     +     @     .  @  @  .  +        @        +  +  @     .     +  .  @  .  +  .  +  +  @  +     .  @     .  +     @  @  @  @  .  +  +  .     .  .     +        @     @  +  @  @  .     +     @  +  @  @  .  @        @  @  +  .  .  .  .  .     +     .  .  .  +  .     .  .  @  @  .  @  .     .  .  +              +  .  @           +  @        +  @  @  +  .  .     @  @           @     @  @     @  +  .  @  +        .     .  @  .  @  @  .              @  .     +  @  @  .  +  @  +  +  @  +  .  @     +  @  +     +  .     .        .  .     @  +  +  .  .  .     .     +     @  +  .  .     +  +     @  .  @     +     .  +  +  +  +     +     @     .. [* >+ }* |* 1* 2* && 4# .+ ^+ +  +  @     .  @  .     @  .        .  @  .  @                 +     @  .     .        +  +  +     +     @     .  @  @  .  +        @        +  +  @     .     +     /+ (+ 3* 4* 5$ 5* 6* 7* 9$ 8* 9* }  .  +     @  @  @  @  .  +  +  .     .  .     +        @     @  +  @  @  .     +     @  +  @  @  .  @        @  @  +  .  .  .  .  .     +     .  .  .  +  .     .  .  @  @  .  @  .     .  .  +              +  .  @           +  @        +  @  @  +  .  .     @  @           @     @  @     @  +  .  @  +        .     .  @  .  @  @  .              @  .     +  @  @  .  +  @  +  +  @  +  .  @     +  @  +     +  .     .        .  .     @  +  +  .  .  .     .     +     @  +  .  .     +  +     @  .  @     +     .  +  +  +  +     +     @  .     +  +  +     @  +     .        .  +  @     .  @  .     @  .        .  @  .  @                 +     @  .     .     ",
"      @  @  +  .  .  .  .  .     +     .  .  .  +  .     .  .  @  @  .  @  .     .  .  +              +  .  @           +  @        +  @  @  +  .  .     @  @           @     @  @     @  +  .  @  +        .     .  @  .  @  @  .              @  .     +  @  @  .  +  @  +  +  @  +  .  @     +  @  +     +  .     .        .  .     @  +  +  .  .  .     .     +     @  +  .  .     +  +     @  .  @     +     .  +  +  +  +     +     @  .     +  +  +     @  +     .        .  +  @     .  @  .     @  .        .  @  .  @                 +     @  .     .        +  +  +     +     @     .  @  @  .  +        @        +  +  @     .     +  .  @  .  +  .  +     I  U+ 0* a* b* c* d* e* a+ b+ c+ +  +  .  +  +  .     .  .     +        @     @  +  @  @  .     +     @  +  @  @  .  @        @  @  +  .  .  .  .  .     +     .  .  .  +  .     .  .  @  @  .  @  .     @  d+ e+ h# 7% f* g* h* i* j* m+ b. c. .  +        +  @  @  +  .  .     @  @           @     @  @     @  +  .  @  +        .     .  @  .  @  @  .              @  .     +  @  @  .  +  @  +  +  @  +  .  @     +  @  +     +  .     .        .  .     @  +  +  .  .  .     .     +     @  +  .  .     +  +     @  .  @     +     .  +  +  +  +     +     @  .     +  +  +     @  +     .        .  +  @     .  @  .     @  .        .  @  .  @                 +     @  .     .        +  +  +     +     @     .  @  @  .  +        @        +  +  @     .     +  .  @  .  +  .  +  +  @  +     .  @     .  +     @  @  @  @  .  +  +  .     .  .     +        @     @  +  @  @  .     +     @  +  @  @  .  @  ",
"+        @     @  +  @  @  .     +     @  +  @  @  .  @        @  @  +  .  .  .  .  .     +     .  .  .  +  .     .  .  @  @  .  @  .     .  .  +              +  .  @           +  @        +  @  @  +  .  .     @  @           @     @  @     @  +  .  @  +        .     .  @  .  @  @  .              @  .     +  @  @  .  +  @  +  +  @  +  .  @     +  @  +     +  .     .        .  .     @  +  +  .  .  .     .     +     @  +  .  .     +  +     @  .  @     +     .  +  +  +  +     +     @  .     +  +  +     @  +     .        .  +  @     .  @  .     @  .        .  @  .  @                 +     @  .     .        +  +  +     +     @     .  @  @  .     .. a% k* G& p+ q+ l* m* t+ ]+ ^+ +  .  @  .  +  .  +  +  @  +     .  @     .  +     @  @  @  @  .  +  +  .     .  .     +        @     @  +  @  @  .     +     @  +  @  @  .  @        @  @  +  .  .  .  @  ++ l@ v+ w+ n* o* p* N& ~. C+ W@ ^. .  @  .  @  .     .  .  +              +  .  @           +  @        +  @  @  +  .  .     @  @           @     @  @     @  +  .  @  +        .     .  @  .  @  @  .              @  .     +  @  @  .  +  @  +  +  @  +  .  @     +  @  +     +  .     .        .  .     @  +  +  .  .  .     .     +     @  +  .  .     +  +     @  .  @     +     .  +  +  +  +     +     @  .     +  +  +     @  +     .        .  +  @     .  @  .     @  .        .  @  .  @                 +     @  .     .        +  +  +     +     @     .  @  @  .  +        @        +  +  @     .     +  .  @  .  +  .  +  +  @  +     .  @     .  +     @  @  @  @  .  +  +  .     .  .     ",
"@     @  +  .  @  +        .     .  @  .  @  @  .              @  .     +  @  @  .  +  @  +  +  @  +  .  @     +  @  +     +  .     .        .  .     @  +  +  .  .  .     .     +     @  +  .  .     +  +     @  .  @     +     .  +  +  +  +     +     @  .     +  +  +     @  +     .        .  +  @     .  @  .     @  .        .  @  .  @                 +     @  .     .        +  +  +     +     @     .  @  @  .  +        @        +  +  @     .     +  .  @  .  +  .  +  +  @  +     .  @     .  +     @  @  @  @  .  +  +  .     .  .     +        @     @  +  @  @  .     +     @  +  @  @  .  @        @  @  +  .  .  .  .  .     +     .  .  .  +     r  U+ (. _. q* H+ r* s* &$ F$ +# +              +  .  @           +  @        +  @  @  +  .  .     @  @           @     @  @     @  +  .  @  +        .     .  @  .  @  @  .              @  .     +  @  @     @  A@ J. ## 0& t* P+ L$ u* v* m+ S. c. .  .     .        .  .     @  +  +  .  .  .     .     +     @  +  .  .     +  +     @  .  @     +     .  +  +  +  +     +     @  .     +  +  +     @  +     .        .  +  @     .  @  .     @  .        .  @  .  @                 +     @  .     .        +  +  +     +     @     .  @  @  .  +        @        +  +  @     .     +  .  @  .  +  .  +  +  @  +     .  @     .  +     @  @  @  @  .  +  +  .     .  .     +        @     @  +  @  @  .     +     @  +  @  @  .  @        @  @  +  .  .  .  .  .     +     .  .  .  +  .     .  .  @  @  .  @  .     .  .  +              +  .  @           +  @        +  @  @  +  .  .     @  @           @     @  ",
"   .  .  .  +  .     .  .  @  @  .  @  .     .  .  +              +  .  @           +  @        +  @  @  +  .  .     @  @           @     @  @     @  +  .  @  +        .     .  @  .  @  @  .              @  .     +  @  @  .  +  @  +  +  @  +  .  @     +  @  +     +  .     .        .  .     @  +  +  .  .  .     .     +     @  +  .  .     +  +     @  .  @     +     .  +  +  +  +     +     @  .     +  +  +     @  +     .        .  +  @     .  @  .     @  .        .  @  .  @                 +     @  .     .        +  +  +     +     @     .  @  @  .  +        @        +  +  @     .     +  .  @  .  +  .  +  +  @  +     .  @     .  +     @  )  J  a% Z& K@ w* x* y* V# .* 5@ ^+       @     @  +  @  @  .     +     @  +  @  @  .  @        @  @  +  .  .  .  .  .     +     .  .  .  +  .     .  .  @  @  .  @  .     .  .  +              +  .  @           @  ++ @+ 2& U$ +* z* A* B* u. C* W@ D* .        @     @  @     @  +  .  @  +        .     .  @  .  @  @  .              @  .     +  @  @  .  +  @  +  +  @  +  .  @     +  @  +     +  .     .        .  .     @  +  +  .  .  .     .     +     @  +  .  .     +  +     @  .  @     +     .  +  +  +  +     +     @  .     +  +  +     @  +     .        .  +  @     .  @  .     @  .        .  @  .  @                 +     @  .     .        +  +  +     +     @     .  @  @  .  +        @        +  +  @     .     +  .  @  .  +  .  +  +  @  +     .  @     .  +     @  @  @  @  .  +  +  .     .  .     +        @     @  +  @  @  .     +     @  +  @  @  .  @        @  @  +  .  .  .  .  .     +  ",
"   @  +  @  @  .     +     @  +  @  @  .  @        @  @  +  .  .  .  .  .     +     .  .  .  +  .     .  .  @  @  .  @  .     .  .  +              +  .  @           +  @        +  @  @  +  .  .     @  @           @     @  @     @  +  .  @  +        .     .  @  .  @  @  .              @  .     +  @  @  .  +  @  +  +  @  +  .  @     +  @  +     +  .     .        .  .     @  +  +  .  .  .     .     +     @  +  .  .     +  +     @  .  @     +     .  +  +  +  +     +     @  .     +  +  +     @  +     .        .  +  @     .  @  .     @  .        .  @  .  @                 +     @  .     .        +  +  +     +     @     .  @  @  .  +     )  r  /.  % E* F* +% G* H* N% ]+ ^+ +  .  +  .  +  +  @  +     .  @     .  +     @  @  @  @  .  +  +  .     .  .     .  #  #  #  I* #  %        .     +     @  +  @  @  .  @        @  @  +  .  .  .  .  .     +        @  @# (+ ## J* ]@ K* &% >$ ~* 2+ <@ c. .  .  +              +  .  @           +  @        +  @  @  +  .  .     @  @           @     @  @     @  +  .  @  +        .     .  @  .  @  @  .              @  .     +  @  @  .  +  @  +  +  @  +  .  @     +  @  +     +  .     .        .  .     @  +  +  .  .  .     .     +     @  +  .  .     +  +     @  .  @     +     .  +  +  +  +     +     @  .     +  +  +     @  +     .        .  +  @     .  @  .     @  .        .  @  .  @                 +     @  .     .        +  +  +     +     @     .  @  @  .  +        @        +  +  @     .     +  .  @  .  +  .  +  +  @  +     .  @     .  +     @  @  @  @  .  +  +  .     .  .     +        @  ",
"   @  +     .        .  +  @     .  @  .     @  .        .  @  .  @                 +     @  .     .        +  +  +     +     @     .  @  @  .  +        @        +  +  @     .     +  .  @  .  +  .  +  +  @  +     .  @     .  +     @  @  @  @  .  +  +  .     .  .     +        @     @  +  @  @  .     +     @  +  @  @  .  @        @  @  +  .  .  .  .  .     +     .  .  .  +  .     .  .  @  @  .  @  .     .  .  +              +  .  @           +  @        +  @  @  +  .  .     @  @           @     @  @     @  +  .  @  +        .     .  @  .  @  @  .              @  .     +  @  @  .  +  @  +  +  @  +  .  @     +  @  +     +  .     .     r  J  L* '$ =% -% M* N* O*  @ 5@ ^+ @  +     @  +  .  .     +  +     @  .  @     +     .  +  +  +  +     +        #  P* Q* R* S* T* U* V* W* $  &     .  +  @     .  @  .     @  .        .  @  .  @                 +     ++ A@ #+ X* ,% Y* Z* =+ :$ `*  = c  .  .  .  @  @  .  +        @        +  +  @     .     +  .  @  .  +  .  +  +  @  +     .  @     .  +     @  @  @  @  .  +  +  .     .  .     +        @     @  +  @  @  .     +     @  +  @  @  .  @        @  @  +  .  .  .  .  .     +     .  .  .  +  .     .  .  @  @  .  @  .     .  .  +              +  .  @           +  @        +  @  @  +  .  .     @  @           @     @  @     @  +  .  @  +        .     .  @  .  @  @  .              @  .     +  @  @  .  +  @  +  +  @  +  .  @     +  @  +     +  .     .        .  .     @  +  +  .  .  .     .     +     @  +  .  .     +  +     @  .  @     +     .  +  +  +  +     +     @  .     +  +  +  ",
"+  +     @  .  @     +     .  +  +  +  +     +     @  .     +  +  +     @  +     .        .  +  @     .  @  .     @  .        .  @  .  @                 +     @  .     .        +  +  +     +     @     .  @  @  .  +        @        +  +  @     .     +  .  @  .  +  .  +  +  @  +     .  @     .  +     @  @  @  @  .  +  +  .     .  .     +        @     @  +  @  @  .     +     @  +  @  @  .  @        @  @  +  .  .  .  .  .     +     .  .  .  +  .     .  .  @  @  .  @  .     .  .  +              +  .  @           +  @        +  @  @  +  .  .     @  @           @     @  @     @  +  .  @  +        .     .  @  .  @  @  .              @     .. [* .= += @= #= $= && {+ ]+ G. .  @     +  @  +     +  .     .        .  .     @  +  +  .  .  .     .        %= &= *= == -= ;= >= ,= 0  '= )= != %  +     .  +  +  +  +     +     @  .     +  +  +     @  +     .        @  ++ (+ v+ ~= {= 5* }+ }% ]= ^= <@ ^. .  .  @                 +     @  .     .        +  +  +     +     @     .  @  @  .  +        @        +  +  @     .     +  .  @  .  +  .  +  +  @  +     .  @     .  +     @  @  @  @  .  +  +  .     .  .     +        @     @  +  @  @  .     +     @  +  @  @  .  @        @  @  +  .  .  .  .  .     +     .  .  .  +  .     .  .  @  @  .  @  .     .  .  +              +  .  @           +  @        +  @  @  +  .  .     @  @           @     @  @     @  +  .  @  +        .     .  @  .  @  @  .              @  .     +  @  @  .  +  @  +  +  @  +  .  @     +  @  +     +  .     .        .  .     @  +  +  .  .  .     .     +     @  +  .  .     ",
"@  +  @  @  .     +     @  +  @  @  .  @        @  @  +  .  .  .  .  .     +     .  .  .  +  .     .  .  @  @  .  @  .     .  .  +              +  .  @           +  @        +  @  @  +  .  .     @  @           @     @  @     @  +  .  @  +        .     .  @  .  @  @  .              @  .     +  @  @  .  +  @  +  +  @  +  .  @     +  @  +     +  .     .        .  .     @  +  +  .  .  .     .     +     @  +  .  .     +  +     @  .  @     +     .  +  +  +  +     +     @  .     +  +  +     @  +     .        .  +  @     .  @  .     @  .        .  @  .  @                 +     @  .     .        +  +  +     +     @     .  @  @  .  +     r  x. (. /= )& (= x@ _= z@ := 5@ +  @  .  +  .  +  +  @  +     .  @     .  +     @  @  @  @  .  +  +  .        <= [= }= |= 1= 2= 3= 4= 5= 6= 7= 8= 9= ^. &  @  +  @  @  .  @        @  @  +  .  .  .  .  .     +     .  .  .  +  @  d+ e+ C@ 0= h+ a= b= c= I@ m+ S.  . .           +  .  @           +  @        +  @  @  +  .  .     @  @           @     @  @     @  +  .  @  +        .     .  @  .  @  @  .              @  .     +  @  @  .  +  @  +  +  @  +  .  @     +  @  +     +  .     .        .  .     @  +  +  .  .  .     .     +     @  +  .  .     +  +     @  .  @     +     .  +  +  +  +     +     @  .     +  +  +     @  +     .        .  +  @     .  @  .     @  .        .  @  .  @                 +     @  .     .        +  +  +     +     @     .  @  @  .  +        @        +  +  @     .     +  .  @  .  +  .  +  +  @  +     .  @     .  +     @  @  @  @  .  +  +  .     .  .     +        @     ",
".  .     +        @     @  +  @  @  .     +     @  +  @  @  .  @        @  @  +  .  .  .  .  .     +     .  .  .  +  .     .  .  @  @  .  @  .     .  .  +              +  .  @           +  @        +  @  @  +  .  .     @  @           @     @  @     @  +  .  @  +        .     .  @  .  @  @  .              @  .     +  @  @  .  +  @  +  +  @  +  .  @     +  @  +     +  .     .        .  .     @  +  +  .  .  .     .     +     @  +  .  .     +  +     @  .  @     +     .  +  +  +  +     +     @  .     +  +  +     @  +     .        .  +  @     .  @  .     @  .        .  @  .  @                 +     @  .     .        +  +  +     +  )  .. d. d= <& d% e= f= O@ ]# .+ ^+ .  +  +  @     .     +  .  @  .  +  .  +  +  @  +     .  @     .  +     )  .. g= h= i= j= k= l= m= n= o= p= q= r= s= t= }     +  @  @  .     +     @  +  @  @  .  @        @  @  +  .  .  .  .     ++ u+ v+ w+ n* i% u= U@ v= w= `$ ^. .  .  @  .     .  .  +              +  .  @           +  @        +  @  @  +  .  .     @  @           @     @  @     @  +  .  @  +        .     .  @  .  @  @  .              @  .     +  @  @  .  +  @  +  +  @  +  .  @     +  @  +     +  .     .        .  .     @  +  +  .  .  .     .     +     @  +  .  .     +  +     @  .  @     +     .  +  +  +  +     +     @  .     +  +  +     @  +     .        .  +  @     .  @  .     @  .        .  @  .  @                 +     @  .     .        +  +  +     +     @     .  @  @  .  +        @        +  +  @     .     +  .  @  .  +  .  +  +  @  +     .  @     .  +     @  @  @  @  .  +  +  .     ",
"+  +  +     +     @  .     +  +  +     @  +     .        .  +  @     .  @  .     @  .        .  @  .  @                 +     @  .     .        +  +  +     +     @     .  @  @  .  +        @        +  +  @     .     +  .  @  .  +  .  +  +  @  +     .  @     .  +     @  @  @  @  .  +  +  .     .  .     +        @     @  +  @  @  .     +     @  +  @  @  .  @        @  @  +  .  .  .  .  .     +     .  .  .  +  .     .  .  @  @  .  @  .     .  .  +              +  .  @           +  @        +  @  @  +  .  .     @  @           @     @  @     @  +  .  @  +        .     .  @  .  @  @  .              @  .     +  @  @  .  +  @  +  @  r  x= E+ y= o% =  z= r% K+ := 5@ +  .        .  .     @  +  +  .  .  .     .     +     @  +  .  .     +  +  r  5+ A= B= C= D= E= F= G= H= I= J= K= L= M= N= O= c. +  +  +     @  +     .        .  +  @     .  @  .     @  .        .  @  @# J. M+ 0& P= Q= R= S= T= y% S. c. .        +  +  +     +     @     .  @  @  .  +        @        +  +  @     .     +  .  @  .  +  .  +  +  @  +     .  @     .  +     @  @  @  @  .  +  +  .     .  .     +        @     @  +  @  @  .     +     @  +  @  @  .  @        @  @  +  .  .  .  .  .     +     .  .  .  +  .     .  .  @  @  .  @  .     .  .  +              +  .  @           +  @        +  @  @  +  .  .     @  @           @     @  @     @  +  .  @  +        .     .  @  .  @  @  .              @  .     +  @  @  .  +  @  +  +  @  +  .  @     +  @  +     +  .     .        .  .     @  +  +  .  .  .     .     +     @  +  .  .     +  +     @  .  @     +     .  +  ",
".  +        @        +  +  @     .     +  .  @  .  +  .  +  +  @  +     .  @     .  +     @  @  @  @  .  +  +  .     .  .     +        @     @  +  @  @  .     +     @  +  @  @  .  @        @  @  +  .  .  .  .  .     +     .  .  .  +  .     .  .  @  @  .  @  .     .  .  +              +  .  @           +  @        +  @  @  +  .  .     @  @           @     @  @     @  +  .  @  +        .     .  @  .  @  @  .              @  .     +  @  @  .  +  @  +  +  @  +  .  @     +  @  +     +  .     .        .  .     @  +  +  .  .  .     .     +     @  +  .  .     +  +     @  .  @     +     .  +  +  +  +     +     @  .     +  +  +     )  .. K  U= V= W= f& X= C% ]# .@ +  +     @  .        .  @  .  @                 +     @  .     .        +  )  x. Y= Z= `=  - .- +- @- #- $- %- &- *- =- -- ;- >- `  .     .     +  .  @  .  +  .  +  +  @  +     .  @     .  +     @  @  @  ++ A@ ^# ^$ ,- '- )- &@ j& I% `$ ^. .     @  +  @  @  .     +     @  +  @  @  .  @        @  @  +  .  .  .  .  .     +     .  .  .  +  .     .  .  @  @  .  @  .     .  .  +              +  .  @           +  @        +  @  @  +  .  .     @  @           @     @  @     @  +  .  @  +        .     .  @  .  @  @  .              @  .     +  @  @  .  +  @  +  +  @  +  .  @     +  @  +     +  .     .        .  .     @  +  +  .  .  .     .     +     @  +  .  .     +  +     @  .  @     +     .  +  +  +  +     +     @  .     +  +  +     @  +     .        .  +  @     .  @  .     @  .        .  @  .  @                 +     @  .     .        +  +  +     +     @     .  @  @  ",
".  @                 +     @  .     .        +  +  +     +     @     .  @  @  .  +        @        +  +  @     .     +  .  @  .  +  .  +  +  @  +     .  @     .  +     @  @  @  @  .  +  +  .     .  .     +        @     @  +  @  @  .     +     @  +  @  @  .  @        @  @  +  .  .  .  .  .     +     .  .  .  +  .     .  .  @  @  .  @  .     .  .  +              +  .  @           +  @        +  @  @  +  .  .     @  @           @     @  @     @  +  .  @  +        .     .  @  .  @  @  .              @  .     +  @  @  .  +  @  +  +  @  +  .  @     +  @  +     +  .     .        .  .     @  +  +  .  .  .     .     +     @  +     r  +. !- ;@ >@ ~- {- ]- !@ F. G. +  +  +  +  +     +     @  .     +  +  +     @  +     .        .  +  @     .. &* ^- /- (- _- :- <- [- }- |- 1- 2- 3- 4- 5- 6- 7- 8- c. .     .        +  +  +     +     @     .  @  @  .  +        @        @  =& (+ 9- 0- a- b- c- t& _@ T% D+ 4+ .  @  +     .  @     .  +     @  @  @  @  .  +  +  .     .  .     +        @     @  +  @  @  .     +     @  +  @  @  .  @        @  @  +  .  .  .  .  .     +     .  .  .  +  .     .  .  @  @  .  @  .     .  .  +              +  .  @           +  @        +  @  @  +  .  .     @  @           @     @  @     @  +  .  @  +        .     .  @  .  @  @  .              @  .     +  @  @  .  +  @  +  +  @  +  .  @     +  @  +     +  .     .        .  .     @  +  +  .  .  .     .     +     @  +  .  .     +  +     @  .  @     +     .  +  +  +  +     +     @  .     +  +  +     @  +     .        .  +  @     .  @  .     @  .        .  @  ",
"+  .  +  +  @  +     .  @     .  +     @  @  @  @  .  +  +  .     .  .     +        @     @  +  @  @  .     +     @  +  @  @  .  @        @  @  +  .  .  .  .  .     +     .  .  .  +  .     .  .  @  @  .  @  .     .  .  +              +  .  @           +  @        +  @  @  +  .  .     @  @           @     @  @     @  +  .  @  +        .     .  @  .  @  @  .              @  .     +  @  @  .  +  @  +  +  @  +  .  @     +  @  +     +  .     .        .  .     @  +  +  .  .  .     .     +     @  +  .  .     +  +     @  .  @     +     .  +  +  +  +     +     @  .     +  +  +     @  +     .        .  +  @     .  @  .     @     T. U+ L* b# U% d- y& X% 4@ b+ 5@ G. .  @  .     .        +  +  +     +     @     .  @  @  .  +        @     T. a% e- f- g- h- i- j- k- l- m- n- o- p- q- r- s- t- u- v- H  .  +     @  @  @  @  .  +  +  .     .  .     +        @     @  +  @  @  @  A@ e+ f+ A& `% B& .& +& <$ -@ b. .  @  +  .  .  .  .  .     +     .  .  .  +  .     .  .  @  @  .  @  .     .  .  +              +  .  @           +  @        +  @  @  +  .  .     @  @           @     @  @     @  +  .  @  +        .     .  @  .  @  @  .              @  .     +  @  @  .  +  @  +  +  @  +  .  @     +  @  +     +  .     .        .  .     @  +  +  .  .  .     .     +     @  +  .  .     +  +     @  .  @     +     .  +  +  +  +     +     @  .     +  +  +     @  +     .        .  +  @     .  @  .     @  .        .  @  .  @                 +     @  .     .        +  +  +     +     @     .  @  @  .  +        @        +  +  @     .     +  .  @  .  ",
"   +     @     .  @  @  .  +        @        +  +  @     .     +  .  @  .  +  .  +  +  @  +     .  @     .  +     @  @  @  @  .  +  +  .     .  .     +        @     @  +  @  @  .     +     @  +  @  @  .  @        @  @  +  .  .  .  .  .     +     .  .  .  +  .     .  .  @  @  .  @  .     .  .  +              +  .  @           +  @        +  @  @  +  .  .     @  @           @     @  @     @  +  .  @  +        .     .  @  .  @  @  .              @  .     +  @  @  .  +  @  +  +  @  +  .  @     +  @  +     +  .     .        .  .     @  +  +  .  .  .     .     +     @  +  .  .     +  +     @  .  @     +     .  +  +  +  +  )  .. c@ w- ]% x- y- z- u# t+ .+ G.    .        .  +  @     .  @  .     @  .        .  @  .  @                 0% m& A- U% B- C- D- E- F- G- P* H- I- J- K- L- M- N- O- P- b@ }     @        +  +  @     .     +  .  @  .  +  .  +  +  @  +     .  @     ++ (+ _+ :+ K& x# Q- R- S- T- W@ }  .  .     +        @     @  +  @  @  .     +     @  +  @  @  .  @        @  @  +  .  .  .  .  .     +     .  .  .  +  .     .  .  @  @  .  @  .     .  .  +              +  .  @           +  @        +  @  @  +  .  .     @  @           @     @  @     @  +  .  @  +        .     .  @  .  @  @  .              @  .     +  @  @  .  +  @  +  +  @  +  .  @     +  @  +     +  .     .        .  .     @  +  +  .  .  .     .     +     @  +  .  .     +  +     @  .  @     +     .  +  +  +  +     +     @  .     +  +  +     @  +     .        .  +  @     .  @  .     @  .        .  @  .  @                 +     @  .     .        +  +  +  ",
"@  +  .  .     +  +     @  .  @     +     .  +  +  +  +     +     @  .     +  +  +     @  +     .        .  +  @     .  @  .     @  .        .  @  .  @                 +     @  .     .        +  +  +     +     @     .  @  @  .  +        @        +  +  @     .     +  .  @  .  +  .  +  +  @  +     .  @     .  +     @  @  @  @  .  +  +  .     .  .     +        @     @  +  @  @  .     +     @  +  @  @  .  @        @  @  +  .  .  .  .  .     +     .  .  .  +  .     .  .  @  @  .  @  .     .  .  +              +  .  @           +  @        +  @  @  +  .  .     @  @           @     @  @     @  +  .  @  +        .     .  )  T. x. U- V- v@ W- D# R& F# b+ 5@ S$ @  @  .  +  @  +  +  @  +  .  @     +  @  +     +  .     .        .  .  r  [@ X- Y- Z- `-  ; .; +; @; #; &  $; %; &; *; =; -; ;; >; ,; '; ;# %  +     .  +  +  +  +     +     @  .     +  +  +     @  +     .        @  /+ e+ H# ); !; K# ~; {; ]; a. b. c. .  .  @                 +     @  .     .        +  +  +     +     @     .  @  @  .  +        @        +  +  @     .     +  .  @  .  +  .  +  +  @  +     .  @     .  +     @  @  @  @  .  +  +  .     .  .     +        @     @  +  @  @  .     +     @  +  @  @  .  @        @  @  +  .  .  .  .  .     +     .  .  .  +  .     .  .  @  @  .  @  .     .  .  +              +  .  @           +  @        +  @  @  +  .  .     @  @           @     @  @     @  +  .  @  +        .     .  @  .  @  @  .              @  .     +  @  @  .  +  @  +  +  @  +  .  @     +  @  +     +  .     .        .  .     @  +  +  .  .  .     .     +     ",
".     +     @  +  @  @  .  @        @  @  +  .  .  .  .  .     +     .  .  .  +  .     .  .  @  @  .  @  .     .  .  +              +  .  @           +  @        +  @  @  +  .  .     @  @           @     @  @     @  +  .  @  +        .     .  @  .  @  @  .              @  .     +  @  @  .  +  @  +  +  @  +  .  @     +  @  +     +  .     .        .  .     @  +  +  .  .  .     .     +     @  +  .  .     +  +     @  .  @     +     .  +  +  +  +     +     @  .     +  +  +     @  +     .        .  +  @     .  @  .     @  .        .  @  .  @                 +     @  .     .        +  +  +     +     @     .  @  @  .  @  )  U+ d. ^; /; (; _; :; `+  @ .+ G. .  @  .  +  .  +  +  @  +     .  @     .  +     @  @  @  @  .  +  +  .  )  x. <; [; }; |; 1; 2; 3; 4; 5; r      . 6; 7; 8; 9; 0; a; b; c; d; e; ^.    @  +  .  .  .  .  .     +     .  .  .  +  .     .  .  @  @  .  @  .  @# @+ W# f; g; h; i; k% u. .$ ]. ^. %     +  @        +  @  @  +  .  .     @  @           @     @  @     @  +  .  @  +        .     .  @  .  @  @  .              @  .     +  @  @  .  +  @  +  +  @  +  .  @     +  @  +     +  .     .        .  .     @  +  +  .  .  .     .     +     @  +  .  .     +  +     @  .  @     +     .  +  +  +  +     +     @  .     +  +  +     @  +     .        .  +  @     .  @  .     @  .        .  @  .  @                 +     @  .     .        +  +  +     +     @     .  @  @  .  +        @        +  +  @     .     +  .  @  .  +  .  +  +  @  +     .  @     .  +     @  @  @  @  .  +  +  .     .  .     +        @     @  +  @  @  ",
"@     +     .  +  +  +  +     +     @  .     +  +  +     @  +     .        .  +  @     .  @  .     @  .        .  @  .  @                 +     @  .     .        +  +  +     +     @     .  @  @  .  +        @        +  +  @     .     +  .  @  .  +  .  +  +  @  +     .  @     .  +     @  @  @  @  .  +  +  .     .  .     +        @     @  +  @  @  .     +     @  +  @  @  .  @        @  @  +  .  .  .  .  .     +     .  .  .  +  .     .  .  @  @  .  @  .     .  .  +              +  .  @           +  @        +  @  @  +  .  .     @  @           @     @  @     @  +  .  @  +        .     .  @  .  @  @  .              )  r  c@ y. ** $$ $  7& D. &$ b+ G. +  .  @     +  @  +     +  .     .        .  .     @  +  +  .  .  .     .  .. '& c& j; k; l; m; n; Z= o; /. )  .  @   . p; q; r; s; t; u; v; 9$ w; x; %  .     +  +  +     @  +     .        .  +  @     .  @  .     @  .        @# G$ @% s% %# y; z; >$ ,$ a# ;# c. .     .        +  +  +     +     @     .  @  @  .  +        @        +  +  @     .     +  .  @  .  +  .  +  +  @  +     .  @     .  +     @  @  @  @  .  +  +  .     .  .     +        @     @  +  @  @  .     +     @  +  @  @  .  @        @  @  +  .  .  .  .  .     +     .  .  .  +  .     .  .  @  @  .  @  .     .  .  +              +  .  @           +  @        +  @  @  +  .  .     @  @           @     @  @     @  +  .  @  +        .     .  @  .  @  @  .              @  .     +  @  @  .  +  @  +  +  @  +  .  @     +  @  +     +  .     .        .  .     @  +  +  .  .  .     .     +     @  +  .  .     +  +     @  .  ",
"+  +  @     .     +  .  @  .  +  .  +  +  @  +     .  @     .  +     @  @  @  @  .  +  +  .     .  .     +        @     @  +  @  @  .     +     @  +  @  @  .  @        @  @  +  .  .  .  .  .     +     .  .  .  +  .     .  .  @  @  .  @  .     .  .  +              +  .  @           +  @        +  @  @  +  .  .     @  @           @     @  @     @  +  .  @  +        .     .  @  .  @  @  .              @  .     +  @  @  .  +  @  +  +  @  +  .  @     +  @  +     +  .     .        .  .     @  +  +  .  .  .     .     +     @  +  .  .     +  +     @  .  @     +     .  +  +  +  +     +     @  .     +  +  +     @  +     T. U+ U. '$ =% !$ A; B; {$  @ .@ +  .        .  @  .  @                 +     @  .     .        +  +  +        +. C; /= D; E; F; G; H; I; 5+ r        +  ^+ J; K; L; M; N; O; P; Q; R; 0$ `  .  @  +     .  @     .  +     @  @  @  @  .  +  +  .     .  .     +     ++ @+ W# f; S; T; U; =+ V; ;+ -@ `   . +  @  .  @        @  @  +  .  .  .  .  .     +     .  .  .  +  .     .  .  @  @  .  @  .     .  .  +              +  .  @           +  @        +  @  @  +  .  .     @  @           @     @  @     @  +  .  @  +        .     .  @  .  @  @  .              @  .     +  @  @  .  +  @  +  +  @  +  .  @     +  @  +     +  .     .        .  .     @  +  +  .  .  .     .     +     @  +  .  .     +  +     @  .  @     +     .  +  +  +  +     +     @  .     +  +  +     @  +     .        .  +  @     .  @  .     @  .        .  @  .  @                 +     @  .     .        +  +  +     +     @     .  @  @  .  +        @        ",
".     +  +  +     @  +     .        .  +  @     .  @  .     @  .        .  @  .  @                 +     @  .     .        +  +  +     +     @     .  @  @  .  +        @        +  +  @     .     +  .  @  .  +  .  +  +  @  +     .  @     .  +     @  @  @  @  .  +  +  .     .  .     +        @     @  +  @  @  .     +     @  +  @  @  .  @        @  @  +  .  .  .  .  .     +     .  .  .  +  .     .  .  @  @  .  @  .     .  .  +              +  .  @           +  @        +  @  @  +  .  .     @  @           @     @  @     @  +  .  @  +        .     .  @  .  @  @  .              @  .     +  @  @  .  +  @  +  +  @     r  [* [$ }* |$ W; 2$ ~+ {+ .+ 5@ +     .  .     @  +  +  .  .  .     .     +     @  +  .  .     +  +        J  &* X; Y; Z; `;  > .> c$ +> s        @  .  .  ^+ +% @> #> $> %> &> *> => -> F& c. +     .  @  .     @  .        .  @  .  @                 +     @  .  )  @# ;> 5# 6# >> ,> '> <# 1+ 2+ <@ ^. .  @  .  +        @        +  +  @     .     +  .  @  .  +  .  +  +  @  +     .  @     .  +     @  @  @  @  .  +  +  .     .  .     +        @     @  +  @  @  .     +     @  +  @  @  .  @        @  @  +  .  .  .  .  .     +     .  .  .  +  .     .  .  @  @  .  @  .     .  .  +              +  .  @           +  @        +  @  @  +  .  .     @  @           @     @  @     @  +  .  @  +        .     .  @  .  @  @  .              @  .     +  @  @  .  +  @  +  +  @  +  .  @     +  @  +     +  .     .        .  .     @  +  +  .  .  .     .     +     @  +  .  .     +  +     @  .  @     +     .  +  +  +  +     +     @  ",
".     +  @  @  .  +  @  +  +  @  +  .  @     +  @  +     +  .     .        .  .     @  +  +  .  .  .     .     +     @  +  .  .     +  +     @  .  @     +     .  +  +  +  +     +     @  .     +  +  +     @  +     .        .  +  @     .  @  .     @  .        .  @  .  @                 +     @  .     .        +  +  +     +     @     .  @  @  .  +        @        +  +  @     .     +  .  @  .  +  .  +  +  @  +     .  @     .  +     @  @  @  @  .  +  +  .     .  .     +        @     @  +  @  @  .     +     @  +  @  @  .  @        @  @  +  .  .  .  .  .     +     .  .  .  +  .     .  .  @  @  .  @  .     .  .  @  r  x. )> 6+ w& c$ !> e$ a+ b+ 5@ S$       +  @  @  +  .  .     @  @           @     @  @     @  +  .  @  @  r  U. x  ~> {> ]> ^> /> (> _> L* T.       @  .     +  :> <> [> 9# }> |> 1> 2> 3> 4> b. %  .  @  +     +  .     .        .  .     @  +  +  .  .  .     .     +  ++ A@ G# f$ i# 5> 6> 7> i* j* b@ `  %  .     .  +  +  +  +     +     @  .     +  +  +     @  +     .        .  +  @     .  @  .     @  .        .  @  .  @                 +     @  .     .        +  +  +     +     @     .  @  @  .  +        @        +  +  @     .     +  .  @  .  +  .  +  +  @  +     .  @     .  +     @  @  @  @  .  +  +  .     .  .     +        @     @  +  @  @  .     +     @  +  @  @  .  @        @  @  +  .  .  .  .  .     +     .  .  .  +  .     .  .  @  @  .  @  .     .  .  +              +  .  @           +  @        +  @  @  +  .  .     @  @           @     @  @     @  +  .  @  +        .     .  @  .  @  @  .              @  ",
"+  .  @  .  +  .  +  +  @  +     .  @     .  +     @  @  @  @  .  +  +  .     .  .     +        @     @  +  @  @  .     +     @  +  @  @  .  @        @  @  +  .  .  .  .  .     +     .  .  .  +  .     .  .  @  @  .  @  .     .  .  +              +  .  @           +  @        +  @  @  +  .  .     @  @           @     @  @     @  +  .  @  +        .     .  @  .  @  @  .              @  .     +  @  @  .  +  @  +  +  @  +  .  @     +  @  +     +  .     .        .  .     @  +  +  .  .  .     .     +     @  +  .  .     +  +     @  .  @     +     .  +  +  +  +     +     @  .     +  +  +     @  +     .              .. a% k* 8> p$ 9> 0> a> P@ .+ ^+ +  .  @                 +     @  .     .        +  +  +     +     @        0% m& b> U% c> d> e> f> g> h> r        .     +  .  @   . i> j> k> l> m> n> o> p> q> r> ^. +     @  @  @  @  .  +  +  .     .  .     +        @     @  +  @  @     ++ u+ 5# s> t> u> v> N& w> C+ <@ c. .  +  .  .  .  .  .     +     .  .  .  +  .     .  .  @  @  .  @  .     .  .  +              +  .  @           +  @        +  @  @  +  .  .     @  @           @     @  @     @  +  .  @  +        .     .  @  .  @  @  .              @  .     +  @  @  .  +  @  +  +  @  +  .  @     +  @  +     +  .     .        .  .     @  +  +  .  .  .     .     +     @  +  .  .     +  +     @  .  @     +     .  +  +  +  +     +     @  .     +  +  +     @  +     .        .  +  @     .  @  .     @  .        .  @  .  @                 +     @  .     .        +  +  +     +     @     .  @  @  .  +        @        +  +  @     .     ",
"+  .  .  .  .  .     +     .  .  .  +  .     .  .  @  @  .  @  .     .  .  +              +  .  @           +  @        +  @  @  +  .  .     @  @           @     @  @     @  +  .  @  +        .     .  @  .  @  @  .              @  .     +  @  @  .  +  @  +  +  @  +  .  @     +  @  +     +  .     .        .  .     @  +  +  .  .  .     .     +     @  +  .  .     +  +     @  .  @     +     .  +  +  +  +     +     @  .     +  +  +     @  +     .        .  +  @     .  @  .     @  .        .  @  .  @                 +     @  .     .        +  +  +     +     @     .  @  @  .  +        @        +  +  @     .     )  x= U- x> A$ y> C$ D$ F# b+ 5@ +  @     .  +     @  @  @  @  .  +  +  .     .  .     +        @     @     r  z> A> B> C> D>  ; E> F> G> #; )        @  @  +  .  .  .  :> H> I> J> =; K> L> M> N> O> O= c. .  @  @  .  @  .     .  .  +              +  .  @           +  @     )  /+ e+ H# P> Q> V& R> S> T> b@ b. c. .     @  @     @  +  .  @  +        .     .  @  .  @  @  .              @  .     +  @  @  .  +  @  +  +  @  +  .  @     +  @  +     +  .     .        .  .     @  +  +  .  .  .     .     +     @  +  .  .     +  +     @  .  @     +     .  +  +  +  +     +     @  .     +  +  +     @  +     .        .  +  @     .  @  .     @  .        .  @  .  @                 +     @  .     .        +  +  +     +     @     .  @  @  .  +        @        +  +  @     .     +  .  @  .  +  .  +  +  @  +     .  @     .  +     @  @  @  @  .  +  +  .     .  .     +        @     @  +  @  @  .     +     @  +  @  @  .  @        @  @  ",
"@  @  @  @  .  +  +  .     .  .     +        @     @  +  @  @  .     +     @  +  @  @  .  @        @  @  +  .  .  .  .  .     +     .  .  .  +  .     .  .  @  @  .  @  .     .  .  +              +  .  @           +  @        +  @  @  +  .  .     @  @           @     @  @     @  +  .  @  +        .     .  @  .  @  @  .              @  .     +  @  @  .  +  @  +  +  @  +  .  @     +  @  +     +  .     .        .  .     @  +  +  .  .  .     .     +     @  +  .  .     +  +     @  .  @     +     .  +  +  +  +     +     @  .     +  +  +     @  +     .        .  +  @     .  @  .     @  .        .  @  .  @     T. J  d. Z& U> V> W> f= V# ]# .@ ^+ +  +  +     +     @     .  @  @  .  +        @        +  +  @     .        @$ X> Y> Z> `> l;  , ., +, @, |  @     .  +     @  @  @  +   . #, 7; 8; $, %, O; &, *, =, :@ ^.    @  +  @  @  .     +     @  +  @  @  .  @        @  @  +  .  .  .  @  ++ @+ D% @@ -, W$ X$ t. u. ;, -@ `  .  @  .  @  .     .  .  +              +  .  @           +  @        +  @  @  +  .  .     @  @           @     @  @     @  +  .  @  +        .     .  @  .  @  @  .              @  .     +  @  @  .  +  @  +  +  @  +  .  @     +  @  +     +  .     .        .  .     @  +  +  .  .  .     .     +     @  +  .  .     +  +     @  .  @     +     .  +  +  +  +     +     @  .     +  +  +     @  +     .        .  +  @     .  @  .     @  .        .  @  .  @                 +     @  .     .        +  +  +     +     @     .  @  @  .  +        @        +  +  @     .     +  .  @  .  +  .  +  +  @  +     .  @     .  +     ",
"@        +  +  @     .     +  .  @  .  +  .  +  +  @  +     .  @     .  +     @  @  @  @  .  +  +  .     .  .     +        @     @  +  @  @  .     +     @  +  @  @  .  @        @  @  +  .  .  .  .  .     +     .  .  .  +  .     .  .  @  @  .  @  .     .  .  +              +  .  @           +  @        +  @  @  +  .  .     @  @           @     @  @     @  +  .  @  +        .     .  @  .  @  @  .              @  .     +  @  @  .  +  @  +  +  @  +  .  @     +  @  +     +  .     .        .  .     @  +  +  .  .  .     .     +     @  +  .  .     +  +     @  .  @     +     .  +  +  +  +     +     @  .     @  I  x. y. E* F* >, ,, )@ &$ ]+ 5@ +  @  .  @  .     @  .        .  @  .  @                 +     @  .        .. ', ), !, ~, {, ], ^, d# o; s  )  @  .  +        @        +  +  $; /, (, _, :, <, [, }, |, 1, `$ c. @  +     .  @     .  +     @  @  @  @  .  +  +  .     .  .     +     )  /+ G$ M+ #% ]@ 2, O. >$ ~* 3, S. 4+ .  @  .  @        @  @  +  .  .  .  .  .     +     .  .  .  +  .     .  .  @  @  .  @  .     .  .  +              +  .  @           +  @        +  @  @  +  .  .     @  @           @     @  @     @  +  .  @  +        .     .  @  .  @  @  .              @  .     +  @  @  .  +  @  +  +  @  +  .  @     +  @  +     +  .     .        .  .     @  +  +  .  .  .     .     +     @  +  .  .     +  +     @  .  @     +     .  +  +  +  +     +     @  .     +  +  +     @  +     .        .  +  @     .  @  .     @  .        .  @  .  @                 +     @  .     .        +  +  +     +     @     .  @  @  .  +        ",
".     @  +  +  .  .  .     .     +     @  +  .  .     +  +     @  .  @     +     .  +  +  +  +     +     @  .     +  +  +     @  +     .        .  +  @     .  @  .     @  .        .  @  .  @                 +     @  .     .        +  +  +     +     @     .  @  @  .  +        @        +  +  @     .     +  .  @  .  +  .  +  +  @  +     .  @     .  +     @  @  @  @  .  +  +  .     .  .     +        @     @  +  @  @  .     +     @  +  @  @  .  @        @  @  +  .  .  .  .  .     +     .  .  .  +  .     .  .  @  @  .  @  .     .  .  +              +  .  @           +  @        +  @  @  +  .  .     @  @  I  U+ U. V. =% 4, 5, e$ 6,  @ .@ +  +        .     .  @  .  @  @  .              @  .     +  @  @  .  +  @  )  c@ 7, 8, 9, 0, a, b, c, d, e, T.       .        .  .     @  +  +   . J; K; f, g, h, |> i, Q; j, k, b. .  .  +     @  .  @     +     .  +  +  +  +     +     @  .     +  +  @  ++ @+ e+ l, m, Y* n, <# V; <$ -@ `  .  .     @  .        .  @  .  @                 +     @  .     .        +  +  +     +     @     .  @  @  .  +        @        +  +  @     .     +  .  @  .  +  .  +  +  @  +     .  @     .  +     @  @  @  @  .  +  +  .     .  .     +        @     @  +  @  @  .     +     @  +  @  @  .  @        @  @  +  .  .  .  .  .     +     .  .  .  +  .     .  .  @  @  .  @  .     .  .  +              +  .  @           +  @        +  @  @  +  .  .     @  @           @     @  @     @  +  .  @  +        .     .  @  .  @  @  .              @  .     +  @  @  .  +  @  +  +  @  +  .  @     +  @  +     +  .     .        .  ",
"+     @  @  @  @  .  +  +  .     .  .     +        @     @  +  @  @  .     +     @  +  @  @  .  @        @  @  +  .  .  .  .  .     +     .  .  .  +  .     .  .  @  @  .  @  .     .  .  +              +  .  @           +  @        +  @  @  +  .  .     @  @           @     @  @     @  +  .  @  +        .     .  @  .  @  @  .              @  .     +  @  @  .  +  @  +  +  @  +  .  @     +  @  +     +  .     .        .  .     @  +  +  .  .  .     .     +     @  +  .  .     +  +     @  .  @     +     .  +  +  +  +     +     @  .     +  +  +     @  +     .        .  +  @     .  @  .     @  .        .  )  r  +. [$ o, p, 1* 2$ q, t+ ]+ G. @  +        +  +  +     +     @     .  @  @  .  +        @        +  +     U+ &* r, s, t, u, v, w, x, +> J  )  +     .  @     .  +     @  @  @  +   . y, z, A, B, C, D, E, F, G, Z  c.    @  +  @  @  .     +     @  +  @  @  .  @        @  @  +  .  .  .  @  ++ l@ v+ :+ {= H, I, J, K, >- <@ ^. .  @  .  @  .     .  .  +              +  .  @           +  @        +  @  @  +  .  .     @  @           @     @  @     @  +  .  @  +        .     .  @  .  @  @  .              @  .     +  @  @  .  +  @  +  +  @  +  .  @     +  @  +     +  .     .        .  .     @  +  +  .  .  .     .     +     @  +  .  .     +  +     @  .  @     +     .  +  +  +  +     +     @  .     +  +  +     @  +     .        .  +  @     .  @  .     @  .        .  @  .  @                 +     @  .     .        +  +  +     +     @     .  @  @  .  +        @        +  +  @     .     +  .  @  .  +  .  +  +  @  +     .  @     .  ",
"+  +  .     .  .     +        @     @  +  @  @  .     +     @  +  @  @  .  @        @  @  +  .  .  .  .  .     +     .  .  .  +  .     .  .  @  @  .  @  .     .  .  +              +  .  @           +  @        +  @  @  +  .  .     @  @           @     @  @     @  +  .  @  +        .     .  @  .  @  @  .              @  .     +  @  @  .  +  @  +  +  @  +  .  @     +  @  +     +  .     .        .  .     @  +  +  .  .  .     .     +     @  +  .  .     +  +     @  .  @     +     .  +  +  +  +     +     @  .     +  +  +     @  +     .        .  +  @     .  @  .     @  .        .  @  .  @              r  U+ )> L, M, c* N, O, a+ := 5@ ^+    +     @     .  @  @  .  +        @        +  +  @     .     +  .  @  T. P, Q, R, S, T, U, V, W, X, P# T. @     @  @  @  @  .  +  +  .     .  .     :> Y, &; Z, `,  ' .' +' @' l% #'  .    @  +  @  @  .  @        @  @  +  .  .  .  .  .     +     .  .  .  @  /+ ^& h# g+ h+ g* j$ k$ l+ $' S. c. +              +  .  @           +  @        +  @  @  +  .  .     @  @           @     @  @     @  +  .  @  +        .     .  @  .  @  @  .              @  .     +  @  @  .  +  @  +  +  @  +  .  @     +  @  +     +  .     .        .  .     @  +  +  .  .  .     .     +     @  +  .  .     +  +     @  .  @     +     .  +  +  +  +     +     @  .     +  +  +     @  +     .        .  +  @     .  @  .     @  .        .  @  .  @                 +     @  .     .        +  +  +     +     @     .  @  @  .  +        @        +  +  @     .     +  .  @  .  +  .  +  +  @  +     .  @     .  +     @  @  @  @  .  ",
"   @     @  +  @  @  .     +     @  +  @  @  .  @        @  @  +  .  .  .  .  .     +     .  .  .  +  .     .  .  @  @  .  @  .     .  .  +              +  .  @           +  @        +  @  @  +  .  .     @  @           @     @  @     @  +  .  @  +        .     .  @  .  @  @  .              @  .     +  @  @  .  +  @  +  +  @  +  .  @     +  @  +     +  .     .        .  .     @  +  +  .  .  .     .     +     @  +  .  .     +  +     @  .  @     +     .  +  +  +  +     +     @  .     +  +  +     @  +     .        .  +  @     .  @  .     @  .        .  @  .  @                 +     @  .     .     )  r  c@ k* %' &' *' X= =' t+ .+ S$ .  +        @        +  +  @     .     +  .  @  .  +  .  +  +  @  +        x= -' ;' >' |; ,' '' d% )' 4& r     .     .  .     +        @     @  +  @  @   . 6; !' ~' {' ]' ^' /' (' _' :' ^.    @  +  .  .  .  .  .     +     .  .  .  +  .     .  .  @  @  .  @     @# @+ J& <' n* o* [' !. B+ {. D+ ^. %     +  @        +  @  @  +  .  .     @  @           @     @  @     @  +  .  @  +        .     .  @  .  @  @  .              @  .     +  @  @  .  +  @  +  +  @  +  .  @     +  @  +     +  .     .        .  .     @  +  +  .  .  .     .     +     @  +  .  .     +  +     @  .  @     +     .  +  +  +  +     +     @  .     +  +  +     @  +     .        .  +  @     .  @  .     @  .        .  @  .  @                 +     @  .     .        +  +  +     +     @     .  @  @  .  +        @        +  +  @     .     +  .  @  .  +  .  +  +  @  +     .  @     .  +     @  @  @  @  .  +  +  .     .  .     +     ",
"@     .  @  @  .  +        @        +  +  @     .     +  .  @  .  +  .  +  +  @  +     .  @     .  +     @  @  @  @  .  +  +  .     .  .     +        @     @  +  @  @  .     +     @  +  @  @  .  @        @  @  +  .  .  .  .  .     +     .  .  .  +  .     .  .  @  @  .  @  .     .  .  +              +  .  @           +  @        +  @  @  +  .  .     @  @           @     @  @     @  +  .  @  +        .     .  @  .  @  @  .              @  .     +  @  @  .  +  @  +  +  @  +  .  @     +  @  +     +  .     .        .  .     @  +  +  .  .  .     .     +     @  +  .  .     +  +     @  .  @     +  )  T. x. X@ }' |' 1' 2'  # &$ F$ 5@ +  +  +     @  +     .        .  +  @     .  @  .     @  .        .  @     r  )> 3' B> 4' 5' 6' 7' 8' 9' /.          +  +  +     +     @     .  @  @  .  +  .  4+ 0' a' b' c' d' e' f' g' h' i' c. @  .  +  .  +  +  @  +     .  @     .  +     @  @  @  @  .  +  +  .  ++ @# L+ M+ 0& j' k' R> l' S+ y% S. c. .  .  +     @  +  @  @  .  @        @  @  +  .  .  .  .  .     +     .  .  .  +  .     .  .  @  @  .  @  .     .  .  +              +  .  @           +  @        +  @  @  +  .  .     @  @           @     @  @     @  +  .  @  +        .     .  @  .  @  @  .              @  .     +  @  @  .  +  @  +  +  @  +  .  @     +  @  +     +  .     .        .  .     @  +  +  .  .  .     .     +     @  +  .  .     +  +     @  .  @     +     .  +  +  +  +     +     @  .     +  +  +     @  +     .        .  +  @     .  @  .     @  .        .  @  .  @                 +     @  .     .        +  +  +     +     ",
"@     @  @     @  +  .  @  +        .     .  @  .  @  @  .              @  .     +  @  @  .  +  @  +  +  @  +  .  @     +  @  +     +  .     .        .  .     @  +  +  .  .  .     .     +     @  +  .  .     +  +     @  .  @     +     .  +  +  +  +     +     @  .     +  +  +     @  +     .        .  +  @     .  @  .     @  .        .  @  .  @                 +     @  .     .        +  +  +     +     @     .  @  @  .  +        @        +  +  @     .     +  .  @  .  +  .  +  +  @  +     .  @     .  +     @  @  @  @  .  +  +  .     .  .     +        @     @  +  @  @  .     +     @  +  @  @     )  U+ K  V+ A% m' n' o' V#  @ p' +  +     .  .  .  +  .     .  .  @  @  .  @  .     .  .  +              +  T. [* q' r' s' t' l; u' v' w' )> r     .  .     @  @           @     @  @     @  +  .  .  J; x' y' z' A' B' C' D' E' :@ b. .           @  .     +  @  @  .  +  @  +  +  @  +  .  @     +  @  +     ++ @+ 2& U$ F' $@ %@ G' *@ =@ -@ k& c. .  .     .     +     @  +  .  .     +  +     @  .  @     +     .  +  +  +  +     +     @  .     +  +  +     @  +     .        .  +  @     .  @  .     @  .        .  @  .  @                 +     @  .     .        +  +  +     +     @     .  @  @  .  +        @        +  +  @     .     +  .  @  .  +  .  +  +  @  +     .  @     .  +     @  @  @  @  .  +  +  .     .  .     +        @     @  +  @  @  .     +     @  +  @  @  .  @        @  @  +  .  .  .  .  .     +     .  .  .  +  .     .  .  @  @  .  @  .     .  .  +              +  .  @           +  @        +  @  @  +  .  .     @  @           ",
"   +  @  +     +  .     .        .  .     @  +  +  .  .  .     .     +     @  +  .  .     +  +     @  .  @     +     .  +  +  +  +     +     @  .     +  +  +     @  +     .        .  +  @     .  @  .     @  .        .  @  .  @                 +     @  .     .        +  +  +     +     @     .  @  @  .  +        @        +  +  @     .     +  .  @  .  +  .  +  +  @  +     .  @     .  +     @  @  @  @  .  +  +  .     .  .     +        @     @  +  @  @  .     +     @  +  @  @  .  @        @  @  +  .  .  .  .  .     +     .  .  .  +  .     .  .  @  @  .  @  .     .  .  +              +  .  @     r  +. !- H' .% I' J' K' L' ]+ +# +  @  @  @           @     @  @     @  +  .  @  +        .     .  @  .  @  .. h> c* M' N' O' P' Q' R' S' U+    .  +  @  +  +  @  +  .  @     +  @  +     +  .     .   . /, (, T' U' <, V' W' X' Y' F& }  .     +     @  +  .  .     +  +     @  .  @     +     .  +  +  +  +     /+ L+ M+ Z' $% ^@ `' t& _@ a# 3+ }  .        .  +  @     .  @  .     @  .        .  @  .  @                 +     @  .     .        +  +  +     +     @     .  @  @  .  +        @        +  +  @     .     +  .  @  .  +  .  +  +  @  +     .  @     .  +     @  @  @  @  .  +  +  .     .  .     +        @     @  +  @  @  .     +     @  +  @  @  .  @        @  @  +  .  .  .  .  .     +     .  .  .  +  .     .  .  @  @  .  @  .     .  .  +              +  .  @           +  @        +  @  @  +  .  .     @  @           @     @  @     @  +  .  @  +        .     .  @  .  @  @  .              @  .     +  @  @  .  +  @  +  +  @  +  .  @  ",
"   +  .  @  .  +  .  +  +  @  +     .  @     .  +     @  @  @  @  .  +  +  .     .  .     +        @     @  +  @  @  .     +     @  +  @  @  .  @        @  @  +  .  .  .  .  .     +     .  .  .  +  .     .  .  @  @  .  @  .     .  .  +              +  .  @           +  @        +  @  @  +  .  .     @  @           @     @  @     @  +  .  @  +        .     .  @  .  @  @  .              @  .     +  @  @  .  +  @  +  +  @  +  .  @     +  @  +     +  .     .        .  .     @  +  +  .  .  .     .     +     @  +  .  .     +  +     @  .  @     +     .  +  +  +  +     +     @  .     +  +  +     I  0% 0*  ) |@ .) +) 3@ 4@ b+ .@ +  .     @  .        .  @  .  @                 +     @  .     .        +  )  a% @. @) #) $) %) &) *) d, =) )        @        +  +  @     .     +  .  @  .  +  .  +  +  +  -) ;) >) ,) ') )) !) ~) {) k, b. .  .  +  +  .     .  .     +        @     @  +  @  @  .     +     @  +  ++ A@ G# ]) 7@ ^) /) () +& _) $' :) c. .     +     .  .  .  +  .     .  .  @  @  .  @  .     .  .  +              +  .  @           +  @        +  @  @  +  .  .     @  @           @     @  @     @  +  .  @  +        .     .  @  .  @  @  .              @  .     +  @  @  .  +  @  +  +  @  +  .  @     +  @  +     +  .     .        .  .     @  +  +  .  .  .     .     +     @  +  .  .     +  +     @  .  @     +     .  +  +  +  +     +     @  .     +  +  +     @  +     .        .  +  @     .  @  .     @  .        .  @  .  @                 +     @  .     .        +  +  +     +     @     .  @  @  .  +        @        +  +  @     .  ",
".     +     @  +  .  .     +  +     @  .  @     +     .  +  +  +  +     +     @  .     +  +  +     @  +     .        .  +  @     .  @  .     @  .        .  @  .  @                 +     @  .     .        +  +  +     +     @     .  @  @  .  +        @        +  +  @     .     +  .  @  .  +  .  +  +  @  +     .  @     .  +     @  @  @  @  .  +  +  .     .  .     +        @     @  +  @  @  .     +     @  +  @  @  .  @        @  @  +  .  .  .  .  .     +     .  .  .  +  .     .  .  @  @  .  @  .     .  .  +              +  .  @           +  @        +  @  @  +  .  .     @  @           @  )  .. c@ p# e@ <) [) J' && t+ .+ ^+ +  .  @  .  @  @  .              @  .     +  @  @  .  +  @  +  +  @  @     0% m& A- }) |) d> 1) 2) 3) 4) J     .  .     @  +  +  .  .  .     .     +     @  +  .  .     +   . >, j> 5) 6) m> 7) o> 8) 9) a. 4+ +     +     @  .     +  +  +     @  +     .        .  +  @     .  @     @# (+ v+ ~= r& 0) a) }% r@ A# <@ ^. .     +     @  .     .        +  +  +     +     @     .  @  @  .  +        @        +  +  @     .     +  .  @  .  +  .  +  +  @  +     .  @     .  +     @  @  @  @  .  +  +  .     .  .     +        @     @  +  @  @  .     +     @  +  @  @  .  @        @  @  +  .  .  .  .  .     +     .  .  .  +  .     .  .  @  @  .  @  .     .  .  +              +  .  @           +  @        +  @  @  +  .  .     @  @           @     @  @     @  +  .  @  +        .     .  @  .  @  @  .              @  .     +  @  @  .  +  @  +  +  @  +  .  @     +  @  +     +  .     .        .  .     @  +  +  .  .  .     ",
"+  .  @           +  @        +  @  @  +  .  .     @  @           @     @  @     @  +  .  @  +        .     .  @  .  @  @  .              @  .     +  @  @  .  +  @  +  +  @  +  .  @     +  @  +     +  .     .        .  .     @  +  +  .  .  .     .     +     @  +  .  .     +  +     @  .  @     +     .  +  +  +  +     +     @  .     +  +  +     @  +     .        .  +  @     .  @  .     @  .        .  @  .  @                 +     @  .     .        +  +  +     +     @     .  @  @  .  +        @        +  +  @     .     +  .  @  .  +  .  +  +  @  +     .  @     .  +     @  @  @  @  .  @  )  U+ m% b) c) d) e) f) g) := 5@ +  +  @  @  .     +     @  +  @  @  .  @        @  @  +  .  .  .  .  .     I  0* X- h) Z- `- i) .; j) k) +. )  .  @  .     .  .  +              +  .  @           +  @        .  $; l) m) *; =; n) o) p) q) w= #' .  .  @  @     @  +  .  @  +        .     .  @  .  @  @  .              ++ A@ G# r) s) t) u) 9% {; v) w) b. c. .  @     +  @  +     +  .     .        .  .     @  +  +  .  .  .     .     +     @  +  .  .     +  +     @  .  @     +     .  +  +  +  +     +     @  .     +  +  +     @  +     .        .  +  @     .  @  .     @  .        .  @  .  @                 +     @  .     .        +  +  +     +     @     .  @  @  .  +        @        +  +  @     .     +  .  @  .  +  .  +  +  @  +     .  @     .  +     @  @  @  @  .  +  +  .     .  .     +        @     @  +  @  @  .     +     @  +  @  @  .  @        @  @  +  .  .  .  .  .     +     .  .  .  +  .     .  .  @  @  .  @  .     .  .  +              ",
"   .  @     .  +     @  @  @  @  .  +  +  .     .  .     +        @     @  +  @  @  .     +     @  +  @  @  .  @        @  @  +  .  .  .  .  .     +     .  .  .  +  .     .  .  @  @  .  @  .     .  .  +              +  .  @           +  @        +  @  @  +  .  .     @  @           @     @  @     @  +  .  @  +        .     .  @  .  @  @  .              @  .     +  @  @  .  +  @  +  +  @  +  .  @     +  @  +     +  .     .        .  .     @  +  +  .  .  .     .     +     @  +  .  .     +  +     @  .  @     +     .  +  +  +  +     +     @  .     +  +  +     @  +     .        .  +  @  )  .. a% b% <& L@ }&  * x) P@ .+ ^+ @                 +     @  .     .        +  +  +     +     @     .  @  )  s  [$ [; y) |; 1; z) A) +, 5; |        +  .  @  .  +  .  +  +  @  +     .  @     .  +     @  @  @  +   . #, B) C) D) E) F) G) H) I) e; ^.    @  +  @  @  .     +     @  +  @  @  .  @        @  @  +  .  .  .  @  ++ @+ T$ J) K) L) Z# M) Y$ C+ W@ `  .  @  .  @  .     .  .  +              +  .  @           +  @        +  @  @  +  .  .     @  @           @     @  @     @  +  .  @  +        .     .  @  .  @  @  .              @  .     +  @  @  .  +  @  +  +  @  +  .  @     +  @  +     +  .     .        .  .     @  +  +  .  .  .     .     +     @  +  .  .     +  +     @  .  @     +     .  +  +  +  +     +     @  .     +  +  +     @  +     .        .  +  @     .  @  .     @  .        .  @  .  @                 +     @  .     .        +  +  +     +     @     .  @  @  .  +        @        +  +  @     .     +  .  @  .  +  .  +  +  @  +  ",
"   .     +     @  +  .  .     +  +     @  .  @     +     .  +  +  +  +     +     @  .     +  +  +     @  +     .        .  +  @     .  @  .     @  .        .  @  .  @                 +     @  .     .        +  +  +     +     @     .  @  @  .  +        @        +  +  @     .     +  .  @  .  +  .  +  +  @  +     .  @     .  +     @  @  @  @  .  +  +  .     .  .     +        @     @  +  @  @  .     +     @  +  @  @  .  @        @  @  +  .  .  .  .  .     +     .  .  .  +  .     .  .  @  @  .  @  .     .  .  +              +  .  @           +  @        +  @  @  +  .  .     @  @     )  r  x. X@ Y@ N) /+ O) r% K+ F. 5@ +     .     .  @  .  @  @  .              @  .     +  @  @  .  +  @  +  +  .. t@ c& j; P) Q) R) S) Z= T) s  )  .        .  .     @  +  +  .  .  .     .     +     @  +  .  .     +  +  $; /, U) V) s; W) X) Y) Z) w; `$  .    +     @  .     +  +  +     @  +     .        .  +  @     .  @  .  @  A@ G$ ## s% %# -$ b& =# -# e; S. c. .  +     @  .     .        +  +  +     +     @     .  @  @  .  +        @        +  +  @     .     +  .  @  .  +  .  +  +  @  +     .  @     .  +     @  @  @  @  .  +  +  .     .  .     +        @     @  +  @  @  .     +     @  +  @  @  .  @        @  @  +  .  .  .  .  .     +     .  .  .  +  .     .  .  @  @  .  @  .     .  .  +              +  .  @           +  @        +  @  @  +  .  .     @  @           @     @  @     @  +  .  @  +        .     .  @  .  @  @  .              @  .     +  @  @  .  +  @  +  +  @  +  .  @     +  @  +     +  .     .        .  .     @  +  +  .  .  .  ",
".     .  @  .  @  @  .              @  .     +  @  @  .  +  @  +  +  @  +  .  @     +  @  +     +  .     .        .  .     @  +  +  .  .  .     .     +     @  +  .  .     +  +     @  .  @     +     .  +  +  +  +     +     @  .     +  +  +     @  +     .        .  +  @     .  @  .     @  .        .  @  .  @                 +     @  .     .        +  +  +     +     @     .  @  @  .  +        @        +  +  @     .     +  .  @  .  +  .  +  +  @  +     .  @     .  +     @  @  @  @  .  +  +  .     .  .     +        @     @  +  @  @  .     +     @  +  @  @  .  @        @  @  +  .     T. J  L* `) '# e& !#  ! h& ]# .@ +  +  .  @  @  .  @  .     .  .  +              +  .  @           +  @     T. c@ .! +! @! #! F; $! %! &! u& r     @     @  @     @  +  .  @  +        .     .  @  .  @  @  .              .  J; K; *! =! -! ;! >! ,! '! 0$ `  .  .  @     +  @  +     +  .     .        .  .     @  +  +  .  .  .     @  @+ ^# /# (# _# i& <# [# =@ }# ^. .  .  @     +     .  +  +  +  +     +     @  .     +  +  +     @  +     .        .  +  @     .  @  .     @  .        .  @  .  @                 +     @  .     .        +  +  +     +     @     .  @  @  .  +        @        +  +  @     .     +  .  @  .  +  .  +  +  @  +     .  @     .  +     @  @  @  @  .  +  +  .     .  .     +        @     @  +  @  @  .     +     @  +  @  @  .  @        @  @  +  .  .  .  .  .     +     .  .  .  +  .     .  .  @  @  .  @  .     .  .  +              +  .  @           +  @        +  @  @  +  .  .     @  @           @     @  @     @  +  .  @  +        ",
"+  .  @     +  @  +     +  .     .        .  .     @  +  +  .  .  .     .     +     @  +  .  .     +  +     @  .  @     +     .  +  +  +  +     +     @  .     +  +  +     @  +     .        .  +  @     .  @  .     @  .        .  @  .  @                 +     @  .     .        +  +  +     +     @     .  @  @  .  +        @        +  +  @     .     +  .  @  .  +  .  +  +  @  +     .  @     .  +     @  @  @  @  .  +  +  .     .  .     +        @     @  +  @  @  .     +     @  +  @  @  .  @        @  @  +  .  .  .  .  .     +     .  .  .  +  .     .  .  @  @  .  @  .     .  .  +     .. +. )! J% 1# 2# !! ~+ 4# k@ G. +     +  @  @  +  .  .     @  @           @     @  @     @  +  .  @  +     .. ~! X; {! ]! `; ^! /! c$ (! U+       @  .     +  @  @  .  +  @  +  +  @  +  .  @     +  @  +     +  .     .  .   . _! :! #> <! %> [! }! |! 1! 8- }     +     @  +  .  .     +  +     @  .  @     +     .  +  +  +  +     @  @# G$ m@ 2! r& 8# 3! (@ 4! a# ;# 4+ .     .  +  @     .  @  .     @  .        .  @  .  @                 +     @  .     .        +  +  +     +     @     .  @  @  .  +        @        +  +  @     .     +  .  @  .  +  .  +  +  @  +     .  @     .  +     @  @  @  @  .  +  +  .     .  .     +        @     @  +  @  @  .     +     @  +  @  @  .  @        @  @  +  .  .  .  .  .     +     .  .  .  +  .     .  .  @  @  .  @  .     .  .  +              +  .  @           +  @        +  @  @  +  .  .     @  @           @     @  @     @  +  .  @  +        .     .  @  .  @  @  .              @  .     +  @  @  .  +  @  +  +  @  ",
"   @  @  +  .  .  .  .  .     +     .  .  .  +  .     .  .  @  @  .  @  .     .  .  +              +  .  @           +  @        +  @  @  +  .  .     @  @           @     @  @     @  +  .  @  +        .     .  @  .  @  @  .              @  .     +  @  @  .  +  @  +  +  @  +  .  @     +  @  +     +  .     .        .  .     @  +  +  .  .  .     .     +     @  +  .  .     +  +     @  .  @     +     .  +  +  +  +     +     @  .     +  +  +     @  +     .        .  +  @     .  @  .     @  .        .  @  .  @                 +     @  .     .        +  +  +     +     @     .  @  @  T. 0% K   ) c# d# e# 5! 6! b+ 5@ ^+    +  .  @  .  +  .  +  +  @  +     .  @     .  +     @  @  @  @  .  +  )  d. @. 7! 8! ]> 9! 0! (> a! L* )  .  @  @  .     +     @  +  @  @  .  @        @  @  +  .  .  .  .  .     +     .  .  %* <> b! c! d! e! 1> 2> f! g! S. .  .  .  +              +  .  @           +  @        +  @  @  +  .     ++ A@ G# h# h! j# k# i! +& `* -@ `   . .  @  +        .     .  @  .  @  @  .              @  .     +  @  @  .  +  @  +  +  @  +  .  @     +  @  +     +  .     .        .  .     @  +  +  .  .  .     .     +     @  +  .  .     +  +     @  .  @     +     .  +  +  +  +     +     @  .     +  +  +     @  +     .        .  +  @     .  @  .     @  .        .  @  .  @                 +     @  .     .        +  +  +     +     @     .  @  @  .  +        @        +  +  @     .     +  .  @  .  +  .  +  +  @  +     .  @     .  +     @  @  @  @  .  +  +  .     .  .     +        @     @  +  @  @  .     +     @  +  @  @  .  @     ",
"+  @        +  @  @  +  .  .     @  @           @     @  @     @  +  .  @  +        .     .  @  .  @  @  .              @  .     +  @  @  .  +  @  +  +  @  +  .  @     +  @  +     +  .     .        .  .     @  +  +  .  .  .     .     +     @  +  .  .     +  +     @  .  @     +     .  +  +  +  +     +     @  .     +  +  +     @  +     .        .  +  @     .  @  .     @  .        .  @  .  @                 +     @  .     .        +  +  +     +     @     .  @  @  .  +        @        +  +  @     .     +  .  @  .  +  .  +  +  @  +     .  @     .  +     @  @  @  @  .  +  +  .  )  r  c@ p# q# j! s# k! y- *& ]+ G. @  .     +     @  +  @  @  .  @        @  @  +  .  .  .  .  .     +        U+  % A- U% c> C- e> f> l! m! ..       .  .  +              +  .  @           +  @        +  @  @  +  .  .     @  @     .  n! o! p! l> m> M- N- q! 9) Z  4+       .     .  @  .  @  @  .              @  .     +  @  @  .  +  @  @  =& (+ _+ ;& K& r! y# s! S- A# ]. ^. .  .        .  .     @  +  +  .  .  .     .     +     @  +  .  .     +  +     @  .  @     +     .  +  +  +  +     +     @  .     +  +  +     @  +     .        .  +  @     .  @  .     @  .        .  @  .  @                 +     @  .     .        +  +  +     +     @     .  @  @  .  +        @        +  +  @     .     +  .  @  .  +  .  +  +  @  +     .  @     .  +     @  @  @  @  .  +  +  .     .  .     +        @     @  +  @  @  .     +     @  +  @  @  .  @        @  @  +  .  .  .  .  .     +     .  .  .  +  .     .  .  @  @  .  @  .     .  .  +              +  .  @           ",
"+  +  .  .  .     .     +     @  +  .  .     +  +     @  .  @     +     .  +  +  +  +     +     @  .     +  +  +     @  +     .        .  +  @     .  @  .     @  .        .  @  .  @                 +     @  .     .        +  +  +     +     @     .  @  @  .  +        @        +  +  @     .     +  .  @  .  +  .  +  +  @  +     .  @     .  +     @  @  @  @  .  +  +  .     .  .     +        @     @  +  @  @  .     +     @  +  @  @  .  @        @  @  +  .  .  .  .  .     +     .  .  .  +  .     .  .  @  @  .  @  .     .  .  +              +  .  @           +  @        +  @  @  r  s  (. 1% B# t! D# u! F# b+ v! +  @     @  +  .  @  +        .     .  @  .  @  @  .              @  .     I  [@ w! h) x! y! z! A! j) G> B! )     +  @  +     +  .     .        .  .     @  +  +  .  .  .     .     +     @  +  .  .  .  :> C! I> D! E! -; F! G! ,; H! <@ %  +  +     +     @  .     +  +  +     @  +     .        .  +  @     .  ++ @# ^& I! I# J! K! L# {; ]; b@ S. c. .        +     @  .     .        +  +  +     +     @     .  @  @  .  +        @        +  +  @     .     +  .  @  .  +  .  +  +  @  +     .  @     .  +     @  @  @  @  .  +  +  .     .  .     +        @     @  +  @  @  .     +     @  +  @  @  .  @        @  @  +  .  .  .  .  .     +     .  .  .  +  .     .  .  @  @  .  @  .     .  .  +              +  .  @           +  @        +  @  @  +  .  .     @  @           @     @  @     @  +  .  @  +        .     .  @  .  @  @  .              @  .     +  @  @  .  +  @  +  +  @  +  .  @     +  @  +     +  .     .        .  .     @  ",
"            +     @  .     .        +  +  +     +     @     .  @  @  .  +        @        +  +  @     .     +  .  @  .  +  .  +  +  @  +     .  @     .  +     @  @  @  @  .  +  +  .     .  .     +        @     @  +  @  @  .     +     @  +  @  @  .  @        @  @  +  .  .  .  .  .     +     .  .  .  +  .     .  .  @  @  .  @  .     .  .  +              +  .  @           +  @        +  @  @  +  .  .     @  @           @     @  @     @  +  .  @  +        .     .  @  .  @  @  .              @  .     +  @  @  .  +  @  +  +  @  +  .  @     +  @  +     +  .     .        .  .  )  .. P# Z& R# L! M! N! `+ ]# .+ ^+ @  +  .  .     +  +     @  .  @     +     .  +  +  +  +     +     @  .  )  x. <; 6+ y) |; O! z) ., P! 5; r     @     .  @  .     @  .        .  @  .  @                 +     @  .     .        +  +  +  .  #, Q! R! 9; S! a; T! c; U! T+ c  .        +  +  @     .     +  .  @  .  +  .  +  +  @  +     .  @        ++ @+ t$ @@ g; V! u= `# u. W! +$ ^. %     +        @     @  +  @  @  .     +     @  +  @  @  .  @        @  @  +  .  .  .  .  .     +     .  .  .  +  .     .  .  @  @  .  @  .     .  .  +              +  .  @           +  @        +  @  @  +  .  .     @  @           @     @  @     @  +  .  @  +        .     .  @  .  @  @  .              @  .     +  @  @  .  +  @  +  +  @  +  .  @     +  @  +     +  .     .        .  .     @  +  +  .  .  .     .     +     @  +  .  .     +  +     @  .  @     +     .  +  +  +  +     +     @  .     +  +  +     @  +     .        .  +  @     .  @  .     @  .        .  @  .  @     ",
".     +  +     @  .  @     +     .  +  +  +  +     +     @  .     +  +  +     @  +     .        .  +  @     .  @  .     @  .        .  @  .  @                 +     @  .     .        +  +  +     +     @     .  @  @  .  +        @        +  +  @     .     +  .  @  .  +  .  +  +  @  +     .  @     .  +     @  @  @  @  .  +  +  .     .  .     +        @     @  +  @  @  .     +     @  +  @  @  .  @        @  @  +  .  .  .  .  .     +     .  .  .  +  .     .  .  @  @  .  @  .     .  .  +              +  .  @           +  @        +  @  @  +  .  .     @  @           @        r  /. y. X! 2% }  Y! Z! N% ]+ 5@ ^+ @  .  @  @  .              @  .     +  @  @  .  +  @  +  +  @  +  .  @  J  (. `! q# P) l; m;  ~ Z= .~ /.    .     @  +  +  .  .  .     .     +     @  +  .  .     +  +     @  .  @     +     .  +  +  +  +  c. p; q; V) s; W) u; +~ 9$ @~ i' c.    .        .  +  @     .  @  .     @  .        .  @  .  @           )  @# J. #~ 0& $~ %~ &~ *~ Q. a# 9* 4+ .  +     @     .  @  @  .  +        @        +  +  @     .     +  .  @  .  +  .  +  +  @  +     .  @     .  +     @  @  @  @  .  +  +  .     .  .     +        @     @  +  @  @  .     +     @  +  @  @  .  @        @  @  +  .  .  .  .  .     +     .  .  .  +  .     .  .  @  @  .  @  .     .  .  +              +  .  @           +  @        +  @  @  +  .  .     @  @           @     @  @     @  +  .  @  +        .     .  @  .  @  @  .              @  .     +  @  @  .  +  @  +  +  @  +  .  @     +  @  +     +  .     .        .  .     @  +  +  .  .  .     .     +     @  +  .  ",
".  +  @     .  @  .     @  .        .  @  .  @                 +     @  .     .        +  +  +     +     @     .  @  @  .  +        @        +  +  @     .     +  .  @  .  +  .  +  +  @  +     .  @     .  +     @  @  @  @  .  +  +  .     .  .     +        @     @  +  @  @  .     +     @  +  @  @  .  @        @  @  +  .  .  .  .  .     +     .  .  .  +  .     .  .  @  @  .  @  .     .  .  +              +  .  @           +  @        +  @  @  +  .  .     @  @           @     @  @     @  +  .  @  +        .     .  @  .  @  @  .              @  .     +  @  @  .  +  @  @  )  U+ U. '$ W. =~ -~ Z. {$  @ .@ ^+    .        .  .     @  +  +  .  .  .     .     +     @  +  .  .     .  )  a% e- ;~ >~ ,~ '~ G; )~ I; 5+ T. +     +     @  .     +  +  +     @  +     .        .  +  @     .  @  .     @  .        .  @  .  @  .  J; K; L; !~ -! ;! P; ~~ {~ k, b. .  +  +  +     +     @     .  @  @  .  +        @        +  +  @     .  ++ A@ W# ^$ ]~ ^~ /~ =+ :$ (~ n# `  c. @     .  +     @  @  @  @  .  +  +  .     .  .     +        @     @  +  @  @  .     +     @  +  @  @  .  @        @  @  +  .  .  .  .  .     +     .  .  .  +  .     .  .  @  @  .  @  .     .  .  +              +  .  @           +  @        +  @  @  +  .  .     @  @           @     @  @     @  +  .  @  +        .     .  @  .  @  @  .              @  .     +  @  @  .  +  @  +  +  @  +  .  @     +  @  +     +  .     .        .  .     @  +  +  .  .  .     .     +     @  +  .  .     +  +     @  .  @     +     .  +  +  +  +     +     @  .     +  +  +     @  +     .        ",
"      @        +  +  @     .     +  .  @  .  +  .  +  +  @  +     .  @     .  +     @  @  @  @  .  +  +  .     .  .     +        @     @  +  @  @  .     +     @  +  @  @  .  @        @  @  +  .  .  .  .  .     +     .  .  .  +  .     .  .  @  @  .  @  .     .  .  +              +  .  @           +  @        +  @  @  +  .  .     @  @           @     @  @     @  +  .  @  +        .     .  @  .  @  @  .              @  .     +  @  @  .  +  @  +  +  @  +  .  @     +  @  +     +  .     .        .  .     @  +  +  .  .  .     .     +     @  +  .  .     +  +     @  .  @  )  r  c@ [$ }* 7+ W; /% q, 4# .+ G. +     +  +  +     @  +     .        .  +  @     .  @  .     @  .           0%  % r, _~ t, :~ <~ .> c$ (! U+       .        +  +  +     +     @     .  @  @  .  +        @        +  +  @     .     +  .  @  .  +  .  $; +% z, [~ $> }~ |~ 1~ 2~ 3~ 4~ c. @  @  @  .  +  +  .     .  .     +        @     @  +  @  @  .     +  )  /+ (+ 4$ 6# 5$ 5~ [% |+ Z) 2+ 3+ ^. %  .  .  .     +     .  .  .  +  .     .  .  @  @  .  @  .     .  .  +              +  .  @           +  @        +  @  @  +  .  .     @  @           @     @  @     @  +  .  @  +        .     .  @  .  @  @  .              @  .     +  @  @  .  +  @  +  +  @  +  .  @     +  @  +     +  .     .        .  .     @  +  +  .  .  .     .     +     @  +  .  .     +  +     @  .  @     +     .  +  +  +  +     +     @  .     +  +  +     @  +     .        .  +  @     .  @  .     @  .        .  @  .  @                 +     @  .     .        +  +  +     +     @     .  @  @  .  +  ",
".  @     .  +     @  @  @  @  .  +  +  .     .  .     +        @     @  +  @  @  .     +     @  +  @  @  .  @        @  @  +  .  .  .  .  .     +     .  .  .  +  .     .  .  @  @  .  @  .     .  .  +              +  .  @           +  @        +  @  @  +  .  .     @  @           @     @  @     @  +  .  @  +        .     .  @  .  @  @  .              @  .     +  @  @  .  +  @  +  +  @  +  .  @     +  @  +     +  .     .        .  .     @  +  +  .  .  .     .     +     @  +  .  .     +  +     @  .  @     +     .  +  +  +  +     +     @  .     +  +  +     @  +        r  a$ )> L, b$ 6~ !> e$ 6! b+ 5@ ^+ .     .  @  .  @                 +     @  .     .        +  +  +     +  r  z% 7~ 8~ 9~ 0~ a~ b~ c~ _> d. T.    +  +  @     .     +  .  @  .  +  .  +  +  @  +     .  @     .  +     @  @  @  @  .  +  +  .     .  .  .  %* Y, d~ Z, `,  ' e~ f~ @' l% #'  .    @  +  @  @  .  @        @  @  +  .  .  .  .  .     +     .  .  .  @  A@ ^& f$ g+ f* g~ j$ k$ h~ $' S. c. +              +  .  @           +  @        +  @  @  +  .  .     @  @           @     @  @     @  +  .  @  +        .     .  @  .  @  @  .              @  .     +  @  @  .  +  @  +  +  @  +  .  @     +  @  +     +  .     .        .  .     @  +  +  .  .  .     .     +     @  +  .  .     +  +     @  .  @     +     .  +  +  +  +     +     @  .     +  +  +     @  +     .        .  +  @     .  @  .     @  .        .  @  .  @                 +     @  .     .        +  +  +     +     @     .  @  @  .  +        @        +  +  @     .     +  .  @  .  +  .  +  +  @  +     ",
".  .  .  .  .     +     .  .  .  +  .     .  .  @  @  .  @  .     .  .  +              +  .  @           +  @        +  @  @  +  .  .     @  @           @     @  @     @  +  .  @  +        .     .  @  .  @  @  .              @  .     +  @  @  .  +  @  +  +  @  +  .  @     +  @  +     +  .     .        .  .     @  +  +  .  .  .     .     +     @  +  .  .     +  +     @  .  @     +     .  +  +  +  +     +     @  .     +  +  +     @  +     .        .  +  @     .  @  .     @  .        .  @  .  @                 +     @  .     .        +  +  +     +     @     .  @  )  J  +. k* G& H& q$ 0> i~ 4# .+ ^+ +     +  .  @  .  +  .  +  +  @  +     .  @     .  +     @  @  @  @  .  @  U+ S' v& j~ |; k~ l~ m~ g> X@ J  @  +  @  @  .     +     @  +  @  @  .  @        @  @  +  .  .  .  .  .     +     .  .  .  +  .     .  .  @  @   . i> n~ o~ p~ q~ ^' r~ (' _' a. ^. .  @           +  @        +  @  @  +  .  .     @  @           @     @  @# l@ v+ g% s~ t~ u~ !. ~. C+ W@ ^. .  .  @  @  .              @  .     +  @  @  .  +  @  +  +  @  +  .  @     +  @  +     +  .     .        .  .     @  +  +  .  .  .     .     +     @  +  .  .     +  +     @  .  @     +     .  +  +  +  +     +     @  .     +  +  +     @  +     .        .  +  @     .  @  .     @  .        .  @  .  @                 +     @  .     .        +  +  +     +     @     .  @  @  .  +        @        +  +  @     .     +  .  @  .  +  .  +  +  @  +     .  @     .  +     @  @  @  @  .  +  +  .     .  .     +        @     @  +  @  @  .     +     @  +  @  @  .  @        @  @  +  ",
"   +  +     @  .  @     +     .  +  +  +  +     +     @  .     +  +  +     @  +     .        .  +  @     .  @  .     @  .        .  @  .  @                 +     @  .     .        +  +  +     +     @     .  @  @  .  +        @        +  +  @     .     +  .  @  .  +  .  +  +  @  +     .  @     .  +     @  @  @  @  .  +  +  .     .  .     +        @     @  +  @  @  .     +     @  +  @  @  .  @        @  @  +  .  .  .  .  .     +     .  .  .  +  .     .  .  @  @  .  @  .     .  .  +              +  .  @           +  @        +  @  @  +  .  .     @  @              v~ x. U- _. w~ x~ C$ y~ z~ ]+ 5@ +  .  .  @  .  @  @  .              @  .     +  @  @  .  +  @  +  +  @  @  r  0* 3' A~ B~ C~ D~ E~ F~ G~ s  )     .  .     @  +  +  .  .  .     .     +     @  +  .  .     +  +     @  .  @     +     .  +  +  +  +     +     +  $; 0' H~ I~ c' J~ K~ L~ N> O> O= c. .  +  @     .  @  .     @  .        .  @  .  @                 +     @  /+ ^& ## *$ M~ K$ L$ N~ 0. O~ b. c. .  .  @  @  .  +        @        +  +  @     .     +  .  @  .  +  .  +  +  @  +     .  @     .  +     @  @  @  @  .  +  +  .     .  .     +        @     @  +  @  @  .     +     @  +  @  @  .  @        @  @  +  .  .  .  .  .     +     .  .  .  +  .     .  .  @  @  .  @  .     .  .  +              +  .  @           +  @        +  @  @  +  .  .     @  @           @     @  @     @  +  .  @  +        .     .  @  .  @  @  .              @  .     +  @  @  .  +  @  +  +  @  +  .  @     +  @  +     +  .     .        .  .     @  +  +  .  .  .     .     +     @  +  .  .  ",
".  .     .     +     @  +  .  .     +  +     @  .  @     +     .  +  +  +  +     +     @  .     +  +  +     @  +     .        .  +  @     .  @  .     @  .        .  @  .  @                 +     @  .     .        +  +  +     +     @     .  @  @  .  +        @        +  +  @     .     +  .  @  .  +  .  +  +  @  +     .  @     .  +     @  @  @  @  .  +  +  .     .  .     +        @     @  +  @  @  .     +     @  +  @  @  .  @        @  @  +  .  .  .  .  .     +     .  .  .  +  .     .  .  @  @  .  @  .     .  .  +              +  .  @           +  @        .  )  0% d. ^; N$ O$ P$ Q$ P~  @ .+ G. .  @  @     @  +  .  @  +        .     .  @  .  @  @  .              @  )  Q~ d@ R~ S~ T~ l; U~ V~ W~ X~ v~ .  @     +  @  +     +  .     .        .  .     @  +  +  .  .  .     .     +     @  +  .  .     +  +     @  .  @      . Y~ Q! Z~ `~  { .{ C' +{ @{ a# b. .  +  +  +     @  +     .        .  +  @     .  @  .     @  .        +  ++ @+ T$ #{ +* W$ ${ t. Y$ W! `$ `  %  .        +  +  +     +     @     .  @  @  .  +        @        +  +  @     .     +  .  @  .  +  .  +  +  @  +     .  @     .  +     @  @  @  @  .  +  +  .     .  .     +        @     @  +  @  @  .     +     @  +  @  @  .  @        @  @  +  .  .  .  .  .     +     .  .  .  +  .     .  .  @  @  .  @  .     .  .  +              +  .  @           +  @        +  @  @  +  .  .     @  @           @     @  @     @  +  .  @  +        .     .  @  .  @  @  .              @  .     +  @  @  .  +  @  +  +  @  +  .  @     +  @  +     +  .     .        .  .     @  +  +  .  ",
"@  .  +  .  +  +  @  +     .  @     .  +     @  @  @  @  .  +  +  .     .  .     +        @     @  +  @  @  .     +     @  +  @  @  .  @        @  @  +  .  .  .  .  .     +     .  .  .  +  .     .  .  @  @  .  @  .     .  .  +              +  .  @           +  @        +  @  @  +  .  .     @  @           @     @  @     @  +  .  @  +        .     .  @  .  @  @  .              @  .     +  @  @  .  +  @  +  +  @  +  .  @     +  @  +     +  .     .        .  .     @  +  +  .  .  .     .     +     @  +  .  .     +  +     @  .  @     +     .  +  +  +  +     @  )  r  /.  % E* F* y, t# )@ &$ ]+ 5@ +  .  .  +  @     .  @  .     @  .        .  @  .  @                 +     .. m% 8+ !, %{ O' ], &{ *{ o; U+ )  @     .  @  @  .  +        @        +  +  @     .     +  .  @  .  +  .  +  +  @  +     .  @     .  +     @  @  @  @  .  $; _! (, ={ U' <, -{ }, ;{ @~ +$ %  @  +  @  @  .     +     @  +  @  @  .  @        @  @  +  .  .  .  .     @# G$ #~ #% ]@ K* &% !* ,$ :@ <@ c. .  .  @  .     .  .  +              +  .  @           +  @        +  @  @  +  .  .     @  @           @     @  @     @  +  .  @  +        .     .  @  .  @  @  .              @  .     +  @  @  .  +  @  +  +  @  +  .  @     +  @  +     +  .     .        .  .     @  +  +  .  .  .     .     +     @  +  .  .     +  +     @  .  @     +     .  +  +  +  +     +     @  .     +  +  +     @  +     .        .  +  @     .  @  .     @  .        .  @  .  @                 +     @  .     .        +  +  +     +     @     .  @  @  .  +        @        +  +  @     .     +  .  ",
"@  .  @     +     .  +  +  +  +     +     @  .     +  +  +     @  +     .        .  +  @     .  @  .     @  .        .  @  .  @                 +     @  .     .        +  +  +     +     @     .  @  @  .  +        @        +  +  @     .     +  .  @  .  +  .  +  +  @  +     .  @     .  +     @  @  @  @  .  +  +  .     .  .     +        @     @  +  @  @  .     +     @  +  @  @  .  @        @  @  +  .  .  .  .  .     +     .  .  .  +  .     .  .  @  @  .  @  .     .  .  +              +  .  @           +  @        +  @  @  +  .  .     @  @           @        )  U+ K  *% W. >{ ,{ z& O*  @ 5@ ^+ @  .  @  @  .              @  .     +  @  @  .  +  @  +  +  @  +  .  @  T. +. 7, 1% 9, '{ ){ !{ ~{ {{ e, T. .     @  +  +  .  .  .     .     +     @  +  .  .     +  +     @  .  @     +     .  +  +  +  +     +     @  .     +  +  +  .  %* ]{ f, ^{ /{ ({ i, _{ :{ s@ b. .  .     @  .        .  @  .  @                 +     @  .     .        @  A@ e+ 6@ m, <{ [{ <# :$ @& -@ b.  . .     @        +  +  @     .     +  .  @  .  +  .  +  +  @  +     .  @     .  +     @  @  @  @  .  +  +  .     .  .     +        @     @  +  @  @  .     +     @  +  @  @  .  @        @  @  +  .  .  .  .  .     +     .  .  .  +  .     .  .  @  @  .  @  .     .  .  +              +  .  @           +  @        +  @  @  +  .  .     @  @           @     @  @     @  +  .  @  +        .     .  @  .  @  @  .              @  .     +  @  @  .  +  @  +  +  @  +  .  @     +  @  +     +  .     .        .  .     @  +  +  .  .  .     .     +     @  +  .  .     +  +     ",
"   .  +  @     .  @  .     @  .        .  @  .  @                 +     @  .     .        +  +  +     +     @     .  @  @  .  +        @        +  +  @     .     +  .  @  .  +  .  +  +  @  +     .  @     .  +     @  @  @  @  .  +  +  .     .  .     +        @     @  +  @  @  .     +     @  +  @  @  .  @        @  @  +  .  .  .  .  .     +     .  .  .  +  .     .  .  @  @  .  @  .     .  .  +              +  .  @           +  @        +  @  @  +  .  .     @  @           @     @  @     @  +  .  @  +        .     .  @  .  @  @  .              @  .     @  )  .. +. <; += }{ |{ 2* i@ 1{ .+ ^+ +  @  +     +  .     .        .  .     @  +  +  .  .  .     .     +     ++ l& &* 2{ 3{ 4{ 5{ v, 6{ x, +> J        .  +  +  +  +     +     @  .     +  +  +     @  +     .        .  +  @     .  @  .     @  .        .  @  .  @               . y, 7{ 8{ 9{ 0{ a{ E, b{ c{ $' 4+ .  +     @     .  @  @  .  +        @        +  +  @     .     +     @  ++ (+ _+ :+ {= H, I, R- ]= ^= <@ ^. .  .  @  @  @  @  .  +  +  .     .  .     +        @     @  +  @  @  .     +     @  +  @  @  .  @        @  @  +  .  .  .  .  .     +     .  .  .  +  .     .  .  @  @  .  @  .     .  .  +              +  .  @           +  @        +  @  @  +  .  .     @  @           @     @  @     @  +  .  @  +        .     .  @  .  @  @  .              @  .     +  @  @  .  +  @  +  +  @  +  .  @     +  @  +     +  .     .        .  .     @  +  +  .  .  .     .     +     @  +  .  .     +  +     @  .  @     +     .  +  +  +  +     +     @  .     +  +  +     @  +     .     ",
"+  .  .     @  @           @     @  @     @  +  .  @  +        .     .  @  .  @  @  .              @  .     +  @  @  .  +  @  +  +  @  +  .  @     +  @  +     +  .     .        .  .     @  +  +  .  .  .     .     +     @  +  .  .     +  +     @  .  @     +     .  +  +  +  +     +     @  .     +  +  +     @  +     .        .  +  @     .  @  .     @  .        .  @  .  @                 +     @  .     .        +  +  +     +     @     .  @  @  .  +        @        +  +  @     .     +  .  @  .  +  .  +  +  @  +     .  @     .  +     @  @  @  @  .  +  +     r  U+ t@ 1% c) d{ x@ O, g) := 5@ +  @  .     +     @  +  @  @  .  @        @  @  +  .  .  .  .  .     +     )  U. 7~ R, S, 0~ e{ f{ g{ X, #; )  .     .  .  +              +  .  @           +  @        +  @  @  +  .  .     @  @           @     @  @     @  +  .  @  +        .  %* %; &; h{ i{ j{ e~ k{ @' 4> ;# .  .     +  @  @  .  +  @  +  +  @  +  .  @     +  @  +     +  .     .  ++ d+ G$ l{ 7% h+ m{ 9% n{ ]; m+ b. c.    +     @  +  .  .     +  +     @  .  @     +     .  +  +  +  +     +     @  .     +  +  +     @  +     .        .  +  @     .  @  .     @  .        .  @  .  @                 +     @  .     .        +  +  +     +     @     .  @  @  .  +        @        +  +  @     .     +  .  @  .  +  .  +  +  @  +     .  @     .  +     @  @  @  @  .  +  +  .     .  .     +        @     @  +  @  @  .     +     @  +  @  @  .  @        @  @  +  .  .  .  .  .     +     .  .  .  +  .     .  .  @  @  .  @  .     .  .  +              +  .  @           +  @        +  @  @  ",
"+  @  +     .  @     .  +     @  @  @  @  .  +  +  .     .  .     +        @     @  +  @  @  .     +     @  +  @  @  .  @        @  @  +  .  .  .  .  .     +     .  .  .  +  .     .  .  @  @  .  @  .     .  .  +              +  .  @           +  @        +  @  @  +  .  .     @  @           @     @  @     @  +  .  @  +        .     .  @  .  @  @  .              @  .     +  @  @  .  +  @  +  +  @  +  .  @     +  @  +     +  .     .        .  .     @  +  +  .  .  .     .     +     @  +  .  .     +  +     @  .  @     +     .  +  +  +  +     +     @  .  )  .. c@ b% <& d% M@ y* o{ t+ .+ ^+ +  +     .  @  .     @  .        .  @  .  @                 +     @  .  )  U+ -' ;' j~ p{ q{ r{ s{ g> E+ J     @  @  .  +        @        +  +  @     .     +  .  @  .  +  .  +  +  @  +     .  @     .  +     @  @  @  @  .  +  +  .     .  .      . t{ B) u{ p~ v{ w{ /' (' x{ e; ^.    @  +  @  @  .  @        @  @  +  .  .  .  .  .     +     .  .  .  @  ++ l@ v+ w+ s~ y{ z{ `# Y$ {. W@ ^. .              +  .  @           +  @        +  @  @  +  .  .     @  @           @     @  @     @  +  .  @  +        .     .  @  .  @  @  .              @  .     +  @  @  .  +  @  +  +  @  +  .  @     +  @  +     +  .     .        .  .     @  +  +  .  .  .     .     +     @  +  .  .     +  +     @  .  @     +     .  +  +  +  +     +     @  .     +  +  +     @  +     .        .  +  @     .  @  .     @  .        .  @  .  @                 +     @  .     .        +  +  +     +     @     .  @  @  .  +        @        +  +  @     .     +  .  @  .  +  .  +  ",
"@  @           @     @  @     @  +  .  @  +        .     .  @  .  @  @  .              @  .     +  @  @  .  +  @  +  +  @  +  .  @     +  @  +     +  .     .        .  .     @  +  +  .  .  .     .     +     @  +  .  .     +  +     @  .  @     +     .  +  +  +  +     +     @  .     +  +  +     @  +     .        .  +  @     .  @  .     @  .        .  @  .  @                 +     @  .     .        +  +  +     +     @     .  @  @  .  +        @        +  +  @     .     +  .  @  .  +  .  +  +  @  +     .  @     .  +     @  @  @  @  .  +  +  .     .     r  x. h> A{ B{ C{ D{ E{ &$ F. 5@ +  +     @  +  @  @  .  @        @  @  +  .  .  .  .  .     +     .  .     r  X~ 3' A~ F{ G{ D~ E~ H{ I{ @$    .  +              +  .  @           +  @        +  @  @  +  .  .     @  @           @     @  @     @  +  .  @  +        .     .  @  .  +  $; 0' a' b' J{ J~ K~ L~ g' K{ D+ %  .  +  @  +  +  @  +  .  @     +  @  +     +  .     .        .  .     @  /+ B@ ## 0& L{ M{ N{ N~ x% :' S. c. .  .     +  +     @  .  @     +     .  +  +  +  +     +     @  .     +  +  +     @  +     .        .  +  @     .  @  .     @  .        .  @  .  @                 +     @  .     .        +  +  +     +     @     .  @  @  .  +        @        +  +  @     .     +  .  @  .  +  .  +  +  @  +     .  @     .  +     @  @  @  @  .  +  +  .     .  .     +        @     @  +  @  @  .     +     @  +  @  @  .  @        @  @  +  .  .  .  .  .     +     .  .  .  +  .     .  .  @  @  .  @  .     .  .  +              +  .  @           +  @        +  @  @  +  .  .     ",
"+  @  +     +  .     .        .  .     @  +  +  .  .  .     .     +     @  +  .  .     +  +     @  .  @     +     .  +  +  +  +     +     @  .     +  +  +     @  +     .        .  +  @     .  @  .     @  .        .  @  .  @                 +     @  .     .        +  +  +     +     @     .  @  @  .  +        @        +  +  @     .     +  .  @  .  +  .  +  +  @  +     .  @     .  +     @  @  @  @  .  +  +  .     .  .     +        @     @  +  @  @  .     +     @  +  @  @  .  @        @  @  +  .  .  .  .  .     +     .  .  .  +  .     .  .  @  @  .  )  J  U. U= V= O{ !# P{ Q{ .* .+ ^+ @           +  @        +  @  @  +  .  .     @  @           @     @  @  )  [* p# r' R{ T~ O' S{ v' T{ u& r  .  @  @  .              @  .     +  @  @  .  +  @  +  +  @  +  .  @     +  @  +     +  .     .        .  .     @  +  +  .  .  .     .     +  .  J; U{ V{ W{ A' B' X{ Y{ Z{ 0$ ^. .  +     .  +  +  +  +     +     @  .     +  +  +     @  +     .        ++ `{ D% @@  ] F% .] :* j& I% +$ ^.  . +  .  @                 +     @  .     .        +  +  +     +     @     .  @  @  .  +        @        +  +  @     .     +  .  @  .  +  .  +  +  @  +     .  @     .  +     @  @  @  @  .  +  +  .     .  .     +        @     @  +  @  @  .     +     @  +  @  @  .  @        @  @  +  .  .  .  .  .     +     .  .  .  +  .     .  .  @  @  .  @  .     .  .  +              +  .  @           +  @        +  @  @  +  .  .     @  @           @     @  @     @  +  .  @  +        .     .  @  .  @  @  .              @  .     +  @  @  .  +  @  +  +  @  +  .  @     ",
"         @     @  @     @  +  .  @  +        .     .  @  .  @  @  .              @  .     +  @  @  .  +  @  +  +  @  +  .  @     +  @  +     +  .     .        .  .     @  +  +  .  .  .     .     +     @  +  .  .     +  +     @  .  @     +     .  +  +  +  +     +     @  .     +  +  +     @  +     .        .  +  @     .  @  .     @  .        .  @  .  @                 +     @  .     .        +  +  +     +     @     .  @  @  .  +        @        +  +  @     .     +  .  @  .  +  .  +  +  @  +     .  @     .  +     @  @  @  @  .  +  +  .     .  .  )  r  +. [$ |# .% ~- J' +] L' ]+ ^+ +     @  +  @  @  .  @        @  @  +  .  .  .  .  .     +     .  .  .  @  .. ~! c* M' ~, @] #] Q' L  $] U+ &  +              +  .  @           +  @        +  @  @  +  .  .     @  @           @     @  @     @  +  .  @  +        .     .  @  .  @  @  .      . /, %] ={ U' &] [, W' *] =] n# c. +  +  @  +  .  @     +  @  +     +  .     .        .  .     @  +  +     @# (+ @% -] ;] >] /@ ,] '] 0$ <@ c. .  +     @  .  @     +     .  +  +  +  +     +     @  .     +  +  +     @  +     .        .  +  @     .  @  .     @  .        .  @  .  @                 +     @  .     .        +  +  +     +     @     .  @  @  .  +        @        +  +  @     .     +  .  @  .  +  .  +  +  @  +     .  @     .  +     @  @  @  @  .  +  +  .     .  .     +        @     @  +  @  @  .     +     @  +  @  @  .  @        @  @  +  .  .  .  .  .     +     .  .  .  +  .     .  .  @  @  .  @  .     .  .  +              +  .  @           +  @        +  @  @  +  .  .     @  @  ",
"   @  .     .        +  +  +     +     @     .  @  @  .  +        @        +  +  @     .     +  .  @  .  +  .  +  +  @  +     .  @     .  +     @  @  @  @  .  +  +  .     .  .     +        @     @  +  @  @  .     +     @  +  @  @  .  @        @  @  +  .  .  .  .  .     +     .  .  .  +  .     .  .  @  @  .  @  .     .  .  +              +  .  @           +  @        +  @  @  +  .  .     @  @           @     @  @     @  +  .  @  +        .     .  @  .  @  @  .              @  .     +  @  @  .  +  @  +  +  @  +  .  @     +  @  +     +  .     .  T. U+ d.  ) )] d- e# 3@ 4@  @ .@ +  .     +     @  +  .  .     +  +     @  .  @     +     .  +  +  +  +     )  ># @. !] ~] {] ]] ^] c, d, d. r  .        .  +  @     .  @  .     @  .        .  @  .  @                 +     @  .     .        +  +  +     +     @     .  @  @  .  +        @     .  :> ]{ /] (] /{ _] !) :] {) 4> S. %  +  +  @  +     .  @     .  +     @  @  @  @  .  +  +  .     .  .     ++ <] #+ 6@ Z% [] }] l# |] ;+ n# o# %  +  +  @  @  .  @        @  @  +  .  .  .  .  .     +     .  .  .  +  .     .  .  @  @  .  @  .     .  .  +              +  .  @           +  @        +  @  @  +  .  .     @  @           @     @  @     @  +  .  @  +        .     .  @  .  @  @  .              @  .     +  @  @  .  +  @  +  +  @  +  .  @     +  @  +     +  .     .        .  .     @  +  +  .  .  .     .     +     @  +  .  .     +  +     @  .  @     +     .  +  +  +  +     +     @  .     +  +  +     @  +     .        .  +  @     .  @  .     @  .        .  @  .  @                 +  ",
"@  @  .  @        @  @  +  .  .  .  .  .     +     .  .  .  +  .     .  .  @  @  .  @  .     .  .  +              +  .  @           +  @        +  @  @  +  .  .     @  @           @     @  @     @  +  .  @  +        .     .  @  .  @  @  .              @  .     +  @  @  .  +  @  +  +  @  +  .  @     +  @  +     +  .     .        .  .     @  +  +  .  .  .     .     +     @  +  .  .     +  +     @  .  @     +     .  +  +  +  +     +     @  .     +  +  +     @  +     .        .  +  @     .  @  .     @  .        .  @  .  @                 +     )  r  +. {% 1] x- s# 2] 3] P@ ]+ ^+ +     .  @  @  .  +        @        +  +  @     .     +  .  @  .  +  .     U+ 4] 5] 6] |) 7] 8] 2) 3) t  J     @  @  .  +  +  .     .  .     +        @     @  +  @  @  .     +     @  +  @  @  .  @        @  @  +  .  .  .  .  .     +     .  .  .  +  .     .  .   . n! z, 9] 0] m> M- a] b] 9) 4~ }     +  .  @           +  @        +  @  @  +  .  .     @  @           @  @# (+ _+ ;& K& x# Q- s! S- A# D+ ^. .  .  @  .  @  @  .              @  .     +  @  @  .  +  @  +  +  @  +  .  @     +  @  +     +  .     .        .  .     @  +  +  .  .  .     .     +     @  +  .  .     +  +     @  .  @     +     .  +  +  +  +     +     @  .     +  +  +     @  +     .        .  +  @     .  @  .     @  .        .  @  .  @                 +     @  .     .        +  +  +     +     @     .  @  @  .  +        @        +  +  @     .     +  .  @  .  +  .  +  +  @  +     .  @     .  +     @  @  @  @  .  +  +  .     .  .     +        @     @  +  @  @  .     +     @  +  ",
"+  .  .  .     .     +     @  +  .  .     +  +     @  .  @     +     .  +  +  +  +     +     @  .     +  +  +     @  +     .        .  +  @     .  @  .     @  .        .  @  .  @                 +     @  .     .        +  +  +     +     @     .  @  @  .  +        @        +  +  @     .     +  .  @  .  +  .  +  +  @  +     .  @     .  +     @  @  @  @  .  +  +  .     .  .     +        @     @  +  @  @  .     +     @  +  @  @  .  @        @  @  +  .  .  .  .  .     +     .  .  .  +  .     .  .  @  @  .  @  .     .  .  +              +  .  @  r  x. t@ b) B# c] D# d] S& F. 5@ +  .     @  @           @     @  @     @  +  .  @  +        .     .  @  .  I  [@ e] f] g] `-  ; h] i] j] +. )  @  .  +  @  +  +  @  +  .  @     +  @  +     +  .     .        .  .     @  +  +  .  .  .     .     +     @  +  .  .     +  +     @  .  @     +     .  +  .  :> k] m) D! l] -; F! m] n] o] <@ %  @  +     .        .  +  @     .  @  .     @  .        .  @  .  @        d+ ^& T& ); !; p] L# {; I@ m+ b.  . .  +     +     @     .  @  @  .  +        @        +  +  @     .     +  .  @  .  +  .  +  +  @  +     .  @     .  +     @  @  @  @  .  +  +  .     .  .     +        @     @  +  @  @  .     +     @  +  @  @  .  @        @  @  +  .  .  .  .  .     +     .  .  .  +  .     .  .  @  @  .  @  .     .  .  +              +  .  @           +  @        +  @  @  +  .  .     @  @           @     @  @     @  +  .  @  +        .     .  @  .  @  @  .              @  .     +  @  @  .  +  @  +  +  @  +  .  @     +  @  +     +  .     .        .  .     @  +  ",
"   .  @  .     @  .        .  @  .  @                 +     @  .     .        +  +  +     +     @     .  @  @  .  +        @        +  +  @     .     +  .  @  .  +  .  +  +  @  +     .  @     .  +     @  @  @  @  .  +  +  .     .  .     +        @     @  +  @  @  .     +     @  +  @  @  .  @        @  @  +  .  .  .  .  .     +     .  .  .  +  .     .  .  @  @  .  @  .     .  .  +              +  .  @           +  @        +  @  @  +  .  .     @  @           @     @  @     @  +  .  @  +        .     .  @  .  @  @  .              @  .     )  .. P, b% K@ S# _; |& R$ ]$ q] G. .  +  @  +     +  .     .        .  .     @  +  +  .  .  .     .     +  )  x. <; 6+ }; |; O! r] 3; P! 5; r     +     .  +  +  +  +     +     @  .     +  +  +     @  +     .        .  +  @     .  @  .     @  .        .  @  .  @                 +     @  .     .        ^+ s] B) t] 9; E) a; u] v] w] e; c  .        @        +  +  @     .     +  .  @  .  +  .  +  +  @  +        ++ @+ 2& @@ g; 3& Z# `# x] w= W@ `   .    .  .     +        @     @  +  @  @  .     +     @  +  @  @  .  @        @  @  +  .  .  .  .  .     +     .  .  .  +  .     .  .  @  @  .  @  .     .  .  +              +  .  @           +  @        +  @  @  +  .  .     @  @           @     @  @     @  +  .  @  +        .     .  @  .  @  @  .              @  .     +  @  @  .  +  @  +  +  @  +  .  @     +  @  +     +  .     .        .  .     @  +  +  .  .  .     .     +     @  +  .  .     +  +     @  .  @     +     .  +  +  +  +     +     @  .     +  +  +     @  +     .        .  +  @  ",
"   .  .     @  +  +  .  .  .     .     +     @  +  .  .     +  +     @  .  @     +     .  +  +  +  +     +     @  .     +  +  +     @  +     .        .  +  @     .  @  .     @  .        .  @  .  @                 +     @  .     .        +  +  +     +     @     .  @  @  .  +        @        +  +  @     .     +  .  @  .  +  .  +  +  @  +     .  @     .  +     @  @  @  @  .  +  +  .     .  .     +        @     @  +  @  @  .     +     @  +  @  @  .  @        @  @  +  .  .  .  .  .     +     .  .  .  +  .     .  .  @  @  .  @  .     .  .  @  r  /. X@ n% y] ++ `@ z] &$ ]+ 5@ +        +  @  @  +  .  .     @  @           @     @  @     @  +  .  @     .. t@ c& j; k; A] B] C] D] .~ @$ )        @  .     +  @  @  .  +  @  +  +  @  +  .  @     +  @  +     +  .     .        .  .     @  +  +  .  .  .     .     +     @  +  .  .     +  +     @  .  @     $; E] F] G] J{ W) H] I] Z) O> i' c. .  +  +  +     @  +     .        .  +  @     .  @  .     @  .        @  /+ G$ M+ J] %# y; b& K] S+ :' S. c.    .        +  +  +     +     @     .  @  @  .  +        @        +  +  @     .     +  .  @  .  +  .  +  +  @  +     .  @     .  +     @  @  @  @  .  +  +  .     .  .     +        @     @  +  @  @  .     +     @  +  @  @  .  @        @  @  +  .  .  .  .  .     +     .  .  .  +  .     .  .  @  @  .  @  .     .  .  +              +  .  @           +  @        +  @  @  +  .  .     @  @           @     @  @     @  +  .  @  +        .     .  @  .  @  @  .              @  .     +  @  @  .  +  @  +  +  @  +  .  @     +  @  +     +  .     .     ",
".  @  +        .     .  @  .  @  @  .              @  .     +  @  @  .  +  @  +  +  @  +  .  @     +  @  +     +  .     .        .  .     @  +  +  .  .  .     .     +     @  +  .  .     +  +     @  .  @     +     .  +  +  +  +     +     @  .     +  +  +     @  +     .        .  +  @     .  @  .     @  .        .  @  .  @                 +     @  .     .        +  +  +     +     @     .  @  @  .  +        @        +  +  @     .     +  .  @  .  +  .  +  +  @  +     .  @     .  +     @  @  @  @  .  +  +  .     .  .     +        @     @  )  U+ K  U= d& e& !# ~# h& ]# .+ ^+ @        @  @  +  .  .  .  .  .     +     .  .  .  +  .     .  .  @  @     [* L] M] @! N] '~ G; O] W~ u& T.    @           +  @        +  @  @  +  .  .     @  @           @     @  @     @  +  .  @  +        .     .  @  .  @  @  .              @  .     +  @  @  .  +  @  +  ^+ J; P] Q] =! R] S] T] Q; U] 0$ b. .  .        .  .     @  +  +  .  .  .     .     +     @  +  .  .     +  @  @+ #+ ^$ S; V] i& W] X] I% -@ `   .    +     @  .     +  +  +     @  +     .        .  +  @     .  @  .     @  .        .  @  .  @                 +     @  .     .        +  +  +     +     @     .  @  @  .  +        @        +  +  @     .     +  .  @  .  +  .  +  +  @  +     .  @     .  +     @  @  @  @  .  +  +  .     .  .     +        @     @  +  @  @  .     +     @  +  @  @  .  @        @  @  +  .  .  .  .  .     +     .  .  .  +  .     .  .  @  @  .  @  .     .  .  +              +  .  @           +  @        +  @  @  +  .  .     @  @           @     @  @     @  +  ",
"@  +  +  @  +  .  @     +  @  +     +  .     .        .  .     @  +  +  .  .  .     .     +     @  +  .  .     +  +     @  .  @     +     .  +  +  +  +     +     @  .     +  +  +     @  +     .        .  +  @     .  @  .     @  .        .  @  .  @                 +     @  .     .        +  +  +     +     @     .  @  @  .  +        @        +  +  @     .     +  .  @  .  +  .  +  +  @  +     .  @     .  +     @  @  @  @  .  +  +  .     .  .     +        @     @  +  @  @  .     +     @  +  @  @  .  @        @  @  +  .  .  .  .  .        r  /. [$ Y] Z] `] o& ~+ 4# ]+ G. +  +  .     .  .  +              +  .  @           +  @        +  @  @     J  ~!  ^ Y; Z; .^ +^ @^ 6~ (! U+       @  +  .  @  +        .     .  @  .  @  @  .              @  .     +  @  @  .  +  @  +  +  @  +  .  @     +  @  +     +  .     .        .  .     @  +  +  .  .  .     $; #^ $^ %^ &^ *^ [! }! => -> n# c. .  .  @     +     .  +  +  +  +     +     @  .     +  +  +     @  +  )  ++ G$ m@ 2! r& 8# =^ (@ _@ 0$ <@ c. .        .  @  .  @                 +     @  .     .        +  +  +     +     @     .  @  @  .  +        @        +  +  @     .     +  .  @  .  +  .  +  +  @  +     .  @     .  +     @  @  @  @  .  +  +  .     .  .     +        @     @  +  @  @  .     +     @  +  @  @  .  @        @  @  +  .  .  .  .  .     +     .  .  .  +  .     .  .  @  @  .  @  .     .  .  +              +  .  @           +  @        +  @  @  +  .  .     @  @           @     @  @     @  +  .  @  +        .     .  @  .  @  @  .              @  .     +  @  @  .  +  ",
"   @  +  +  .  .  .     .     +     @  +  .  .     +  +     @  .  @     +     .  +  +  +  +     +     @  .     +  +  +     @  +     .        .  +  @     .  @  .     @  .        .  @  .  @                 +     @  .     .        +  +  +     +     @     .  @  @  .  +        @        +  +  @     .     +  .  @  .  +  .  +  +  @  +     .  @     .  +     @  @  @  @  .  +  +  .     .  .     +        @     @  +  @  @  .     +     @  +  @  @  .  @        @  @  +  .  .  .  .  .     +     .  .  .  +  .     .  .  @  @  .  @  .     .  .  +     r  x. X~ a* -^ ;^ >^ f# z@ := c+ +     +  @  @  +  .  .     @  @           @     @  @     @  +  .  @  +     I  a% @. 7! ,^ $) '^ )^ !^ _> d. T.    @  .     +  @  @  .  +  @  +  +  @  +  .  @     +  @  +     +  .     .        .  .     @  +  +  .  .  .     .     +     @  +  .  .     +  +     @  .  @     +     .  +  .  :> <> d~ ~^ {^ ]^ !) ^^ /^ g! S. .  @  +     .        .  +  @     .  @  .     @  .        .  @  .  @     )  d+ #+ h# i# ^) (^ C& k+ l+ F& b.  . .  +     +     @     .  @  @  .  +        @        +  +  @     .     +  .  @  .  +  .  +  +  @  +     .  @     .  +     @  @  @  @  .  +  +  .     .  .     +        @     @  +  @  @  .     +     @  +  @  @  .  @        @  @  +  .  .  .  .  .     +     .  .  .  +  .     .  .  @  @  .  @  .     .  .  +              +  .  @           +  @        +  @  @  +  .  .     @  @           @     @  @     @  +  .  @  +        .     .  @  .  @  @  .              @  .     +  @  @  .  +  @  +  +  @  +  .  @     +  @  +     +  .     .        .  .  ",
"+        @        +  +  @     .     +  .  @  .  +  .  +  +  @  +     .  @     .  +     @  @  @  @  .  +  +  .     .  .     +        @     @  +  @  @  .     +     @  +  @  @  .  @        @  @  +  .  .  .  .  .     +     .  .  .  +  .     .  .  @  @  .  @  .     .  .  +              +  .  @           +  @        +  @  @  +  .  .     @  @           @     @  @     @  +  .  @  +        .     .  @  .  @  @  .              @  .     +  @  @  .  +  @  +  +  @  +  .  @     +  @  +     +  .     .        .  .     @  +  +  .  .  .     .        .. a% _^ o+ :^ I& t# u# t+ .+ ^+ +     +     .  +  +  +  +     +     @  .     +  +  +     @  +     .        U+  % A- 6] <^ 7] e> f> l! [^ }^    .  @  .  @                 +     @  .     .        +  +  +     +     @     .  @  @  .  +        @        +  +  @     .     +  .  @  .  +  .  +  +  @  +     .  @     .  +  .  .  i> j> k> l> |^ n> a] 1^ 9) a. }  .        @     @  +  @  @  .     +     @  +  @  @  .  @        @  @  @  ++ l@ _+ ;& w# L& 2^ A+ ~. 3^ W@ 4+  .    .  .  @  @  .  @  .     .  .  +              +  .  @           +  @        +  @  @  +  .  .     @  @           @     @  @     @  +  .  @  +        .     .  @  .  @  @  .              @  .     +  @  @  .  +  @  +  +  @  +  .  @     +  @  +     +  .     .        .  .     @  +  +  .  .  .     .     +     @  +  .  .     +  +     @  .  @     +     .  +  +  +  +     +     @  .     +  +  +     @  +     .        .  +  @     .  @  .     @  .        .  @  .  @                 +     @  .     .        +  +  +     +     @     .  @  @  .  ",
"+  +     +     @     .  @  @  .  +        @        +  +  @     .     +  .  @  .  +  .  +  +  @  +     .  @     .  +     @  @  @  @  .  +  +  .     .  .     +        @     @  +  @  @  .     +     @  +  @  @  .  @        @  @  +  .  .  .  .  .     +     .  .  .  +  .     .  .  @  @  .  @  .     .  .  +              +  .  @           +  @        +  @  @  +  .  .     @  @           @     @  @     @  +  .  @  +        .     .  @  .  @  @  .              @  .     +  @  @  .  +  @  +  +  @  +  .  @     +  @  +     +  .     .           T. x. m% 4^ 5^ Q& C$ R& 6^ F$ 5@ ^+ .  @  +  .  .     +  +     @  .  @     +     .  +  +  +  +     +     @  T. 0* w! h) 7^ 8^ z! h] F> k) P# T.    +  @     .  @  .     @  .        .  @  .  @                 +     @  .     .        +  +  +     +     @     .  @  @  .  +        @        +  +  @     .     +  .  @  .  +  .  +  :> C! 9^ 0^ E! n) a^ b^ n] '; ;# .  .  @  .  +  +  .     .  .     +        @     @  +  @  @  .     +     ++ /+ e+ H# c^ d^ V& Q+ u* 0. O~ S. c. .  .  .     +     .  .  .  +  .     .  .  @  @  .  @  .     .  .  +              +  .  @           +  @        +  @  @  +  .  .     @  @           @     @  @     @  +  .  @  +        .     .  @  .  @  @  .              @  .     +  @  @  .  +  @  +  +  @  +  .  @     +  @  +     +  .     .        .  .     @  +  +  .  .  .     .     +     @  +  .  .     +  +     @  .  @     +     .  +  +  +  +     +     @  .     +  +  +     @  +     .        .  +  @     .  @  .     @  .        .  @  .  @                 +     @  .     .        +  ",
"               +     @  .     .        +  +  +     +     @     .  @  @  .  +        @        +  +  @     .     +  .  @  .  +  .  +  +  @  +     .  @     .  +     @  @  @  @  .  +  +  .     .  .     +        @     @  +  @  @  .     +     @  +  @  @  .  @        @  @  +  .  .  .  .  .     +     .  .  .  +  .     .  .  @  @  .  @  .     .  .  +              +  .  @           +  @        +  @  @  +  .  .     @  @           @     @  @     @  +  .  @  +        .     .  @  .  @  @  .              @  .     +  @  @  .  +  @  +  +  @  )  J  a% Q# c% q# `& i. e^  @ .@ ^+ +     .  .     @  +  +  .  .  .     .     +     @  +  .  .     +  +     )  @$ w- f^ g^ h^ O! r] 3; i^ X~ |  @     @  .     +  +  +     @  +     .        .  +  @     .  @  .     @  .        .  @  .  @                 +     @  .     .        +  +  +     +     @     .  @  @  .  +        @  .   . #, 7; j^ W{ E) k^ l^ m^ w] a# ^. .  +  +  @  +     .  @     .  +     @  @  @  @  .  +  +  .     .  .     ++ @+ 2& E% +* n^ o^ p^ u. .$ +$ `  %  @  +  @  @  .  @        @  @  +  .  .  .  .  .     +     .  .  .  +  .     .  .  @  @  .  @  .     .  .  +              +  .  @           +  @        +  @  @  +  .  .     @  @           @     @  @     @  +  .  @  +        .     .  @  .  @  @  .              @  .     +  @  @  .  +  @  +  +  @  +  .  @     +  @  +     +  .     .        .  .     @  +  +  .  .  .     .     +     @  +  .  .     +  +     @  .  @     +     .  +  +  +  +     +     @  .     +  +  +     @  +     .        .  +  @     .  @  .     @  .        .  @  .  @  ",
"            @  .     +  @  @  .  +  @  +  +  @  +  .  @     +  @  +     +  .     .        .  .     @  +  +  .  .  .     .     +     @  +  .  .     +  +     @  .  @     +     .  +  +  +  +     +     @  .     +  +  +     @  +     .        .  +  @     .  @  .     @  .        .  @  .  @                 +     @  .     .        +  +  +     +     @     .  @  @  .  +        @        +  +  @     .     +  .  @  .  +  .  +  +  @  +     .  @     .  +     @  @  @  @  .  +  +  .     .  .     +        @     @  +  @  @  .     +     @  +  @  r  @$ q^ E* 2% 4+ -* r^ K+ ]+ +# +  .     +     .  .  .  +  .     .  .  @  @  .  @  .     .  .  +           .. (. `) += P) O' m;  ~ d- .~ /.    @  @  +  .  .     @  @           @     @  @     @  +  .  @  +        .     .  @  .  @  @  .              @  .     +  @  @  .  +  @  +  +  @  +  .  @     +  @  +     +  .     .        .  4+ /, q; V) J{ W) s^ +~ t^ @~ i' c. .  @  +  .  .     +  +     @  .  @     +     .  +  +  +  +     +     @  @# G$ ## u^ <{ v^ w^ !* x^ a# ;# c. .  +  @     .  @  .     @  .        .  @  .  @                 +     @  .     .        +  +  +     +     @     .  @  @  .  +        @        +  +  @     .     +  .  @  .  +  .  +  +  @  +     .  @     .  +     @  @  @  @  .  +  +  .     .  .     +        @     @  +  @  @  .     +     @  +  @  @  .  @        @  @  +  .  .  .  .  .     +     .  .  .  +  .     .  .  @  @  .  @  .     .  .  +              +  .  @           +  @        +  @  @  +  .  .     @  @           @     @  @     @  +  .  @  +        .     .  @  .  @  @  .  ",
"            +  .  @           +  @        +  @  @  +  .  .     @  @           @     @  @     @  +  .  @  +        .     .  @  .  @  @  .              @  .     +  @  @  .  +  @  +  +  @  +  .  @     +  @  +     +  .     .        .  .     @  +  +  .  .  .     .     +     @  +  .  .     +  +     @  .  @     +     .  +  +  +  +     +     @  .     +  +  +     @  +     .        .  +  @     .  @  .     @  .        .  @  .  @                 +     @  .     .        +  +  +     +     @     .  @  @  .  +        @        +  +  @     )  a$ K  '$ 7+ y^ Y. {* `. .* c+ G. @  .  @     .  +     @  @  @  @  .  +  +  .     .  .     +        @     )  c@ 7, 1% D; z^ '~ A^ B^ I; K  r  .  @        @  @  +  .  .  .  .  .     +     .  .  .  +  .     .  .  @  @  .  @  .     .  .  +              +  .  @           +  @        +  @  @  +  .  .     @  @           @     @  @     +  J; P] C^ D^ E^ O; F^ ~~ G^ s@ b. .  @  .              @  .     +  @  @  .  +  @  +  +  @  +  .  @     +  ++ A@ #+ H^ I^ J^ K^ =+ !% ;+ n# `  .  .  +  .  .  .     .     +     @  +  .  .     +  +     @  .  @     +     .  +  +  +  +     +     @  .     +  +  +     @  +     .        .  +  @     .  @  .     @  .        .  @  .  @                 +     @  .     .        +  +  +     +     @     .  @  @  .  +        @        +  +  @     .     +  .  @  .  +  .  +  +  @  +     .  @     .  +     @  @  @  @  .  +  +  .     .  .     +        @     @  +  @  @  .     +     @  +  @  @  .  @        @  @  +  .  .  .  .  .     +     .  .  .  +  .     .  .  @  @  .  @  .     .  .  +  ",
"@     +  @  +     +  .     .        .  .     @  +  +  .  .  .     .     +     @  +  .  .     +  +     @  .  @     +     .  +  +  +  +     +     @  .     +  +  +     @  +     .        .  +  @     .  @  .     @  .        .  @  .  @                 +     @  .     .        +  +  +     +     @     .  @  @  .  +        @        +  +  @     .     +  .  @  .  +  .  +  +  @  +     .  @     .  +     @  @  @  @  .  +  +  .     .  .     +        @     @  +  @  @  .     +     @  +  @  @  .  @        @  @  +  .  .  .  .  .     +        r  /. >+ L^ '+ M^ /% ~+ *& ]+ G. +     .  .  +              +  .  @           +  @        +  @  @  +  .     N^ q^ O^ 3{ t, P^ Q^ .> c$ (! U+ @  +  .  @  +        .     .  @  .  @  @  .              @  .     +  @  @  .  +  @  +  +  @  +  .  @     +  @  +     +  .     .        .  .     @  +  +  .  .  .     .     +     @  +  .  .     +  $; #^ @> #> $> }~ |~ R^ 2~ S^ F& 4+ +     +     @  .     +  +  +     @  +     .        .  +  @     .  @     @# (+ v+ 4* T^ U^ 6* |+ Z) :@ <@ }  .     +     @  .     .        +  +  +     +     @     .  @  @  .  +        @        +  +  @     .     +  .  @  .  +  .  +  +  @  +     .  @     .  +     @  @  @  @  .  +  +  .     .  .     +        @     @  +  @  @  .     +     @  +  @  @  .  @        @  @  +  .  .  .  .  .     +     .  .  .  +  .     .  .  @  @  .  @  .     .  .  +              +  .  @           +  @        +  @  @  +  .  .     @  @           @     @  @     @  +  .  @  +        .     .  @  .  @  @  .              @  .     +  @  @  .  +  @  +  +  @  +  .  ",
".  +     @  @  @  @  .  +  +  .     .  .     +        @     @  +  @  @  .     +     @  +  @  @  .  @        @  @  +  .  .  .  .  .     +     .  .  .  +  .     .  .  @  @  .  @  .     .  .  +              +  .  @           +  @        +  @  @  +  .  .     @  @           @     @  @     @  +  .  @  +        .     .  @  .  @  @  .              @  .     +  @  @  .  +  @  +  +  @  +  .  @     +  @  +     +  .     .        .  .     @  +  +  .  .  .     .     +     @  +  .  .     +  +     @  .  @     +     .  +  +  +  +     @  r  U+ 5+ a* 7+ V^ W^ O, a+ b+ 5@ ^+       .  +  @     .  @  .     @  .        .  @  .  @                 +  r  z% 7~ h) X^ 0~ Y^ Z^ `^ X, L* )     @     .  @  @  .  +        @        +  +  @     .     +  .  @  .  +  .  +  +  @  +     .  @     .  +     @  @  @  @  .  +  +  .     .  .     +        @     @  +  @  @  .     +     @  +  @  @  .  :> %; d~  / ./ j{ e~ f~ +/ l% #' %  +     .  .  .  +  .     .  .  @  @  .  @  .     .  .  +              @  d+ G# f+ 0= f* g* p~ i* @/ b@ `  .  .  .  .     @  @           @     @  @     @  +  .  @  +        .     .  @  .  @  @  .              @  .     +  @  @  .  +  @  +  +  @  +  .  @     +  @  +     +  .     .        .  .     @  +  +  .  .  .     .     +     @  +  .  .     +  +     @  .  @     +     .  +  +  +  +     +     @  .     +  +  +     @  +     .        .  +  @     .  @  .     @  .        .  @  .  @                 +     @  .     .        +  +  +     +     @     .  @  @  .  +        @        +  +  @     .     +  .  @  .  +  .  +  +  @  +     .  @     ",
"   .  @  .  @                 +     @  .     .        +  +  +     +     @     .  @  @  .  +        @        +  +  @     .     +  .  @  .  +  .  +  +  @  +     .  @     .  +     @  @  @  @  .  +  +  .     .  .     +        @     @  +  @  @  .     +     @  +  @  @  .  @        @  @  +  .  .  .  .  .     +     .  .  .  +  .     .  .  @  @  .  @  .     .  .  +              +  .  @           +  @        +  @  @  +  .  .     @  @           @     @  @     @  +  .  @  +        .     .  @  .  @  @  .              @  .     @  )  .. +. k* 8> &' #/ X= m* t+ .+ ^+ +  @  +     +  .     .        .  .     @  +  +  .  .  .     .     +     ++ a$ m& L, >' $/ q{ r{ d% %/ X@ J        .  +  +  +  +     +     @  .     +  +  +     @  +     .        .  +  @     .  @  .     @  .        .  @  .  @                 +     @  .     .        +  +  +     +     @     .  @  @  .  +         . t{ n~ ~' p~ v{ w{ /' (' x{ e; }  .  +  .  +  +  @  +     .  @     .  +     @  @  @  @  .  +  +  .     @  &/ l@ _+ */ n* o* [' A+ ~. 4> <@ ^. .  +     @  +  @  @  .  @        @  @  +  .  .  .  .  .     +     .  .  .  +  .     .  .  @  @  .  @  .     .  .  +              +  .  @           +  @        +  @  @  +  .  .     @  @           @     @  @     @  +  .  @  +        .     .  @  .  @  @  .              @  .     +  @  @  .  +  @  +  +  @  +  .  @     +  @  +     +  .     .        .  .     @  +  +  .  .  .     .     +     @  +  .  .     +  +     @  .  @     +     .  +  +  +  +     +     @  .     +  +  +     @  +     .        .  +  @     .  @  .     @  .     ",
".     .        +  +  +     +     @     .  @  @  .  +        @        +  +  @     .     +  .  @  .  +  .  +  +  @  +     .  @     .  +     @  @  @  @  .  +  +  .     .  .     +        @     @  +  @  @  .     +     @  +  @  @  .  @        @  @  +  .  .  .  .  .     +     .  .  .  +  .     .  .  @  @  .  @  .     .  .  +              +  .  @           +  @        +  @  @  +  .  .     @  @           @     @  @     @  +  .  @  +        .     .  @  .  @  @  .              @  .     +  @  @  .  +  @  +  +  @  +  .  @        I  U+ ', =/ 5^ -/ ;/ >/ &$ F$ 5@ +  +  +  +  .  .  .     .     +     @  +  .  .     +  +     @  .  @     +  r  )> ,/ A~ '/ )/ !/  ~ F~ G~ s  )  @  +  +     @  +     .        .  +  @     .  @  .     @  .        .  @  .  @                 +     @  .     .        +  +  +     +     @     .  @  @  .  +        @        +  +  @     .     +  .  @  .  +  4+ 0' a' ~/ c' J~ {/ ]/ N> ^/ <@ c. @  @  @  @  .  +  +  .     .  .     +        @     @  +  @  @  .     @  d+ J. ## $# t* // L$ u* 0. m+ o#  . .  .  .  .  .     +     .  .  .  +  .     .  .  @  @  .  @  .     .  .  +              +  .  @           +  @        +  @  @  +  .  .     @  @           @     @  @     @  +  .  @  +        .     .  @  .  @  @  .              @  .     +  @  @  .  +  @  +  +  @  +  .  @     +  @  +     +  .     .        .  .     @  +  +  .  .  .     .     +     @  +  .  .     +  +     @  .  @     +     .  +  +  +  +     +     @  .     +  +  +     @  +     .        .  +  @     .  @  .     @  .        .  @  .  @                 +     @  ",
"   .  +     @  @  @  @  .  +  +  .     .  .     +        @     @  +  @  @  .     +     @  +  @  @  .  @        @  @  +  .  .  .  .  .     +     .  .  .  +  .     .  .  @  @  .  @  .     .  .  +              +  .  @           +  @        +  @  @  +  .  .     @  @           @     @  @     @  +  .  @  +        .     .  @  .  @  @  .              @  .     +  @  @  .  +  @  +  +  @  +  .  @     +  @  +     +  .     .        .  .     @  +  +  .  .  .     .     +     @  +  .  .     +  +     @  .  @     +     .  +     @     U+ a% w! c% w* P$ l* R$ ]# .+ +  +     .        .  +  @     .  @  .     @  .        .  @  .  @           )  +. .= (/ S~ T~ O'  , v' T{ u& r  +     +     @     .  @  @  .  +        @        +  +  @     .     +  .  @  .  +  .  +  +  @  +     .  @     .  +     @  @  @  @  .  +  +  .     .  .     +        @     @  +  @  @  .     +     @  +  @  @  .  +  J; x' _/ :/ A' </ C' [/ E' :@ c  .     .  .  .  +  .     .  .  @  @  .  @  .     .  .  +              @  ++ u+ #+ @@ +* F% X$ }/ u. |/ `$ ^. .  .  .     @  @           @     @  @     @  +  .  @  +        .     .  @  .  @  @  .              @  .     +  @  @  .  +  @  +  +  @  +  .  @     +  @  +     +  .     .        .  .     @  +  +  .  .  .     .     +     @  +  .  .     +  +     @  .  @     +     .  +  +  +  +     +     @  .     +  +  +     @  +     .        .  +  @     .  @  .     @  .        .  @  .  @                 +     @  .     .        +  +  +     +     @     .  @  @  .  +        @        +  +  @     .     +  .  @  .  +  .  +  +  @  +     .  @  ",
"@  .  @                 +     @  .     .        +  +  +     +     @     .  @  @  .  +        @        +  +  @     .     +  .  @  .  +  .  +  +  @  +     .  @     .  +     @  @  @  @  .  +  +  .     .  .     +        @     @  +  @  @  .     +     @  +  @  @  .  @        @  @  +  .  .  .  .  .     +     .  .  .  +  .     .  .  @  @  .  @  .     .  .  +              +  .  @           +  @        +  @  @  +  .  .     @  @           @     @  @     @  +  .  @  +        .     .  @  .  @  @  .              @  .     @  )  r  /. &* ** F* 1/ t# 2/ K+ F. ^+ +  @  +     +  .     .        .  .     @  +  +  .  .  .     .     +     @  v~ t@ V^ !, ~, Q) 3/ &{ R' S' s        .  +  +  +  +     +     @  .     +  +  +     @  +     .        .  +  @     .  @  .     @  .        .  @  .  @                 +     @  .     .        +  +  +     +     @     .  @  @  .  +        @        +  $; 4/ %] T' U' 5/ V' }, |, 6/ H- c. .  @  +     .  @     .  +     @  @  @  @  .  +  +  .     .  .     +  )  @# L+ M+ {@ ]@ 7/ &% >$ ,$ a# ;# c. .  @  @  .  @        @  @  +  .  .  .  .  .     +     .  .  .  +  .     .  .  @  @  .  @  .     .  .  +              +  .  @           +  @        +  @  @  +  .  .     @  @           @     @  @     @  +  .  @  +        .     .  @  .  @  @  .              @  .     +  @  @  .  +  @  +  +  @  +  .  @     +  @  +     +  .     .        .  .     @  +  +  .  .  .     .     +     @  +  .  .     +  +     @  .  @     +     .  +  +  +  +     +     @  .     +  +  +     @  +     .        .  +  @     .  @  .     @  .        .  ",
"      @     @  @     @  +  .  @  +        .     .  @  .  @  @  .              @  .     +  @  @  .  +  @  +  +  @  +  .  @     +  @  +     +  .     .        .  .     @  +  +  .  .  .     .     +     @  +  .  .     +  +     @  .  @     +     .  +  +  +  +     +     @  .     +  +  +     @  +     .        .  +  @     .  @  .     @  .        .  @  .  @                 +     @  .     .        +  +  +     +     @     .  @  @  .  +        @        +  +  @     .     +  .  @  .  +  .  +  +  @  +     .  @     .  +     @  )  U+ K  *% 8/ 9/ ,{ z& 4@ .* 5@ ^+       @     @  +  @  @  .     +     @  +  @  @  .  @        @  @  +  .  T. c@ e- 0/ a/ 0, a, b/ ~{ {{ d. T.    .  .  @  @  .  @  .     .  .  +              +  .  @           +  @        +  @  @  +  .  .     @  @           @     @  @     @  +  .  @  +        .     .  @  .  @  @  .              @  .     +  @  @  .  +  @  +  -) ]{ c/ g, h, ({ i, Q; j, k, b. %     .        .  .     @  +  +  .  .  .     .     +     @  +  .  .     @  A@ #+ 6@ d/ <{ [{ =+ e/ _) -@ `   . +     +     @  .     +  +  +     @  +     .        .  +  @     .  @  .     @  .        .  @  .  @                 +     @  .     .        +  +  +     +     @     .  @  @  .  +        @        +  +  @     .     +  .  @  .  +  .  +  +  @  +     .  @     .  +     @  @  @  @  .  +  +  .     .  .     +        @     @  +  @  @  .     +     @  +  @  @  .  @        @  @  +  .  .  .  .  .     +     .  .  .  +  .     .  .  @  @  .  @  .     .  .  +              +  .  @           +  @        +  @  @  +  .  .     @  @     ",
"+     @  +  @  @  .  @        @  @  +  .  .  .  .  .     +     .  .  .  +  .     .  .  @  @  .  @  .     .  .  +              +  .  @           +  @        +  @  @  +  .  .     @  @           @     @  @     @  +  .  @  +        .     .  @  .  @  @  .              @  .     +  @  @  .  +  @  +  +  @  +  .  @     +  @  +     +  .     .        .  .     @  +  +  .  .  .     .     +     @  +  .  .     +  +     @  .  @     +     .  +  +  +  +     +     @  .     +  +  +     @  +     .        .  +  @     .  @  .     )  r  c@ {% g. ^% )+ $= f/ t+ ]+ ^+ +  +     @  .     .        +  +  +     +     @     .  @  @  .  +           U+  % g/ s, t, P^ v, 6{ 3) h/ J     +  .  +  +  @  +     .  @     .  +     @  @  @  @  .  +  +  .     .  .     +        @     @  +  @  @  .     +     @  +  @  @  .  @        @  @  +  .  .  .  .  .     +     .  .  .  +  .     .  .  @  @  .  @  .     .   . y, z, i/ B, 0{ a{ j/ b{ G, 4~ }  .  +        +  @  @  +  .  .     @  @           @     @  @     @  +     @# (+ 5# ~= <+ k/ }+ l/ ]= s@ <@ ^. .           @  .     +  @  @  .  +  @  +  +  @  +  .  @     +  @  +     +  .     .        .  .     @  +  +  .  .  .     .     +     @  +  .  .     +  +     @  .  @     +     .  +  +  +  +     +     @  .     +  +  +     @  +     .        .  +  @     .  @  .     @  .        .  @  .  @                 +     @  .     .        +  +  +     +     @     .  @  @  .  +        @        +  +  @     .     +  .  @  .  +  .  +  +  @  +     .  @     .  +     @  @  @  @  .  +  +  .     .  .     +        @     @  +  @  @  .     ",
"@  @  +  .  .  .  .  .     +     .  .  .  +  .     .  .  @  @  .  @  .     .  .  +              +  .  @           +  @        +  @  @  +  .  .     @  @           @     @  @     @  +  .  @  +        .     .  @  .  @  @  .              @  .     +  @  @  .  +  @  +  +  @  +  .  @     +  @  +     +  .     .        .  .     @  +  +  .  .  .     .     +     @  +  .  .     +  +     @  .  @     +     .  +  +  +  +     +     @  .     +  +  +     @  +     .        .  +  @     .  @  .     @  .        .  @  .  @        r  x. m% b) )& m/ x@ _= z@ F$ 5@ ^+ +  +     +     @     .  @  @  .  +        @        +  +  @     .     @  r  [@ n/ o/ X^ p/ U, q/ g{ r/ P# )     .  +     @  @  @  @  .  +  +  .     .  .     +        @     @  +  @  @  .     +     @  +  @  @  .  @        @  @  +  .  .  .  .  .     +     .  .  .  +  .     .  .  @  @  .  @  .     .  .  +              +  .  @     .  %* k] 9^ h{ ./  ' s/ f~ q) w= ;# %  +  @           @     @  @     @  +  .  @  +        .     .  @  .  @  ++ A@ G# h# g+ f* t/ 9% {; I@ b@ `  c. +  @  +  +  @  +  .  @     +  @  +     +  .     .        .  .     @  +  +  .  .  .     .     +     @  +  .  .     +  +     @  .  @     +     .  +  +  +  +     +     @  .     +  +  +     @  +     .        .  +  @     .  @  .     @  .        .  @  .  @                 +     @  .     .        +  +  +     +     @     .  @  @  .  +        @        +  +  @     .     +  .  @  .  +  .  +  +  @  +     .  @     .  +     @  @  @  @  .  +  +  .     .  .     +        @     @  +  @  @  .     +     @  +  @  @  .  @        ",
"+  +  @  +  .  @     +  @  +     +  .     .        .  .     @  +  +  .  .  .     .     +     @  +  .  .     +  +     @  .  @     +     .  +  +  +  +     +     @  .     +  +  +     @  +     .        .  +  @     .  @  .     @  .        .  @  .  @                 +     @  .     .        +  +  +     +     @     .  @  @  .  +        @        +  +  @     .     +  .  @  .  +  .  +  +  @  +     .  @     .  +     @  @  @  @  .  +  +  .     .  .     +        @     @  +  @  @  .     +     @  +  @  @  .  @        @  )  .. P# u/ v/ s{ w/ f= O@ t+ .+ ^+ .  +  .     .  .  @  @  .  @  .     .  .  +              +  .  @        )  x= [$ x/ y/ z/ k~ A/ s{ B/ E+ l& @  @           @     @  @     @  +  .  @  +        .     .  @  .  @  @  .              @  .     +  @  @  .  +  @  +  +  @  +  .  @     +  @  +     +  .     .        .  .     @  +  +  .  .  .     .     +     @  +  .  .     +  ^+ #, B) o~ C/ D/ w{ E/ F/ d; e; ^. .     +     @  .     +  +  +     @  +     .        .  +  @     .  @     ++ (+ T$ G/ H/ I/ u= `# J/ C+ `$ ^. .     +     @  .     .        +  +  +     +     @     .  @  @  .  +        @        +  +  @     .     +  .  @  .  +  .  +  +  @  +     .  @     .  +     @  @  @  @  .  +  +  .     .  .     +        @     @  +  @  @  .     +     @  +  @  @  .  @        @  @  +  .  .  .  .  .     +     .  .  .  +  .     .  .  @  @  .  @  .     .  .  +              +  .  @           +  @        +  @  @  +  .  .     @  @           @     @  @     @  +  .  @  +        .     .  @  .  @  @  .              @  .     +  @  @  .  +  @  ",
"   @  @  @  @  .  +  +  .     .  .     +        @     @  +  @  @  .     +     @  +  @  @  .  @        @  @  +  .  .  .  .  .     +     .  .  .  +  .     .  .  @  @  .  @  .     .  .  +              +  .  @           +  @        +  @  @  +  .  .     @  @           @     @  @     @  +  .  @  +        .     .  @  .  @  @  .              @  .     +  @  @  .  +  @  +  +  @  +  .  @     +  @  +     +  .     .        .  .     @  +  +  .  .  .     .     +     @  +  .  .     +  +     @  .  @     +     .  +        )  /. ', n% B{ P* K/ r% L/ b+ G. +  +     .        .  +  @     .  @  .     @  .        .  @  .  @           .. t@ c& e@ P) l; M/ N/ O/ I{ P/    +     +     @     .  @  @  .  +        @        +  +  @     .     +  .  @  .  +  .  +  +  @  +     .  @     .  +     @  @  @  @  .  +  +  .     .  .     +        @     @  +  @  @  .     +     @  +  @  @  .  @        @  @  +  .  4+ Q/ a' b' R/ W) S/ I] 1+ w; `$ c.    .  .  @  @  .  @  .     .  .  +              +  .  @           @  @  d+ G$ ## *$ T/ U/ V/ N~ S+ :' m$ c.       @     @  @     @  +  .  @  +        .     .  @  .  @  @  .              @  .     +  @  @  .  +  @  +  +  @  +  .  @     +  @  +     +  .     .        .  .     @  +  +  .  .  .     .     +     @  +  .  .     +  +     @  .  @     +     .  +  +  +  +     +     @  .     +  +  +     @  +     .        .  +  @     .  @  .     @  .        .  @  .  @                 +     @  .     .        +  +  +     +     @     .  @  @  .  +        @        +  +  @     .     +  .  @  .  +  .  +  +  @  +     .  @     .  +  ",
".  .  .     .     +     @  +  .  .     +  +     @  .  @     +     .  +  +  +  +     +     @  .     +  +  +     @  +     .        .  +  @     .  @  .     @  .        .  @  .  @                 +     @  .     .        +  +  +     +     @     .  @  @  .  +        @        +  +  @     .     +  .  @  .  +  .  +  +  @  +     .  @     .  +     @  @  @  @  .  +  +  .     .  .     +        @     @  +  @  @  .     +     @  +  @  @  .  @        @  @  +  .  .  .  .  .     +     .  .  .  +  .     .  .  @  @  .  @  )  a$ d. `) A% W/ X/ Y/ P~ ]# .@ S$ +        +  @        +  @  @  +  .  .     @  @           @     @  @     )  /. C; +! @! Z/ F; `/  ( .( )> T. @  @  .              @  .     +  @  @  .  +  @  +  +  @  +  .  @     +  @  +     +  .     .        .  .     @  +  +  .  .  .     .     +     @  +  .  .     +  +     @  .  @     +     .  +  +  +  +     +     @  .     +  +  +     @  ^+ J; x' +( @( R] B' #( ,! $( 0$ b. .  @  .        .  @  .  @                 +     @  .     .        +  @  @  @+ D% f; %( F% &( =+ j& =@ }# ^. %           +  +  @     .     +  .  @  .  +  .  +  +  @  +     .  @     .  +     @  @  @  @  .  +  +  .     .  .     +        @     @  +  @  @  .     +     @  +  @  @  .  @        @  @  +  .  .  .  .  .     +     .  .  .  +  .     .  .  @  @  .  @  .     .  .  +              +  .  @           +  @        +  @  @  +  .  .     @  @           @     @  @     @  +  .  @  +        .     .  @  .  @  @  .              @  .     +  @  @  .  +  @  +  +  @  +  .  @     +  @  +     +  .     .        .  .     @  +  +  ",
"         @  .     +  @  @  .  +  @  +  +  @  +  .  @     +  @  +     +  .     .        .  .     @  +  +  .  .  .     .     +     @  +  .  .     +  +     @  .  @     +     .  +  +  +  +     +     @  .     +  +  +     @  +     .        .  +  @     .  @  .     @  .        .  @  .  @                 +     @  .     .        +  +  +     +     @     .  @  @  .  +        @        +  +  @     .     +  .  @  .  +  .  +  +  @  +     .  @     .  +     @  @  @  @  .  +  +  .     .  .     +        @     @  +  @  )  r  @$ >+ *( >@ =( L% M% -( F. G. +  @  @  +  .  .  .  .  .     +     .  .  .  +  .     .  .  @  @  .  @     l& &* c* ;( >( .^ ,( .> c$ '( U+          +  @        +  @  @  +  .  .     @  @           @     @  @     @  +  .  @  +        .     .  @  .  @  @  .              @  .     +  @  @  .  +  @  +  +  @  +  .  @     +  @  +     +  .     .        .  .     @  +  +  .  .  .     $; #^ :! )( $> *^ [! }! => -> n# c. .  .  @     +     .  +  +  +  +     +     @  .     +  +  +     @  +  )  ++ G$ m@ 0- !( ~( 3! (@ {( a# <@ c. .        .  @  .  @                 +     @  .     .        +  +  +     +     @     .  @  @  .  +        @        +  +  @     .     +  .  @  .  +  .  +  +  @  +     .  @     .  +     @  @  @  @  .  +  +  .     .  .     +        @     @  +  @  @  .     +     @  +  @  @  .  @        @  @  +  .  .  .  .  .     +     .  .  .  +  .     .  .  @  @  .  @  .     .  .  +              +  .  @           +  @        +  @  @  +  .  .     @  @           @     @  @     @  +  .  @  +        .     .  @  .  @  @  .     ",
"   +  .     .        .  .     @  +  +  .  .  .     .     +     @  +  .  .     +  +     @  .  @     +     .  +  +  +  +     +     @  .     +  +  +     @  +     .        .  +  @     .  @  .     @  .        .  @  .  @                 +     @  .     .        +  +  +     +     @     .  @  @  .  +        @        +  +  @     .     +  .  @  .  +  .  +  +  @  +     .  @     .  +     @  @  @  @  .  +  +  .     .  .     +        @     @  +  @  @  .     +     @  +  @  @  .  @        @  @  +  .  .  .  .  .     )  U+ K  b# U% d# ]( z& 4@  @ c+ +  +  @  .     .  .  +              +  .  @           +  @        +  @  @  )  d. @. ^( ,^ /( ){ 0! (> a! L* )  @     @  +  .  @  +        .     .  @  .  @  @  .              @  .     +  @  @  .  +  @  +  +  @  +  .  @     +  @  +     +  .     .        .  .     @  +  +  .  .  .     .     +     @  +  .  .     +  +     @  .  @     +     .  +  +  +  ^+ %* ;) (( 9# d! ({ _( :( <( k, b. .     .        .  +  @     .  @  .     @  .        .  @  .  @           ++ A@ e+ f+ i# ^) [( .& |] @& }( `   . .  +     @     .  @  @  .  +        @        +  +  @     .     +  .  @  .  +  .  +  +  @  +     .  @     .  +     @  @  @  @  .  +  +  .     .  .     +        @     @  +  @  @  .     +     @  +  @  @  .  @        @  @  +  .  .  .  .  .     +     .  .  .  +  .     .  .  @  @  .  @  .     .  .  +              +  .  @           +  @        +  @  @  +  .  .     @  @           @     @  @     @  +  .  @  +        .     .  @  .  @  @  .              @  .     +  @  @  .  +  @  +  +  @  +  .  @     +  @  +  ",
".  .     @  +  +  .  .  .     .     +     @  +  .  .     +  +     @  .  @     +     .  +  +  +  +     +     @  .     +  +  +     @  +     .        .  +  @     .  @  .     @  .        .  @  .  @                 +     @  .     .        +  +  +     +     @     .  @  @  .  +        @        +  +  @     .     +  .  @  .  +  .  +  +  @  +     .  @     .  +     @  @  @  @  .  +  +  .     .  .     +        @     @  +  @  @  .     +     @  +  @  @  .  @        @  @  +  .  .  .  .  .     +     .  .  .  +     J  +. .~ q# x- s# k! u# P@ ]+ ^+ +              +  .  @           +  @        +  @  @  +  .  .     @  @  )  U+ m& A- U% |( 1( 2( 3( g> [^ J           .     .  @  .  @  @  .              @  .     +  @  @  .  +  @  +  +  @  +  .  @     +  @  +     +  .     .        .  .     @  +  +  .  .  .     .     +     @  +  .  .     +  +     @  .  @     +     .  +  +  +  +     +     @  .     +  ^+ i> 4( 5( l> 6( 7) o> 1^ 9) a. 4+    .  @  .     @  .        .  @  .  @                 +     @  .     @  @# l@ _+ 7( K& r! y# l/ r@ A# W@ 4+ .  .  +        @        +  +  @     .     +  .  @  .  +  .  +  +  @  +     .  @     .  +     @  @  @  @  .  +  +  .     .  .     +        @     @  +  @  @  .     +     @  +  @  @  .  @        @  @  +  .  .  .  .  .     +     .  .  .  +  .     .  .  @  @  .  @  .     .  .  +              +  .  @           +  @        +  @  @  +  .  .     @  @           @     @  @     @  +  .  @  +        .     .  @  .  @  @  .              @  .     +  @  @  .  +  @  +  +  @  +  .  @     +  @  +     +  .     .        ",
"+              +  .  @           +  @        +  @  @  +  .  .     @  @           @     @  @     @  +  .  @  +        .     .  @  .  @  @  .              @  .     +  @  @  .  +  @  +  +  @  +  .  @     +  @  +     +  .     .        .  .     @  +  +  .  .  .     .     +     @  +  .  .     +  +     @  .  @     +     .  +  +  +  +     +     @  .     +  +  +     @  +     .        .  +  @     .  @  .     @  .        .  @  .  @                 +     @  .     .        +  +  +     +     @     .  @  @     )  x. ', /= B# W- D# E# S& F$ 5@ +  +  .  @  .  +  .  +  +  @  +     .  @     .  +     @  @  @  @  .  +  +  T. [@ X- 8( Z- `-  ; h] 9( G> c@    @  @  .     +     @  +  @  @  .  @        @  @  +  .  .  .  .  .     +     .  .  .  +  .     .  .  @  @  .  @  .     .  .  +              +  .  @           +  @        +  @  @  +  .  .     @  @           @     @  @     @  +  .  @  +        .  .  :> l) &; 0( a( -; b( >; ,; w= ;# c.    +  @  @  .  +  @  +  +  @  +  .  @     +  @  +     +  .     .     )  @# L+ H# I# J# c( d( e( I@ f( S. c. +  .  @  +  .  .     +  +     @  .  @     +     .  +  +  +  +     +     @  .     +  +  +     @  +     .        .  +  @     .  @  .     @  .        .  @  .  @                 +     @  .     .        +  +  +     +     @     .  @  @  .  +        @        +  +  @     .     +  .  @  .  +  .  +  +  @  +     .  @     .  +     @  @  @  @  .  +  +  .     .  .     +        @     @  +  @  @  .     +     @  +  @  @  .  @        @  @  +  .  .  .  .  .     +     .  .  .  +  .     .  .  @  @  .  @  .     .  .  ",
"@  +  @  @  .  @        @  @  +  .  .  .  .  .     +     .  .  .  +  .     .  .  @  @  .  @  .     .  .  +              +  .  @           +  @        +  @  @  +  .  .     @  @           @     @  @     @  +  .  @  +        .     .  @  .  @  @  .              @  .     +  @  @  .  +  @  +  +  @  +  .  @     +  @  +     +  .     .        .  .     @  +  +  .  .  .     .     +     @  +  .  .     +  +     @  .  @     +     .  +  +  +  +     +     @  .     +  +  +     @  +     .        .  +  @     .  )  J  d. w! /; [& g( :; V# .* .+ ^+ .           +     @  .     .        +  +  +     +     @     .  @  @  .     x. w- [; y) |; h( r] A) P! 5; r     .  @  .  +  .  +  +  @  +     .  @     .  +     @  @  @  @  .  +  +  .     .  .     +        @     @  +  @  @  .     +     @  +  @  @  .  @        @  @  +  .  .  .  .  .     +     .  .  .  +  .     .  .  @  @  .  @  .     .  .  +              +   . J; B) t] 9; E) a; l^ m^ U! e; ^. .  .  .     @  @           @     @  @     @  +  .  @  +        .     .  @# @+ T$ @@ X# 3& j% k% i( ;, `$ ^. .  @  @  .  +  @  +  +  @  +  .  @     +  @  +     +  .     .        .  .     @  +  +  .  .  .     .     +     @  +  .  .     +  +     @  .  @     +     .  +  +  +  +     +     @  .     +  +  +     @  +     .        .  +  @     .  @  .     @  .        .  @  .  @                 +     @  .     .        +  +  +     +     @     .  @  @  .  +        @        +  +  @     .     +  .  @  .  +  .  +  +  @  +     .  @     .  +     @  @  @  @  .  +  +  .     .  .     +        @     @  +  @  @  .     +     ",
".  +  +  @  +     .  @     .  +     @  @  @  @  .  +  +  .     .  .     +        @     @  +  @  @  .     +     @  +  @  @  .  @        @  @  +  .  .  .  .  .     +     .  .  .  +  .     .  .  @  @  .  @  .     .  .  +              +  .  @           +  @        +  @  @  +  .  .     @  @           @     @  @     @  +  .  @  +        .     .  @  .  @  @  .              @  .     +  @  @  .  +  @  +  +  @  +  .  @     +  @  +     +  .     .        .  .     @  +  +  .  .  .     .     +     @  +     r  /. &* ** A. $  j( D. N% b+ G. ^+ +  +  +  +     +     @  .     +  +  +     @  +     .        .  +  @     r  (. c& j; P) l; m;  ~ Z= Y= s  )                 +     @  .     .        +  +  +     +     @     .  @  @  .  +        @        +  +  @     .     +  .  @  .  +  .  +  +  @  +     .  @     .  +     @  @  @  @  .  +  +  .     .  .     +        @     @  +  @  @  .     +     @  +  @  @  .   . 0' q; T' k( W) l( I] 1+ w; +$ c. +     .  .  .  +  .     .  .  @  @  .  @  .     .  .  +              @  @# J. M+ s% %# -$ ;$ >$ ,$ a# S. c. .  .  .     @  @           @     @  @     @  +  .  @  +        .     .  @  .  @  @  .              @  .     +  @  @  .  +  @  +  +  @  +  .  @     +  @  +     +  .     .        .  .     @  +  +  .  .  .     .     +     @  +  .  .     +  +     @  .  @     +     .  +  +  +  +     +     @  .     +  +  +     @  +     .        .  +  @     .  @  .     @  .        .  @  .  @                 +     @  .     .        +  +  +     +     @     .  @  @  .  +        @        +  +  @     .     +  .  @  .  +  ",
"+  @  @  .     +     @  +  @  @  .  @        @  @  +  .  .  .  .  .     +     .  .  .  +  .     .  .  @  @  .  @  .     .  .  +              +  .  @           +  @        +  @  @  +  .  .     @  @           @     @  @     @  +  .  @  +        .     .  @  .  @  @  .              @  .     +  @  @  .  +  @  +  +  @  +  .  @     +  @  +     +  .     .        .  .     @  +  +  .  .  .     .     +     @  +  .  .     +  +     @  .  @     +     .  +  +  +  +     +     @  .     +  +  +     @  +     T. U+ U. '$ =% !$ A; B; {$  @ .@ +  .        .  @  .  @                 +     @  .     .        +  +  +        +. C; /= D; E; F; G; H; I; 5+ r        +  +  @     .     +  .  @  .  +  .  +  +  @  +     .  @     .  +     @  @  @  @  .  +  +  .     .  .     +        @     @  +  @  @  .     +     @  +  @  @  .  @        @  @  +  .  .  .  .  .     +     .  .  .  +  .     .  .  @  @  .  @  .     .  .  +  J; K; L; !~ N; B' P; Q; $( 0$ `  .        +  @  @  +  .  .     @  @           @     @  @     @  +  .  @  ++ @+ W# ^$ (# m( U; <# -+ `* -@ `  %  .     @  .     +  @  @  .  +  @  +  +  @  +  .  @     +  @  +     +  .     .        .  .     @  +  +  .  .  .     .     +     @  +  .  .     +  +     @  .  @     +     .  +  +  +  +     +     @  .     +  +  +     @  +     .        .  +  @     .  @  .     @  .        .  @  .  @                 +     @  .     .        +  +  +     +     @     .  @  @  .  +        @        +  +  @     .     +  .  @  .  +  .  +  +  @  +     .  @     .  +     @  @  @  @  .  +  +  .     .  .     +        @     @  ",
"@  .              @  .     +  @  @  .  +  @  +  +  @  +  .  @     +  @  +     +  .     .        .  .     @  +  +  .  .  .     .     +     @  +  .  .     +  +     @  .  @     +     .  +  +  +  +     +     @  .     +  +  +     @  +     .        .  +  @     .  @  .     @  .        .  @  .  @                 +     @  .     .        +  +  +     +     @     .  @  @  .  +        @        +  +  @     .     +  .  @  .  +  .  +  +  @  +     .  @     .  +     @  @  @  @  .  +  +  .     .  .        )  .. Q~ n( o( p( 1$ 2$ ~+ {+ F. ^+ +  +  @  @  .  @        @  @  +  .  .  .  .  .     +     .  .  .  +  .     .. h> q( ;( ]! r( Q^ @^ c$ h/ J              +  .  @           +  @        +  @  @  +  .  .     @  @           @     @  @     @  +  .  @  +        .     .  @  .  @  @  .              @  .     +  @  @  .  +  @  +  +  @  +  .  @     +  @  +  @  +  .     .        .  .     @  +  +  .  .  .     .   . 4/ s( t( <! %> [! u( |! v( 8- c. .  @     +     .  +  +  +  +     +     @  .     +  +  +     @  +        @# w( 5# 6# x( y( z( A( K, :@ 3+ ^. .     .  @  .  @                 +     @  .     .        +  +  +     +     @     .  @  @  .  +        @        +  +  @     .     +  .  @  .  +  .  +  +  @  +     .  @     .  +     @  @  @  @  .  +  +  .     .  .     +        @     @  +  @  @  .     +     @  +  @  @  .  @        @  @  +  .  .  .  .  .     +     .  .  .  +  .     .  .  @  @  .  @  .     .  .  +              +  .  @           +  @        +  @  @  +  .  .     @  @           @     @  @     @  +  .  @  +        .     .  @  .  @  ",
"@  .     +     @  +  @  @  .  @        @  @  +  .  .  .  .  .     +     .  .  .  +  .     .  .  @  @  .  @  .     .  .  +              +  .  @           +  @        +  @  @  +  .  .     @  @           @     @  @     @  +  .  @  +        .     .  @  .  @  @  .              @  .     +  @  @  .  +  @  +  +  @  +  .  @     +  @  +     +  .     .        .  .     @  +  +  .  .  .     .     +     @  +  .  .     +  +     @  .  @     +     .  +  +  +  +     +     @  .     +  +  +     @  +        r  a$ )> L, b$ 6~ !> e$ 6! b+ 5@ ^+ .     .  @  .  @                 +     @  .     .        +  +  +     +  r  a% x  ~> ,^ /( B( /> C( _> d. T.    +  +  @     .     +  .  @  .  +  .  +  +  @  +  @  +  @     .  +     @  @  @  @  .  +  +  .     .  .     +        @     @  +  @  @  .     +     @  +  @  @  .  @        @  @  +  .  .  .  +  +  @  S$ @  @  +  .  +  .     .  .  @  @  .  @  .     .  .  +        .  %* ;) b! 9# d! ({ !) 2> /^ 4> H   . @  @  +  .  .     @  @           @     @  @     @  +  .  @  +        @  A@ G# f+ D( 5> E( F( D& E& b@ b. .  .     +  @  @  .  +  @  +  +  @  +  .  @     +  @  +     +  .     .        .  .     @  +  +  .  .  .     .     +     @  +  .  .     +  +     @  .  @     +     .  +  +  +  +     +     @  .     +  +  +     @  +     .        .  +  @     .  @  .     @  .        .  @  .  @                 +     @  .     .        +  +  +     +     @     .  @  @  .  +        @        +  +  @     .     +  .  @  .  +  .  +  +  @  +     .  @     .  +     @  @  @  @  .  +  +  .     .  .     +        @     @  +  @  ",
"      +  +  +     +     @     .  @  @  .  +        @        +  +  @     .     +  .  @  .  +  .  +  +  @  +     .  @     .  +     @  @  @  @  .  +  +  .     .  .     +        @     @  +  @  @  .     +     @  +  @  @  .  @        @  @  +  .  .  .  .  .     +     .  .  .  +  .     .  .  @  @  .  @  .     .  .  +              +  .  @           +  @        +  @  @  +  .  .     @  @           @     @  @     @  +  .  @  +        .     .  @  .  @  @  .              @  .     +  @  @  .  +  @     r  c@ _^ o+ G( q$ 0> H( 4# .+ G. .     .        .  .     @  +  +  .  .  .     .     +     @  +  .  .        0% m& I( y] |( 7] e> f> g> [^ J     +     +     @  .     +  +  +     @  +     +  @  +  S$ S$ H. @  +  @  .     @  .        .  @  .  @                 +     @  .     .        +  +  +     +     @     .  @  @  .  +        @  +  .  S$ S$ S$ H. H. H. H. @  @  .  +  .  +  +  @  +     .  @     .  +     @  ^+ >, J( 9] l> K( 7) o> L( M( r> ^.       @     @  +  @  @  .     +     @  +  @  @  .  @        @  @  +     ++ `{ _+ N( O( P( Q( A+ R( w= W@ ^. %  .  .  @  @  .  @  .     .  .  +              +  .  @           +  @        +  @  @  +  .  .     @  @           @     @  @     @  +  .  @  +        .     .  @  .  @  @  .              @  .     +  @  @  .  +  @  +  +  @  +  .  @     +  @  +     +  .     .        .  .     @  +  +  .  .  .     .     +     @  +  .  .     +  +     @  .  @     +     .  +  +  +  +     +     @  .     +  +  +     @  +     .        .  +  @     .  @  .     @  .        .  @  .  @                 +     @  .     .  ",
".  @           +  @        +  @  @  +  .  .     @  @           @     @  @     @  +  .  @  +        .     .  @  .  @  @  .              @  .     +  @  @  .  +  @  +  +  @  +  .  @     +  @  +     +  .     .        .  .     @  +  +  .  .  .     .     +     @  +  .  .     +  +     @  .  @     +     .  +  +  +  +     +     @  .     +  +  +     @  +     .        .  +  @     .  @  .     @  .        .  @  .  @                 +     @  .     .        +  +  +     +     @     .  @  @  .  +     r  x. ', O& S( y> C$ y~ E$ := 5@ +  @  .  +  .  +  +  @  +     .  @     .  +     @  @  @  @  .  +  +  .     r  X~ 3' T( U( h( V( W( j) X( +. )  .     +     @  +  @  @  .  @        @  @  S$ S$ S$ Y( Z( Y( H. H. @  @  +  .  +  .     .  .  @  @  .  @  .     .  .  +              +  .  @           +  @        +  @  @  +  .  .     @  +     .  ^+ `(  _ ._ +_ @_ #_ $_ H. @  +        .     .  @  .  @  @  .           .  $; l) I> 0^ l] -; %_ ]/ &_ K{ <@ .  +  .  @     +  @  +     +  .     .        .  .     @  +  +  .  .  .  )  @# ^& *_ =_ 8@ -_ L$ u* 0. w) S. c. .  .  @     +     .  +  +  +  +     +     @  .     +  +  +     @  +     .        .  +  @     .  @  .     @  .        .  @  .  @                 +     @  .     .        +  +  +     +     @     .  @  @  .  +        @        +  +  @     .     +  .  @  .  +  .  +  +  @  +     .  @     .  +     @  @  @  @  .  +  +  .     .  .     +        @     @  +  @  @  .     +     @  +  @  @  .  @        @  @  +  .  .  .  .  .     +     .  .  .  +  .     .  .  @  @  .  @  .     .  .  +              +  ",
"@  @  @  .  +  +  .     .  .     +        @     @  +  @  @  .     +     @  +  @  @  .  @        @  @  +  .  .  .  .  .     +     .  .  .  +  .     .  .  @  @  .  @  .     .  .  +              +  .  @           +  @        +  @  @  +  .  .     @  @           @     @  @     @  +  .  @  +        .     .  @  .  @  @  .              @  .     +  @  @  .  +  @  +  +  @  +  .  @     +  @  +     +  .     .        .  .     @  +  +  .  .  .     .     +     @  +  .  .     +  +     @  .  @        U+ P# d= c% n& ;_ o' >_ ]$ .+ ^+ +  +  +  +     @  +     .        .  +  @     .  @  .     @  .        .  )  /. d@ (/ R{ ,_ O' S{ ., '_ 5; r     .        +  +  +     +     @     .  +  S$ )_ !_ ~_ ~_ {_ ]_ ^_ /_ @  @     .     +  .  @  .  +  .  +  +  @  +     .  @     .  +     @  @  @  @  .  +  +  .     .  .     +        @     @  +  +  +  (_ __ :_ <_ [_ }_ |_ 1_ 2_ #_ H. @  @  @  +  .  .  .  .  .     +     .  .   . #, B) 8; $, 3_ O; 4_ [/ E' :@ D* .  .  +              +  .  @           +  @        +  @  @  +  .  .  @  ++ v# +@ @@ +* F% A* t. 5_ Z$ W@ `  .     +        .     .  @  .  @  @  .              @  .     +  @  @  .  +  @  +  +  @  +  .  @     +  @  +     +  .     .        .  .     @  +  +  .  .  .     .     +     @  +  .  .     +  +     @  .  @     +     .  +  +  +  +     +     @  .     +  +  +     @  +     .        .  +  @     .  @  .     @  .        .  @  .  @                 +     @  .     .        +  +  +     +     @     .  @  @  .  +        @        +  +  @     .     +  .  @  .  +  .  +  +  @  +     .  @     .  +     @  ",
".  .  +  .     .  .  @  @  .  @  .     .  .  +              +  .  @           +  @        +  @  @  +  .  .     @  @           @     @  @     @  +  .  @  +        .     .  @  .  @  @  .              @  .     +  @  @  .  +  @  +  +  @  +  .  @     +  @  +     +  .     .        .  .     @  +  +  .  .  .     .     +     @  +  .  .     +  +     @  .  @     +     .  +  +  +  +     +     @  .     +  +  +     @  +     .        .  +  @     .  @  .     @  .        .  @  .  @                 I  /. y. ** B# >, t# )@ L/ 6_ 5@ +  +     @     .  @  @  .  +        @        +  +  @     .     +  .  @     r  X@ `! !, 7_ Q) P' 8_ R' o; s        @  @  @  @  .  +  +  .     .  .  +  )_ 9_ l. 0_ a_ b_ c_ d_ e_ e+ )  @     @  +  @  @  .  @        @  @  +  .  .  .  .  .     +     .  .  .  +  .     .  .  @  @  .  @  .     .  .  +        .  .  f_ g_ h_ i_ j_ k_ l_ m_ n_ o_ p_ @_ H. @  .  .     @  @           @     @  +  $; _! (, _, U' q_ -{ }, K, 7- +$ %  .  @  @  .              @  .     +  @  @  .  +  @  +  +  @  +  .  @     /+ J. ## Z' ]@ r_ &% !* Q. R. <@ ^. .  @  +  +  .  .  .     .     +     @  +  .  .     +  +     @  .  @     +     .  +  +  +  +     +     @  .     +  +  +     @  +     .        .  +  @     .  @  .     @  .        .  @  .  @                 +     @  .     .        +  +  +     +     @     .  @  @  .  +        @        +  +  @     .     +  .  @  .  +  .  +  +  @  +     .  @     .  +     @  @  @  @  .  +  +  .     .  .     +        @     @  +  @  @  .     +     @  +  @  @  .  @        @  @  +  .  .  .  .  .     +     .  ",
"   +  @  @  .  +  @  +  +  @  +  .  @     +  @  +     +  .     .        .  .     @  +  +  .  .  .     .     +     @  +  .  .     +  +     @  .  @     +     .  +  +  +  +     +     @  .     +  +  +     @  +     .        .  +  @     .  @  .     @  .        .  @  .  @                 +     @  .     .        +  +  +     +     @     .  @  @  .  +        @        +  +  @     .     +  .  @  .  +  .  +  +  @  +     .  @     .  +     @  @  @  @  .  +  +  .     .  .     +        @     @  )  U+ K  *% =% -% s_ e$ t_  + c+ ^+ @        @  @  +  .  .  .  .  .     +     .  .  .  +  .     .  .  @  @  )  +. e- 8, a/ '{ '^ b/ u_ I; =) T.    @           +  @        +  @  H. S$ 9_ v_ `( w_ x_ y_ z_ A_ B_ M] C_ ++    @  +  .  @  +        .     .  @  .  @  @  .              @  .     +  @  @  .  +  @  +  +  @  +  .  @     +  @  +     .   . %* D_ E_ F_ G_ H_ I_ J_ K_ L_ M_ N_ #_ =& +  @  +     @  +  .  .     +  +     .  J; <> f, ^{ /{ e! i, _{ j, O_ b. .     @  .     +  +  +     @  +     .        .  +  @     .  @  .     @  ++ P_ #+ X* 7@ Q_ R_ <# !% `* `$ `   . .  @  .     .        +  +  +     +     @     .  @  @  .  +        @        +  +  @     .     +  .  @  .  +  .  +  +  @  +     .  @     .  +     @  @  @  @  .  +  +  .     .  .     +        @     @  +  @  @  .     +     @  +  @  @  .  @        @  @  +  .  .  .  .  .     +     .  .  .  +  .     .  .  @  @  .  @  .     .  .  +              +  .  @           +  @        +  @  @  +  .  .     @  @           @     @  @     @  +  .  @  +        .     .  @  .  @  @  .              @  .  ",
"+     @     .  @  @  .  +        @        +  +  @     .     +  .  @  .  +  .  +  +  @  +     .  @     .  +     @  @  @  @  .  +  +  .     .  .     +        @     @  +  @  @  .     +     @  +  @  @  .  @        @  @  +  .  .  .  .  .     +     .  .  .  +  .     .  .  @  @  .  @  .     .  .  +              +  .  @           +  @        +  @  @  +  .  .     @  @           @     @  @     @  +  .  @  +        .     .  @  .  @  @  .              @  .     +  @  @  .  +  @  +  +  @     r  [* [$ }* |* M^ 2$ (% P@ .+ +# +     .  .     @  +  +  .  .  .     .     +     @  +  .  .     +  +        J  y. r, s, S_ P^ T_ 6{ 3) 4) J        @  .     +  +  +     @  +  +  )_ l. U_ V_ W_ X_ Y_ Z_ `_  (  : .: /. )     .  @  .  @                 +     @  .     .        +  +  +     +     @     .  @  @  .  +        @        +  +  @     .  .   . c. 4+ +: @: #: $: %: &: *: =: -: ;: N_ @_ H.    @  @  @  @  .  +  +  .     .  >: >, z, ,: B, C, ': ): F, 3~ F& ^. .  +     @  +  @  @  .  @        @  @  +  .  .  .  .  .     +        @  ++ (+ _+ !: {= ~: {: ]: K, a# <@ c. .  .  +              +  .  @           +  @        +  @  @  +  .  .     @  @           @     @  @     @  +  .  @  +        .     .  @  .  @  @  .              @  .     +  @  @  .  +  @  +  +  @  +  .  @     +  @  +     +  .     .        .  .     @  +  +  .  .  .     .     +     @  +  .  .     +  +     @  .  @     +     .  +  +  +  +     +     @  .     +  +  +     @  +     .        .  +  @     .  @  .     @  .        .  @  .  @                 +     @  .     .        +  +  +     ",
".        .  @  .  @                 +     @  .     .        +  +  +     +     @     .  @  @  .  +        @        +  +  @     .     +  .  @  .  +  .  +  +  @  +     .  @     .  +     @  @  @  @  .  +  +  .     .  .     +        @     @  +  @  @  .     +     @  +  @  @  .  @        @  @  +  .  .  .  .  .     +     .  .  .  +  .     .  .  @  @  .  @  .     .  .  +              +  .  @           +  @        +  @  @  +  .  .     @  @           @     @  @     @  +  .  @  +        T. U+ u& ^: M, V^ 9+ O, g# b+ 5@ +  @  .     +  @  @  .  +  @  +  +  @  +  .  @     +  @  +     +  .     .  r  K  7~ o/ /: T, (: b~ W, X, P# T. .     +     @  +  .  .     +  G. _: :: <: [: }: |: 1: 2: 3; 3: 4: 5: U+ r  )     .     +  +  +     @  +     .        .  +  @     .  @  .     @  .        .  @  .  @                 +     @  .     .     .   .  . 4+ 9* D_ 6: (@ 7: 8: 9: 0: a: b: c: d: +_ H. @  +  +  @     .     +  .  @  .  :> %; e: Z, f: g: s/ h: i: 4> ;# .  .  @  @  @  @  .  +  +  .     .  .     +        @     @  +  @  @  .  )  /+ ^& f+ 0= h+ i+ j$ k$ @/ b@ b. .  +  .  .  .  .  .     +     .  .  .  +  .     .  .  @  @  .  @  .     .  .  +              +  .  @           +  @        +  @  @  +  .  .     @  @           @     @  @     @  +  .  @  +        .     .  @  .  @  @  .              @  .     +  @  @  .  +  @  +  +  @  +  .  @     +  @  +     +  .     .        .  .     @  +  +  .  .  .     .     +     @  +  .  .     +  +     @  .  @     +     .  +  +  +  +     +     @  .     +  +  +     @  +     .        .  +  @     .  @  .     @  ",
"@  .     @  .        .  @  .  @                 +     @  .     .        +  +  +     +     @     .  @  @  .  +        @        +  +  @     .     +  .  @  .  +  .  +  +  @  +     .  @     .  +     @  @  @  @  .  +  +  .     .  .     +        @     @  +  @  @  .     +     @  +  @  @  .  @        @  @  +  .  .  .  .  .     +     .  .  .  +  .     .  .  @  @  .  @  .     .  .  +              +  .  @           +  @        +  @  @  +  .  .     @  @           @     @  @     @  +  )  .. +. @. %' j: *' o' k: t+ .+ S$ +              @  .     +  @  @  .  +  @  +  +  @  +  .  @     +  @  +  )  U+ -' ^: j~ l: k~ l~ s{ )' 4& r     .  .  .     .     +  .  @  G. m: n: R_ o: p: q: r: s: t: u: v: w: d  |  T.    +     +     @  .     +  +  +     @  +     .        .  +  @     .  @  .     @  .        .  @  .  @                 +     @  .     .  c. `  n! @> x: y: z: A: B: C: D: E: F: G: N_ =&    @        +  +  @     .      . 6; H: 5( I: q~ ^' r~ (' J: f( ^. .     .  +     @  @  @  @  .  +  +  .     .  .     +        @     @  @  @# (+ t$ G/ x+ K: z+ N& B+ {. +$ 4+ .     @  @  +  .  .  .  .  .     +     .  .  .  +  .     .  .  @  @  .  @  .     .  .  +              +  .  @           +  @        +  @  @  +  .  .     @  @           @     @  @     @  +  .  @  +        .     .  @  .  @  @  .              @  .     +  @  @  .  +  @  +  +  @  +  .  @     +  @  +     +  .     .        .  .     @  +  +  .  .  .     .     +     @  +  .  .     +  +     @  .  @     +     .  +  +  +  +     +     @  .     +  +  +     @  +     .        .  +  @     .  ",
".  .     @  @           @     @  @     @  +  .  @  +        .     .  @  .  @  @  .              @  .     +  @  @  .  +  @  +  +  @  +  .  @     +  @  +     +  .     .        .  .     @  +  +  .  .  .     .     +     @  +  .  .     +  +     @  .  @     +     .  +  +  +  +     +     @  .     +  +  +     @  +     .        .  +  @     .  @  .     @  .        .  @  .  @                 +     @  .     .        +  +  +     +     @     .  @  @  .  +        @        +  +  @        r  x. X@ n% -^ L: M: J+ &$ F. 5@ +  .  @     .  +     @  @  @  @  .  +  +  .     .  .     +        @     @  r  z> ,/ A~ N: )/ !/ O: P: p# /. &  @        @  @  +  .  .  +  G. Q: R: S: T: U: V: W: X: Y: Z: `:  < .< J  &     .     .  .  +              +  .  @           +  @        +  @  @  +  .  .     @  @           @     @  @     @  +  .  @  +        .  .   .  . o# W@ +< @< #< $< %< &< *< =< -< ;< >< ,< H. +  @  +  +  @  +  .  @     +  $; l) '< I~ )< J~ !< ~< g' O> x; %  +  +  +  .  .  .     .     +     @  +  .  .     +  +     @  .  @     @  d+ G$ #~ 0& M~ K$ Q+ {< ]< a. S. c. +  +  +     @  +     .        .  +  @     .  @  .     @  .        .  @  .  @                 +     @  .     .        +  +  +     +     @     .  @  @  .  +        @        +  +  @     .     +  .  @  .  +  .  +  +  @  +     .  @     .  +     @  @  @  @  .  +  +  .     .  .     +        @     @  +  @  @  .     +     @  +  @  @  .  @        @  @  +  .  .  .  .  .     +     .  .  .  +  .     .  .  @  @  .  @  .     .  .  +              +  .  @           +  @        +  @  @  +  ",
"   .     +  .  @  .  +  .  +  +  @  +     .  @     .  +     @  @  @  @  .  +  +  .     .  .     +        @     @  +  @  @  .     +     @  +  @  @  .  @        @  @  +  .  .  .  .  .     +     .  .  .  +  .     .  .  @  @  .  @  .     .  .  +              +  .  @           +  @        +  @  @  +  .  .     @  @           @     @  @     @  +  .  @  +        .     .  @  .  @  @  .              @  .     +  @  @  .  +  @  +  +  @  +  .  @     +  @  +     +  .     .        .  T. U+ ># `) W+ W= Y+ o' Q{  @ .+ G. .  @  +  .  .     +  +     @  .  @     +     .  +  +  +  +     +     @     x. d@ ^< /< (< O' _< v' w' @, r     +  @     .  @  .  @  +  5@ :< << [< }< |< 1< 2< 3< 4< 5< 6< 7< 8< 9< T.    .        +  +  +     +     @     .  @  @  .  +        @        +  +  @     .     +  .  @  .  +  .  +  +  @  +     .  @     .  +     @  @  .  +  4+ o# -@ 0< a< b< c< d< e< f< g< h< i< j< k< @_ @  +     +     @  +  @  +   . J; U{ y' :/ A' l< m< n< o< a# :) .  +     .  .  .  +  .     .  .  @  @  .  @  .     .  .  +              ++ @+ t$ @@ +* W$ %@ H% X] I% n# ^. .  .  .  .     @  @           @     @  @     @  +  .  @  +        .     .  @  .  @  @  .              @  .     +  @  @  .  +  @  +  +  @  +  .  @     +  @  +     +  .     .        .  .     @  +  +  .  .  .     .     +     @  +  .  .     +  +     @  .  @     +     .  +  +  +  +     +     @  .     +  +  +     @  +     .        .  +  @     .  @  .     @  .        .  @  .  @                 +     @  .     .        +  +  +     +     @     .  @  @  .  +        @        +  +  @  ",
".     @  .        .  @  .  @                 +     @  .     .        +  +  +     +     @     .  @  @  .  +        @        +  +  @     .     +  .  @  .  +  .  +  +  @  +     .  @     .  +     @  @  @  @  .  +  +  .     .  .     +        @     @  +  @  @  .     +     @  +  @  @  .  @        @  @  +  .  .  .  .  .     +     .  .  .  +  .     .  .  @  @  .  @  .     .  .  +              +  .  @           +  @        +  @  @  +  .  .     @  @           @     @  @     @     r  +. >+ n& p< q< L% H* L' F$ G. +  .              @  .     +  @  @  .  +  @  +  +  @  +  .  @     +  @     .. m% V^ Y; ~, O' P' Q' R' S' U+    +  .  .  .     .     +  G. r< s< t< u< v< w< x< y< z< A< B< C< D< 9< &        +  +     +     @  .     +  +  +     @  +     .        .  +  @     .  @  .     @  .        .  @  .  @                 +     @  .     .        +  .  4+ b. -@ O_ E< F< G< H< I< J< K< L< M< F: N< @_ H. +  @     .     +  .  @  $; 4/ q; T' U' O< P< }, |, Q< 8- c. +     @  @  @  @  .  +  +  .     .  .     +        @     @  +  @  @     @# (+ ~@ Z' ]@ ^@ /@ R< {( a# <@ c. .  +  .  .  .  .  .     +     .  .  .  +  .     .  .  @  @  .  @  .     .  .  +              +  .  @           +  @        +  @  @  +  .  .     @  @           @     @  @     @  +  .  @  +        .     .  @  .  @  @  .              @  .     +  @  @  .  +  @  +  +  @  +  .  @     +  @  +     +  .     .        .  .     @  +  +  .  .  .     .     +     @  +  .  .     +  +     @  .  @     +     .  +  +  +  +     +     @  .     +  +  +     @  +     .        .  +  @     .  @  ",
"+  +     +     @  .     +  +  +     @  +     .        .  +  @     .  @  .     @  .        .  @  .  @                 +     @  .     .        +  +  +     +     @     .  @  @  .  +        @        +  +  @     .     +  .  @  .  +  .  +  +  @  +     .  @     .  +     @  @  @  @  .  +  +  .     .  .     +        @     @  +  @  @  .     +     @  +  @  @  .  @        @  @  +  .  .  .  .  .     +     .  .  .  +  .     .  .  @  @  .  @  .     .  .  +              +  .  @     T. U+ U. b# |@ S< 2@ T< 4@  @ .@ ^+ @  @  @           @     @  @     @  +  .  @  +        .     .  @  .  @  I  +. e- U< a/ '{ a, b/ u_ d, L* I     +  @  +  +  @  +  +  )_ V< W< X< Y< Z< `<  [ .[ +[ @[ #[ $[ %[ s  T.    +  .  .  .     .     +     @  +  .  .     +  +     @  .  @     +     .  +  +  +  +     +     @  .     +  +  +     @  +     .        .  +  @     .  @  .  .   . S. b@ &[ *[ =[ -[ ;[ >[ ,[ '[ )[ ![ ~[ {[ /_ @     .        +  +  +  .  -) ][ >) ^{ /{ ]^ ^[ _{ j, k, H  .        +  +  @     .     +  .  @  .  +  .  +  +  @  +     .  @        ++ A@ W# ]) 7@ `% /[ ([ +& ;+ n# `  c.    +        @     @  +  @  @  .     +     @  +  @  @  .  @        @  @  +  .  .  .  .  .     +     .  .  .  +  .     .  .  @  @  .  @  .     .  .  +              +  .  @           +  @        +  @  @  +  .  .     @  @           @     @  @     @  +  .  @  +        .     .  @  .  @  @  .              @  .     +  @  @  .  +  @  +  +  @  +  .  @     +  @  +     +  .     .        .  .     @  +  +  .  .  .     .     +     @  +  .  .     +  +     @  .  @     +     .  +  +  ",
".  +  +  .     .  .     +        @     @  +  @  @  .     +     @  +  @  @  .  @        @  @  +  .  .  .  .  .     +     .  .  .  +  .     .  .  @  @  .  @  .     .  .  +              +  .  @           +  @        +  @  @  +  .  .     @  @           @     @  @     @  +  .  @  +        .     .  @  .  @  @  .              @  .     +  @  @  .  +  @  +  +  @  +  .  @     +  @  +     +  .     .        .  .     @  +  +  .  .  .     .     +     @  +  .  .     +  +     @     .. +. w- += _[ :[ h@ && {+ .+ G. @  @  .     +  +  +     @  +     .        .  +  @     .  @  .     @  .     U+ +> 2{ <[ [[ P^ ^! }[ |[ h/ ..    @  .     .        +  c+ k. 1[ 2[ 3[ 4[ 5[ 6[ 7[ 8[ 9[ 0[ a[ b[ d  T.    @  +  @     .     +  .  @  .  +  .  +  +  @  +     .  @     .  +     @  @  @  @  .  +  +  .     .  .     +        @     @  +  @  @  .     +     @  +  @  @  .  +  c. S. O~ c[ d[ e[ f[ g[ h[ i[ j[ k[ l[ m[ n[ @_ @  .     .  .  @  @  .   . #^ z, 8{ 9{ C, |~ ): 2~ o[ F& ^.             +  @        +  @  @  +  .  .     @  @           @     @  @  @# (+ v+ :+ x( 0) p[ q[ ]= A# W@ c. .  @  @  .              @  .     +  @  @  .  +  @  +  +  @  +  .  @     +  @  +     +  .     .        .  .     @  +  +  .  .  .     .     +     @  +  .  .     +  +     @  .  @     +     .  +  +  +  +     +     @  .     +  +  +     @  +     .        .  +  @     .  @  .     @  .        .  @  .  @                 +     @  .     .        +  +  +     +     @     .  @  @  .  +        @        +  +  @     .     +  .  @  .  +  .  +  +  @  +     .  @     .  +     @  @  @  @  ",
"   .  .  +              +  .  @           +  @        +  @  @  +  .  .     @  @           @     @  @     @  +  .  @  +        .     .  @  .  @  @  .              @  .     +  @  @  .  +  @  +  +  @  +  .  @     +  @  +     +  .     .        .  .     @  +  +  .  .  .     .     +     @  +  .  .     +  +     @  .  @     +     .  +  +  +  +     +     @  .     +  +  +     @  +     .        .  +  @     .  @  .     @  .        .  @  .  @                 +     @  .        r  U+ '& b) v@ r[ s[ t[ ]& F$ 5@ S$ @  .  +        @        +  +  @     .     +  .  @  .  +  .  +  +  @  +  r  K  Z& u[ v[ p/ w[ b~ x[ X, +. &  +  +  .     .  .  @  5@ V< W< y[ z[ A[ B[ C[ D[ E[ F[ G[ H[ I[ d  T.    .  @        @  @  +  .  .  .  .  .     +     .  .  .  +  .     .  .  @  @  .  @  .     .  .  +              +  .  @           +  @        +  @  @  +  .  .     @  +     c. o# J[ K[ L[ M[ N[ O[ P[ Q[ R[ S[ T[ H_ U[ =& +  @  .  @  @  .     .  %* Y, &; Z, `, j{ s/ k{ V[ W[ ;#  . +  @  +  .  @     +  @  +     +  .     .        .  .     @  +  +  .     A@ ^& I! X[ Y[ u) G@ c= Z[ b@ b. c. +     @  .  @     +     .  +  +  +  +     +     @  .     +  +  +     @  +     .        .  +  @     .  @  .     @  .        .  @  .  @                 +     @  .     .        +  +  +     +     @     .  @  @  .  +        @        +  +  @     .     +  .  @  .  +  .  +  +  @  +     .  @     .  +     @  @  @  @  .  +  +  .     .  .     +        @     @  +  @  @  .     +     @  +  @  @  .  @        @  @  +  .  .  .  .  .     +     .  .  .  +  .     .  .  @  @  .  @  .  ",
"+  .  .     +  +     @  .  @     +     .  +  +  +  +     +     @  .     +  +  +     @  +     .        .  +  @     .  @  .     @  .        .  @  .  @                 +     @  .     .        +  +  +     +     @     .  @  @  .  +        @        +  +  @     .     +  .  @  .  +  .  +  +  @  +     .  @     .  +     @  @  @  @  .  +  +  .     .  .     +        @     @  +  @  @  .     +     @  +  @  @  .  @        @  @  +  .  .  .  .  .     +     .  .  .  +  .     .  &  .. P, :& <& [& `[ i. x) t+ .+ ^+       +  .  @           +  @        +  @  @  +  .  .     @  @           )  x= -' 6+ g^  } .} +} @} )' m! J        .  @  .  @  @  5@ #} $} %} &} *} B[ =} -} ;} >} ,} '} )} B! T.    @  .  @     +  @  +     +  .     .        .  .     @  +  +  .  .  .     .     +     @  +  .  .     +  +     @  .  @     +     .  +  +  +  +     +     @  .     +  +  +        $; 3+ D_ !} ~} {} ]} ^} /} (} _} :} <} [} ,< =& @  .  @  .  @     .   . t{ H: u{ }} v{ S] |} m^ I) T+ `  .  +     +     @     .  @  @  .  +        @        +  +  @     .     @  ++ (+ T$ 1} K) 2} Z# 3} x] C+ W@ 4} %  .  +     @  @  @  @  .  +  +  .     .  .     +        @     @  +  @  @  .     +     @  +  @  @  .  @        @  @  +  .  .  .  .  .     +     .  .  .  +  .     .  .  @  @  .  @  .     .  .  +              +  .  @           +  @        +  @  @  +  .  .     @  @           @     @  @     @  +  .  @  +        .     .  @  .  @  @  .              @  .     +  @  @  .  +  @  +  +  @  +  .  @     +  @  +     +  .     .        .  .     @  +  +  .  .  .     .     +     @  ",
"      +  @  @  +  .  .     @  @           @     @  @     @  +  .  @  +        .     .  @  .  @  @  .              @  .     +  @  @  .  +  @  +  +  @  +  .  @     +  @  +     +  .     .        .  .     @  +  +  .  .  .     .     +     @  +  .  .     +  +     @  .  @     +     .  +  +  +  +     +     @  .     +  +  +     @  +     .        .  +  @     .  @  .     @  .        .  @  .  @                 +     @  .     .        +  +  +     +     @     .  @  @  .  @  r  /. m% }' Z@ /+ 5} 8& K+ F$ 5@ +  .  @  .  +  .  +  +  @  +     .  @     .  +     @  @  @  @  .  +  +  .  .. t@ ,# e@ P) O' M/ E~ 6} {% @$ )  @  .     +     +  G.  + 7} 8} 9} 0} a} b} c} d} e} f} g} h} i} |        .  .  .  +  .     .  .  @  @  .  @  .     .  .  +              +  .  @           +  @        +  @  @  +  .  .     @  @           @     @  @     @  +  .  @  +        .     .  .  4+ j} k} l} m} n} o} p} q} r} s} t} u} v} w} H. @  +  +  @  +  .  +  4+ 0' F] ~/ x} t; s^ y} 1+ ^/ i' c. .     @  +  +  .  .  .     .     +     @  +  .  .     +  +     @  .  ++ d+ G$ M+ $# =$ -$ z} w% -# :' m$ c. .     +  +  +     @  +     .        .  +  @     .  @  .     @  .        .  @  .  @                 +     @  .     .        +  +  +     +     @     .  @  @  .  +        @        +  +  @     .     +  .  @  .  +  .  +  +  @  +     .  @     .  +     @  @  @  @  .  +  +  .     .  .     +        @     @  +  @  @  .     +     @  +  @  @  .  @        @  @  +  .  .  .  .  .     +     .  .  .  +  .     .  .  @  @  .  @  .     .  .  +              +  .  @           +  @  ",
".  .  .  .     +     .  .  .  +  .     .  .  @  @  .  @  .     .  .  +              +  .  @           +  @        +  @  @  +  .  .     @  @           @     @  @     @  +  .  @  +        .     .  @  .  @  @  .              @  .     +  @  @  .  +  @  +  +  @  +  .  @     +  @  +     +  .     .        .  .     @  +  +  .  .  .     .     +     @  +  .  .     +  +     @  .  @     +     .  +  +  +  +     +     @  .     +  +  +     @  +     .        .  +  @        )  J  K  c& '# A} !#  ! h& .* c+ +  .           +     @  .     .        +  +  +     +     @     .  @  @  .  )  +. C; M] @! B} '~ `/  ( w' 5+ r     .  @  .  +  .  G. F. C} i& D} E} F} G} H} I} J} K} L} A= e, !  @  +  .     .  .     +        @     @  +  @  @  .     +     @  +  @  @  .  @        @  @  +  .  .  .  .  .     +     .  .  .  +  .     .  .  @  @  .  @  .     .  .  +              +  .  +  %* M} N} O} P} Q} R} S} T} U} V} W} X} Y} w} H. @        @     +  +  J; P] _/ Z} `} l<  | ,! U] 8* b.    .  @  @  .              @  .     +  @  @  .  +  @  +  +  @  +  .  @  )  A@ D% ^$ (# _# :# <# *@ I% `$ `  c.    @  +  +  .  .  .     .     +     @  +  .  .     +  +     @  .  @     +     .  +  +  +  +     +     @  .     +  +  +     @  +     .        .  +  @     .  @  .     @  .        .  @  .  @                 +     @  .     .        +  +  +     +     @     .  @  @  .  +        @        +  +  @     .     +  .  @  .  +  .  +  +  @  +     .  @     .  +     @  @  @  @  .  +  +  .     .  .     +        @     @  +  @  @  .     +     @  +  @  @  .  @        @  @  +  .  ",
"+  @     .     +  .  @  .  +  .  +  +  @  +     .  @     .  +     @  @  @  @  .  +  +  .     .  .     +        @     @  +  @  @  .     +     @  +  @  @  .  @        @  @  +  .  .  .  .  .     +     .  .  .  +  .     .  .  @  @  .  @  .     .  .  +              +  .  @           +  @        +  @  @  +  .  .     @  @           @     @  @     @  +  .  @  +        .     .  @  .  @  @  .              @  .     +  @  @  .  +  @  +  +  @  +  .  @     +  @  +        r  +. 4] *( 1# `] .| 3$ {+ ]+ 5@ +  .  .     .     +     @  +  .  .     +  +     @  .  @     +     .  +     .. m% X; Y; Z; .^  > .> 6~ h/ J  )  @  +     .     +  .+ L/ +| @| #| $| %| &| *| =| -| ;| >| ,| J  )                 +     @  .     .        +  +  +     +     @     .  @  @  .  +        @        +  +  @     .     +  .  @  .  +  .  +  +  @  +     .  @     .  +     @  @  @  @  .  +  +  .      . O# '| )| !| ~| {| ]| ^| /| (| _| :| <| [| }| H. +  @  @  .  @  .   . #^ @> || 1| %> [! *> |! -> F& c. .  .  .  +  .     .  .  @  @  .  @  .     .  .  +              +  .  @  @# (+ m@ 6# r& 2| 9# R< 4! 2+ 3+ 4+ .     @  @           @     @  @     @  +  .  @  +        .     .  @  .  @  @  .              @  .     +  @  @  .  +  @  +  +  @  +  .  @     +  @  +     +  .     .        .  .     @  +  +  .  .  .     .     +     @  +  .  .     +  +     @  .  @     +     .  +  +  +  +     +     @  .     +  +  +     @  +     .        .  +  @     .  @  .     @  .        .  @  .  @                 +     @  .     .        +  +  +     +     @     .  @  @  .  +        @        +  ",
".  +  +  +  +     +     @  .     +  +  +     @  +     .        .  +  @     .  @  .     @  .        .  @  .  @                 +     @  .     .        +  +  +     +     @     .  @  @  .  +        @        +  +  @     .     +  .  @  .  +  .  +  +  @  +     .  @     .  +     @  @  @  @  .  +  +  .     .  .     +        @     @  +  @  @  .     +     @  +  @  @  .  @        @  @  +  .  .  .  .  .     +     .  .  .  +  .     .  .  @  @  .  @  .     .  .  +     r  U+ U. b# U% 3| y& f# z@ := c+ +     +  @  @  +  .  .     @  @           @     @  @     @  +  .  @  +     I  a% @. 7! ,^ $) '^ )^ !^ _> d. T.    @  .     +  +  5@ 4# 4| 5| 6| 7| 8| 9| 0| a| b| E- c| '( s           .        .  .     @  +  +  .  .  .     .     +     @  +  .  .     +  +     @  .  @     +     .  +  +  +  +     +     @  .     +  +  +     @  +     .        .  +  @     .  @  .     @  .  .   . >, d| e| f| g| h| i| j| k| l| m| n| o| p| @_       +  +  +     ^+ %* ;) b! c! q| ]^ 1> :( <( T- b. .     +  +  @     .     +  .  @  .  +  .  +  +  @  +     .  @     .  @  ++ @+ e+ h# i# ^) }] .& a@ `* -@ :) %  .        @     @  +  @  @  .     +     @  +  @  @  .  @        @  @  +  .  .  .  .  .     +     .  .  .  +  .     .  .  @  @  .  @  .     .  .  +              +  .  @           +  @        +  @  @  +  .  .     @  @           @     @  @     @  +  .  @  +        .     .  @  .  @  @  .              @  .     +  @  @  .  +  @  +  +  @  +  .  @     +  @  +     +  .     .        .  .     @  +  +  .  .  .     .     +     @  +  .  .     +  +     @  .  @     +     ",
"   @        +  +  @     .     +  .  @  .  +  .  +  +  @  +     .  @     .  +     @  @  @  @  .  +  +  .     .  .     +        @     @  +  @  @  .     +     @  +  @  @  .  @        @  @  +  .  .  .  .  .     +     .  .  .  +  .     .  .  @  @  .  @  .     .  .  +              +  .  @           +  @        +  @  @  +  .  .     @  @           @     @  @     @  +  .  @  +        .     .  @  .  @  @  .              @  .     +  @  @  .  +  @  +  +  @  +  .  )  J  +. w- q# x- r| t# y- _% .+ ^+ .  .     @  +  +  .  .  .     .     +     @  +  .  .     +  +     @  .  )  U+  % A- 6] |) 7] e> s| l! h> J     .     +  +  +  ^+  + t| u| v| w| x| y| z| A| B| C| j) D| d. r           .  @  .  @                 +     @  .     .        +  +  +     +     @     .  @  @  .  +        @        +  +  @     .     +  .  @  .  +  .  +  +  @  +     .  @     .  +     @  @  @  @  .  +  :> E| F| G| H| I| J| K| L| M| N| O| P| Q| R| H.    +     @  +  +   . n! S| 9] l> 6( T| U| 8) P- a. ^. .     +     .  .  .  +  .     .  .  @  @  .  @  .     .  .  +           @# u+ J& ~= w# r! V| z# r@ A# <@ ^. .  @  +  .  .     @  @           @     @  @     @  +  .  @  +        .     .  @  .  @  @  .              @  .     +  @  @  .  +  @  +  +  @  +  .  @     +  @  +     +  .     .        .  .     @  +  +  .  .  .     .     +     @  +  .  .     +  +     @  .  @     +     .  +  +  +  +     +     @  .     +  +  +     @  +     .        .  +  @     .  @  .     @  .        .  @  .  @                 +     @  .     .        +  +  +     +     @     .  @  @  .  +     ",
"@  +  .  .     @  @           @     @  @     @  +  .  @  +        .     .  @  .  @  @  .              @  .     +  @  @  .  +  @  +  +  @  +  .  @     +  @  +     +  .     .        .  .     @  +  +  .  .  .     .     +     @  +  .  .     +  +     @  .  @     +     .  +  +  +  +     +     @  .     +  +  +     @  +     .        .  +  @     .  @  .     @  .        .  @  .  @                 +     @  .     .        +  +  +     +     @     .  @  @  .  +     r  x. (. /= B# W| D# R& S& := 5@ +  @  .  +  .  +  +  @  +     .  @     .  +     @  @  @  @  .  +  +  .     r  U. X| h) Z- `- V( A! 9( X( +. )  .     +     @  ^+ ]+ g) Y| Z| `|  1 .1 8% +1 @1 #1 [& %/ m! J        .  .  .  +  .     .  .  @  @  .  @  .     .  .  +              +  .  @           +  @        +  @  @  +  .  .     @  @           @     @  @     @  +  .  @  +        .     .  @  .  @  @  .           .  J; x' $1 %1 &1 l< *1 =1 -1 ;1 >1 ,1 '1 )1 /_ @  +  @  +     +  .  4+ k] I> 0^ E! K> b( p) ,; '; <@ c. .     .     +     @  +  .  .     +  +     @  .  @     +     .  +  @  @  /+ ^& H# I# !; K# L# H@ I@ m+ b. %  +     .        .  +  @     .  @  .     @  .        .  @  .  @                 +     @  .     .        +  +  +     +     @     .  @  @  .  +        @        +  +  @     .     +  .  @  .  +  .  +  +  @  +     .  @     .  +     @  @  @  @  .  +  +  .     .  .     +        @     @  +  @  @  .     +     @  +  @  @  .  @        @  @  +  .  .  .  .  .     +     .  .  .  +  .     .  .  @  @  .  @  .     .  .  +              +  .  @           +  @        +  @  ",
"   @     @  @     @  +  .  @  +        .     .  @  .  @  @  .              @  .     +  @  @  .  +  @  +  +  @  +  .  @     +  @  +     +  .     .        .  .     @  +  +  .  .  .     .     +     @  +  .  .     +  +     @  .  @     +     .  +  +  +  +     +     @  .     +  +  +     @  +     .        .  +  @     .  @  .     @  .        .  @  .  @                 +     @  .     .        +  +  +     +     @     .  @  @  .  +        @        +  +  @     )  J  +. Z& v/ L! M! :; `+ ]$ .+ G. +  .  @     .  +     @  @  @  @  .  +  +  .     .  .     +        @     )  x= w- [; g^ h^ O! z) A) +, )> r     @        @  +  5@ !@ e^ !1 ~1 {1 ]1 ^1 /1 (1 _1 C] H{ 9' B!    .  @  @  .  @  .     .  .  +              +  .  @           +  @        +  @  @  +  .  .     @  @           @     @  @     @  +  .  @  +        .     .  @  .  @  @  .              @  .     +  @  @  .  +  @  $; 4/ @> || &^ :1 <1 [1 }1 |1 11 21 31 41 p| =&    .  .     @  +   . t{ B) j^ W{ S! a; b; F/ d; a# b. .     +  +     @  .  @     +     .  +  +  +  +     +     @  .     @  +  ++ @+ T$ f; X# V! u= `# i( .$ W@ ^.  .    .     @  .        .  @  .  @                 +     @  .     .        +  +  +     +     @     .  @  @  .  +        @        +  +  @     .     +  .  @  .  +  .  +  +  @  +     .  @     .  +     @  @  @  @  .  +  +  .     .  .     +        @     @  +  @  @  .     +     @  +  @  @  .  @        @  @  +  .  .  .  .  .     +     .  .  .  +  .     .  .  @  @  .  @  .     .  .  +              +  .  @           +  @        +  @  @  +  .  .     @  @        ",
".     .  .     +        @     @  +  @  @  .     +     @  +  @  @  .  @        @  @  +  .  .  .  .  .     +     .  .  .  +  .     .  .  @  @  .  @  .     .  .  +              +  .  @           +  @        +  @  @  +  .  .     @  @           @     @  @     @  +  .  @  +        .     .  @  .  @  @  .              @  .     +  @  @  .  +  @  +  +  @  +  .  @     +  @  +     +  .     .        .  .     @  +  +  .  .  .     .     +     @  +  .  .     .  @  r  x. +> ** 2% ^. %$ Z! K+ ]+ 5@ ^+    +     @  .     +  +  +     @  +     .        .  +  @     .  @  .     .. E+ `) += k; A] m;  ~ Z= .~ s  )     +     @  +  ^+  @ 51 61 71 81 91 01 a1 b1 c1 d1 e1 3' X~ !  @        @        +  +  @     .     +  .  @  .  +  .  +  +  @  +     .  @     .  +     @  @  @  @  .  +  +  .     .  .     +        @     @  +  @  @  .     +     @  +  @  @  .  @        @  @  +  .  .  .  .  .  .  :> ;) f1 g1 h1 i1 j1 k1 l1 m1 n1 o1 p1 q1 w} =& +  .  +            . p; U) r1 s; t; l( +~ 9$ @~ s1 c.    @  +  .  .     @  @           @     @  @     @  +  .  @  +        @  @# (+ M+ $# =$ t1 &~ >$ ,$ :@ ;# c. .     +  @  @  .  +  @  +  +  @  +  .  @     +  @  +     +  .     .        .  .     @  +  +  .  .  .     .     +     @  +  .  .     +  +     @  .  @     +     .  +  +  +  +     +     @  .     +  +  +     @  +     .        .  +  @     .  @  .     @  .        .  @  .  @                 +     @  .     .        +  +  +     +     @     .  @  @  .  +        @        +  +  @     .     +  .  @  .  +  .  +  +  @  +     .  @     .  +     @  @  @  @  .  +  +  ",
".  .  .     +     .  .  .  +  .     .  .  @  @  .  @  .     .  .  +              +  .  @           +  @        +  @  @  +  .  .     @  @           @     @  @     @  +  .  @  +        .     .  @  .  @  @  .              @  .     +  @  @  .  +  @  +  +  @  +  .  @     +  @  +     +  .     .        .  .     @  +  +  .  .  .     .     +     @  +  .  .     +  +     @  .  @     +     .  +  +  +  +     +     @  .     +  +  +     @  +     .              )  U+ K  V. =% !$ u1 v1 `.  @ .@ +  .  @                 +     @  .     .        +  +  +     +     @     .  )  a% w1 /= D; ,~ F; `/ )~ I; d. r     .     +  .  +  q] x1 y1 z1 A1 B1 C1 D1 E1 F1 G1 H1 I1 .= x.       @  .  +  +  .     .  .     +        @     @  +  @  @  .     +     @  +  @  @  .  @        @  @  +  .  .  .  .  .     +     .  .  .  +  .     .  .  @  @  .  @  .     .  .  +              +  .  @           +  +   . >, $^ J1 K1 L1 M1 N1 O1 P1 Q1 R1 S1 T1 U1 V1 @  @     @  +  .  .  J; K; L; !~ W1 B'  | X1 G^ 0$ b. .           @  .     +  @  @  .  +  @  +  +  @  +  .  @     +  @  +     @  @+ #+ ^* ]~ Y1 Z1 <# !% `* n# k& c. .  .     .     +     @  +  .  .     +  +     @  .  @     +     .  +  +  +  +     +     @  .     +  +  +     @  +     .        .  +  @     .  @  .     @  .        .  @  .  @                 +     @  .     .        +  +  +     +     @     .  @  @  .  +        @        +  +  @     .     +  .  @  .  +  .  +  +  @  +     .  @     .  +     @  @  @  @  .  +  +  .     .  .     +        @     @  +  @  @  .     +     @  +  @  @  .  @        @  @  +  .  .  ",
".              @  .     +  @  @  .  +  @  +  +  @  +  .  @     +  @  +     +  .     .        .  .     @  +  +  .  .  .     .     +     @  +  .  .     +  +     @  .  @     +     .  +  +  +  +     +     @  .     +  +  +     @  +     .        .  +  @     .  @  .     @  .        .  @  .  @                 +     @  .     .        +  +  +     +     @     .  @  @  .  +        @        +  +  @     .     +  .  @  .  +  .  +  +  @  +     .  @     .  @     .. [* [$ o( 8/ W; /% ~+ {+ ]+ `1    +        @     @  +  @  @  .     +     @  +  @  @  .  @        @  @  @  J  +>  2 s, t, :~  > .2 c$ h/ J     .     .  .  +  G. +2 @2 #2 $2 %2 &2 *2 =2 -2 ;2 >2 ,2 '2 '& r        +  @        +  @  @  +  .  .     @  @           @     @  @     @  +  .  @  +        .     .  @  .  @  @  .              @  .     +  @  @  .  +  @  +  +  @  +  .  @     +  @  +     +  .     .        .  .     @  .  :> )2 !2 ~2 {2 ]2 ^2 ># /2 (2 _2 :2 <2 [2 }2 H. @  @  .  @     +   . _! @> #> 1| %> |2 E, 12 -> F& }  +  +  +     @  +     .        .  +  @     .  @  .     @  .        .  @  @# G$ m@ 4* 5$ H, 22 J, 9$ a# <@ }  .        +  +  +     +     @     .  @  @  .  +        @        +  +  @     .     +  .  @  .  +  .  +  +  @  +     .  @     .  +     @  @  @  @  .  +  +  .     .  .     +        @     @  +  @  @  .     +     @  +  @  @  .  @        @  @  +  .  .  .  .  .     +     .  .  .  +  .     .  .  @  @  .  @  .     .  .  +              +  .  @           +  @        +  @  @  +  .  .     @  @           @     @  @     @  +  .  @  +        .     .  @  .  @  @  ",
".  .  .  +  .     .  .  @  @  .  @  .     .  .  +              +  .  @           +  @        +  @  @  +  .  .     @  @           @     @  @     @  +  .  @  +        .     .  @  .  @  @  .              @  .     +  @  @  .  +  @  +  +  @  +  .  @     +  @  +     +  .     .        .  .     @  +  +  .  .  .     .     +     @  +  .  .     +  +     @  .  @     +     .  +  +  +  +     +     @  .     +  +  +     @  +     .        .  +  @     .  @     r  x. )> 6+ w& c$ !> z& a+ b+ 5@ +        +     @  .     .        +  +  +     +     @     .  @  @  .  +     r  K  7~ o/ 9~ p/ (: 32 42 _> P# T. @  .  +  .  +  +  ]+ 52 62 72 82 92 02 a2 b2 c2 d2 e2 f2 g2 x.    .     .  .     +        @     @  +  @  @  .     +     @  +  @  @  .  @        @  @  +  .  .  .  .  .     +     .  .  .  +  .     .  .  @  @  .  @  .     .  .  +              +  .  @           +  @        +  @  @  +  .   . 4/ h2 i2 j2 k2 l2 m2 n2 o2 p2 q2 r2 s2 t2 u2 @        .     .  +  %* Y, ((  / `, v2 w2 f~ @' l% ;# .  @  @  .  +  @  +  +  @  +  .  @     +  @  +     +  .     .        .     A@ G# h# 0= x2 y2 j$ k+ h~ F& O# c. @  +  .  .     +  +     @  .  @     +     .  +  +  +  +     +     @  .     +  +  +     @  +     .        .  +  @     .  @  .     @  .        .  @  .  @                 +     @  .     .        +  +  +     +     @     .  @  @  .  +        @        +  +  @     .     +  .  @  .  +  .  +  +  @  +     .  @     .  +     @  @  @  @  .  +  +  .     .  .     +        @     @  +  @  @  .     +     @  +  @  @  .  @        @  @  +  .  .  .  .  .     +     ",
"+  +  @  +     .  @     .  +     @  @  @  @  .  +  +  .     .  .     +        @     @  +  @  @  .     +     @  +  @  @  .  @        @  @  +  .  .  .  .  .     +     .  .  .  +  .     .  .  @  @  .  @  .     .  .  +              +  .  @           +  @        +  @  @  +  .  .     @  @           @     @  @     @  +  .  @  +        .     .  @  .  @  @  .              @  .     +  @  @  .  +  @  +  +  @  +  .  @     +  @  +     +  .     .           J  +. k* 8> p$ 9> 0> s# t+ ]+ ^+ +  .  @  +  .  .     +  +     @  .  @     +     .  +  +  +  +     +     )  U+ [$ z2 j~ l: A2 r{ s{ B2 C2 J     .  +  @     .  ^+ D2 E2 F2 G2 H2 I2 J2 K2 L2 M2 N2 .[ V. O2 .. @     @  .     .        +  +  +     +     @     .  @  @  .  +        @        +  +  @     .     +  .  @  .  +  .  +  +  @  +     .  @     .  +     @  @  @  @  .  +  +  .     .  .     +        @     @  +  @  @  .     +     +  P2 Q2 R2 S2 T2 U2 V2 .. W2 X2 Y2 Z2 `2  3 .3 ++ @     .  .  .  +   . t{ n~ +3 p~ v{ @3 /' i( M( y% ^. .              +  .  @           +  @        +  @  @  +  .  .     @  @  @# l@ _+ #3 $3 %3 &3 A+ w> l% W@ }  .        .     .  @  .  @  @  .              @  .     +  @  @  .  +  @  +  +  @  +  .  @     +  @  +     +  .     .        .  .     @  +  +  .  .  .     .     +     @  +  .  .     +  +     @  .  @     +     .  +  +  +  +     +     @  .     +  +  +     @  +     .        .  +  @     .  @  .     @  .        .  @  .  @                 +     @  .     .        +  +  +     +     @     .  @  @  .  +        @        +  +  @     .     +  .  @  .  +  .  ",
"+  +  +  +     +     @  .     +  +  +     @  +     .        .  +  @     .  @  .     @  .        .  @  .  @                 +     @  .     .        +  +  +     +     @     .  @  @  .  +        @        +  +  @     .     +  .  @  .  +  .  +  +  @  +     .  @     .  +     @  @  @  @  .  +  +  .     .  .     +        @     @  +  @  @  .     +     @  +  @  @  .  @        @  @  +  .  .  .  .  .     +     .  .  .  +  .     .  .  @  @  .  @  .  )  T. s  '& *3 :. =3 C$ D$ E$ F. 5@ +     +  @        +  @  @  +  .  .     @  @           @     @  @     @  +  r  z> ,/ -3 4' ;3 >3 E~ ,3 I{ /. )  .              +  q] '3 )3 !3 ~3 {3 ]3 y[ ^3 /3 (3 _3 :3 J@ K     @  +     +  .     .        .  .     @  +  +  .  .  .     .     +     @  +  .  .     +  +     @  .  @     +     .  +  +  +  +     +     @  .     +  +  +     @  +     .        .  +  @     .  @  .     @  .        .  @  .  @  .  $; k] <3 [3 }3 |3 13 y' 23 33 43 53 63 73 t2 u2 +     @     .  @  @  4+ l) '< L[ J{ 83 ;; ~< 93 K{ i' c.    +  .  @  .  +  .  +  +  @  +     .  @     .  +     @  @  @  @  .  @  /+ G$ M+ 03 a3 k' L$ u* 0. b@ b.  . .  @  @  .     +     @  +  @  @  .  @        @  @  +  .  .  .  .  .     +     .  .  .  +  .     .  .  @  @  .  @  .     .  .  +              +  .  @           +  @        +  @  @  +  .  .     @  @           @     @  @     @  +  .  @  +        .     .  @  .  @  @  .              @  .     +  @  @  .  +  @  +  +  @  +  .  @     +  @  +     +  .     .        .  .     @  +  +  .  .  .     .     +     @  +  .  .     +  +     @  .  @     +     .  ",
"+     @  +     .        .  +  @     .  @  .     @  .        .  @  .  @                 +     @  .     .        +  +  +     +     @     .  @  @  .  +        @        +  +  @     .     +  .  @  .  +  .  +  +  @  +     .  @     .  +     @  @  @  @  .  +  +  .     .  .     +        @     @  +  @  @  .     +     @  +  @  @  .  @        @  @  +  .  .  .  .  .     +     .  .  .  +  .     .  .  @  @  .  @  .     .  .  +              +  .  @     T. J  P, d= c% n& b3 l* >_ ]# .@ ^+ @  @  @           @     @  @     @  +  .  @  +        .     .  @  .  @  )  /. X> (/ s' ,_ O' S{ c3 W~ X~ r     +  @  +  +  +  ^+ d3 e3 f3 g3 h3 i3 t# j3 k3 l3 m3 n3 o3 n( U+    @  +  +  .  .  .     .     +     @  +  .  .     +  +     @  .  @     +     .  +  +  +  +     +     @  .     +  +  +     @  +     .        .  +  @     .  @  .     @  .        .  @  .  @                 +     @  .     .        ^+ p3 q3 r3 s3 t3 u3 v3 4$ w3 x3 y3 z3 A3 B3 C3 ++    +  +  @     .  .  #, Q! _/ W{ D3 O; X{ [/ E3 a# ^. .  @     .  +     @  @  @  @  .  +  +  .     .  .     +        @     @  ++ @+ T$ @@ +* F% 61 }/ u. Z$ +$ k& .  .     @  @  +  .  .  .  .  .     +     .  .  .  +  .     .  .  @  @  .  @  .     .  .  +              +  .  @           +  @        +  @  @  +  .  .     @  @           @     @  @     @  +  .  @  +        .     .  @  .  @  @  .              @  .     +  @  @  .  +  @  +  +  @  +  .  @     +  @  +     +  .     .        .  .     @  +  +  .  .  .     .     +     @  +  .  .     +  +     @  .  @     +     .  +  +  +  +     +     @  .     +  +  ",
"      @     @  +  @  @  .     +     @  +  @  @  .  @        @  @  +  .  .  .  .  .     +     .  .  .  +  .     .  .  @  @  .  @  .     .  .  +              +  .  @           +  @        +  @  @  +  .  .     @  @           @     @  @     @  +  .  @  +        .     .  @  .  @  @  .              @  .     +  @  @  .  +  @  +  +  @  +  .  @     +  @  +     +  .     .        .  .     @  +  +  .  .  .     .     +     @  +  .  .     +  +        r  x.  % X! B# #^ t# )@ K+ b+ ^+ +     @  .     +  +  +     @  +     .        .  +  @     .  @  .     @     l& X@ V^ !, ~, A] P' &{ R' o; s        @  .     .  .  .@ F3 G3 H3 I3 J3 K3 L3 M3 N3 O3 P3 Q3 R3 S3 r  @        +  +  @     .     +  .  @  .  +  .  +  +  @  +     .  @     .  +     @  @  @  @  .  +  +  .     .  .     +        @     @  +  @  @  .     +     @  +  @  @  .  @        @  @  +  .  .  .  .  .     +     .  .  .  +  .     .  J; T3 U3 V3 W3 X3 Y3 Z3 `3  4 .4 +4 @4 #4 $4 /+ @           +  +  .   . 4/ :! %4 U' q_ &4 W' K, 1, x; %     @     @  @     @  +  .  @  +        .     .  @  .  @  @  .           @# G$ ## #% *4 =4 &% >$ ~* e; 3+ 4+ .  +  .  @     +  @  +     +  .     .        .  .     @  +  +  .  .  .     .     +     @  +  .  .     +  +     @  .  @     +     .  +  +  +  +     +     @  .     +  +  +     @  +     .        .  +  @     .  @  .     @  .        .  @  .  @                 +     @  .     .        +  +  +     +     @     .  @  @  .  +        @        +  +  @     .     +  .  @  .  +  .  +  +  @  +     .  @     .  +     @  @  @  @  .  +  +  .     .  .     +  ",
"+  .     .  .  @  @  .  @  .     .  .  +              +  .  @           +  @        +  @  @  +  .  .     @  @           @     @  @     @  +  .  @  +        .     .  @  .  @  @  .              @  .     +  @  @  .  +  @  +  +  @  +  .  @     +  @  +     +  .     .        .  .     @  +  +  .  .  .     .     +     @  +  .  .     +  +     @  .  @     +     .  +  +  +  +     +     @  .     +  +  +     @  +     .        .  +  @     .  @     )  U+ K  '$ =% -% M* z& 4@ b+ 5@ +        +     @  .     .        +  +  +     +     @     .  @  @  .  +     r  a% e- U< 9, -4 ){ b/ c, ;4 d. T. @  .  +  .  +  +  +  >4 ,4 '4 )4 !4 ~4 {4 ]4 ^4 /4 (4 _4 :4 <4 [4       .  .     +        @     @  +  @  @  .     +     @  +  @  @  .  @        @  @  +  .  .  .  .  .     +     .  .  .  +  .     .  .  @  @  .  @  .     .  .  +              +  .  @           +  @        +  @  @  +  .  .     @  @      . }4 |4 14 24 34 44 e: 54 64 74 84 94 04 a4 u+ @  @  .  @  @  .     .  %* ][ /] ^{ h, |> ^[ b4 j, O_ b. .  +  @  +  .  @     +  @  +     +  .     .        .  .     @  +  +  .  )  A@ #+ Y% ,% Q_ c4 =+ V; ;+ $' b.  . +     @  .  @     +     .  +  +  +  +     +     @  .     +  +  +     @  +     .        .  +  @     .  @  .     @  .        .  @  .  @                 +     @  .     .        +  +  +     +     @     .  @  @  .  +        @        +  +  @     .     +  .  @  .  +  .  +  +  @  +     .  @     .  +     @  @  @  @  .  +  +  .     .  .     +        @     @  +  @  @  .     +     @  +  @  @  .  @        @  @  +  .  .  .  .  .     +     .  .  .  ",
"   @  .        .  @  .  @                 +     @  .     .        +  +  +     +     @     .  @  @  .  +        @        +  +  @     .     +  .  @  .  +  .  +  +  @  +     .  @     .  +     @  @  @  @  .  +  +  .     .  .     +        @     @  +  @  @  .     +     @  +  @  @  .  @        @  @  +  .  .  .  .  .     +     .  .  .  +  .     .  .  @  @  .  @  .     .  .  +              +  .  @           +  @        +  @  @  +  .  .     )  l& +. p# d4 ^% __ 2* i@ t+ e4 5@ +  @  +        .     .  @  .  @  @  .              @  .     +  @  @  .  @  0% &* O^ 3{ 4{ P^ T_ f4 3) g4 J     .  .     .        h4 i4 j4 k4 l4 m4 n4 E{ o4 p4 q4 r4 s4 t4 u4 v4 .  .     +  +     @  .  @     +     .  +  +  +  +     +     @  .     +  +  +     @  +     .        .  +  @     .  @  .     @  .        .  @  .  @                 +     @  .     .        +  +  +     +     @     .  @  @  .  +        @   . Z3 w4 x4 y4 z4 A4 B4 C4 D4 E4 F4 G4 H4 I4 ^# /+ +     .  @     .  +   . >, 7{ 8{ B, 0{ a{ J4 F, o[ F& D*    +        @     @  +  @  @  .     +     @  +  @  @  .  @        @  @  =& l@ _+ K4 {= L4 [% R- |% A# ]. ^. .  .     .  .  @  @  .  @  .     .  .  +              +  .  @           +  @        +  @  @  +  .  .     @  @           @     @  @     @  +  .  @  +        .     .  @  .  @  @  .              @  .     +  @  @  .  +  @  +  +  @  +  .  @     +  @  +     +  .     .        .  .     @  +  +  .  .  .     .     +     @  +  .  .     +  +     @  .  @     +     .  +  +  +  +     +     @  .     +  +  +     @  +     .        .  +  @     .  @  .  ",
"+     @  +  .  .     +  +     @  .  @     +     .  +  +  +  +     +     @  .     +  +  +     @  +     .        .  +  @     .  @  .     @  .        .  @  .  @                 +     @  .     .        +  +  +     +     @     .  @  @  .  +        @        +  +  @     .     +  .  @  .  +  .  +  +  @  +     .  @     .  +     @  @  @  @  .  +  +  .     .  .     +        @     @  +  @  @  .     +     @  +  @  @  .  @        @  @  +  .     T. U+ t@ 1% )& d{ 4% O, z@ b+ .@ +  .  .  @  @  .  @  .     .  .  +              +  .  @           +  @     r  L* ^; M4 S, p/ N4 q/ x[ X, P# T.    @     @  @     +  O4 P4 Q4 R4 S4 T4 U4 x) V4 W4 X4 Y4 Z4 `4  5 ..       @  .     +  @  @  .  +  @  +  +  @  +  .  @     +  @  +     +  .     .        .  .     @  +  +  .  .  .     .     +     @  +  .  .     +  +     @  .  @     +     .  +  +  +  +     +     @  .     +  +  +     @  +     .        .  +  .5 +5 @5 #5 $5 %5 &5 *5 =5 -5 ;5 >5 ,5 '5 K. A@          +     @  .  .  :> Y, &; )5 !5 g: w2 ~5 @' 4> ;# c. @  @  .  +        @        +  +  @     .     +  .  @  .  +  .  +  +  ++ /+ e+ f+ m, f* {5 ]5 e( I@ m+ S.  . .  +  +  .     .  .     +        @     @  +  @  @  .     +     @  +  @  @  .  @        @  @  +  .  .  .  .  .     +     .  .  .  +  .     .  .  @  @  .  @  .     .  .  +              +  .  @           +  @        +  @  @  +  .  .     @  @           @     @  @     @  +  .  @  +        .     .  @  .  @  @  .              @  .     +  @  @  .  +  @  +  +  @  +  .  @     +  @  +     +  .     .        .  .     @  +  +  .  .  .     .     ",
"   @  @           @     @  @     @  +  .  @  +        .     .  @  .  @  @  .              @  .     +  @  @  .  +  @  +  +  @  +  .  @     +  @  +     +  .     .        .  .     @  +  +  .  .  .     .     +     @  +  .  .     +  +     @  .  @     +     .  +  +  +  +     +     @  .     +  +  +     @  +     .        .  +  @     .  @  .     @  .        .  @  .  @                 +     @  .     .        +  +  +     +     @     .  @  )  J  +. J@ c% d% e= f= f% 1{ .+ ^+ +     +  .  @  .  +  .  +  +  @  +     .  @     .  +     @  @  @  @  .  @  U+ S' v& j~ |; k~ l~ d% %/ 4& J  @  +  @  @  .     +   . d3 ^5 /5 (5 _5 :5 <5 [5 }5 |5 15 25 35 45 55 r     +     .  .  .  +  .     .  .  @  @  .  @  .     .  .  +              +  .  @           +  @        +  @  @  +  .  .     @  @           @     @  @     @  +  .  @  +        .     .  @  .  @  @  .              @  .     +  @  @  .  +  @  65 ~- 75 85 95 05 a5 =( 54 b5 c5 d5 e5 f5 g5 J. ++ .  .     @  +  +  .   . >, h5 i5 }} j5 w{ k5 i( x{ e; ^. .  +     @  .  @     +     .  +  +  +  +     +     @  .     +  +  +  @  @# u+ l5 w+ h% S@ j% m5 x] C+ W@ ^. .     @  .        .  @  .  @                 +     @  .     .        +  +  +     +     @     .  @  @  .  +        @        +  +  @     .     +  .  @  .  +  .  +  +  @  +     .  @     .  +     @  @  @  @  .  +  +  .     .  .     +        @     @  +  @  @  .     +     @  +  @  @  .  @        @  @  +  .  .  .  .  .     +     .  .  .  +  .     .  .  @  @  .  @  .     .  .  +              +  .  @           +  @        +  @  @  +  .  .  ",
".  @  .     .  .  +              +  .  @           +  @        +  @  @  +  .  .     @  @           @     @  @     @  +  .  @  +        .     .  @  .  @  @  .              @  .     +  @  @  .  +  @  +  +  @  +  .  @     +  @  +     +  .     .        .  .     @  +  +  .  .  .     .     +     @  +  .  .     +  +     @  .  @     +     .  +  +  +  +     +     @  .     +  +  +     @  +     .        .  +  @     .  @  .     @  .        T. x. X@ n% o% p% K/  # &$ b+ 5@ +  +     .        +  +  +     +     @     .  @  @  .  +        @        @  r  X~ 3' A~ 4' C~ n5 o5 O/ Y= @$    .  @  +     .  @     h4 p5 q5 r5 s5 t5 u5 v5 w5 x5 y5 z5 A5 B5 C5 C_ )     @     @  +  @  @  .     +     @  +  @  @  .  @        @  @  +  .  .  .  .  .     +     .  .  .  +  .     .  .  @  @  .  @  .     .  .  +              +  .  @           +  @        +  @  @  +  .  .     @  @           @     @  @     @  :> D5 E5 F5 G5 H5 I5 J5 _+ K5 L5 M5 N5 O5 P5 t$ ++    @  .     +  @  @  .  :> Q/ H~ I~ Q5 R5 {/ S5 g' ^/ ;# c.    +  .     .        .  .     @  +  +  .  .  .     .     +     @  +  @  @# G$ ## 0& T5 U5 V5 K] ]< :' m$ 4+ .  .  +  +     +     @  .     +  +  +     @  +     .        .  +  @     .  @  .     @  .        .  @  .  @                 +     @  .     .        +  +  +     +     @     .  @  @  .  +        @        +  +  @     .     +  .  @  .  +  .  +  +  @  +     .  @     .  +     @  @  @  @  .  +  +  .     .  .     +        @     @  +  @  @  .     +     @  +  @  @  .  @        @  @  +  .  .  .  .  .     +     .  .  .  +  .     .  .  @  @  ",
"+  @  @  .  @        @  @  +  .  .  .  .  .     +     .  .  .  +  .     .  .  @  @  .  @  .     .  .  +              +  .  @           +  @        +  @  @  +  .  .     @  @           @     @  @     @  +  .  @  +        .     .  @  .  @  @  .              @  .     +  @  @  .  +  @  +  +  @  +  .  @     +  @  +     +  .     .        .  .     @  +  +  .  .  .     .     +     @  +  .  .     +  +     @  .  @     +     .  +     @  )  U+ z% V^ A% O{ f& P{ R$ ]# .+ +  +     .        .  +  @     .  @  .     @  .        .  @  .  @           )  +. L] r' s' t' O'  , v' T{ u& r  +     +     @     .  +  W5 X5 Y5 Z5 `5  6 .6 +6 v+ @6 #6 $6 %6 &6 *6 =6 ++ .  +  .  +  +  @  +     .  @     .  +     @  @  @  @  .  +  +  .     .  .     +        @     @  +  @  @  .     +     @  +  @  @  .  @        @  @  +  .  .  .  .  .     +     .  .  .  +  .     .  .  @  @  .  @  .     .  .  +              +# -6 ;6 >6 ,6 '6 )6 E5 =& !6 ~6 {6 ]6 ^6 /6 9& P_ @  @           @     +  +  J; P] Z~ z' A' ;! C' Y{ Z{ >- b.    .  @  @  .              @  .     +  @  @  .  +  @  +  +  @  +  .  @  ++ @+ T$ @@ (6 F% .] &@ *@ I% `$ `  c.    @  +  +  .  .  .     .     +     @  +  .  .     +  +     @  .  @     +     .  +  +  +  +     +     @  .     +  +  +     @  +     .        .  +  @     .  @  .     @  .        .  @  .  @                 +     @  .     .        +  +  +     +     @     .  @  @  .  +        @        +  +  @     .     +  .  @  .  +  .  +  +  @  +     .  @     .  +     @  @  @  @  .  +  +  .     .  .     +        @     @  +  @  @  .     +     @  ",
"@  .  @  @  .              @  .     +  @  @  .  +  @  +  +  @  +  .  @     +  @  +     +  .     .        .  .     @  +  +  .  .  .     .     +     @  +  .  .     +  +     @  .  @     +     .  +  +  +  +     +     @  .     +  +  +     @  +     .        .  +  @     .  @  .     @  .        .  @  .  @                 +     @  .     .        +  +  +     +     @     .  @  @  .  +        @        +  +  @     .     +  .  @  .  +     r  /. _6 ;@ >@ :6 J' +] L' F. ^+ +  @  @  @  .  +  +  .     .  .     +        @     @  +  @  @  .     +  )  .. X@ 8+ M' N' A] P' &{ d# S' U+    .  .  .  .     +     ^+ <6 [6 }6 |6 16 26 36 46 56 66 76 86 96 06 a6 b6             +  .  @           +  @        +  @  @  +  .  .     @  @           @     @  @     @  +  .  @  +        .     .  @  .  @  @  .              @  .     +  @  @  .  +  @  +  +  @  +  .  @     +  @  +     +  .     .        .  .     @   . c6 d6 e6 f6 g6 h6 i6 j6 k6 l6 m6 n6 o6 p6 X* (+ @  @  .  @     +     .  +  $; _! q6 ={ :, &] -{ r6 => 7- n# c.    @  +     .        .  +  @     .  @  .     @  .        .  @  .  @     @# G$ ## O% ^6 >] /@ (@ 0# a# ;# c. .  +  +     +     @     .  @  @  .  +        @        +  +  @     .     +  .  @  .  +  .  +  +  @  +     .  @     .  +     @  @  @  @  .  +  +  .     .  .     +        @     @  +  @  @  .     +     @  +  @  @  .  @        @  @  +  .  .  .  .  .     +     .  .  .  +  .     .  .  @  @  .  @  .     .  .  +              +  .  @           +  @        +  @  @  +  .  .     @  @           @     @  @     @  +  .  @  +        .     .  ",
"         +  @        +  @  @  +  .  .     @  @           @     @  @     @  +  .  @  +        .     .  @  .  @  @  .              @  .     +  @  @  .  +  @  +  +  @  +  .  @     +  @  +     +  .     .        .  .     @  +  +  .  .  .     .     +     @  +  .  .     +  +     @  .  @     +     .  +  +  +  +     +     @  .     +  +  +     @  +     .        .  +  @     .  @  .     @  .        .  @  .  @                 +        )  U+ U. s6 t6 R' e# T< O*  @ 5@ +  .  .  @  @  .  +        @        +  +  @     .     +  .  @  .  +  .  +  )  ># e- ~> ~] {] u6 b, *) ;4 U. I     @  .  +  +  .     .  v6 w6 x6 y6 z6 A6 B6 C6 6^ D6 E6 F6 G6 H6 I6 J6 K6 @  @  .  @        @  @  +  .  .  .  .  .     +     .  .  .  +  .     .  .  @  @  .  @  .     .  .  +              +  .  @           +  @        +  @  @  +  .  .     @  @           @     @  @     @  +  .  @  +        .     .  @  .  @  @  .  .  L6 M6 [% N6 O6 P6 Q6 R6 S6 T6 U6 V6 W6 X6 ^$ W# @  @     +  @  +     +  .  .  J; Y6 f, ^{ /{ _] 1> ~) /^ 4> ;# .     .     +     @  +  .  .     +  +     @  .  @     +     .  +  @  +  @  @+ #+ 6@ Z6 `6  7 7> .7 _) -@ `   .    .        .  +  @     .  @  .     @  .        .  @  .  @                 +     @  .     .        +  +  +     +     @     .  @  @  .  +        @        +  +  @     .     +  .  @  .  +  .  +  +  @  +     .  @     .  +     @  @  @  @  .  +  +  .     .  .     +        @     @  +  @  @  .     +     @  +  @  @  .  @        @  @  +  .  .  .  .  .     +     .  .  .  +  .     .  .  @  @  .  @  .     .  .  +              +  .  @  ",
"+        .     .  @  .  @  @  .              @  .     +  @  @  .  +  @  +  +  @  +  .  @     +  @  +     +  .     .        .  .     @  +  +  .  .  .     .     +     @  +  .  .     +  +     @  .  @     +     .  +  +  +  +     +     @  .     +  +  +     @  +     .        .  +  @     .  @  .     @  .        .  @  .  @                 +     @  .     .        +  +  +     +     @     .  @  @  .  +        @        +  +  @        .. +. {% += x- s# 2] +7 _% .+ 5@ +  .  @     .  +     @  @  @  @  .  +  +  .     .  .     +        @     ++ U+ m& A- @7 |( C- 8] f> #7 g4 J     @        @  @  +  .  .  $7 %7 &7 *7 =7 -7 ;7 >7 ]# ,7 '7 F6 )7 !7 ~7 {7 ]7 @  .     .  .  +              +  .  @           +  @        +  @  @  +  .  .     @  @           @     @  @     @  +  .  @  +        .     .  @  .  @  @  .              @  .     +  @  @  .  +  @  +  +  @  +  .  @     +  @  +     +  .     .  .  *5 ^7 /7 (7 _7 :7 '> <7 [7 }7 |7 17 27 37 47 57 ++ .  .     +  +     @  .  @   . #^ j> ,: 0] m> M- U| 8) 9) 4~ c. .     +  +  +     @  +     .        .  +  @     .  @  .     @  .        ++ (+ _+ ;& w# >& 67 l/ |% s@ <@ 4+ .     .        +  +  +     +     @     .  @  @  .  +        @        +  +  @     .     +  .  @  .  +  .  +  +  @  +     .  @     .  +     @  @  @  @  .  +  +  .     .  .     +        @     @  +  @  @  .     +     @  +  @  @  .  @        @  @  +  .  .  .  .  .     +     .  .  .  +  .     .  .  @  @  .  @  .     .  .  +              +  .  @           +  @        +  @  @  +  .  .     @  @           @     @  @     @  +  .  @  ",
"@  .     +  +  +     @  +     .        .  +  @     .  @  .     @  .        .  @  .  @                 +     @  .     .        +  +  +     +     @     .  @  @  .  +        @        +  +  @     .     +  .  @  .  +  .  +  +  @  +     .  @     .  +     @  @  @  @  .  +  +  .     .  .     +        @     @  +  @  @  .     +     @  +  @  @  .  @        @  @  +  .  .  .  .  .     +     .  .  .  +  .     .  .  @  @  .  @  .     T. s  z> /= B# 77 87 97 S& F. 5@ +     +  @        +  @  @  +  .  .     @  @           @     @  @     @  +  r  0* ^; 07 g] 8^  ; a7 j) k) +. )                 @  .     +  W5 b7 c7 d7 e7 f7 g7 h7 i7 j7 k7 l7 )7 m7 n7 o7 ]7       .        .  .     @  +  +  .  .  .     .     +     @  +  .  .     +  +     @  .  @     +     .  +  +  +  +     +     @  .     +  +  +     @  +     .        .  +  @     .  @  .     @  .        .  @  .  @                 +     @  .     .  P2 p7 &3 q7 r7 s7 t7 u7 ^& v7 w7 x7 y7 z7 A7 B7 d+ @        +  +  @     .     +  %* C! &; D! C7 -; b( p) n] w= <@ .     .  +     @  @  @  @  .  +  +  .     .  .     +        @     @  +  ++ A@ G$ T& ); !; p] L# _& I@ b@ `  c. .  @  @  +  .  .  .  .  .     +     .  .  .  +  .     .  .  @  @  .  @  .     .  .  +              +  .  @           +  @        +  @  @  +  .  .     @  @           @     @  @     @  +  .  @  +        .     .  @  .  @  @  .              @  .     +  @  @  .  +  @  +  +  @  +  .  @     +  @  +     +  .     .        .  .     @  +  +  .  .  .     .     +     @  +  .  .     +  +     @  .  @     +     .  +  +  +  +     +     ",
"@  @  .              @  .     +  @  @  .  +  @  +  +  @  +  .  @     +  @  +     +  .     .        .  .     @  +  +  .  .  .     .     +     @  +  .  .     +  +     @  .  @     +     .  +  +  +  +     +     @  .     +  +  +     @  +     .        .  +  @     .  @  .     @  .        .  @  .  @                 +     @  .     .        +  +  +     +     @     .  @  @  .  +        @        +  +  @     .     +  .  @  .  +  T. .. c@ D7 K@ (; E7 |& `+  @ .+ ^+ @  @  @  @  .  +  +  .     .  .     +        @     @  +  @  @  .     +  )  x. -' [; F7 h^ `- G7 3; P! (. r  .  .  .  .  .     +     .  ^+ H7 I7 J7 K7 L7 M7 N7 O7 @_ P7 Q7 R7 )7 S7 T7 {7 K6       +  .  @           +  @        +  @  @  +  .  .     @  @           @     @  @     @  +  .  @  +        .     .  @  .  @  @  .              @  .     +  @  @  .  +  @  +  +  @  +  .  @     +  @  +     +  .     .        .  .     @  +  +  .  P2 U7 V7 W7 X7 Y7 Z7 `7 /+  8 .8 +8 @8 #8 $8 l{ @+ @     +     .  +  +  +  +     ^+ Y~ Q! t] 9; %8 F) l^ &8 w] a# c  .        .  +  @     .  @  .     @  .        .  @  .  @                 ++ @+ t$ f; X# 3& i; G' x] 3^ W@ ^.  .    @     .  @  @  .  +        @        +  +  @     .     +  .  @  .  +  .  +  +  @  +     .  @     .  +     @  @  @  @  .  +  +  .     .  .     +        @     @  +  @  @  .     +     @  +  @  @  .  @        @  @  +  .  .  .  .  .     +     .  .  .  +  .     .  .  @  @  .  @  .     .  .  +              +  .  @           +  @        +  @  @  +  .  .     @  @           @     @  @     @  +  .  @  +        .     .  @  .  ",
"@  @  .  @  .     .  .  +              +  .  @           +  @        +  @  @  +  .  .     @  @           @     @  @     @  +  .  @  +        .     .  @  .  @  @  .              @  .     +  @  @  .  +  @  +  +  @  +  .  @     +  @  +     +  .     .        .  .     @  +  +  .  .  .     .     +     @  +  .  .     +  +     @  .  @     +     .  +  +  +  +     +     @  .     +  +  +     @  +     .        .  +  @     .     r  /. m% *8 N) @# `@ 8& &$ F. ^+ .           +     @  .     .        +  +  +     +     @     .  @  @  .  @  .. ', c& j; P) A] =8  ~ Z= o; @$       @  .  +  .  +  +  @  +  ^+ -8 ;8 >8 ,8 '8 )8 !8 ~8 @+ {8 Q7 ]8 ^8 /8 (8 _8 :8    +        @     @  +  @  @  .     +     @  +  @  @  .  @        @  @  +  .  .  .  .  .     +     .  .  .  +  .     .  .  @  @  .  @  .     .  .  +              +  .  @           +  @        +  @  @  +  .  .     @  @           @     @  @     <8 [8 }8 |8 18 Y7 28 38 S$ 48 58 68 78 88 s% 98 08       @  .     +  @  @  .  +  @  $; a8 q; V) s; W) l( Y) Z) w; i' c. .     .        .  .     @  +  +  .  .  .     .     +     @  +  .     @  /+ C4 ## s% %# -$ b& =# S+ T+ S. c. .  +     +     @  .     +  +  +     @  +     .        .  +  @     .  @  .     @  .        .  @  .  @                 +     @  .     .        +  +  +     +     @     .  @  @  .  +        @        +  +  @     .     +  .  @  .  +  .  +  +  @  +     .  @     .  +     @  @  @  @  .  +  +  .     .  .     +        @     @  +  @  @  .     +     @  +  @  @  .  @        @  @  +  .  .  .  .  .     +     .  .  .  +  .     .  .  ",
".  @  @  .  @  .     .  .  +              +  .  @           +  @        +  @  @  +  .  .     @  @           @     @  @     @  +  .  @  +        .     .  @  .  @  @  .              @  .     +  @  @  .  +  @  +  +  @  +  .  @     +  @  +     +  .     .        .  .     @  +  +  .  .  .     .     +     @  +  .  .     +  +     @  .  @     +     .  +  +  +  +     +     @  .     +  +  +     @  +     .        .  +  @     )  U+ d. U= d& e& !# ~# h& ]# .@ +  .              +     @  .     .        +  +  +     +     @     .  @  @  T. [* C; u@ b8 Z/ c8 `/ H; &! 5+ T.    +  .  @  .  +  .  +  +  @  +# d8 e8 f8 g8 h8 i8 j8 k8 ;> l8 k7 l7 m8 n8 n7 {7 ]7 .     +        @     @  +  @  @  .     +     @  +  @  @  .  @        @  @  +  .  .  .  .  .     +     .  .  .  +  .     .  .  @  @  .  @  .     .  .  +              +  .  @           +  @        +  @  @  +  .  .     @  @           @     @  @  <8 o8 p8 q8 r8 s8 t8 u8 .@ v8 w8 x8 @8 y8 z8 A8 B8 )        @  .     +  @  @  .  +  +  -) )2 L; C8 R] l<  | D8 E8 0$ b. .  .     .        .  .     @  +  +  .  .  .     .     +     @  +  .     ++ P_ ^# ^$ S; F8 :# <# *@ =@ -@ `  .  .  +     +     @  .     +  +  +     @  +     .        .  +  @     .  @  .     @  .        .  @  .  @                 +     @  .     .        +  +  +     +     @     .  @  @  .  +        @        +  +  @     .     +  .  @  .  +  .  +  +  @  +     .  @     .  +     @  @  @  @  .  +  +  .     .  .     +        @     @  +  @  @  .     +     @  +  @  @  .  @        @  @  +  .  .  .  .  .     +     .  .  .  +  .     .  ",
".  +              +  .  @           +  @        +  @  @  +  .  .     @  @           @     @  @     @  +  .  @  +        .     .  @  .  @  @  .              @  .     +  @  @  .  +  @  +  +  @  +  .  @     +  @  +     +  .     .        .  .     @  +  +  .  .  .     .     +     @  +  .  .     +  +     @  .  @     +     .  +  +  +  +     +     @  .     +  +  +     @  +     .        .  +  @     .  @  .     @  .     )  r  +. [$ n& G8 2# o& H8 {+ F. ^+ +  +     .        +  +  +     +     @     .  @  @  .  +        @        @  .. &* X; {! Z; `; ,( /! c$ +> 9<    +  @  +     .  @     .  +     +# I8 J8 K8 L8 M8 N8 O8 P8 Q8 R8 k7 ]8 S8 m7 T8 U8 V8 +  @  @  .     +     @  +  @  @  .  @        @  @  +  .  .  .  .  .     +     .  .  .  +  .     .  .  @  @  .  @  .     .  .  +              +  .  @           +  @        +  @  @  +  .  .     @  @           @     @  @     @  +  .  @  +        W8 X8 Y8 Z8 `8  9 .9 +9 .@ @9 #9 $9 %9 &9 *9 =9 -9 ++ .  +  @  +  +  @  +  .  @     +  ^+ #^ @> || <! ;9 [! u( => 1! $' c. .  +  +  .  .  .     .     +     @  +  .  .     +  +     @  .  @     @  @# (+ 4$ 6# r& >9 9# (@ ,9 :@ <@ c. .  +  +     @  +     .        .  +  @     .  @  .     @  .        .  @  .  @                 +     @  .     .        +  +  +     +     @     .  @  @  .  +        @        +  +  @     .     +  .  @  .  +  .  +  +  @  +     .  @     .  +     @  @  @  @  .  +  +  .     .  .     +        @     @  +  @  @  .     +     @  +  @  @  .  @        @  @  +  .  .  .  .  .     +     .  .  .  +  .     .  .  @  @  .  @  .     .  ",
"         +     @  .     .        +  +  +     +     @     .  @  @  .  +        @        +  +  @     .     +  .  @  .  +  .  +  +  @  +     .  @     .  +     @  @  @  @  .  +  +  .     .  .     +        @     @  +  @  @  .     +     @  +  @  @  .  @        @  @  +  .  .  .  .  .     +     .  .  .  +  .     .  .  @  @  .  @  .     .  .  +              +  .  @           +  @        +  @  @  +  .  .     @  @        r  U+ X~ '9 )9 !9 >^ X% a+ b+ 5@ +     .     .  @  .  @  @  .              @  .     +  @  @  .  +  @  +  +  )  P, x  ~9 #) {9 a, /> !^ _> ]9 r  .        .  .     @  +  +  .  .  65 ^9 /9 (9 _9 :9 <9 [9 }9 |9 {8 19 29 ^8 39 T8 49 59 +     .  +  +  +  +     +     @  .     +  +  +     @  +     .        .  +  @     .  @  .     @  .        .  @  .  @                 +     @  .     .        +  +  +     +     @     .  @  @  .  +        @        +  +  @     .     +  .  @  .  +  j6 69 79 89 99 09 a9 b9 q] c9 d9 e9 f9 g9 h9 i9 j9 /+ +  .     .  .     +        @     +  %* %; k9 l9 m9 |> !) ^^ f! k, b. %  @        @  @  +  .  .  .  .  .     +     .  .  .  +  .     .  .  @  ++ A@ e+ f$ n9 ^) k# () D& E& F& b.  . .  @           +  @        +  @  @  +  .  .     @  @           @     @  @     @  +  .  @  +        .     .  @  .  @  @  .              @  .     +  @  @  .  +  @  +  +  @  +  .  @     +  @  +     +  .     .        .  .     @  +  +  .  .  .     .     +     @  +  .  .     +  +     @  .  @     +     .  +  +  +  +     +     @  .     +  +  +     @  +     .        .  +  @     .  @  .     @  .        .  @  .  @        ",
"+  +  +     +     @     .  @  @  .  +        @        +  +  @     .     +  .  @  .  +  .  +  +  @  +     .  @     .  +     @  @  @  @  .  +  +  .     .  .     +        @     @  +  @  @  .     +     @  +  @  @  .  @        @  @  +  .  .  .  .  .     +     .  .  .  +  .     .  .  @  @  .  @  .     .  .  +              +  .  @           +  @        +  @  @  +  .  .     @  @           @     @  @     @  +  .        J  P, k* G& o9 I& p9 y- *& ]+ ^+ .        @  .     +  @  @  .  +  @  +  +  @  +  .  @     +  @  +     .     U+  % A- U% |) C- e> f> g> 4) |     .     .     +     @  +  .  .     q9 r9 s9 t9 u9 v9 w9 x9 y9 z9 A9 B9 C9 D9 E9 #9 F9 ;> .     +  +  +     @  +     .        .  +  @     .  @  .     @  .        .  @  .  @                 +     @  .     .        +  +  +     +     @     .  @  @  .  +        @        +  +  @     .     +  .  @  .  +  .  +  +  @  +     .  @     .  +  G9 b9 H9 I9 J9 K9 L9 M9 q] N9 O9 P9 Q9 R9 S9 T9 U9 d+ @  +  @  @  .     +     @  +  @  +   . i> 4( V9 W9 X9 T| Y9 1^ P- a. ^. .  +     .  .  .  +  .     .  .  @  @  .  @  .     .  .  +              ++ @+ _+ ;& w# L& Z9 A+ B+ C+ ]. c. .  .  .  .     @  @           @     @  @     @  +  .  @  +        .     .  @  .  @  @  .              @  .     +  @  @  .  +  @  +  +  @  +  .  @     +  @  +     +  .     .        .  .     @  +  +  .  .  .     .     +     @  +  .  .     +  +     @  .  @     +     .  +  +  +  +     +     @  .     +  +  +     @  +     .        .  +  @     .  @  .     @  .        .  @  .  @                 +     @  .     .        ",
"   +  +  +     @  +     .        .  +  @     .  @  .     @  .        .  @  .  @                 +     @  .     .        +  +  +     +     @     .  @  @  .  +        @        +  +  @     .     +  .  @  .  +  .  +  +  @  +     .  @     .  +     @  @  @  @  .  +  +  .     .  .     +        @     @  +  @  @  .     +     @  +  @  @  .  @        @  @  +  .  .  .  .  .     +     .  .  .  +  .     .  .  @  @  .  @  T. x= t@ 4^ 5^ Q& C$ y~ F# b+ 5@ +  @        +  @        +  @  @  +  .  .     @  @           @     @  @     I  K  e] `9 7^ `- z! h] F> X( +. &  @  @  .              @  .     +  @  <8  0 .0 +0 @0 #0 $0 %0 -8 &0 *0 =0 -0 @8 ;0 >0 v8 08 +        .  .     @  +  +  .  .  .     .     +     @  +  .  .     +  +     @  .  @     +     .  +  +  +  +     +     @  .     +  +  +     @  +     .        .  +  @     .  @  .     @  .        .  @  .  @                 +     @  .     .      . ,0 %0 '0 v9 )0 !0 ~0 {0 h4 ]0 ^0 /0 (0 _0 :0 <0 c9 d+ +  +  @     .     +  .  @  .  +  .  +  :> C! 9^ 0^ E! n) a^ b^ n] '; ;# .  .  @  .  +  +  .     .  .     +        @     @  +  @  @  .     +     ++ /+ e+ H# c^ d^ V& W& u* 0. O~ S. c. .  .  .     +     .  .  .  +  .     .  .  @  @  .  @  .     .  .  +              +  .  @           +  @        +  @  @  +  .  .     @  @           @     @  @     @  +  .  @  +        .     .  @  .  @  @  .              @  .     +  @  @  .  +  @  +  +  @  +  .  @     +  @  +     +  .     .        .  .     @  +  +  .  .  .     .     +     @  +  .  .     +  +     @  .  @     +     .  +  +  +  +     +     @  .  ",
".     .     +     @  +  .  .     +  +     @  .  @     +     .  +  +  +  +     +     @  .     +  +  +     @  +     .        .  +  @     .  @  .     @  .        .  @  .  @                 +     @  .     .        +  +  +     +     @     .  @  @  .  +        @        +  +  @     .     +  .  @  .  +  .  +  +  @  +     .  @     .  +     @  @  @  @  .  +  +  .     .  .     +        @     @  +  @  @  .     +     )  .. a% u/ f. q# `&  * `+ ]# .+ ^+ .  .  .  .     +     .  .  .  +  .     .  .  @  @  .  @  .     .  .  +  )  /. w- [0 g^ }0 1; G7 3; P! 5; r        +  @  @  +  .  .     @  @     .  j6 |0 79 10 20 09 30 40 50 Q8 60 70 80 90 00 a0 A8 &0 @  @  .              @  .     +  @  @  .  +  @  +  +  @  +  .  @     +  @  +     +  .     .        .  .     @  +  +  .  .  .     .     +     @  +  .  .     +  +     @  .  @     +     .  +  +  +  +     +     @  .     +  +  +     @  +     .   . b0 c0 d0 #0 e0 f0 g0 h0 +# i0 j0 k0 29 l0 m0 n0 o0 ]7             +     @  .     .        +   . #, p0 R! W{ %8 a; u] q0 w] :@ ^. .     @        +  +  @     .     +  .  @  .  +  .  +  +  @  +     .  @  ++ @+ T$ U$ +* r0 s0 $* u. |/ }# `  .  .  .     +        @     @  +  @  @  .     +     @  +  @  @  .  @        @  @  +  .  .  .  .  .     +     .  .  .  +  .     .  .  @  @  .  @  .     .  .  +              +  .  @           +  @        +  @  @  +  .  .     @  @           @     @  @     @  +  .  @  +        .     .  @  .  @  @  .              @  .     +  @  @  .  +  @  +  +  @  +  .  @     +  @  +     +  .     .        .  .     @  +  +  .  .  ",
"@  @  .     +     @  +  @  @  .  @        @  @  +  .  .  .  .  .     +     .  .  .  +  .     .  .  @  @  .  @  .     .  .  +              +  .  @           +  @        +  @  @  +  .  .     @  @           @     @  @     @  +  .  @  +        .     .  @  .  @  @  .              @  .     +  @  @  .  +  @  +  +  @  +  .  @     +  @  +     +  .     .        .  .     @  +  +  .  .  .     .     +     @  +  .     r  x= &* E* A. `  t0 r^ K+ k@ 5@ +  +  +  +     +     @  .     +  +  +     @  +     .        .  +  @        .. t@ U= e@ P) {, m; S) d- Y= x. T.             +     @  .     .        ^+ G9 u0 v0 w0 x0 y0 z0 69 A0 B0 F9 C0 D0 E0 F0 G0 H0 I0 @  @     .     +  .  @  .  +  .  +  +  @  +     .  @     .  +     @  @  @  @  .  +  +  .     .  .     +        @     @  +  @  @  .     +     @  +  @  @  .  @        @  @  +  .  .  .  .  .     +     .  .  .  +  .     .  .  @  @  .  @  .     h4 I8 J0 K0 L0 M0 N0 O0 %7 G. P0 Q0 R0 S0 ^8 m7 T7 T0 59 @  +  .  .     @  @           @     @  +  $; _! F] r; s; W) S/ +~ t^ @~ +$ %  .  @  @  .              @  .     +  @  @  .  +  @  +  +  @  +  .  @     /+ J. ## U0 V0 W0 X0 !* Q. :@ <@ ^. .  @  +  +  .  .  .     .     +     @  +  .  .     +  +     @  .  @     +     .  +  +  +  +     +     @  .     +  +  +     @  +     .        .  +  @     .  @  .     @  .        .  @  .  @                 +     @  .     .        +  +  +     +     @     .  @  @  .  +        @        +  +  @     .     +  .  @  .  +  .  +  +  @  +     .  @     .  +     @  @  @  @  .  +  +  .     .  .     +        @     @  +  ",
"+     .  .  .  +  .     .  .  @  @  .  @  .     .  .  +              +  .  @           +  @        +  @  @  +  .  .     @  @           @     @  @     @  +  .  @  +        .     .  @  .  @  @  .              @  .     +  @  @  .  +  @  +  +  @  +  .  @     +  @  +     +  .     .        .  .     @  +  +  .  .  .     .     +     @  +  .  .     +  +     @  .  @     +     .  +  +  +  +     +     @  .     @  )  .. K  V. 8/ !$ Y0 Z0 `0  @ .+ G. @  .  @  .     @  .        .  @  .  @                 +     @  .     .  T. +. .! /= D; B} '~ `/ B^ &! 5+ I  @  .  +        @        +  +  @     .  .   a u8 .a +a @a #a $a %a W5 <] &a d9 *a =a -a ;a >a ,a /+ @  @  .  +  +  .     .  .     +        @     @  +  @  @  .     +     @  +  @  @  .  @        @  @  +  .  .  .  .  .     +     .  .  .  +  .     .  .  @  @  .  @  .     .  .  +              +  .  @           +  @        +  @  @  +  .  .  'a )a !a ~a {a ]a ^a /a (a ^+ _a l8 :a ]8 <a m7 [a {7 ]7    .  @  .  @  @  .              @  .     +  J; K; C^ D^ }a |a >! 1a G^ k, b. %  +  @  +     +  .     .        .  .     @  +  +  .  .  .     .     +  ++ u+ W# 2a I^ 3a K^ :* !% `* n# ^. %  .     .  +  +  +  +     +     @  .     +  +  +     @  +     .        .  +  @     .  @  .     @  .        .  @  .  @                 +     @  .     .        +  +  +     +     @     .  @  @  .  +        @        +  +  @     .     +  .  @  .  +  .  +  +  @  +     .  @     .  +     @  @  @  @  .  +  +  .     .  .     +        @     @  +  @  @  .     +     @  +  @  @  .  @        @  @  +  .  .  .  .  .     ",
"   +  .  @           +  @        +  @  @  +  .  .     @  @           @     @  @     @  +  .  @  +        .     .  @  .  @  @  .              @  .     +  @  @  .  +  @  +  +  @  +  .  @     +  @  +     +  .     .        .  .     @  +  +  .  .  .     .     +     @  +  .  .     +  +     @  .  @     +     .  +  +  +  +     +     @  .     +  +  +     @  +     .        .  +  @     .  @  .     @  .           .. +. >+ ,+ p, 1* 2* i@ {+ ]+ G. +     .        +  +  +     +     @     .  @  @  .  +        @        @  @  0%  % O^ s, 4a :~ Q^ 5a c$ h/ J     @  +     .  @     .  +     @  @  @  @   . 6a 7a 8a 9a 0a aa ba ca P2 d+ U9 da ea fa ga ha ia ja A@    @  +  @  @  .  @        @  @  +  .  .  .  .  .     +     .  .  .  +  .     .  .  @  @  .  @  .     .  .  +              +  .  @           +  @        +  @  @  +  .  .     @  @           @     @  @     @  +  .  @  +        .     .  +  W8 ka la ma na oa pa qa ra +  sa l8 R0 ]8 )7 n8 ta T0 <] @  +  .  @     +  @  +     +  .     .        $; ua @> [~ 1| }~ |2 R^ b{ va f( c. +     @  +  .  .     +  +     @  .  @     +     .  +  +  +  +     @  ++ @# (+ 5# 4* 5$ wa }+ |+ xa >- <@ }  .  .  +  @     .  @  .     @  .        .  @  .  @                 +     @  .     .        +  +  +     +     @     .  @  @  .  +        @        +  +  @     .     +  .  @  .  +  .  +  +  @  +     .  @     .  +     @  @  @  @  .  +  +  .     .  .     +        @     @  +  @  @  .     +     @  +  @  @  .  @        @  @  +  .  .  .  .  .     +     .  .  .  +  .     .  .  @  @  .  @  .     .  .  +           ",
".     .  .  +              +  .  @           +  @        +  @  @  +  .  .     @  @           @     @  @     @  +  .  @  +        .     .  @  .  @  @  .              @  .     +  @  @  .  +  @  +  +  @  +  .  @     +  @  +     +  .     .        .  .     @  +  +  .  .  .     .     +     @  +  .  .     +  +     @  .  @     +     .  +  +  +  +     +     @  .     +  +  +     @  +     .        .  +  @     T. U+ 5+ x/ ya za 9+ O, a+ b+ 5@ +                 +     @  .     .        +  +  +     +     @     .  @  @  T. z% 7~ Aa /: p/ w[ f{ `^ D| d. T.    +  .  @  .  +  .  +  +  @  +     .  @  .  Ba Ca Da 9a 18 Ea Fa Ga <8 ++ Ha Ia Ja Ka La Ma Na Oa w( @  @  +  @  @  .     +     @  +  @  @  .  @        @  @  +  .  .  .  .  .     +     .  .  .  +  .     .  .  @  @  .  @  .     .  .  +              +  .  @           +  @        +  @  @  +  .  .     @  @           @     @  @     @  +   . 50 Pa Qa Ra Sa Ta Ua Va 50 @  Wa Xa Ya l7 Za S7 `a  b K6 +  @  @  .  +  @  +  +  @  +  .  @     +  @  +  %* <> d~  / !5 v2 w2 h: +/ 4> S. .  +  .  .  .     .     +     @  +  .  .     +  +     @  .  @     +     @  A@ e+ f+ .b f* g* j+ i* h~ m+ `   . .     @  +     .        .  +  @     .  @  .     @  .        .  @  .  @                 +     @  .     .        +  +  +     +     @     .  @  @  .  +        @        +  +  @     .     +  .  @  .  +  .  +  +  @  +     .  @     .  +     @  @  @  @  .  +  +  .     .  .     +        @     @  +  @  @  .     +     @  +  @  @  .  @        @  @  +  .  .  .  .  .     +     .  .  .  +  .     .  .  @  @  .  @  ",
"+     .  +  +  +  +     +     @  .     +  +  +     @  +     .        .  +  @     .  @  .     @  .        .  @  .  @                 +     @  .     .        +  +  +     +     @     .  @  @  .  +        @        +  +  @     .     +  .  @  .  +  .  +  +  @  +     .  @     .  +     @  @  @  @  .  +  +  .     .  .     +        @     @  +  @  @  .     +     @  +  @  @  .  @        @  @  +  .  .  .     &  J  +. @. o+ p+ +b l* m* t+ ]+ ^+ +  @  .  @  .     .  .  +              +  .  @           +  @        .  )  @b [$ ;' j~ p{ A2 r{ d% g> 4) ..    @  @     @  +  .  @  +        .     .  @   .  a #b $b %b &b *b =b -b P2 )  ;b >b ,b 'b )b !b ~b {b W# =& .  @     +  @  +     +  .     .        .  .     @  +  +  .  .  .     .     +     @  +  .  .     +  +     @  .  @     +     .  +  +  +  +     +     @  .     +  +  +     @  +     .        .  +  @     .  @  .     @  .        .  @  .  ^+ ]b x6 ^b z6 /b (b _b :b O4 )  sa }5 <b ]8 m8 n8 [b }b K6 @     .  @  @  .  +        @        +  +  @      . 6; S| |b C/ D/ v2 r~ (' J: a. 4+ .  .  @     .  +     @  @  @  @  .  +  +  .     .  .     +        @     @# v# _+ g% n* 1b 2b !. B+ w= W@ ^. %  @        @  @  +  .  .  .  .  .     +     .  .  .  +  .     .  .  @  @  .  @  .     .  .  +              +  .  @           +  @        +  @  @  +  .  .     @  @           @     @  @     @  +  .  @  +        .     .  @  .  @  @  .              @  .     +  @  @  .  +  @  +  +  @  +  .  @     +  @  +     +  .     .        .  .     @  +  +  .  .  .     .     +     @  +  .  .     +  +     @  .  @     ",
"   +        @     @  +  @  @  .     +     @  +  @  @  .  @        @  @  +  .  .  .  .  .     +     .  .  .  +  .     .  .  @  @  .  @  .     .  .  +              +  .  @           +  @        +  @  @  +  .  .     @  @           @     @  @     @  +  .  @  +        .     .  @  .  @  @  .              @  .     +  @  @  .  +  @  +  +  @  +  .  @     +  @  +     +  .     .        .  .     @  +  +     r  /. h> *8 3b H+ r* J+ &$ F$ 5@ +  +  +     @  .  @     +     .  +  +  +  +     +     @  .     +  +  +     .. 0* 3' A~ 4' 5' 6' E~ H{ G~ /. )  .     @  .        .  @  .  @                 ^+ 4b 5b t7 6b 7b 8b 9b 0b ab +  bb cb db eb V6 fb gb hb ib /+       @        +  +  @     .     +  .  @  .  +  .  +  +  @  +     .  @     .  +     @  @  @  @  .  +  +  .     .  .     +        @     @  +  @  @  .     +     @  +  @  @  .  @        @  @  +  .  .  .  .  .     +     .  .  .  +  .  h4 jb kb lb mb nb ob pb qb q]    P0 R8 Ya l7 Za S7 rb U8 K6       +  @        +  @  @  +  .  .     @  @        $; Q/ a' I~ Q5 J~ K~ L~ N> H! <@ %     .     .  @  .  @  @  .              @  .     +  @  @  .  +  @  +  @  /+ B@ ## $# sb P+ R> {< -# y% ;# c. .        .  .     @  +  +  .  .  .     .     +     @  +  .  .     +  +     @  .  @     +     .  +  +  +  +     +     @  .     +  +  +     @  +     .        .  +  @     .  @  .     @  .        .  @  .  @                 +     @  .     .        +  +  +     +     @     .  @  @  .  +        @        +  +  @     .     +  .  @  .  +  .  +  +  @  +     .  @     .  +     @  @  @  @  .  +  +  .     .  .  ",
"      .  +  @     .  @  .     @  .        .  @  .  @                 +     @  .     .        +  +  +     +     @     .  @  @  .  +        @        +  +  @     .     +  .  @  .  +  .  +  +  @  +     .  @     .  +     @  @  @  @  .  +  +  .     .  .     +        @     @  +  @  @  .     +     @  +  @  @  .  @        @  @  +  .  .  .  .  .     +     .  .  .  +  .     .  .  @  @  .  @  .     .     )  U+ U. V+ W+ m' Y+ Q$ `+  @ .@ ^+ +        +  @  @  +  .  .     @  @           @     @  @     @  +  .     )  +. X> (/ /< t' O' tb ub A> 5+ r           @  .     +  @  @  .  +  @  +  +  @  +   . vb M6 wb xb O6 yb zb Ab y, .  <] Bb Cb Db Eb Fb Gb Hb Ib u+ @     .     +     @  +  .  .     +  +     @  .  @     +     .  +  +  +  +     +     @  .     +  +  +     @  +     .        .  +  @     .  @  .     @  .        .  @  .  @                 +     @  .     .        +  +  +     +     +  O4 Jb Kb Lb L7 Mb Nb Ob Pb +# )  _a R8 Qb F6 Za !7 Rb Sb 59 .  +  .  +  +  @  +     .  @     .  +     @  @  +  +  #, U{ Z~ z' %, O; 4_ Tb E' >- c  .     @  +  @  @  .     +     @  +  @  @  .  @        @  @  +  .  .     ++ P_ #+ @@ F' W$ Ub G' *@ =@ `$ `  c. .  @  .  @  .     .  .  +              +  .  @           +  @        +  @  @  +  .  .     @  @           @     @  @     @  +  .  @  +        .     .  @  .  @  @  .              @  .     +  @  @  .  +  @  +  +  @  +  .  @     +  @  +     +  .     .        .  .     @  +  +  .  .  .     .     +     @  +  .  .     +  +     @  .  @     +     .  +  +  +  +     +     @  .     +  +  +     @  +     .  ",
"+  @  @  .  +  @  +  +  @  +  .  @     +  @  +     +  .     .        .  .     @  +  +  .  .  .     .     +     @  +  .  .     +  +     @  .  @     +     .  +  +  +  +     +     @  .     +  +  +     @  +     .        .  +  @     .  @  .     @  .        .  @  .  @                 +     @  .     .        +  +  +     +     @     .  @  @  .  +        @        +  +  @     .     +  .  @  .  +  .     r  [* >+ *( .% Vb '@ H* &$ ]+ G. +  +  @  .  +  +  .     .  .     +        @     @  +  @  @  .     +     @  r  ', ), !, Wb O' P' Xb Yb (! s  &  .  .  .     +     .  .  .  +  .     .  .  @  @  .  *5 ^7 /7 (7 Zb `b '>  c L6 .  @# .c +c @c #c $c %c &c *c e+ @  @  @  +  .  .     @  @           @     @  @     @  +  .  @  +        .     .  @  .  @  @  .              @  .     +  @  @  .  +  @  +  +  @  +  .  @     +  @  +     +  .     .        .  .     @  +  +  .  .  .     .     +  .  G. =c -c ;c >c ,c 'c )c !c ~c +  I  {c ]c ^c /c (c _c :c <c ]7    @  .     +  +  +     @  +     .        .  +  @     $; _! [c ={ U' q_ -{ }, |, 7- H- c.                +     @  .     .        +  +  +     +     @     .  @  ++ @# (+ 9& J* ]@ ^@ /@ t& 1+ a# <@ 4+ .  +  .  @  .  +  .  +  +  @  +     .  @     .  +     @  @  @  @  .  +  +  .     .  .     +        @     @  +  @  @  .     +     @  +  @  @  .  @        @  @  +  .  .  .  .  .     +     .  .  .  +  .     .  .  @  @  .  @  .     .  .  +              +  .  @           +  @        +  @  @  +  .  .     @  @           @     @  @     @  +  .  @  +        .     .  @  .  @  @  .              @  .     ",
"+     +     @  .     +  +  +     @  +     .        .  +  @     .  @  .     @  .        .  @  .  @                 +     @  .     .        +  +  +     +     @     .  @  @  .  +        @        +  +  @     .     +  .  @  .  +  .  +  +  @  +     .  @     .  +     @  @  @  @  .  +  +  .     .  .     +        @     @  +  @  @  .     +     @  +  @  @  .  @        @  @  +  .  .  .  .  .     @     )  U+ K  b# }c |c +) 1c O* #} .@ S$ .     .  .  +              +  .  @           +  @        +  @  @  +     T. P, 7, 8, a/ '{ ){ b/ u_ d, L* r  @  +  .  @  +        .     .  @  .  @  @  .        .  P2 2c z+ 3c 4c 5c 6c 7c c6 +  @  8c 9c 0c ac bc cc dc ec fc /+ +  .     .        .  .     @  +  +  .  .  .     .     +     @  +  .  .     +  +     @  .  @     +     .  +  +  +  +     +     @  .     +  +  +     @  +     .        .  +  @     .  @  .     @  .        .  @  .  @           .  .@ gc hc ic jc kc lc mc nc oc +  ++ pc qc rc sc tc uc vc wc .. +        @        +  +  @     .     +  .  @  .  +  .  +  J; <> c/ ^{ /{ ]^ i, xc yc k, b. .  .  @  .  +  +  .     .  .     +        @     @  +  @  @  .     +     ++ A@ #+ 6@ 7@ U& zc Ac +& @& -@ b. c. .  .  .     +     .  .  .  +  .     .  .  @  @  .  @  .     .  .  +              +  .  @           +  @        +  @  @  +  .  .     @  @           @     @  @     @  +  .  @  +        .     .  @  .  @  @  .              @  .     +  @  @  .  +  @  +  +  @  +  .  @     +  @  +     +  .     .        .  .     @  +  +  .  .  .     .     +     @  +  .  .     +  +     @  .  @     +     .  +  +  +  ",
"@           +  @        +  @  @  +  .  .     @  @           @     @  @     @  +  .  @  +        .     .  @  .  @  @  .              @  .     +  @  @  .  +  @  +  +  @  +  .  @     +  @  +     +  .     .        .  .     @  +  +  .  .  .     .     +     @  +  .  .     +  +     @  .  @     +     .  +  +  +  +     +     @  .     +  +  +     @  +     .        .  +  @     .  @  .     @  .     )  r  +. {% += f@ +6 Bc && P@ F. ^+ +  +     .        +  +  +     +     @     .  @  @  .  +        @           .. y. 2{ s, t, Cc v, 6{ 3) 4) J     +  @  +     .  @     .  +     @  @  @  @  .  +  +  .  -) Dc =b Ec &b Fc Gc Hc Ic ^+ @  <] Jc ia Kc Lc Fb Mc Nc Oc C4 @  @        @  @  +  .  .  .  .  .     +     .  .  .  +  .     .  .  @  @  .  @  .     .  .  +              +  .  @           +  @        +  @  @  +  .  .     @  @           @     @  @     @  +  .  @  +        .     .  @  ^+ Pc Qc w/ Rc kc Sc Tc Uc Vc 5@ +  d+ Wc Xc Yc Zc `c  d .d +d I  @     +  @  +     +  .     .        .  .     @  +  +  .   . #^ @d #d $d C, ': E, %d 9) 4~ }  .  +     @  .  @     +     .  +  +  +  +     +     @  .     +  +  +  @  @# (+ 5# :+ :% &d *d =d S- A# W@ c. .     @  .        .  @  .  @                 +     @  .     .        +  +  +     +     @     .  @  @  .  +        @        +  +  @     .     +  .  @  .  +  .  +  +  @  +     .  @     .  +     @  @  @  @  .  +  +  .     .  .     +        @     @  +  @  @  .     +     @  +  @  @  .  @        @  @  +  .  .  .  .  .     +     .  .  .  +  .     .  .  @  @  .  @  .     .  .  +              +  .  ",
".        .  .     @  +  +  .  .  .     .     +     @  +  .  .     +  +     @  .  @     +     .  +  +  +  +     +     @  .     +  +  +     @  +     .        .  +  @     .  @  .     @  .        .  @  .  @                 +     @  .     .        +  +  +     +     @     .  @  @  .  +        @        +  +  @     .     +  .  @  .  +  .  +  +  @  +     .  @     .  +     @  @  @  @  .  +  +     r  U+ t@ 1% c) m/ x@ -d ]& := 5@ +  @  .     +     @  +  @  @  .  @        @  @  +  .  .  .  .  .     +     r  U. n/ o/ X^ ;d e{ f{ g{ X, #; )  .     .  .  +              +  .  @           +  @        -) >d ,d 'd )d !d ~d {d -6  .    @# -9 =2 ]d ^d /d (d _d :d <d =&       .     .  @  .  @  @  .              @  .     +  @  @  .  +  @  +  +  @  +  .  @     +  @  +  @  S$ +  @  S$ H. @  +  +  @  @  +  +  .  .  .     .     +     @  +  .  .     +  +     @  .  @     +     .  +  +  +  +  +# [d }d |d 1d 2d 3d 4d 5d 6d ^+ +  ]7 wc 7d 8d 9d 0d ad bd cd I  .     @  .        .  @  .  @                 +     @  .  .  :> Y, &; )5 !5 g: w2 dd ed l% ;# c. @  @  .  +        @        +  +  @     .     +  .  @  .  +  .  +  +  ++ /+ e+ f+ .b f* d_ ]5 c= I@ m+ S.  . .  +  +  .     .  .     +        @     @  +  @  @  .     +     @  +  @  @  .  @        @  @  +  .  .  .  .  .     +     .  .  .  +  .     .  .  @  @  .  @  .     .  .  +              +  .  @           +  @        +  @  @  +  .  .     @  @           @     @  @     @  +  .  @  +        .     .  @  .  @  @  .              @  .     +  @  @  .  +  @  +  +  @  +  .  @     +  @  +     +  .     ",
"   @  .  @     +     .  +  +  +  +     +     @  .     +  +  +     @  +     .        .  +  @     .  @  .     @  .        .  @  .  @                 +     @  .     .        +  +  +     +     @     .  @  @  .  +        @        +  +  @     .     +  .  @  .  +  .  +  +  @  +     .  @     .  +     @  @  @  @  .  +  +  .     .  .     +        @     @  +  @  @  .     +     @  +  @  @  .  @  )  J  a% J@ K@ fd e= f= =' P@ .+ G. +  .  .  .  +  .     .  .  @  @  .  @  .     .  .  +              +  .  )  x. -' D] g^ gd hd id s{ )' E+ r     .     @  @           @     @  @     @  +  .  @  +        :> jd kd ld md nd od pd qd 4+    )  08 rd sd -5 td ud vd wd xd yd +  @  +  .  @     +  @  +     +  .     .        .  .     @  +  +  .  .  +  @  +  $_ Z( zd Ad Bd Cd Dd Ed Fd Fd Gd Hd Id Hd Ed Jd Kd Ld m. Md Y( S$ @  +  @  @  .     +  +  +     @  +     .        .  +  @     .  @  .  ^+ oc Nd Od Pd Qd Rd Sd Td Ud q] .     K6 Vd Wd Xd Yd Zd `d  e .e ++ +  +     +     @     .  @  @  .  +        @        +  +  +  .  >, H: ~' p~ +e S] @e m^ d; e; ^. .     .  @     .  +     @  @  @  @  .  +  +  .     .  .     +        @  @# w( t$ <' h% i% Z# M) v= 4> W@ 4+ .  .  @        @  @  +  .  .  .  .  .     +     .  .  .  +  .     .  .  @  @  .  @  .     .  .  +              +  .  @           +  @        +  @  @  +  .  .     @  @           @     @  @     @  +  .  @  +        .     .  @  .  @  @  .              @  .     +  @  @  .  +  @  +  +  @  +  .  @     +  @  +     +  .     .        .  .     @  +  +  .  .  .     .     +     @  +  .  .     +  +  ",
"@  +     .        .  +  @     .  @  .     @  .        .  @  .  @                 +     @  .     .        +  +  +     +     @     .  @  @  .  +        @        +  +  @     .     +  .  @  .  +  .  +  +  @  +     .  @     .  +     @  @  @  @  .  +  +  .     .  .     +        @     @  +  @  @  .     +     @  +  @  @  .  @        @  @  +  .  .  .  .  .     +     .  .  .  +  .     .  .     I  U+ ', n% o% P* q% r% &$ ]+ G. +  +  .  @           +  @        +  @  @  +  .  .     @  @           @     r  t@ c& j; #e l; $e 7' O/ X( /. )  .  @  .  @  @  .              @  .     +  @  @  .  +  @  +  h4 R6 %e &e *e =e -e ;e I' %* .     <] >e ,e 'e )e !e ~e {e ]e ^e H.    .     .     +     @  +  .  .     +  +     @  .  @     +  @  S$ Z( zd /e (e _e :e <e [e }e |e 1e :_ 2e 3e 4e 5e 3e 6e 7e 8e 9e 0e ae be ce de Ld m. $_ +  @     .  @  .  @                 +     @  .     .     .  .@ ee fe ge he ie je ke le me G. .  @  ne a6 oe pe z5 qe re se te       +  .  @  .  +  .  +  +  @  +     .  @     .  +     @  @  .  $; l) H~ I~ R/ ue l( +~ {( w; i' %  @     @  +  @  @  .     +     @  +  @  @  .  @        @  @  +  .  .     /+ L+ M+ $# ve U/ we xe ye y% ;# c. .  @  @  .  @  .     .  .  +              +  .  @           +  @        +  @  @  +  .  .     @  @           @     @  @     @  +  .  @  +        .     .  @  .  @  @  .              @  .     +  @  @  .  +  @  +  +  @  +  .  @     +  @  +     +  .     .        .  .     @  +  +  .  .  .     .     +     @  +  .  .     +  +     @  .  @     +     .  +  +  +  +     +     @  .     +  +  +     ",
".  @  @  .              @  .     +  @  @  .  +  @  +  +  @  +  .  @     +  @  +     +  .     .        .  .     @  +  +  .  .  .     .     +     @  +  .  .     +  +     @  .  @     +     .  +  +  +  +     +     @  .     +  +  +     @  +     .        .  +  @     .  @  .     @  .        .  @  .  @                 +     @  .     .        +  +  +     +     @     .  @  @  .  +           )  U+ z% ,# A% W= !# P{ `+ .* c+ ^+ +  .  +  +  @  +     .  @     .  +     @  @  @  @  .  +  +  .     .  .  )  +. C; 1% b8 B} F; G;  ( ze 5+ r  +     @  +  @  @  .  @        @  @  +  .  .  .  .  .     +      . -6 Ae Be Ce De Ee Fe Ge #, .  @  ++ He Ie Je Ke Le Me Ne Oe Pe yd =& @        +  @        +  @  @  +  .  .     @  @  @  H. Z( Qe Re Se Te Ue Ve We Xe Ye Ze `e  f .f +f @f #f $f #f %f &f *f =f -f ;f >f ,f 'f )f !f ~f {f ]f +_ $_ S$ @  +  .  @     +  @  +     +  .     .        ^+ ^f /f (f _f :f <f [f }f 46 oc +  +     |f 1f 2f 3f 4f %6 5f *6 6f    @     +     .  +  +  +  +     +     @  .     +  +  +     @  +  .  #, x' +( 7f R] l<  | Q; U] 0$ b. .  .        .  @  .  @                 +     @  .     .        +  +  +  ++ A@ 2& 8f ,- F% 9f =+ X] 0f `$ c  .  .     +  +  @     .     +  .  @  .  +  .  +  +  @  +     .  @     .  +     @  @  @  @  .  +  +  .     .  .     +        @     @  +  @  @  .     +     @  +  @  @  .  @        @  @  +  .  .  .  .  .     +     .  .  .  +  .     .  .  @  @  .  @  .     .  .  +              +  .  @           +  @        +  @  @  +  .  .     @  @           @     @  @     @  +  .  @  +        .     .  @  ",
"   +     .  +  +  +  +     +     @  .     +  +  +     @  +     .        .  +  @     .  @  .     @  .        .  @  .  @                 +     @  .     .        +  +  +     +     @     .  @  @  .  +        @        +  +  @     .     +  .  @  .  +  .  +  +  @  +     .  @     .  +     @  @  @  @  .  +  +  .     .  .     +        @     @  +  @  @  .     +     @  +  @  @  .  @        )  af x. [$ n& bf ~- {- ]- L' ]+ 5@ +  .  +  .     .  .  @  @  .  @  .     .  .  +              +  .  @        J  &* q( cf df ef +^ .2 ff (! s  )  @  @           @     @  @     @  +  .  @  +        .     .  @   . f_  c gf hf z4 if jf kf #^ .  +  ++ l@ lf 0- mf nf of pf qf rf o4 /+ +  @  +     +  .     .        .  .  @  +  S$ Z( ~_ Re sf tf uf vf wf xf yf zf Af Bf Cf Df Ef Ff Gf Gf Hf Hf Gf Hf Hf If Jf Kf Lf Mf Nf Of Pf Qf Rf Sf Tf ~f Uf Vf Md @  +        .  +  @     .  @  .     @  .  v! Wf Xf Yf Zf `f  g N! :[ .g 5@ +     )  +g @g #g $g %g &g *g =g -g +     @     .  @  @  .  +        @        +  +  @     .     +  .  @  $; 4/ @> ;g <! ;9 {| >g ,g v( 8- c. +     @  @  @  @  .  +  +  .     .  .     +        @     @  +  @  @     @# (+ 57 'g )g ~( c- (@ {( a# <@ c. .  +  .  .  .  .  .     +     .  .  .  +  .     .  .  @  @  .  @  .     .  .  +              +  .  @           +  @        +  @  @  +  .  .     @  @           @     @  @     @  +  .  @  +        .     .  @  .  @  @  .              @  .     +  @  @  .  +  @  +  +  @  +  .  @     +  @  +     +  .     .        .  .     @  +  +  .  .  .     .     +     @  +  .  .     +  +     @  .  @  ",
"+  @  @  +  .  .     @  @           @     @  @     @  +  .  @  +        .     .  @  .  @  @  .              @  .     +  @  @  .  +  @  +  +  @  +  .  @     +  @  +     +  .     .        .  .     @  +  +  .  .  .     .     +     @  +  .  .     +  +     @  .  @     +     .  +  +  +  +     +     @  .     +  +  +     @  +     .        .  +  @     .  @  .     @  .        .  @        T. U+ K  s6 |@ 3| !g T< 4@ b+ .@ +  .  +  +  +     +     @     .  @  @  .  +        @        +  +  @     .  I  a% ~g ^( ~] {g B( /> !^ a! P# T. .  @     .  +     @  @  @  @  .  +  +  .     .  .     +        @  .  ab ]g ^g /g (g _g :g <g p;  . @  @  @# [g }g |g 1g 2g 3g 4g 5g 6g R| @     +     .  .  .  +  .     +  +  Y( !_ `( 7g 8g 9g 0g ag bg cg dg eg fg gg hg ig jg kg lg mg ng og pg qg pg rg sg tg ug vg wg xg yg zg Ag Bg Cg Dg Eg Fg Gg Hg Ig N_ $_ @  @  .     .  @  .  @  @  .     ^+ oc Jg Kg Lg Mg Ng Og Pg Qg ]# S$ +  +  I  Rg Sg Tg Ug Vg Wg Xg Yg 0%       .        .  .     @  +  +  .  .  .     .     +     @  +  .  .  .  %* <> Zg 9# m9 ]^ !) :( /^ 4> S. .  +  +     +     @  .     +  +  +     @  +     .        .  +  @     .  ++ A@ e+ h# A& ^) [( .& +& ;+ -@ b. c. .        +     @  .     .        +  +  +     +     @     .  @  @  .  +        @        +  +  @     .     +  .  @  .  +  .  +  +  @  +     .  @     .  +     @  @  @  @  .  +  +  .     .  .     +        @     @  +  @  @  .     +     @  +  @  @  .  @        @  @  +  .  .  .  .  .     +     .  .  .  +  .     .  .  @  @  .  @  .     .  .  +              +  .  @           +  @        ",
".  @        @  @  +  .  .  .  .  .     +     .  .  .  +  .     .  .  @  @  .  @  .     .  .  +              +  .  @           +  @        +  @  @  +  .  .     @  @           @     @  @     @  +  .  @  +        .     .  @  .  @  @  .              @  .     +  @  @  .  +  @  +  +  @  +  .  @     +  @  +     +  .     .        .  .     @  +  +  .  .  .     .     +     @  +  .     )  r  +. p# q# j! `g t# u# P@ ]+ G. +  +  +     +     @  .     +  +  +     @  +     .        .  +  @     .  )  U+ m& A- 6] |( 7] e> f> g> 4) J              +     @  .     .        +  +  +     +     @     .  @  @  .  P2 =(  h .h +h @h #h $h %h 4+ .     @  &h *h =h -h ;h >h ,h 'h )h !h }| H.    .  +     @  @  +  S$ G. l. ~h {h ]h ^h /h (h _h :h <h [h }h |h 1h 2h 3h 4h 5h 6h 7h 8h 9h 0h ah bh ah ah ch dh eh fh gh hh ih jh kh lh mh nh oh ph qh rh sh th uh #_ H. @  .  @  .     .  .  +  +  .+ vh wh xh yh zh Ah Bh Ch .g .+ +     +  ]7 Dh Eh Fh Gh Hh Ih Jh Kh ..    @     @  @     @  +  .  @  +        .     .  @  .  @  @  .        .   . #, 4( p! l> m> Lh Mh Nh 9) b@ 4+ .  +  .  @     +  @  +     +  .     .        .  .     @  +  +  .  .     @# @+ v+ 7( w# Oh y# R- |% A# ]. 4+ .  @  .  @     +     .  +  +  +  +     +     @  .     +  +  +     @  +     .        .  +  @     .  @  .     @  .        .  @  .  @                 +     @  .     .        +  +  +     +     @     .  @  @  .  +        @        +  +  @     .     +  .  @  .  +  .  +  +  @  +     .  @     .  +     @  @  @  @  .  +  +  .     .  .     +        @     @  +  @  @  .     +     @  +  @  @  ",
"   @  .     +  +  +     @  +     .        .  +  @     .  @  .     @  .        .  @  .  @                 +     @  .     .        +  +  +     +     @     .  @  @  .  +        @        +  +  @     .     +  .  @  .  +  .  +  +  @  +     .  @     .  +     @  @  @  @  .  +  +  .     .  .     +        @     @  +  @  @  .     +     @  +  @  @  .  @        @  @  +  .  .  .  .  .     I  x. t@ /= p< C# D# R& S& F$ 5@ +  .  @  .     .  .  +              +  .  @           +  @        +  @  @  r  K  e] f] 7^ `-  ; .; j) G> #; )  @     @  +  .  @  +        .     .  @  .  @  @  .              @  .     h4 Ph Qh Rh Sh Th Uh Vh Wh Y~ .  @     @# v+ *c Xh Yh Zh `h  i .i 41 +i =& @  @  +  +  .  .  S$ 9_ :: {h @i #i $i %i &i *i =i -i ;i >i ,i 'i )i !i ~i {i ]i ^i /i (i _i :i <i [i }i }i |i 1i 2i I_ 3i 4i 5i 6i 7i 8i 9i 0i ai bi ci di ei fi gi >< hi H. @  .  @  .  @     .  5@ j@ V# ii ji ki li mi ni oi  @ G. +  +     b6 pi qi ri si ti ui vi C_ )     @        +  +  @     .     +  .  @  .  +  .  +  +  @  +     .  @     .  $; H> I> 0( E! -; wi G! n] H! ;# c. .     +        @     @  +  @  @  .     +     @  +  @  @  .  @        ++ A@ J. H# P> xi K# d( yi zi f( S. c. .  +  .     .  .  @  @  .  @  .     .  .  +              +  .  @           +  @        +  @  @  +  .  .     @  @           @     @  @     @  +  .  @  +        .     .  @  .  @  @  .              @  .     +  @  @  .  +  @  +  +  @  +  .  @     +  @  +     +  .     .        .  .     @  +  +  .  .  .     .     +     @  +  .  .     +  +     @  .  @     +     .  +  +  +  +     +  ",
"@  .  @        @  @  +  .  .  .  .  .     +     .  .  .  +  .     .  .  @  @  .  @  .     .  .  +              +  .  @           +  @        +  @  @  +  .  .     @  @           @     @  @     @  +  .  @  +        .     .  @  .  @  @  .              @  .     +  @  @  .  +  @  +  +  @  +  .  @     +  @  +     +  .     .        .  .     @  +  +  .  .  .     .     +     @  .     J  d. Z& v/ (; _; Ai V#  @ .+ +  .  +  +  +  +     +     @  .     +  +  +     @  +     .        .  +  @  )  U+ w- 6+ y) |; O! Bi 3; Ci 5; |                    +     @  .     .        +  +  +     +     @     .  @  @  $; -6 Di Ei Fi Gi Hi Ii Ji >, .  .     @  `{ H$ Ki q. Li Mi Ni Oi p1 q1 R| =&    .  +  .  S$ _: Pi Qi Ri Si Ti Ui Vi Wi Xi Yi Zi `i  j .j +j @j #j $j %j &j *j =j -j ;j >j ,j 'j )j ,j !j ~j {j ]j ^j /j (j _j :j <j [j }j |j 1j 2j 3j 4j 5j 6j 7j 8j yd =& +  @  .     +  ^+ ]# t| 9j 0j aj bj cj dj ej .g 5@ +  +     )  =6 fj gj hj ij jj kj lj mj )        @     @  @     @  +  .  @  +        .     .  @  .  @  @  .           .  J; B) nj 9; oj k^ l^ H) w] y% ^. .  +  .  @     +  @  +     +  .     .        .  .     @  +  +  .  .     @# @+ T$ pj X# qj j% rj sj ;, n# `  .     .  @     +     .  +  +  +  +     +     @  .     +  +  +     @  +     .        .  +  @     .  @  .     @  .        .  @  .  @                 +     @  .     .        +  +  +     +     @     .  @  @  .  +        @        +  +  @     .     +  .  @  .  +  .  +  +  @  +     .  @     .  +     @  @  @  @  .  +  +  .     .  .     +        @     @  +  @  @  .     +     @  +  @  ",
".  +  @  +  +  @  +  .  @     +  @  +     +  .     .        .  .     @  +  +  .  .  .     .     +     @  +  .  .     +  +     @  .  @     +     .  +  +  +  +     +     @  .     +  +  +     @  +     .        .  +  @     .  @  .     @  .        .  @  .  @                 +     @  .     .        +  +  +     +     @     .  @  @  .  +        @        +  +  @     .     +     )  r  x.  % E* tj %  7& uj K+ 6_ ^+ +  +     @  @  @  @  .  +  +  .     .  .     +        @     @  +  @  @     r  '& `! j; P) A] m;  ~ vj .~ /. )  @  +  .  .  .  .  .     +     .  .  .  +  .     .  .  @  @  .  @  .     .   . f_ wj xj yj zj Aj Bj Cj /, c.    +  @  @# ^& Dj Ej Fj Gj Hj Ij Jj Kj Lj yd @  @  @  .  .@ *& Mj Nj Oj Pj Qj Rj Sj Tj Uj Vj Wj Xj Yj Zj `j  k tf .k Se +k @k /e #k #k m. m. Z( zd m. $k Ld |_ %k Uf &k L_ *k =k -k ;k >k ,k 'k )k !k ~k |j {k ]k ^k /k =& .  .  .     ^+ F. ]& H( (k _k :k <k [k }k |k b+ ^+ .  @     I  55 1k 2k 3k 4k 5k 6k u4 -g    .     +  +  +     @  +     .        .  +  @     .  @  .     @  .        .  +  4+ _! (, ~/ J{ ue s^ 7k 9$ w; `$ %  .        +  +  +     +     @     .  @  @  .  +        @        +  +  @  @# G$ M+ *$ 8k &# &~ !* ,$ 2+ 3+ c. +     .  @     .  +     @  @  @  @  .  +  +  .     .  .     +        @     @  +  @  @  .     +     @  +  @  @  .  @        @  @  +  .  .  .  .  .     +     .  .  .  +  .     .  .  @  @  .  @  .     .  .  +              +  .  @           +  @        +  @  @  +  .  .     @  @           @     @  @     @  +  .  @  +        .     .  @  .  @  @  .              @  .     +  @  @  ",
"+     .  @     .  +     @  @  @  @  .  +  +  .     .  .     +        @     @  +  @  @  .     +     @  +  @  @  .  @        @  @  +  .  .  .  .  .     +     .  .  .  +  .     .  .  @  @  .  @  .     .  .  +              +  .  @           +  @        +  @  @  +  .  .     @  @           @     @  @     @  +  .  @  +        .     .  @  .  @  @  .              @  .     @  @  )  U+ P, b# 8/ 9k A;  ! 0k ]# 5@ ^+ @  +     +  .     .        .  .     @  +  +  .  .  .     .     +     @  )  +. .! +! ak bk F; `/ )~ W~ 5+ T.    .  +  +  +  +     +     @  .     +  +  +     @  +     .        .  +  @     .  P2 ck dk ek fk gk hk ik ][ 4+ @           d+ m@ jk kk lk mk _2 nk ok pk qk #_ H.    +# W5 rk sk tk uk vk wk xk yk zk Ak Bk Ck Dk Ek Fk Gk Hk i7 )_ +  &  '  Ik Jk Kk Lk Lk Mk Nk Ok Pk Qk $        @_ #_ N_ M_ Rk Sk Tk Uk Vk x# Wk Xk Yk Zk `k  l p& @+ @  @  @  ^+ .+ .l +| +l @l #l $l %l &l 1& *l 5@ +  +  .     N^ Yg =l -l ;l >l ,l 'l )l af .     .  .  @  @  .  @  .     .  .  +              +  .  @           +  @         . %* !l L; D^ W1 |a #( Q; $( :@ c  .     @  @     @  +  .  @  +        .     .  @  .  @  @  .              ++ A@ W# ~l S; {l Z1 :* -+ ;+ n# `   . .  @     +  @  +     +  .     .        .  .     @  +  +  .  .  .     .     +     @  +  .  .     +  +     @  .  @     +     .  +  +  +  +     +     @  .     +  +  +     @  +     .        .  +  @     .  @  .     @  .        .  @  .  @                 +     @  .     .        +  +  +     +     @     .  @  @  .  +        @        +  +  @     .     +  .  @  .  +  .  +  +  @  ",
"   .        +  +  +     +     @     .  @  @  .  +        @        +  +  @     .     +  .  @  .  +  .  +  +  @  +     .  @     .  +     @  @  @  @  .  +  +  .     .  .     +        @     @  +  @  @  .     +     @  +  @  @  .  @        @  @  +  .  .  .  .  .     +     .  .  .  +  .     .  .  @  @  .  @  .     .  .  +              +  .  @           +  @        +  @  @     r  +. ]l }$ p( 1$ 2$ ~+ {+ k@ G. +     @  +  .  @  +        .     .  @  .  @  @  .              @  .     @  .. &* X; ;( ]! ^l /l .> c$ h/ U+    +  @  +     +  .     .        .  .     @  +  +  .  .  .     .     +     @  +  .  :> (l _l :l <l [l }l V9 n~ t{ .  .  +  @  ++ v# |l 1l K) 2l 3l 4l 5l 6l 7l 8l /_ H.  . 9l 0l al bl cl dl el fl gl hl il jl kl ll l. )_ .  I* P* ml L: nl ol pl ql rl sl tl tl ul E_ vl wl xl yl zl Al Qk &     =& w} Bl Cl o| Dl El Fl Gl Hl Il Jl Bb 59       +  v! Kl Ll Ml Nl Ol Pl Ql Rl &( Sl Tl +  .  +     ++ 6f Ul Vl Wl Xl Yl Zl R3 U- `l    +        @     @  +  @  @  .     +     @  +  @  @  .  @        @  @  +  .  .  .  $; ua @>  m 1| %> [! *> ,g -> 8- c. .  @  @  .  @  .     .  .  +              +  .  @           +  @        ++ G$ .m 6# n@ +m '> 8$ @m :@ <@ c. .     @  @     @  +  .  @  +        .     .  @  .  @  @  .              @  .     +  @  @  .  +  @  +  +  @  +  .  @     +  @  +     +  .     .        .  .     @  +  +  .  .  .     .     +     @  +  .  .     +  +     @  .  @     +     .  +  +  +  +     +     @  .     +  +  +     @  +     .        .  +  @     .  @  .     @  .        .  @  .  @                 +     @  .  ",
"   @     .  @  @  .  +        @        +  +  @     .     +  .  @  .  +  .  +  +  @  +     .  @     .  +     @  @  @  @  .  +  +  .     .  .     +        @     @  +  @  @  .     +     @  +  @  @  .  @        @  @  +  .  .  .  .  .     +     .  .  .  +  .     .  .  @  @  .  @  .     .  .  +              +  .  @           +  @        +  @  @  +  .  .     @  @           I  a$ [@ v& w& #m $m e$ a+ b+ 5@ +  .     .  @  .  @  @  .              @  .     +  @  @  .  +  @  +  +  @  )  d. @. ~> ~] /( '^ %m !^ _> d. T.       .  .     @  +  +  .  .  .     .     +     @  +  .  .     +  +     @  .  @     $; &m *m =m -m ;m >m ,m F] ua .  .     @  +  ++ #+ 'm )m !m ~m {m ]m ^m /m 7l 8l #_ G. f_ (m _m :m <m [m }m |m 1m 2m >4 .@ ^+ &  Qk 3m 4m 5m 6m 7m -= 8m 9m 0m am bm cm dm em fm gm hm im jm km lm mm nm om pm W* #  T. +. O2 qm rm sm tm um vm wm xm K6 @  @  c+ k. ym zm Am Bm Cm Bm Dm Em Fm V< G. +  +  .     I  Gm Hm Im Jm Km Lm Mm Nm Om )  @  .     +     @  +  @  @  .  @        @  @  +  .  .  .  .  .     +     .  .  .  +   . %* <> [> 9# }> e! !) Pm 3> 4> ;# .              +  .  @           +  @        +  @  @  +  .  .     @  @  ++ d+ W# h# i# Qm E( F( k$ Rm m+ b.  .       .     .  @  .  @  @  .              @  .     +  @  @  .  +  @  +  +  @  +  .  @     +  @  +     +  .     .        .  .     @  +  +  .  .  .     .     +     @  +  .  .     +  +     @  .  @     +     .  +  +  +  +     +     @  .     +  +  +     @  +     .        .  +  @     .  @  .     @  .        .  @  .  @                 +     @  .     .        +  +  +     +  ",
"   +     .  .  .  +  .     .  .  @  @  .  @  .     .  .  +              +  .  @           +  @        +  @  @  +  .  .     @  @           @     @  @     @  +  .  @  +        .     .  @  .  @  @  .              @  .     +  @  @  .  +  @  +  +  @  +  .  @     +  @  +     +  .     .        .  .     @  +  +  .  .  .     .     +     @  +  .  .     +  +     @  .  @        .. +. k* G& p$ Sm 0> i~ P@ .+ ^+ +  +  +  +     @  +     .        .  +  @     .  @  .     @  .        .  )  U+ m& I( y] B- 7] e> s| g> 4) J     .        +  +  +     +     @     .  @  @  .  +        @        +  +  @     .     +   . Tm kf Um Vm Wm g| Xm c/ Ym 4+ @     .  +     A@ 4$ I4 Zm `m  n .n +n @n #n $n 8l Z( *5 2# %n &n *n =n -n ;n >n ,n 'n )n !n -/ ~n {n ]n ^n /n (n _n :n <n [n }n |n 1n 2n 3n 4n 5n 6n 7n 8n 9n 0n an bn cn dn wl T* Q& en fn gn hn in jn kn ln ^( mn 0% @  )_ nn on pn qn rn  1 sn tn un vn j@ 5@ @  @  @        @b Yg wn xn yn zn An Bn Cn @b          .     .  @  .  @  @  .              @  .     +  @  @  .  +  @  +  +  @  +  .  @   . >, S| k> l> K( M- o> Dn P- r> ^. .     @  +  +  .  .  .     .     +     @  +  .  .     +  +     @  .  @  @# u+ _+ N( t> En Fn N& ~. 4> D+ 4+ .     +  +  +     @  +     .        .  +  @     .  @  .     @  .        .  @  .  @                 +     @  .     .        +  +  +     +     @     .  @  @  .  +        @        +  +  @     .     +  .  @  .  +  .  +  +  @  +     .  @     .  +     @  @  @  @  .  +  +  .     .  .     +        @     @  +  @  @  .     +     @  +  @  @  .  @        @  @  +  .  .  .  .  .  ",
".     .        .  .     @  +  +  .  .  .     .     +     @  +  .  .     +  +     @  .  @     +     .  +  +  +  +     +     @  .     +  +  +     @  +     .        .  +  @     .  @  .     @  .        .  @  .  @                 +     @  .     .        +  +  +     +     @     .  @  @  .  +        @        +  +  @     .     +  .  @  .  +  .  +  +  @  +     .  @        I  /. U- _. :. y> Gn R& S& F$ 5@ +  .     +        @     @  +  @  @  .     +     @  +  @  @  .  @           I  0* A> Hn In Jn Kn .; Ln Mn /.    .  +  .     .  .  @  @  .  @  .     .  .  +              +  .  @           +  @        .  -) T3 Nn On Pn Qn Rn Sn k} S. .  @     @  @  ++ (+ Tn Un Vn Wn Xn Yn Zn `n #n 7l  o .+ %h C^ .o +o @o #o $o %o &o *o =o -o ;o >o ,o 'o )o !o ~o {o ]o ^o /o (o _o :o <o [o }o |o 1o 2o 3o 4o 5o 6o 7o 8o 9o 0o ao bo co do eo fo go ho io jo +, X~ I  )_ ko lo mo no oo po qo ro so to uo c+ +  @  @  .     ++ vo Ul wo xo Xl yo zo Ao Bo r  .  @     .  @  .     @  .        .  @  .  @                 +     @  .     .        +  +  +  4+ l) I> 0^ C7 K> Co Do g' K{ i' %           +  +  @     .     +  .  @  .  +  .  +  +  @  +     .  @     @  A@ L+ H# Eo Q> Fo L$ S> v* O~ b. c. .     +        @     @  +  @  @  .     +     @  +  @  @  .  @        @  @  +  .  .  .  .  .     +     .  .  .  +  .     .  .  @  @  .  @  .     .  .  +              +  .  @           +  @        +  @  @  +  .  .     @  @           @     @  @     @  +  .  @  +        .     .  @  .  @  @  .              @  .     +  @  @  .  +  @  +  +  @  +  .  @     +  @  +     +  ",
"@  +  .  @  +        .     .  @  .  @  @  .              @  .     +  @  @  .  +  @  +  +  @  +  .  @     +  @  +     +  .     .        .  .     @  +  +  .  .  .     .     +     @  +  .  .     +  +     @  .  @     +     .  +  +  +  +     +     @  .     +  +  +     @  +     .        .  +  @     .  @  .     @  .        .  @  .  @                 +     @  .        T. J  c@ u/ K@ Go x* y* >_  @ .@ G. @  .  +        @        +  +  @     .     +  .  @  .  +  .  +  +  @  +  )  /. X> (/ R{ T~ Ho S{ Io '_ )> r  @  +  .     .  .     +        @     @  +  @  @  .     +     @  +  @  @  .  @        @  @  +  $; Jo Ko Lo Mo No Oo Po Qo Ro c. +  .     .  .  ++ B@ So To Uo Vo Wo .n Xo Yo Zo `o j3 W5  p :{ .p +p @p #p $p %p &p *p =p -p ;p >p ,p 'p )p !p ~p {p ]p ^p /p (p _p :p <p [p }p |p 1p 2p 3p 4p 5p 6p 7p 8p 9p 0p ap bp cp dp ep fp gp hp ip 5: U+ )_ n: K^ jp kp lp mp np op pp qp C} F. +  +  .     .     r  Gm Hm rp sp tp _3 up D7 a% )  .     +     @  +  .  .     +  +     @  .  @     +     .  +  +  +  +     +     @  .     +  +   . #, Q! V{ $, 3_ ;! 4_ Tb vp 2+ ^. .  @  .     @  .        .  @  .  @                 +     @  .     .     ++ u+ ^# f; +* F% 61 }/ u. W! W@ ^. c. +        @        +  +  @     .     +  .  @  .  +  .  +  +  @  +     .  @     .  +     @  @  @  @  .  +  +  .     .  .     +        @     @  +  @  @  .     +     @  +  @  @  .  @        @  @  +  .  .  .  .  .     +     .  .  .  +  .     .  .  @  @  .  @  .     .  .  +              +  .  @           +  @        +  @  @  +  .  .     @  @           @     @  @     ",
"+     .        .  +  @     .  @  .     @  .        .  @  .  @                 +     @  .     .        +  +  +     +     @     .  @  @  .  +        @        +  +  @     .     +  .  @  .  +  .  +  +  @  +     .  @     .  +     @  @  @  @  .  +  +  .     .  .     +        @     @  +  @  @  .     +     @  +  @  @  .  @        @  @  +  .  .  .  .  .     +           r  x. &* z. p< >, wp 2/ &$ F. 5@ +  .  .  +              +  .  @           +  @        +  @  @  +  .  .     .. m% 8+ !, 7_ A] xp &{ R' o; U+       @  +        .     .  @  .  @  @  .              @  .     +  @  @  .  +  @  +  +  @  +  .  +  y, kf yp Vm zp Ap Bp Cp +< ^.    .  .     @  @  =& C4 So s2 Dp Ep Xn Fp Xo Gp Hp Ip Jp 65 Kp Lp Mp Np Op Pp Qp Rp Sp Tp Up Vp Wp Xp Yp Zp `p  q .q +q @q #q $q %q &q *q =q -q ;q >q ,q 'q )q !q ~q {q ]q ^q /q (q _q :q <q [q }q |q 1q 2q d  Y( 3q 4q 5q 6q 7q 8q 9q 0q aq bq cq  + ^+ +     @     .  @  @b dq eq fq gq hq iq jq _6 0%       .     +  .  @  .  +  .  +  +  @  +     .  @     .  +     @  @  @  @  .  +  +  .     .  .     $; /, %] ={ kq lq V' }, K, 7- H- c.    @  +  @  @  .  @        @  @  +  .  .  .  .  .     +     .  .  .  @  @# G$ ## mq ]@ nq O. >$ ~* e; 3+ }  .              +  .  @           +  @        +  @  @  +  .  .     @  @           @     @  @     @  +  .  @  +        .     .  @  .  @  @  .              @  .     +  @  @  .  +  @  +  +  @  +  .  @     +  @  +     +  .     .        .  .     @  +  +  .  .  .     .     +     @  +  .  .     +  +     @  .  @     +     .  +  +  +  +     +     @  .     +  +  +     @  ",
"   .     .  @  .  @  @  .              @  .     +  @  @  .  +  @  +  +  @  +  .  @     +  @  +     +  .     .        .  .     @  +  +  .  .  .     .     +     @  +  .  .     +  +     @  .  @     +     .  +  +  +  +     +     @  .     +  +  +     @  +     .        .  +  @     .  @  .     @  .        .  @  .  @                 +     @  .     .        +  +  +  T. .. K  oq =% pq qq e$ rq ]# 5@ +  @        +  +  @     .     +  .  @  .  +  .  +  +  @  +     .  @        )  P, 7, sq a/ 0, 9! tq *) {{ u& T.       +        @     @  +  @  @  .     +     @  +  @  @  .  @        @  @  +  .  .  .  .  .     +  -) uq vq wq xq yq zq Aq I- 3+ .  .  @  .     .     =& B@ Bq To Cq Dq Wo Eq Fq Gq Hq Iq Jq 9_ m+ Kq Lq Mq Nq Oq I= Pq Qq Rq Sq Tq Uq Vq Wq Xq Yq Zq `q -=  r .r +r @r #r $r %r &r *r bn =r -r ;r >r ,r 'r )r !r ~r {r ]r ^r /r (r _r :r |  v_ ]4 <r [r }r |r 1r 2r 3r 4r 5r $}  + 5@ +     .  .     @  )  mj 6r 7r 8r 9r 0r ar br ', I  .  .  .     +  +     @  .  @     +     .  +  +  +  +     +     @  .     +  +  +     @  +     .     .  J; K; >) ^{ h, ]^ ^[ ~~ G^ k, :) %  .  @  .  @                 +     @  .     .        +  +  +     +     ++ A@ e+ $+ 7@ Q_ [{ <# !% `* -@ b. .  +  @     .     +  .  @  .  +  .  +  +  @  +     .  @     .  +     @  @  @  @  .  +  +  .     .  .     +        @     @  +  @  @  .     +     @  +  @  @  .  @        @  @  +  .  .  .  .  .     +     .  .  .  +  .     .  .  @  @  .  @  .     .  .  +              +  .  @           +  @        +  @  @  +  .  .     @  @           @     @  @     @  +  .  @  +     ",
"   .        .  .     @  +  +  .  .  .     .     +     @  +  .  .     +  +     @  .  @     +     .  +  +  +  +     +     @  .     +  +  +     @  +     .        .  +  @     .  @  .     @  .        .  @  .  @                 +     @  .     .        +  +  +     +     @     .  @  @  .  +        @        +  +  @     .     +  .  @  .  +  .  +  +  @  +     .  @  )  r  x. [$ o( |* M^ 2* q, {+ ]+ +# +  .  .     +        @     @  +  @  @  .     +     @  +  @  @  .  @        0% q^ r, s, t, P^ v, cr |[ g4 J     .  .  +  .     .  .  @  @  .  @  .     .  .  +              +  .  @           +  @        +  @  H. 5@ Ba dr er fr gr hr ir jr M} B. .  @     @  +     @  =& J. Bq s2 kr lr mr nr or pr qr rr sr ]f o# A# @/ tr ur vr wr xr yr zr Ar Br Cr Dr Er Fr ~n Gr 4m ml Q* Hr >  >  pm Ir Jr Kr Lr Mr Nr Or Pr Qr Rr Sr Tr Ur Vr Wr Xr Yr Zr `r @   s .s +s @s tk #s $s %s &s *s =s -s nn c+ +     +     @  .     af 55 ;s >s ,s 's 4' )s !s ~s =& S$ @  @  .  @  .     @  .        .  @  .  @                 +     @  .     .        +  +  +     +      . >, {s ]s B, 0{ a{ E, b{ 3~ F& }  +  +  @     .     +  .  @  .  +  .  +  +  @  +     .  @     .  +     @  /+ (+ -& ;& {= ^s I, |+ /s 0$ ;# 4+ .     @     @  +  @  @  .     +     @  +  @  @  .  @        @  @  +  .  .  .  .  .     +     .  .  .  +  .     .  .  @  @  .  @  .     .  .  +              +  .  @           +  @        +  @  @  +  .  .     @  @           @     @  @     @  +  .  @  +        .     .  @  .  @  @  .              @  .     +  @  @  .  +  @  +  +  @  +  .  @     +  @  +     +  .  ",
".  +  .  +  +  @  +     .  @     .  +     @  @  @  @  .  +  +  .     .  .     +        @     @  +  @  @  .     +     @  +  @  @  .  @        @  @  +  .  .  .  .  .     +     .  .  .  +  .     .  .  @  @  .  @  .     .  .  +              +  .  @           +  @        +  @  @  +  .  .     @  @           @     @  @     @  +  .  @  +        .     .  @  .  @  I  U+ X~ 6+ M, ^- d* 0+ a+ b+ 5@ +  .  +  @  +  +  @  +  .  @     +  @  +     +  .     .        .  .     @  )  U. 7~ o/ S, 0~ ;} V, g{ r/ +. )  .  .     +  +     @  .  @     +     .  +  +  +  +     +     @  .     +  +  +  @  @  S$ H. Z( zd (s _s :s <s [s }s |s 1s L- 2s 3s P] %* .  @  .  @              @# 4s 5s 6s 7s 8s 9s 0s as bs cs ds es fs zd W@ gs hs is js ks ls ms ns os ps =3 qs P* *  *  &  &  .     @  .  .  %  %  }  '  rs ss ts us vs ws xs ys zs As Bs Cs Ds |  l. Es Fs Gs Hs Is Js Ks Ls Ms Ns Os Ps r< )_ +  .  +     @  +  @  @  v4 Qs Rs Ss Ts Us Vs Ws Xs Ys Zs `s Ld $k Md $_ S$ +  +  .     .  .  @  @  .  @  .     .  .  +              +  .  @           +  @     .  :> l) 9^ Z,  t v2 s/ +' +/ .t ;# %  @     @  @     @  +  .  @  +        .     .  @  .  @  @  .           )  A@ e+ h# m, h+ i+ +t i* j* b@ o# c. .  .  @     +  @  +     +  .     .        .  .     @  +  +  .  .  .     .     +     @  +  .  .     +  +     @  .  @     +     .  +  +  +  +     +     @  .     +  +  +     @  +     .        .  +  @     .  @  .     @  .        .  @  .  @                 +     @  .     .        +  +  +     +     @     .  @  @  .  +        @        +  +  @     .     +  .  @  ",
"@  @  .  +        @        +  +  @     .     +  .  @  .  +  .  +  +  @  +     .  @     .  +     @  @  @  @  .  +  +  .     .  .     +        @     @  +  @  @  .     +     @  +  @  @  .  @        @  @  +  .  .  .  .  .     +     .  .  .  +  .     .  .  @  @  .  @  .     .  .  +              +  .  @           +  @        +  @  @  +  .  .     @  @        )  .. c@ k* o$ @t q+ l* f% t+ .+ ^+ @  .     .  @  .  @  @  .              @  .     +  @  @  .  +  @  +  +  )  a$ S' z2 #t $t A2 +} d% %t m! J  .        .  .     @  +  +  .  .  .     .     +     @  +  .  .     +  +  @  H. S$ zd #k @k &t *t =t -t ;t >t ,t 't )t !t ~t {t ]t ^t q< #, +  +     .        .  +  @  /+ C4 5s /t (t _t :t <t [t }t |t 1t 2t 3t 4t )_ q  5t nm 6t 7t 8t 9t 0t p% !        +     +     @     .  @  @  .  +        .  %  }  [  at bt ct dt et 8t ft 9< 9_ gt ht it jt kt lt mt nt #s ot pt qt rt st )_ +  +  .  +  +  .     .  )  6f tt ut vt wt xt yt zt At Bt Ct Dt Et Ft Gt ce de Ld 2_ $_ H. @  @  @  +  .  .  .  .  .     +     .  .  .  +  .     .  .  @  @  .  @  .  .  i> d| u{ p~ v{ w{ r~ (' J: a. ^. .     +  @        +  @  @  +  .  .     @  @           @     @  @     @  ++ @+ v+ <' h% o* p* !. ~. C+ `$ 4+ .  .              @  .     +  @  @  .  +  @  +  +  @  +  .  @     +  @  +     +  .     .        .  .     @  +  +  .  .  .     .     +     @  +  .  .     +  +     @  .  @     +     .  +  +  +  +     +     @  .     +  +  +     @  +     .        .  +  @     .  @  .     @  .        .  @  .  @                 +     @  .     .        +  +  +     +     @     .  ",
"@        @  @  +  .  .  .  .  .     +     .  .  .  +  .     .  .  @  @  .  @  .     .  .  +              +  .  @           +  @        +  @  @  +  .  .     @  @           @     @  @     @  +  .  @  +        .     .  @  .  @  @  .              @  .     +  @  @  .  +  @  +  +  @  +  .  @     +  @  +     +  .     .        .  .     @  +  +  .  .  .        r  a$ h> y= G+ L: r* J+ &$ b+ 5@ +  .  @     +     .  +  +  +  +     +     @  .     +  +  +     @  +        r  X~ ,/ Ht '/ C~ 6' O: O/ G~ /. &        .  @  .  @                 +     @  .     .        +  +  +  S$ Z( zd _s :s a_ It *j Jt Kt Lt Mt Nt Ot Pt Qt Rt St Tt Ut Vt I, Wt W8  . +  .  +  +  @  +     .  @  @# C4 Xt Yt Zt `t  u .u +u @u #u $u %u &u *u =u 1_ )  *  *  *  T. &        .     +     @  +  @  @  .  @        @  @  +  .  .  .  .  c. $  != Ik '  +  l. -u ;u >u ,u 'u )u !u ~u {u ]u ^u /u (u << Q: G. @     +  .  @           +  ++ |f _u :u <u l7 [u }u |u 1u 2u 3u 4u 5u 6u 7u 'f )f !f 8u 9u ]f $k Md H. @  @  .     .  @  .  @  @  .              @  .     +  @  @  .  +  @  $; C! H~ 0u c' au ;; ~< bu cu i' c. .     .        .  .     @  +  +  .  .  .     .     +     @  +  .     @  /+ J. M+ 0& O+ k' Q+ {< ]< T+ S. c. .  +     +     @  .     +  +  +     @  +     .        .  +  @     .  @  .     @  .        .  @  .  @                 +     @  .     .        +  +  +     +     @     .  @  @  .  +        @        +  +  @     .     +  .  @  .  +  .  +  +  @  +     .  @     .  +     @  @  @  @  .  +  +  .     .  .     +        @     @  +  @  @  .     +     @  +  @  @  .  ",
"   .  .  @  @  .  @  .     .  .  +              +  .  @           +  @        +  @  @  +  .  .     @  @           @     @  @     @  +  .  @  +        .     .  @  .  @  @  .              @  .     +  @  @  .  +  @  +  +  @  +  .  @     +  @  +     +  .     .        .  .     @  +  +  .  .  .     .     +     @  +  .  .     +  +     @  .  @     +     .  )  J  a% ,# V= X+ X/ X= `+  @ .+ G. +     @  +     .        .  +  @     .  @  .     @  .        .  @  .  @  T. /. L] du S~ t' l; U~ c3 +, u& r     +  +  +     +     @     .  @  @  .  +        @        +  S$ Y( !_ eu fu gu hu Jt iu ju ku lu mu nu ou pu qu ru su tu uu vu wu xu yu zu W8 ^+ +  .     .  .     +        @  ++ Au o. Bu Cu Du Eu Fu Gu Hu Iu Ju Ku Lu Mu Nu Ou Pu n_ $k $_ H. +  +  .     +     .  .  .  +  .     .  .  @  @  .  @  .  @  +  +  Y( !_ /e Qu Ru Su x_ Tu Uu Vu Wu Xu Yu Zu `u  v .v +v 3q e4 G. @  @  @           @     @  @  I  &0 @v #v $v %v &v *v =v -v ;v >v ,v 'v )v Nf Of !v Qf ~v {v ]v ^v /v (v Vf Md S$ @  +  +  @  +  .  @     +  @  +     +  .     .        .  .  .  J; U{ _v z' %, O; C' D' E' a# c     +  .  .     +  +     @  .  @     +     .  +  +  +  +     +     @  .  ++ u+ ^# @@ F' :v %@ &@ X] I% n# `   . +     .  @  .     @  .        .  @  .  @                 +     @  .     .        +  +  +     +     @     .  @  @  .  +        @        +  +  @     .     +  .  @  .  +  .  +  +  @  +     .  @     .  +     @  @  @  @  .  +  +  .     .  .     +        @     @  +  @  @  .     +     @  +  @  @  .  @        @  @  +  .  .  .  .  .     +     .  .  .  +  .  ",
"      +     @  .     .        +  +  +     +     @     .  @  @  .  +        @        +  +  @     .     +  .  @  .  +  .  +  +  @  +     .  @     .  +     @  @  @  @  .  +  +  .     .  .     +        @     @  +  @  @  .     +     @  +  @  @  .  @        @  @  +  .  .  .  .  .     +     .  .  .  +  .     .  .  @  @  .  @  .     .  .  +                 r  [* [$ n& .% Vb %& <v !@ k@ G. +  +  .  .     @  @           @     @  @     @  +  .  @  +        .        .. E+ [v }v |v {, P' &{ d# S' s  )  @  @  @  .  +  @  +  +  @  +  .  @     +  @  +  @  +  S$ Z( Hk 1v 2v 3v 4v 5v 6v 7v 8v 9v 0v av bv cv dv ev fv gv vu hv iv jv kv lv mv vh q] +     +     .  +  +  +  +     @  @  ++ }| /k Q| nv ov pv qv rv sv tv uv vv wv xv yv zv Av Bv /v Cv |_ $k 2_ $_ S$ H. @  @              @  +  +  H. S$ $_ Z( zd Ad Re Dv Ev Fv Gv Hv Iv %i Jv Kv Lv Mv Nv Ov Pv Qv Rv c4 ko _: S$    .     +  .  @  .  +  .  +  +  ++ ;> B7 s% Sv Tv Uv Vv zg Wv -v Xv Yv Zv `v  w .w Ag +w @w #w $w %w &w *w =w -w %k +_ $_ +     +     @  +  @  @  .  @        @  @  +  .  .  .  .  $; /, :! ;w U' <, V' }, |, @~ `$ c. .  @  .  @  .     .  .  +              +  .  @           +  @        @  /+ J. ## Z' $% >w /@ t& 0# :@ #' c. .  @  @     @  +  .  @  +        .     .  @  .  @  @  .              @  .     +  @  @  .  +  @  +  +  @  +  .  @     +  @  +     +  .     .        .  .     @  +  +  .  .  .     .     +     @  +  .  .     +  +     @  .  @     +     .  +  +  +  +     +     @  .     +  +  +     @  +     .        .  +  @     .  @  .     @  .        .  @  .  @           ",
"@  +  .  .  .  .  .     +     .  .  .  +  .     .  .  @  @  .  @  .     .  .  +              +  .  @           +  @        +  @  @  +  .  .     @  @           @     @  @     @  +  .  @  +        .     .  @  .  @  @  .              @  .     +  @  @  .  +  @  +  +  @  +  .  @     +  @  +     +  .     .        .  .     @  +  +  .  .  .     .     @  T. 0% U.  ) ,w 'w W% 3@ 4@ b+ .@ +     +     .  +  +  +  +     +     @  .     +  +  +     @  +     .        )  c@ 7, sq a/ '{ 9! b, c, {{ =) r  .  @  .  @                 +     @  .     +     +  )_ !_ 1. sf )w !w ~w {w ]w ^w /w (w _w :w <w [w }w |w 1w 2w 3w 4w 5w 6w 7w 8w 9w .v Ps P@ 5@ +  @  +     .  @     .  +     @  @  @  @  =& R| 0w aw bw cw dw ew fw gw hw iw jw kw lw mw K_ nw ow pw Ft Gt qw rw sw tw m. $_ @  @  S$ Y( !_ Ad uw vw ww :e xw Ue yw zw 5v Aw Bw Cw Dw Vi Ew Fw Gw Hw Iw Jw Kw Lw Mw Nw G. +     +  .  @           +  @        +  ++ @+ D% Ow Pw Qw Rw Sw Tw Uw Vw Ww Xw Yw Zw `w  x .x +x @x #x $x %x &x *x =x -x ;x >x Jp 1_ $_ @  @     @  .     +  @  @  .  +  @  +  +  @  +  .  +  %* !l /] ,x h, |> ^[ ~~ j, k, b. c. .     @  +  +  .  .  .     .     +     @  +  .  .     +  +     @  .  ++ @+ e+ 6@ 7@ d^ 'x )x !x `* -@ `  .  .     +  +  +     @  +     .        .  +  @     .  @  .     @  .        .  @  .  @                 +     @  .     .        +  +  +     +     @     .  @  @  .  +        @        +  +  @     .     +  .  @  .  +  .  +  +  @  +     .  @     .  +     @  @  @  @  .  +  +  .     .  .     +        @     @  +  @  @  .     +     @  +  @  @  .  @        @  ",
"@  @     @  +  .  @  +        .     .  @  .  @  @  .              @  .     +  @  @  .  +  @  +  +  @  +  .  @     +  @  +     +  .     .        .  .     @  +  +  .  .  .     .     +     @  +  .  .     +  +     @  .  @     +     .  +  +  +  +     +     @  .     +  +  +     @  +     .        .  +  @     .  @  .     @  .        .  @  .  @        )  .. +. .= 1] ~x :[ J' i@ t+ ]+ 5@ +  +     +     @     .  @  @  .  +        @        +  +  @     .     +     0% +> O^ {x 4{ 5{ ]x w, |[ h/ }^       +     @  @  @  @  .  +  +  .     .  .  @  Y( !_ 1. ^x /x (x _x :x <x [x }x |x 1x 2x 3x 4x 5x 6x 7x 8x 9x 0x ax bx cx dx (^ /[ ex fx ko c+ ^+ +  .  +  .     .  .  @  @  .  @  .     .     =& u2 p| gx hx ix jx m| kx lx mx nx ox nh px qx rx sx tx ux vx wx xx yx ^_ zx k< @_ S$ )_ Ax Bx =t Cx Dx Ex Fx bx Gx &| Hx Ix Jx Kx Lx Mx Nx Ox Px Qx Rx Gs Sx Tx Ux _: S$ +  +  @  +  +  @  +  .  @     +  @  +     @  ++ u+ }2 Vx Wx Xx Yx Zx `x  y .y +y @y #y $y %y 7i &y *y =y -y ;y >y ,y 'y )y !y ~y l_ Ou {y Vf @_ +  +  +  +  +     +     @  .     +  +  +     @   . >, z, 5) B, 0{ a{ E, 2~ o[ Z  ^. .  @  .        .  @  .  @                 +     @  .     .        +  @  =& (+ v+ :+ x( ]y ^y z# r@ T- /y ^. %  @        +  +  @     .     +  .  @  .  +  .  +  +  @  +     .  @     .  +     @  @  @  @  .  +  +  .     .  .     +        @     @  +  @  @  .     +     @  +  @  @  .  @        @  @  +  .  .  .  .  .     +     .  .  .  +  .     .  .  @  @  .  @  .     .  .  +              +  .  @           +  @        +  @  @  +  .  .     @  @           @     ",
".  .  @  @  .  @  .     .  .  +              +  .  @           +  @        +  @  @  +  .  .     @  @           @     @  @     @  +  .  @  +        .     .  @  .  @  @  .              @  .     +  @  @  .  +  @  +  +  @  +  .  @     +  @  +     +  .     .        .  .     @  +  +  .  .  .     .     +     @  +  .  .     +  +     @  .  @     +     T. U+ t@ du (y r[ _y :y ]& b+ 5@ S$ +  +     @  +     .        .  +  @     .  @  .     @  .        .  @     I  5+ X- <y [y T, U, f{ g{ X, P# )        +  +  +     +     @     .  @  @  +  )_ !_ 1. ^x }y |y 1y 2y 3y 4y Lx 5y 6y 7y 8y 9y 0y ay by cy dy ey fy 9@ gy hy *t iy vw (e /e !_ 9_ ^+ +  +  .     .  .     +        @     @  +  @  @  .  @  =& jy ky ly M< my r_ ny oy py qy ry sy ty uy vy wy xy yy zy Ay !v By Cy j< w} Y( ]# |. Dy Ey Fy Gy Hy Iy Jy Ky Ly My Ny Oy Py Qy Ry Sy zk Ty Uy Vy Qi Wy Xy G. @  @  +  .  .     @  @           @     @  @     @  +  @  }| +_ o_ (v Cv Yy /v Zy `y Xx  z .z +z @z :j #z $z %z &z *z =z -z ;z >z ,z 'z )z rh !z ~z {y +_ $_ H. +     +  .     .        .  .     @  +  +  %* %; k9 {z  t j{ .' f~ @' 3^ <@ %     +  +     @  .  @     +     .  +  +  +  +     +     @  .     @  +  @  A@ e+ C@ ]z ^z /z 9% H@ I@ m+ b. c.    .     @  .        .  @  .  @                 +     @  .     .        +  +  +     +     @     .  @  @  .  +        @        +  +  @     .     +  .  @  .  +  .  +  +  @  +     .  @     .  +     @  @  @  @  .  +  +  .     .  .     +        @     @  +  @  @  .     +     @  +  @  @  .  @        @  @  +  .  .  .  .  .     +     .  .  .  +  .     ",
"   @  +  .  .     +  +     @  .  @     +     .  +  +  +  +     +     @  .     +  +  +     @  +     .        .  +  @     .  @  .     @  .        .  @  .  @                 +     @  .     .        +  +  +     +     @     .  @  @  .  +        @        +  +  @     .     +  .  @  .  +  .  +  +  @  +     .  @     .  +     @  @  @  @  .  +  +  .  )  .. c@ J@ K@ (z M@ y* 1& ]$ .+ G. @  .     +     @  +  @  @  .  @        @  @  +  .  .  .  .  .     +     )  U+ -' 6+ _z :z .} <z s{ %t 4& r        .  .  +              +  .  @  +  S$ 9_ [z {h }z |z 1z 2z 3z 4z 5z 6z 7z 8z 9z 0z az bz cz 4v 9g dz ez fz gz /e #k !_ Y( Y( S$ +  +  @  .  @  @  .              @  .     +  @  @  .  +  @  +  +  @  @  @  }| w} ky ly hz Uk iz jz kz lz mz nz oz kh pz `v qz rz sz tz uz vz wz xz m: yz zz Az Bz Cz qu Dz Ez Fz ev Gz Hz Iz Jz Kz Lz Mz Nz Oz Pz Qz Rz Nw )_ +  +  +  +  +     @  +     .        .  +  @     .  @  .     @  .  @  @  S$ H. H. #_ #_ 1_ Sz uh Tz >x Uz Vz Cy Wz Xz Yz Zz `z  A .A +A @A #A $A %A &A y  *A =A -A #_ H. @  @     +  +  @     .     +  .  @  .  ^+ n! S| o~ C/ v{ S] ;A >A I) T+ ^. .  @  @  @  @  .  +  +  .     .  .     +        @     @  +  @  @  .     ++ l@ T$ 1} ,A 'A )A !A x] C+ <@ 4+ .  .  .  .  .  .     +     .  .  .  +  .     .  .  @  @  .  @  .     .  .  +              +  .  @           +  @        +  @  @  +  .  .     @  @           @     @  @     @  +  .  @  +        .     .  @  .  @  @  .              @  .     +  @  @  .  +  @  +  +  @  +  .  @     +  @  +     +  .     .        .  .     @  +  +  .  .  .     .     +  ",
"@  +     +  .     .        .  .     @  +  +  .  .  .     .     +     @  +  .  .     +  +     @  .  @     +     .  +  +  +  +     +     @  .     +  +  +     @  +     .        .  +  @     .  @  .     @  .        .  @  .  @                 +     @  .     .        +  +  +     +     @     .  @  @  .  +        @        +  +  @     .     +     ++ r  U+ 4& }' 6& /+ ~A 8& K+ 6_ ^+ +  +     @  @  @  @  .  +  +  .     .  .     +        @     @  +  @  @     r  '& c& j; #e A] m; {A P: I{ /. )  @  +  .  .  .  .  .     +     +  +  )_ ]A ^A /A (A Si _A :A <A Rj [A }A |A 1A 2A 3A 4A 5A 6A 7A -u Re Qe 9_ Y( S$ S$ @     +  @  @  +  .  .     @  @           @     @  @     @  +  .  @  +        .     .  @  .  H. }| w} 3. 8A 9A 0A aA Qw bA cA dA eA fA gA `w wg hA iA jA kA lA mA F. ,4 nA oA pA qA fv rA 3h sA tA uA vA wA xA yA zA AA BA {h CA l. 9_ +  @  +  .  .     +  +     @  .  @     +     .  +  +  +  +     +     @  .     +  +  +  @  @  +  @  H. =& #_ N_ DA EA th FA GA HA IA JA KA LA MA mx NA OA PA QA RA SA TA Rk o_ $_ H. +     .        +  +  +     +     +  4+ 0' F] ~/ R/ t; S/ UA 9$ w; i' c. +  @     .     +  .  @  .  +  .  +  +  @  +     .  @     .  +     @  @  /+ J. ## 03 =$ VA b& N~ ]< r> S. c.    @     @  +  @  @  .     +     @  +  @  @  .  @        @  @  +  .  .  .  .  .     +     .  .  .  +  .     .  .  @  @  .  @  .     .  .  +              +  .  @           +  @        +  @  @  +  .  .     @  @           @     @  @     @  +  .  @  +        .     .  @  .  @  @  .              @  .     +  @  @  .  +  @  +  +  @  +  .  @     +  ",
"      .     .  @  .  @  @  .              @  .     +  @  @  .  +  @  +  +  @  +  .  @     +  @  +     +  .     .        .  .     @  +  +  .  .  .     .     +     @  +  .  .     +  +     @  .  @     +     .  +  +  +  +     +     @  .     +  +  +     @  +     .        .  +  @     .  @  .     @  .        .  @  .  @                 +        )  U+ L* U= '# WA !# XA YA ]# 5@ G. .  .  @  @  .  +        @        +  +  @     .     +  .  @  .  +  .  +  )  [* L] +! D; B} c8 `/ )~ w' X~ r     @  .  +  +  .     .  .     +  +  9_ U_ ZA `A  B .B +B Qj @B #B $B %B &B *B =B -B ;B >B ,B Hk !_ )_ +  +  .  +  .     +     .  .  .  +  .     .  .  @  @  .  @  .     .  .  +              +  .  @           +  @        @  =& /_ 'B )B !B ~B {B ]B ^B %u /B #y (B _B :B <B [B }B |B C@  @ 1B 2B 3B 4B 5B 6B 7B 8B 9B 0B aB bB cB !w dB >B eB fB !_ Y( +  +  @  +  +  @  +  .  @     +  @  +     +  .     .        .  .     @  +  +  .  .  .     .     +     @  +  .     @  H. $_ /_ 'B ;: gB hB 0A iB t} ny jB kB lB +A mB nB oB pB qB Wx j3 +_ H. @  +     .        .  +  @     .  .  J; P] L; Z} R] O; >! ,! $( 0$ b. %           +     @  .     .        +  +  +     +     @     .  @  @  .  ++ @+ 2& ^$ rB F% :# :* j& sB -@ ^.  . .  @  .  +  .  +  +  @  +     .  @     .  +     @  @  @  @  .  +  +  .     .  .     +        @     @  +  @  @  .     +     @  +  @  @  .  @        @  @  +  .  .  .  .  .     +     .  .  .  +  .     .  .  @  @  .  @  .     .  .  +              +  .  @           +  @        +  @  @  +  .  .     @  @           @     @  @     @  +  .  @  +  ",
"+     +     @     .  @  @  .  +        @        +  +  @     .     +  .  @  .  +  .  +  +  @  +     .  @     .  +     @  @  @  @  .  +  +  .     .  .     +        @     @  +  @  @  .     +     @  +  @  @  .  @        @  @  +  .  .  .  .  .     +     .  .  .  +  .     .  .  @  @  .  @  .     .  .  +              +  .  @           +  @  )  .. @$ [$ H' 1# kf tB H8 4# 6_ G. .     @     @  @     @  +  .  @  +        .     .  @  .  @  @  .           J  &* X; {! ]! uB ,( .> c$ (! J     @  +  .  @     +  @  +  @  +  G. m: Mw vB wB xB yB uk zB AB BB CB DB EB FB GB HB V_ fB !_ )_ +  .     +  +     @  .  @     +     .  +  +  +  +     +     @  .     +  +  +     @  +     .        .  +  @     .  @  .     @  .     @  @  @_ /_ d:  o =u Ou ;x IB JB KB LB MB NB %9 OB PB QB RB SB TB UB  9 VB WB XB cx dx k# /[ YB ZB Qu Hk !_ )_ S$ +     .     +  .  @  .  +  .  +  +  @  +     .  @     .  +     @  @  @  @  .  +  +  .     .  .     +        @     @  +  @  @  .     H. =& /_ 'B `B  C .C +C @C #C $C %C &C Hu *C =C -C ;C >C -: N_ $_ +  .  +  .     .  .  @  @  .  +  $; +% @> ;g 1| ;9 [! ,C 'C )C $' c. .        +  @        +  @  @  +  .  .     @  @           @     @  @  @  /+ (+ 5# q& 7# !C 9# (@ _@ 0$ ;# ^. .  @  .              @  .     +  @  @  .  +  @  +  +  @  +  .  @     +  @  +     +  .     .        .  .     @  +  +  .  .  .     .     +     @  +  .  .     +  +     @  .  @     +     .  +  +  +  +     +     @  .     +  +  +     @  +     .        .  +  @     .  @  .     @  .        .  @  .  @                 +     @  .     .        +  +  ",
"   @  .     +  @  @  .  +  @  +  +  @  +  .  @     +  @  +     +  .     .        .  .     @  +  +  .  .  .     .     +     @  +  .  .     +  +     @  .  @     +     .  +  +  +  +     +     @  .     +  +  +     @  +     .        .  +  @     .  @  .     @  .        .  @  .  @                 +     @  .     .        +  +  +     +     @  r  U+ 0* v& -^ ;^ e# ~C a+ b+ 5@ +  +  @     .     +  .  @  .  +  .  +  +  @  +     .  @     .  +     @  @  )  a% @. 7! {C {] ){ ]C ^C _> P# T.    @     @  +  @  @  .  .  G. )_ :: c4 /C Qv (C _C :C Mv <C [C }C |C 1C Fs 2C 3C Xy )_ +  +  +  .  +  .     .  .  @  @  .  @  .     .  .  +              +  .  @           +  @        +  @  @  +  .  .     @  @           @     @  @     @  +  @  =& #_ hi 4C -A Yy 5C 6C 7C 8C 9C 0C aC bC H7 cC dC r8 eC fC gC hC a_ Dv (e eu iC 9_ jC +  +     +  @  +     +  .     .        .  .     @  +  +  .  .  .     .     +     @  +  .  .     +  +     @  .  @     +     .  +  +  +  +     +     @  +  @  @_ hi kC 8A `o lC mC nC qv oC pC qC rC sC tC Iq !B d: #_ @        .  @  .  @           .  %* <> [> 9# m9 ({ 1> ~) <( g! m$  .    +     @     .  @  @  .  +        @        +  +  @     .     +     ++ A@ G# f$ i# ^) [( () i* h~ b@ b. c. +     @  @  @  @  .  +  +  .     .  .     +        @     @  +  @  @  .     +     @  +  @  @  .  @        @  @  +  .  .  .  .  .     +     .  .  .  +  .     .  .  @  @  .  @  .     .  .  +              +  .  @           +  @        +  @  @  +  .  .     @  @           @     @  @     @  +  .  @  +        .     .  @  .  @  @  .           ",
".  .     +  +     @  .  @     +     .  +  +  +  +     +     @  .     +  +  +     @  +     .        .  +  @     .  @  .     @  .        .  @  .  @                 +     @  .     .        +  +  +     +     @     .  @  @  .  +        @        +  +  @     .     +  .  @  .  +  .  +  +  @  +     .  @     .  +     @  @  @  @  .  +  +  .  )  .. c@ uC %' vC 62 wp u# *& ]+ G. @  .     +     @  +  @  @  .  @        @  @  +  .  .  .  .  .     +        U+  % A- U% c> C- e> f> l! m! ..       .  .  +           @  G. c+ 3C wC xC yC zC AC BC CC DC EC FC GC Fs HC U_ Xy IC @           &  &  &  I* I* Ik W* -  Ik -  Qk Ik '  $  &  %        .              @  .     +  @  @  .  +  @  +  +  @  +  .  @     +  @  +     +  .     .        .  .  @  @  @  H. H. (+ JC KC LC MC C9 NC OC <6 PC QC 18 RC SC TC UC c+ Y( H. +  @  .  +  +  +  +     +     @  .     +  +  +     @  +     .        .  +  @     .  @  .     @  .        .           &  #  I* Qk Qk Ik -  Qk Ik Qk '  I* #  %  .  .     +  ++ =& /_ U[ VC WC XC YC ZC `C  D .D +D @D #D $D ~[ {[ #_ H.    @  .  +  .  +  +  @  +   . >, o! V9 l> |^ %D &D b] 9) m+ ^. +  +  .     .  .     +        @     @  +  @  @  .     +     @  +  @  @  ++ (+ v+ ~= *D =D 2^ y$ -D 3^ W@ D* .  +     .  .  .  +  .     .  .  @  @  .  @  .     .  .  +              +  .  @           +  @        +  @  @  +  .  .     @  @           @     @  @     @  +  .  @  +        .     .  @  .  @  @  .              @  .     +  @  @  .  +  @  +  +  @  +  .  @     +  @  +     +  .     .        .  .     @  +  +  .  .  .     .     +     @  +  ",
"@  .        .  @  .  @                 +     @  .     .        +  +  +     +     @     .  @  @  .  +        @        +  +  @     .     +  .  @  .  +  .  +  +  @  +     .  @     .  +     @  @  @  @  .  +  +  .     .  .     +        @     @  +  @  @  .     +     @  +  @  @  .  @        @  @  +  .  .  .  .  .     +     .  .  .  +     r  U+ (. *3 :. 5m ;D R& S& b+ 5@ +              +  .  @           +  @        +  @  @  +  .  .     @  @     r  [@ w! f] g] y! z! h] >D Mn +. )        .     .  @  .  +  S$ e4 3q +v ,D 'D )D !D ~D {D ]D ^D /D (D R_ _D m: G. +  %  &  I* -  3m :D <D [D nl }D |D /  6t 1D 2D 3D 4D 5D 6D U* 7D V* >  Ik #  .  .  @  +  .  .     +  +     @  .  @     +     .  +  +  +  +     +     @  .     +  +  +     @  +     .     ]7 8D 9D LC %9 0D aD bD O4 cD Ea dD Y7 eD fD gD .                 +     @  .     .        +  +  +     +     @     .  @  @  .  +        @        +  +        %  #  I* hD 3m iD jD H+ nl kD lD (  /  1D (  3D mD xl nD oD Nk Ok Ik '  %  .     ++ yd p| gx pD qD rD sD tD uD vD wD xD yD zD AD hi H. +  @  @  .  @        @  +  :> E| m) BD E! K> F! CD DD H! <@ c. +  .     .  .  @  @  .  @  .     .  .  +              +  .  @        )  A@ e+ I! I# `6 ED W& 9. FD :' :) c. .           @     @  @     @  +  .  @  +        .     .  @  .  @  @  .              @  .     +  @  @  .  +  @  +  +  @  +  .  @     +  @  +     +  .     .        .  .     @  +  +  .  .  .     .     +     @  +  .  .     +  +     @  .  @     +     .  +  +  +  +     +     @  .     +  +  +     @  +     .        .  +  @     .  @  .     ",
".     +     .  .  .  +  .     .  .  @  @  .  @  .     .  .  +              +  .  @           +  @        +  @  @  +  .  .     @  @           @     @  @     @  +  .  @  +        .     .  @  .  @  @  .              @  .     +  @  @  .  +  @  +  +  @  +  .  @     +  @  +     +  .     .        .  .     @  +  +  .  .  .     .     +  )  0% c@ Z& f. GD HD ~& `+ ]# .@ S$    +     .  +  +  +  +     +     @  .     +  +  +     @  +     .        )  a$ n( [; g^ |; O! G7 A) P! 5; |  .  @  .  @              +  m: ID JD KD LD MD ND OD PD QD RD SD hC _D m: ^+ %  #  P* TD UD VD m- WD XD YD ZD `D  E .E +E @E #E $E %E &E *E =E -E ;E >E ,E nm 'E zl >  Ik %  %     @  @  @  .  +  +  .     .  .     +        @     @  +  @  @  .     +     @  +  @  @  .     0% )E !E ~E {E ]E ^E /E <8 (E _E :E <E [E |4 <> 4+ .     .  .  @  @  .  @  .     .  .  +              +  .  @           +  @        +  @  @  .  %  &  }E P* |E 1E 2E 7t WD XD YD 3E 4E 5E .E +E +E #E #E %E 6E 7E 8E 9E 0E aE bE _  yl V* >  I* &  ++ jy cE dE eE fE gE hE iE jE kE lE mE nE >< N_ @_ +     +  .     .         . 6; B) j^ 9; E) oE pE H) qE 2+ ^. +  .  @  +  .  .     +  +     @  .  @     +     .  +  +  +  +     +  @  ++ @+ T$ rE +* sE tE uE Y$ ;, -@ ^. %  .  +  @     .  @  .     @  .        .  @  .  @                 +     @  .     .        +  +  +     +     @     .  @  @  .  +        @        +  +  @     .     +  .  @  .  +  .  +  +  @  +     .  @     .  +     @  @  @  @  .  +  +  .     .  .     +        @     @  +  @  @  .     +     @  +  @  @  .  @        @  @  +  .  .  .  .  ",
"   .  @  @  .  +        @        +  +  @     .     +  .  @  .  +  .  +  +  @  +     .  @     .  +     @  @  @  @  .  +  +  .     .  .     +        @     @  +  @  @  .     +     @  +  @  @  .  @        @  @  +  .  .  .  .  .     +     .  .  .  +  .     .  .  @  @  .  @  .     .  .  +              +  .  @           +  @           .. [* y. z. A. c. vE D. &$ ]+ G. +     @  @     @  +  .  @  +        .     .  @  .  @  @  .                 r  t@ wE xE k; l; =8  ~ d- T) U+    .  @     +  @  +  +  G. e4 yE zE AE BE CE DE EE FE 6q GE HE << IE +  $  P* TD JE KE LE ME NE OE PE QE RE SE TE UE VE WE :p XE YE YE ZE `E  F .F +F @F #F $F %F &F *F _  =F Al Ik $  &     .  +  @     .  @  .     @  .        .  @  .  @                 +     @     T. *  -F _> ;F >F ,F 'F )F !F :> ~F 'd 4c {F ]F ^F W! /F ,  %  .  +  +  @     .     +  .  @  .  +  .  +  +  @  +     .  @     .  +     @  @     &  I* P* ]  Q& (F LE _F :F <F [F }F |F SE 1F 2F 3F 4F XE 5F 6F 7F 8F 9F 0F aF bF cF dF eF fF gF hF )n iF jF #  @# 4s kF lF mF nF oF pF qF rF sF tF uF 8A N_ @_ +     .  .  +            . p; U) r1 s; t; l( +~ Z) ^/ i' c. @  @  +  .  .     @  @           @     @  @     @  +  .  @  +        @  @# (+ M+ $# j# vF &~ >$ ~* :@ ;# c. .     +  @  @  .  +  @  +  +  @  +  .  @     +  @  +     +  .     .        .  .     @  +  +  .  .  .     .     +     @  +  .  .     +  +     @  .  @     +     .  +  +  +  +     +     @  .     +  +  +     @  +     .        .  +  @     .  @  .     @  .        .  @  .  @                 +     @  .     .        +  +  +     +     @  ",
".  @  .  +  .  +  +  @  +     .  @     .  +     @  @  @  @  .  +  +  .     .  .     +        @     @  +  @  @  .     +     @  +  @  @  .  @        @  @  +  .  .  .  .  .     +     .  .  .  +  .     .  .  @  @  .  @  .     .  .  +              +  .  @           +  @        +  @  @  +  .  .     @  @           @     @  @     @  )  U+ K  oq M, wF xF Z. 0k  + .@ S$ @  .              @  .     +  @  @  .  +  @  +  +  @  +  .  @     +  @  )  +. L] /= >~ N] F; `/ )~ &! 5+ r     +  .  .  .     .  +  Q: yF zE zF AF BF CF DF Ms EF FF GF n: G. $  0t y> HF Er IF JF KF LF MF NF OF PF QF RF SF TF UF VF WF XF YF ZF `F  G .G +G @G #G $G %G &G *G =G -G ;G >G ,G 'G Al '  %        +     @  .     .        +  +  +     +     @     .  @  @  .     T. )G Ds !G ~G {G ]G ^G /G (G _G c  :G <G [G }G |G 1G 2G 3G 4G rs }        .  +     @  @  @  @  .  +  +  .     .  .     +        @     @  .  T. =  5G =3 6G 7G 8G 9G 0G LF aG NF OF bG cG dG SF eG fG fG <o gG <o hG iG jG kG lG mG nG oG pG qG rG 9  sG tG uG vG V* Qk A@ wG Bu xG yG zG AG BG CG DG EG FG 8A ,< =& +  @  @  +  .  .     +  Y~ K; L; !~ -! O; >! ,! U] 0$ b. .     +        .     .  @  .  @  @  .              @  .     +  @  @     @  @+ ^# {b ]~ GG Z1 =+ !% _) }# `  %  .  .     .        .  .     @  +  +  .  .  .     .     +     @  +  .  .     +  +     @  .  @     +     .  +  +  +  +     +     @  .     +  +  +     @  +     .        .  +  @     .  @  .     @  .        .  @  .  @                 +     @  .     .        +  +  +     +     @     .  @  @  .  +        @        +  +  @     .     +  ",
"@        +  @  @  +  .  .     @  @           @     @  @     @  +  .  @  +        .     .  @  .  @  @  .              @  .     +  @  @  .  +  @  +  +  @  +  .  @     +  @  +     +  .     .        .  .     @  +  +  .  .  .     .     +     @  +  .  .     +  +     @  .  @     +     .  +  +  +  +     +     @  .     +  +  +     )  r  +. [$ HG 7+ W; IG 3$ 4# ]+ G. +     @  .        .  @  .  @                 +     @  .     .        +     .. &* 8+ JG ]! .^  > KG 6~ h/ J        @        +  +  S$ e4 yE zE LG MG BF NG OG PG QG qt RG V< %  5G *= os SG TG UG VG WG XG YG ZG `G  H .H +H @H #H $H %H %H &H &H 2n *H =H -H ;H `F |o >H ,H 'H )H !H ~H {H ]H ^H /H (H _H :H <  '  %  .  .     +     .  .  .  +  .     .  .  @  @  .  @  .        T. d  <H [H }H |H 1H 2H 3H 4H 5H 6H 7H 8H 9H 0H aH bH cH dH eH fH gH q  hH          @     @  @     @  +  .  @  +        .     .  @  .     T. =  iH jH os kH lH UG mH WG nH oH pH qH rH sH tH @H uH vH %H wH 2n 2n xH 3n yH 6p zH AH BH CH DH EH FH GH HH IH JH KH LH MH _H =F *  G$ 4. NH OH PH 9s 0s QH RH SH TH Y} yd H. @  .  +  +  +  +      . +% @> ;g 1| 0{ {| UH => =] F& }  .        .  +  @     .  @  .     @  .        .  @  .  @                 /+ (+ ib 6# VH U^ WH |+ @m T% 3+ }  .     @     .  @  @  .  +        @        +  +  @     .     +  .  @  .  +  .  +  +  @  +     .  @     .  +     @  @  @  @  .  +  +  .     .  .     +        @     @  +  @  @  .     +     @  +  @  @  .  @        @  @  +  .  .  .  .  .     +     .  .  .  +  .     .  .  @  @  .  @  .     .  .  +              +  .  @           +  ",
"+  @     .  @  .     @  .        .  @  .  @                 +     @  .     .        +  +  +     +     @     .  @  @  .  +        @        +  +  @     .     +  .  @  .  +  .  +  +  @  +     .  @     .  +     @  @  @  @  .  +  +  .     .  .     +        @     @  +  @  @  .     +     @  +  @  @  .  @        @  @  +  .  .     )  a$ X~ ^: w& c$ !> e$ 6!  @ 5@ ^+ .  @  @  .  @  .     .  .  +              +  .  @           +  @        )  z% uC XH #) YH ){ ZH !^ _> d. T. @     @  @     @  ^+ .+ `H  I .I MG +I NG @I #I $I t< %I +# 0t &I *I =I -I ;I >I ,I 'I )I !I ~I Vp {I ]I ^I /I (I _I :I <I [I }I |I 1I 2I 3I 4I 5I 6I 7I 8I 9I 0I aI bI cI dI eI fI gI 6= hI iI jI kI rs $     .  +     @  .  @     +     .  +  +  +  +     +     )  d  lI mI nI oI pI qI rI sI tI uI vI W* j> wI xI yI zI AI BI CI DI EI FI H  %  .  @                 +     @  .     .        +  .  .  #  =  GI &I *I HI II JI KI LI MI NI OI PI QI RI ]I ^I SI TI UI VI WI XI YI ZI `I  J .J +J @J #J $J %J &J *J =J -J ;J >J ,J 'J )J !J ~J iI {J Ir N^ ]J ^J /J (J _J :J <J [J }J |J [| /_ H.    @  +  @  @  .  +  %* <> k9 ~^ q| e! 1J :] 3> .t H  .     .  .  .  +  .     .  .  @  @  .  @  .     .  .  +              +     A@ e+ h# 7% 2J 3J j$ i* 4J F& `  c. .  .     @  @           @     @  @     @  +  .  @  +        .     .  @  .  @  @  .              @  .     +  @  @  .  +  @  +  +  @  +  .  @     +  @  +     +  .     .        .  .     @  +  +  .  .  .     .     +     @  +  .  .     +  +     @  .  @     +     .  +  +  +  +     +     @  .     +  +  +     @  +     .        .  ",
"+  @  +  +  @  +  .  @     +  @  +     +  .     .        .  .     @  +  +  .  .  .     .     +     @  +  .  .     +  +     @  .  @     +     .  +  +  +  +     +     @  .     +  +  +     @  +     .        .  +  @     .  @  .     @  .        .  @  .  @                 +     @  .     .        +  +  +     +     @     .  @  )  J  +. k* G& H& q$ 0> i~ 4# .+ ^+ +     +  .  @  .  +  .  +  +  @  +     .  @     .  +     @  @  @  @  .  @  U+ S' L, y] 5J 7] e> f> l! X@ J  @  +  @  @  .  .  ^+ 5@ 6J 7J 8J 9J @I 0J aJ bJ cJ dJ eJ Ik fJ *I gJ hJ h  iJ jJ kJ lJ mJ nJ oJ pJ qJ rJ sJ tJ uJ vJ wJ xJ yJ -o zJ AJ BJ CJ DJ EJ FJ GJ HJ IJ JJ KJ LJ MJ NJ OJ PJ QJ RJ SJ TJ UJ VJ WJ XJ 'G Ik %  .  @  @     @  +  .  @  +        .     .  @     0% 4) YJ ZJ `J  K .K +K @K #K $K %K &K Ik *K =K -K ;K >K ,K 'K )K !K ~K {K ]K c  .  .     .        .  .     @  +  +  .  .  .     &  %= ^K /K C# gJ (K h  iJ _K :K <K [K }K |K pJ qJ 1K 2K 3K 4K vJ 5K xJ yJ 6K zJ AJ CJ -E 7K 8K 9K 0K aK bK cK dK eK fK gK QJ hK iK jK kK lK mK nK oK pK 3m t$ qK rK sK tK uK vK wK xK yK zK @_ @  +        +  +  +   . i> d| 5( 0] AK T| &D L( _' f( }  .        +  +  @     .     +  .  @  .  +  .  +  +  @  +     .  @        =& l@ _+ BK $3 CK DK N& w> w= D+ ^. .     +        @     @  +  @  @  .     +     @  +  @  @  .  @        @  @  +  .  .  .  .  .     +     .  .  .  +  .     .  .  @  @  .  @  .     .  .  +              +  .  @           +  @        +  @  @  +  .  .     @  @           @     @  @     @  +  .  @  +        .     .  @  .  @  @  .              @  .     +  @  @  .  ",
"   .  +  +  +  +     +     @  .     +  +  +     @  +     .        .  +  @     .  @  .     @  .        .  @  .  @                 +     @  .     .        +  +  +     +     @     .  @  @  .  +        @        +  +  @     .     +  .  @  .  +  .  +  +  @  +     .  @     .  +     @  @  @  @  .  +  +  .     .  .     +        I  x. U- =/ EK FK C$ y~ S& ]+ 5@ ^+ @  @  .  @        @  @  +  .  .  .  .  .     +     .  .  .  +  .        r  [@ ,/ T( F{ Jn GK HK >D X( #; T.       +  .  @  +  5@ j@ ym IK JK KK LK aJ bJ .I MK oc NK OK PK QK RK SK TK UK VK WK XK YK ZK `K  L .L +L @L #L $L %L 5m &L *L R* =L R* -L ;L >L ,L 'L )L !L tG ~L ~J {L ]L ^L /L (L _L :L <L [L }L ,q |L 1L 2L 3L Al }  %     .  .     @  +  +  .  .  .     .     I  )> n/ 4L 5L 6L 7L 8L 9L 0L aL bL :r d  %  m$ 2+ cL dL w> eL fL gL hL iL jL cL `$ c. +     @  +     .        .  +  @     .     #  )G kL lL mL nL oL pL qL UK VK WK XK rL sL tL  L .L uL @L vL wL xL VD H+ yL R* zL R* zL yl AL _  BL CL DL EL FL GL HL IL JL KL LL ML NL OL PL QL RL SL TL UL VL Q8 WL XL Y* YL ZL `L  M .M +M n[ @_ @  @  .  +  +  .  .  :> H> I> D! @M #M $M f' &_ K{ ;# %  .     +     @  +  @  @  .  @        @  @  +  .  .  .  .  .     +     @  /+ G$ H$ 03 M~ %M 8. u* 0. w) S. c.    .  .  +              +  .  @           +  @        +  @  @  +  .  .     @  @           @     @  @     @  +  .  @  +        .     .  @  .  @  @  .              @  .     +  @  @  .  +  @  +  +  @  +  .  @     +  @  +     +  .     .        .  .     @  +  +  .  .  .     .     +     @  +  .  .     +  +     @  .  @     +  ",
".        +  +  +     +     @     .  @  @  .  +        @        +  +  @     .     +  .  @  .  +  .  +  +  @  +     .  @     .  +     @  @  @  @  .  +  +  .     .  .     +        @     @  +  @  @  .     +     @  +  @  @  .  @        @  @  +  .  .  .  .  .     +     .  .  .  +  .     .  .  @  @  .  @  .     .  .  +     )  U+ L* d= v/ O$ P$ y* V# ]$ .+ ^+ .  +  @  @  +  .  .     @  @           @     @  @     @  +  .  @  +     )  /. q' Y> /< &M l; S{ ., *M 5; |     @  .     +  @  G.  @ t| =M -M ;M >M ,M 'M )M !M 65 ~M {M ]M ^M SK /M UK (M _M :M <M [M }M |M 1M 2M ~n y> 3M Q* P* I* I* &  %  %  %  &  %  %  $  $  ,  Ik pm ss 4M 5M 6M 7M 8M 9M 0M aM bM cM dM eM fM gM hM iM jM kM /F ,  %  .  .  +  @     .  @  .     @  .  )  [* .= lM mM nM oM pM qM rM sM tM uM C{ &     c. c  vM wM l+ xM yM zM AM BM CM v* O_ `  %  +        @        +  +  @     .  &  *  DM EM FM GM HM IM JM KM LM _M :M MM NM OM PM 1M QM RM y> ]  SM P* Qk I* #  &  %  &  %  &  #  $  '  TM UM pm 'G 5t VM WM XM 1L YM ZM `M  N .N +N @N #N $N %N &N *N =N B! -N ;N >N ,N 'N )N !N ~N {N R| H. .  @  @  .  @  .  .  #, B) V{ $, ]N ;! 4_ Tb Z{ a# ^. .     +  @        +  @  @  +  .  .     @  @           @     @  @     @  ++ @+ 2& @@ +* $@ X$ }/ ^N Z$ -@ ^. .  .              @  .     +  @  @  .  +  @  +  +  @  +  .  @     +  @  +     +  .     .        .  .     @  +  +  .  .  .     .     +     @  +  .  .     +  +     @  .  @     +     .  +  +  +  +     +     @  .     +  +  +     @  +     .        .  +  @     .  @  .     @  .        .  @  .  @                 +     @  .     ",
"+  .  @  +        .     .  @  .  @  @  .              @  .     +  @  @  .  +  @  +  +  @  +  .  @     +  @  +     +  .     .        .  .     @  +  +  .  .  .     .     +     @  +  .  .     +  +     @  .  @     +     .  +  +  +  +     +     @  .     +  +  +     @  +     .        .  +  @     .  @  .     @  .           r  /. y. z. p< #^ t# )@ L/ ]+ G. +     .        +  +  +     +     @     .  @  @  .  +        @        @  @  .. X@ V^ !, |v /N 3/ (N R' T) U+    @  +     .  @  +  ]+ Sl `g _N :N <N [N }N |N ym != Cs 1N 2N 3N 4N 5N 6N 7N 8N 9N 0N aN bN 3  *= NK cN *  #        .  @        @  @  +  .  .  .  .  .     +  .  %  c. c  rs 9= 3L 8= fH dN eN fN gN hN iN jN kN lN mN nN oN pN rs }              +  @        +  @  af qN rN sN 7_ l; tN uN vN wN xN yN !        @  .  .  c. S. :@ 9) zN AN BN CN Y9 DN K[ }# c.          @  .     +  @  @     &  1  EN FN GN HN IN JN KN rI LN MN NN 0N aN bN 3  ON PN 3m =  #  &     .  .  .  .     .     +     @  +  .  .     .   . $  != QN a  RN SN TN UN VN WN XN YN ZN `N  O .O +O @O #O $O 2a %O &O *O =O -O ;O Kj Lj >O H. @  .  @  .     @  $; E] %] _, U' <, -{ r6 ;{ 7- s1 c. +     @  .     .        +  +  +     +     @     .  @  @  .  +        @  @# G$ #~ #% ]@ K* &% >$ Q. :@ S. 4+ .  .  +  +  @  +     .  @     .  +     @  @  @  @  .  +  +  .     .  .     +        @     @  +  @  @  .     +     @  +  @  @  .  @        @  @  +  .  .  .  .  .     +     .  .  .  +  .     .  .  @  @  .  @  .     .  .  +              +  .  @           +  @        +  @  @  +  .  .     @  @           @     @  @     @  ",
".  @  .  @  @  .              @  .     +  @  @  .  +  @  +  +  @  +  .  @     +  @  +     +  .     .        .  .     @  +  +  .  .  .     .     +     @  +  .  .     +  +     @  .  @     +     .  +  +  +  +     +     @  .     +  +  +     @  +     .        .  +  @     .  @  .     @  .        .  @  .  @              T. 0% K  '$ =% ,O M* z& 4@ ]$ .+ ^+ .  +     @     .  @  @  .  +        @        +  +  @     .     +  .  @  )  c@ e- 1% a/ 0, 9! b, c, 'O 5+ T. @     @  @  +  +  .@ &$ x) )O !O ~O $l {O ]O |k ^O /O (O _O :O <O [O }O 8N |O 1O 2O 3O 4O 5O {  !  &  &     @  +  .  .  .  .  .     +     .  .  .  +  .     .  .  @  @  +  +  ^+  . `  6O FI 7O 8O 9O 0O aO bO #p cO dO eO fO hs gO hO }     @  +  .  .     @  @  )  @b iO jO kO lO mO !{ nO oO pO J           .     .  @  .  .  `  '| qO rO sO t; tO uO vO ][ 4+ @  .  +  @  +  +  @  @  .  T. wO xO r[ yO zO AO BO ep CO DO EO FO GO HO IO JO KO T. @  H. @  +  @  +     @  +  .  .     +  +     @  .  @     +     .  +  .  .  c. != q  LO MO NO OO PO QO RO SO TO $p UO VO WO XO PN YO ZO `O  P .P +P @P #P o4 V1 @  .  @  .  @     .  %* ][ $1 ^{ /{ ]^ ^[ $P j, s@ b.  . +  +     +     @     .  @  @  .  +        @        +  +  @     .     @  P_ W# X* %P '% [{ <# !% ;+ -@ b. .     .  +     @  @  @  @  .  +  +  .     .  .     +        @     @  +  @  @  .     +     @  +  @  @  .  @        @  @  +  .  .  .  .  .     +     .  .  .  +  .     .  .  @  @  .  @  .     .  .  +              +  .  @           +  @        +  @  @  +  .  .     @  @           @     @  @     @  +  .  @  +        .     ",
"+     @  .     .        +  +  +     +     @     .  @  @  .  +        @        +  +  @     .     +  .  @  .  +  .  +  +  @  +     .  @     .  +     @  @  @  @  .  +  +  .     .  .     +        @     @  +  @  @  .     +     @  +  @  @  .  @        @  @  +  .  .  .  .  .     +     .  .  .  +  .     .  .  @  @  .  )  r  c@ p# g. ^% __ 2$ f/ P@ ]+ ^+ +           +  @        +  @  @  +  .  .     @  @           @     @  @     0% &* g/ 3{ &P *P ]x f> |[ 4) U+    @  @  .     .  ^+  @ =P -P ;P >P Pl Ql ,P V# SM 'P )P !P ~P {P ]P ^P /P (P 2O _P IO :P 1  #        .  .     @  +  +  .  .  .     .     +     @  +  .  .     +  +  @  +  G. zd <P +k [P Cd !_ o# 3, }P |P 1P 2P 3P 4P 5P 6P 7P 8P 9P 0P aP != %        .  +  @     )  bP cP dP eP fP gP hP 2{ (! 9< )                 +     @  .  .  >, n~ iP jP kP lP mP d[ d| #, .  .  @  @  .  +        r  nP 2q oP pP qP rP sP tP uP vP wP xP 77 IO &= T. m. _s yP Ed zP 1_ $_ H.    @  @  @  @  .  +  +  .     .  .     +        @     @  +  @      . }  b. aP AP BP CP DP EP FP GP HP ML IP JP KP LP pj MP NP OP PP QP RP SP R| H. +     .  .  @  @  $; >, z, i/ 9{ 0{ a{ TP b{ o[ $' 4+ .  @           +  @        +  @  @  +  .  .     @  @           @     @  /+ (+ -& :+ {= [+ [% UP VP A# <@ ^. .  .  @  @  .              @  .     +  @  @  .  +  @  +  +  @  +  .  @     +  @  +     +  .     .        .  .     @  +  +  .  .  .     .     +     @  +  .  .     +  +     @  .  @     +     .  +  +  +  +     +     @  .     +  +  +     @  +     .        .  +  @     .  @  .     @  .        .  @  .  @                 ",
"   @  +  @  @  .  @        @  @  +  .  .  .  .  .     +     .  .  .  +  .     .  .  @  @  .  @  .     .  .  +              +  .  @           +  @        +  @  @  +  .  .     @  @           @     @  @     @  +  .  @  +        .     .  @  .  @  @  .              @  .     +  @  @  .  +  @  +  +  @  +  .  @        I  U+ ', /= c) d{ 4% WP z@ b+ 5@ +  +  +  +  .  .  .     .     +     @  +  .  .     +  +     @  .  @     +  r  d. 7~ o/ 9~ XP Y^ V, YP X, P# T. @  +  +     @  ^+ q] ZP `P  Q .Q +Q @Q #Q $Q SM %Q &Q *Q =Q -Q ;Q >Q ,Q 'Q )Q tM :P C{ !     +     @  .     .        +  +  +     +     @     .  @  @  .  +        @  +  ^+ v_ gt !Q ~Q {Q )f !f /v w5 #, s@ ]Q ^Q /Q (Q _Q :Q <Q [Q }Q |Q n- 1Q != .  .  @  .  +  +  )  2Q  e 3Q 4Q 5Q 6Q 7Q :& L* )  .  @  @  .     +     @  +  @  +  4+ 8Q <3 9Q 0Q aQ bQ cQ dQ E]  . .     +           !  .< eQ fQ gQ hQ iQ jQ kQ lQ mQ nQ oQ tM pQ )  ~_ fu tf qQ rQ Dt sQ Rk ,< @_ @        +  @  @  +  .  .     @  @           @     @  @     @  +  .     .  %  c  s1 tQ {K uQ vQ wQ xQ yQ zQ AQ BQ CQ DQ EQ T^ FQ GQ HQ IQ JQ Xt /_ H. @  +  .  @     .  $; KQ &; Z, `, v2 e~ f~ @' l% #' .  @  +  +  .  .  .     .     +     @  +  .  .     +  +     @  .  @     @  A@ G$ f+ 7% h+ m{ 9% H@ I@ b@ S. c. +  +  +     @  +     .        .  +  @     .  @  .     @  .        .  @  .  @                 +     @  .     .        +  +  +     +     @     .  @  @  .  +        @        +  +  @     .     +  .  @  .  +  .  +  +  @  +     .  @     .  +     @  @  @  @  .  +  +  .     .  .     +        @     @  +  @  @  .     +  ",
".        .  +  @     .  @  .     @  .        .  @  .  @                 +     @  .     .        +  +  +     +     @     .  @  @  .  +        @        +  +  @     .     +  .  @  .  +  .  +  +  @  +     .  @     .  +     @  @  @  @  .  +  +  .     .  .     +        @     @  +  @  @  .     +     @  +  @  @     )  .. d. J@ <& s{ '4 f= =' t+ LQ ^+ +     .  .  .  +  .     .  .  @  @  .  @  .     .  .  +              +     x. [$ L, #t p{ ,' A/ d% %t X@ ..    .  .     @  +  5@ MQ NQ OQ PQ QQ RQ SQ zz ,  TQ UQ VQ WQ XQ YQ ZQ `Q 'P  R .R 1  !              @  .     +  @  @  .  +  @  +  +  @  +  .  @     +  @  +     +  .     +# ]+ uo (u +R @R #R $R %R &R Vz *R #k }# ;, =R -R ;R >R ,R 'R )R !R ~R {R 1Q [  .     +     .  d+ ]R ^R /R (R _R :R <R [R 0% @  +  +     @  +     .        .  +  +  i> `] }R |R 1R %5 2R 3R C! $; @  .  @        |  8< 4R 5R 6R 7R 8R 9R 0R aR bR cR dR 2  T. l. V_ ;B Dy eR fR gR hR iR jR kR jy ++    +  +  @     .     +  .  @  .  +  .  +  +  @  +     .  @     .  +     @  +  c. b. Z  lR mR nR oR pR qR rR sR tR uR vR wR xR yR zR AR BR CR p| /+ @  +  @  @  .  @   . t{ B) iP I: D/ w{ r~ (' J: DR ^. .  .  .  .  +  .     .  .  @  @  .  @  .     .  .  +              +     @# l@ J& */ ER FR j% k% Y$ C+ W@ ^. .  .     @  @           @     @  @     @  +  .  @  +        .     .  @  .  @  @  .              @  .     +  @  @  .  +  @  +  +  @  +  .  @     +  @  +     +  .     .        .  .     @  +  +  .  .  .     .     +     @  +  .  .     +  +     @  .  @     +     .  +  +  +  +     +     @  .     +  +  +     @  +     ",
"+  +  +     @  +     .        .  +  @     .  @  .     @  .        .  @  .  @                 +     @  .     .        +  +  +     +     @     .  @  @  .  +        @        +  +  @     .     +  .  @  .  +  .  +  +  @  +     .  @     .  +     @  @  @  @  .  +  +  .     .  .     +        @     @  +  @  @  .     )  /. ', n% B{ C{ q% 8& &$ ]+ G. +  +  .  .  .  .  .     +     .  .  .  +  .     .  .  @  @  .  @  .        r  0* 3' -3 4' 5' GR HR 8' G~ /. T. @  @        +  +  b+ IR JR KR LR MR NR  # t{ `: OR PR QR RR SR TR UR VR WR )G |           .  @  .  @  @  .              @  .     +  @  @  .  +  @  +  +  @  +  .  @  .  h4 MQ @2 XR YR ZR `R  S .S +S @S #S $S Tz .+ %S &S *S R+ =S -S ;S >S ,S 'S )S !S c  .  .  +     <] ~S :c _c (c {S ]S ^S cd I  +     +     @  .     +  +  +     @  +  -) K% /S 85 95 (S _S :S <S $; .     @     [S 8< }S |S 1S 2S 3S 4S 5S 6S 7S 8S 9S 1  9_ 0S aS bS cS dS &i eS fS gS hS iS jS ^& @# @  .  +        @        +  +  @     .     +  .  @  .  +  .  +  +  @  +     .  @  %  ^. ;# kS =@ lS mS nS oS pS qS rS sS tS uS vS wS xS yS  l zS AS @  @  @  .     +     $; l) BS I~ )< au K~ f' g' H! <@ c. .  .  .  .     +     .  .  .  +  .     .  .  @  @  .  @  .     .  .  @  @# ^& M+ s% L{ u% v% N~ ]< e; m$ c. .     +  @  @  +  .  .     @  @           @     @  @     @  +  .  @  +        .     .  @  .  @  @  .              @  .     +  @  @  .  +  @  +  +  @  +  .  @     +  @  +     +  .     .        .  .     @  +  +  .  .  .     .     +     @  +  .  .     +  +     @  .  @     +     .  +  +  +  +     +     @  .     ",
".     +  .  @  .  +  .  +  +  @  +     .  @     .  +     @  @  @  @  .  +  +  .     .  .     +        @     @  +  @  @  .     +     @  +  @  @  .  @        @  @  +  .  .  .  .  .     +     .  .  .  +  .     .  .  @  @  .  @  .     .  .  +              +  .  @           +  @        +  @  @  +  .  .     @  )  U+ K  V^ A% B% !# P{ Q{ ]# .+ ^+ @  +        .     .  @  .  @  @  .              @  .     +  @  @  .  +  )  x. {% CS s' &M DS S{  ( A> 5+ r  .        .     .  h4 ES FS GS HS IS JS G* }9 KS LS MS NS PR OS PS QS RS .R ~        @  .  @     +     .  +  +  +  +     +     @  .     +  +  +     @  +     .        .  +  <8 jb *' SS TS US VS mx WS XS YS ZS `S  T .T $k -@ cL +T @T #T $T %T &T *T =T F_ -T }  .     +  K6 <c ;T >T )7 ,T ^c 'T )T I  @        +  +  @     .     +  .  @  .  h4 jd !T ~T {T ]T ^T /T D5 4+ .  @     r  (T _T :T <T [T }T }T |T 1T 2T 3T EN !  v_ )% o: 4T .B 5T Vi 6T 7T 8T 9T 0T W2 aT -9 I  @        @  @  +  .  .  .  .  .     +     .  .  .  +  .     .  .  @  @  .  @  .     .  c. `  $' |/ v) bT cT dT eT fT gT hT iT jT kT lT mT nT oT wG =&       @  @        .  J; pT _/ `~ A' l< C' Y{ Z{ >- c  .  .     .  @  .  @  @  .              @  .     +  @  @  .  +  @  +  +  ++ `{ #+ rE q. F% qT !A *@ =@ n# ^.  .       .  .     @  +  +  .  .  .     .     +     @  +  .  .     +  +     @  .  @     +     .  +  +  +  +     +     @  .     +  +  +     @  +     .        .  +  @     .  @  .     @  .        .  @  .  @                 +     @  .     .        +  +  +     +     @     .  @  @  .  +        @        +  +  @     ",
".     @  @           @     @  @     @  +  .  @  +        .     .  @  .  @  @  .              @  .     +  @  @  .  +  @  +  +  @  +  .  @     +  @  +     +  .     .        .  .     @  +  +  .  .  .     .     +     @  +  .  .     +  +     @  .  @     +     .  +  +  +  +     +     @  .     +  +  +     @     .. /. [$ n& .% rT L% +] &$ ]+ 5@ +  @  .        .  @  .  @                 +     @  .     .        +  +  @  .. X@ c* M' N' l; 3/ &{ *{ (! s  T. @        +  +  ^+ oc /f v5 sT Rd tT uT 1* vT wT xT yT zT AT BT CT DT pQ T. &  @  @  @  @  .  +  +  .     .  .     +        @     @  +  @  @  .     +     @  +  @  @  .  +  (_ %a ET FT GT HT IT JT |j KT LT MT NT OT PT QT hi W@ v. v* RT ST H] TT UT VT WT XT 6O c. &  &  +. YT ZT `T  U .U +U @U sa ++       +  @  @  +  .  .     @  @        $; #U $U %U &U *U =U -U ;U `  %     r  .< >U ,U 'U 2S )U !U 2S ~U {U ]U .R &  ]# ^U /U (U _U :U <U [U }U |U 1U 2U 3U 4U 5U 6U d+ +     +  .     .        .  .     @  +  +  .  .  .     .     +     @  +  .  .     +  +     .  ^. <@ T- 7U 8U 9U #( 0U aU bU cU dU eU fU gU hU iU jU jy @  @  +     .     .  $; 4/ :! ={ U' q_ V' r6 ;{ =] H- }  .  @  .  @                 +     @  .     .        +  +  +     +     @  @# (+ ## mq P% >] /@ kU {( a# <@ c. .  @     .     +  .  @  .  +  .  +  +  @  +     .  @     .  +     @  @  @  @  .  +  +  .     .  .     +        @     @  +  @  @  .     +     @  +  @  @  .  @        @  @  +  .  .  .  .  .     +     .  .  .  +  .     .  .  @  @  .  @  .     .  .  +              +  .  @           +  @        +  @  @  +  .  ",
"@     .  @  .     @  .        .  @  .  @                 +     @  .     .        +  +  +     +     @     .  @  @  .  +        @        +  +  @     .     +  .  @  .  +  .  +  +  @  +     .  @     .  +     @  @  @  @  .  +  +  .     .  .     +        @     @  +  @  @  .     +     @  +  @  @  .  @        I  0% z%  ) U% lU e# mU 4@  @ 5@ ^+ +  .  +  .     .  .  @  @  .  @  .     .  .  +              +  .  @     T. d. @. ~9 #) nU oU b/ c, d, e, T.    @  @           5@ ES pU Yf qU rU sU tU uU vU wU yT MS xU yU 3% zU d  T.                @  .     +  @  @  .  +  @  +  +  @  +  .  @     +  @  +     +  .     .        .   . 9l AU BU CU DU EU FU GU HU IU JU KU LU MU NU ~N OU =& W@ l% {~ PU QU RU SU TU UU VU WU q  '  p% XU %/ YU ZU `U  V .V +V @V ++ +     .        .  +  @     .  @  .     +# #V $V %V &V *V =V -V o[ ;V Al =  .< tS >V ,V 'V )V !V [T <T ~V }S nP #  oc a+ {V ]V ^V :C /V (V _V :V <V [V }V |V 1V 2V 3V af .     +  .  @  .  +  .  +  +  @  +     .  @     .  +     @  @  @  @  .  +  +  .     .  .     .  c. S. T% 4V 5V yM 6V 7V 8V 9V 0V aV bV cV dV eV fV gV =&    @  @  +  .  .  .  J; K; f, ^{ hV )) 1J ~) /^ g! H  .  .  @  @  .  @  .     .  .  +              +  .  @           +  @     )  A@ #+ l, 7@ d^  & iV a@ ;+ n# b. %  .     @  @     @  +  .  @  +        .     .  @  .  @  @  .              @  .     +  @  @  .  +  @  +  +  @  +  .  @     +  @  +     +  .     .        .  .     @  +  +  .  .  .     .     +     @  +  .  .     +  +     @  .  @     +     .  +  +  +  +     +     @  .     +  +  +     @  +     .        .  +  ",
"   +     @  +  @  @  .  @        @  @  +  .  .  .  .  .     +     .  .  .  +  .     .  .  @  @  .  @  .     .  .  +              +  .  @           +  @        +  @  @  +  .  .     @  @           @     @  @     @  +  .  @  +        .     .  @  .  @  @  .              @  .     +  @  @  .  +  @  +  +  )  l& +. w- ]% x- s$ ,, u# _% ]+ ^+ +        .  .     @  +  +  .  .  .     .     +     @  +  .  .     +  +     0%  % A- U% |) 7] e> jV 3) [^ ..    @     @  .     ^+ oc nc kV lV mV nV oV aP pV qV rV sV tV uV vV wV 9< )  .        .  @  .  @                 +     @  .     .        +  +  +     +     @     .  @  @  .  +   . 4b 38 xV 9a yV zV AV 3v BV CV DV EV FV GV HV IV WL G#    /y g! JV KV LV MV NV ]| OV PV QV L: RV sM SV TV Bi F1 UV VV WV [4 )  @     @  +  @  @  .     +     @  +  @  +# -6 d6 XV YV ZV `V  W .W jM +W @W #W ip $W %W &W !U [T <T ~V *W nP !  h4 Pb =W -W ;W >W ,W 'W )W !W ~W {W ]W ^W /W (W _W :W I  +  @        +  @  @  +  .  .     @  @           @     @  @     @  +  .  @  +        .     .  @  .   . `  <W m# [W }W |W 1W 2W 3W U= 4W 5W 6W 7W 8W Bq yd @  +  .  @     +  @   . >, z, 5) 6) K( M- o> 8) P- f( c. .  +  .  .  .     .     +     @  +  .  .     +  +     @  .  @     +  @  ++ (+ _+ ;& w# >& y# s! r@ T- <@ 4+ .  +     @  +     .        .  +  @     .  @  .     @  .        .  @  .  @                 +     @  .     .        +  +  +     +     @     .  @  @  .  +        @        +  +  @     .     +  .  @  .  +  .  +  +  @  +     .  @     .  +     @  @  @  @  .  +  +  .     .  .     +        @     @  +  @  @  .  ",
".     .  .  @  @  .  @  .     .  .  +              +  .  @           +  @        +  @  @  +  .  .     @  @           @     @  @     @  +  .  @  +        .     .  @  .  @  @  .              @  .     +  @  @  .  +  @  +  +  @  +  .  @     +  @  +     +  .     .        .  .     @  +  +  .  .  .        r  a$ (. +! v@ 77 9W d] g) b+ 5@ +  .  @     +     .  +  +  +  +     +     @  .     +  +  +     @  +     .  r  [@ e] Y- 7^ 8^  ; h] >D @; +. T.       .  @  .  @  +# =c __ 0W aW bW cW dW eW fW gW hW tV iW vV wV 9<       @     .  @  @  .  +        @        +  +  @     .     +  .  @  .  +  .  +  +  @  +     .  @     .  ^+ c6 #b jW Y7 18 Ea kW 52 =u hx lW mW nW oW pW M~ qW @% /+ $; 3+ rW sW tW uW vW wW xW yW zW AW BW CW DW EW FW GW HW 8~ IW JW       +     .  .  .  +  .     .  .  @  @  $; f_ KW LW A' MW NW OW PW QW RW SW TW UW VW WW XW YW 'U ZW *W i} r  +  A0 `W  X .X +X @X #X $X %X &X *X v7 =X -X F6 ^c ;X )T )        .     .  @  .  @  @  .              @  .     +  @  @  .  +  @  +  +  @  +  .  @     +  @  +  .   . `  O~ >X ,X 'X )X !X ~X {X ]X ^X /X (X _X :X <X ++ +     @  +  .  .  .  :> k] m) 0^ C7 -; F! G! ,; H! <@ %  +  +     +     @  .     +  +  +     @  +     .        .  +  @     .  ++ /+ e+ I! I# J! [X L# c= I@ m+ b. c. .        +     @  .     .        +  +  +     +     @     .  @  @  .  +        @        +  +  @     .     +  .  @  .  +  .  +  +  @  +     .  @     .  +     @  @  @  @  .  +  +  .     .  .     +        @     @  +  @  @  .     +     @  +  @  @  .  @        @  @  +  .  .  .  .  .     +     .  .  .  +  ",
"         +  .  @           +  @        +  @  @  +  .  .     @  @           @     @  @     @  +  .  @  +        .     .  @  .  @  @  .              @  .     +  @  @  .  +  @  +  +  @  +  .  @     +  @  +     +  .     .        .  .     @  +  +  .  .  .     .     +     @  +  .  .     +  +     @  .  )  J  +. D7 K@ (; }X |& |X  @ .+ +  +  .     +  +  +     @  +     .        .  +  @     .  @  .     @  .     )  U+ .= [; y) |; 1; z) 3; *M X~ r     .     .        ^+ 1X 2X 3X 4X 5X 6X 7X ip 8X oM 9X 0X aX bX wV 9< T. @  +  @     .     +  .  @  .  +  .  +  +  @  +     .  @     .  +     @  @  @  @  .  +  +  .     .  .     ^+ 4b 5b cX dX eX fX gX hX c+ iX jX 04 kX lX =a mX nX lf @+ .   . /y oX pX qX rX sX tX uX vX wX xX yX zX AX BX CX DX EX X@ ]7 +  @  .     .  .  +              +  .  @  ^+ .5 uq FX GX HX IX JX #N KX LX MX NX OX PX QX RX SX TX UX VX r     ^+ ra W; WX XX YX ZX `X  Y K^ uw .Y +Y @Y #Y $Y %Y &Y +g )  @  .     +  @  @  .  +  @  +  +  @  +  .  @     +  @  +     +  .     .        .  .     @  +  +  .  .  .  .  o# *Y =Y -Y ;Y >Y ,Y 'Y )Y !Y ~Y 0T {Y ]Y ]J A@ +     .  +  +  +  +  .  #, p0 nj 9; ^Y a; b; /Y d; e; ^.    .        .  +  @     .  @  .     @  .        .  @  .  @              ++ u+ 2& @@ (Y 3& j% `# _Y W[ ]. %* .  +     @     .  @  @  .  +        @        +  +  @     .     +  .  @  .  +  .  +  +  @  +     .  @     .  +     @  @  @  @  .  +  +  .     .  .     +        @     @  +  @  @  .     +     @  +  @  @  .  @        @  @  +  .  .  .  .  .     +     .  .  .  +  .     .  .  @  @  .  @  .     .  .  +     ",
"@  .     .  .  +              +  .  @           +  @        +  @  @  +  .  .     @  @           @     @  @     @  +  .  @  +        .     .  @  .  @  @  .              @  .     +  @  @  .  +  @  +  +  @  +  .  @     +  @  +     +  .     .        .  .     @  +  +  .  .  .     .     +     @  +     r  /. t@ Y@ ,w /+ `@ 8& N% b+ G. ^+ +  +  +  +     +     @  .     +  +  +     @  +     .        .  +  @     r  (. c& j; P) l; m;  ~ Z= Y= s  )                 +  ^+ :Y !c <Y [Y }Y |Y qa 1Y 2Y 3Y 4Y 5Y 6Y 7Y 9< )  @  .  +        @        +  +  @     .     +  .  @  .  +  .  +  +  @  +     .  @     .  +     @  @  @  @  .  ^+ f_ 8Y 9Y 0Y Zb aY bY 2# #, }| @% cY dY eY fY gY hY S6 ;> @  +  $; Ro iY jY kY lY mY nY oY pY qY :q rY sY tY gQ uY  % 59 #_ m. Y( @  +  .  @  @  .  @  .  @  +  S$ zd vY ]A :Y wY xY yY zY AY dM @N BY CY DY EY FY GY HY IY JY 8< [S    @  +# KY LY MY NY OY PY QY RY k. l@ SY TY pe UY qe VY +V @V    @  @  .              @  .     +  @  @  .  +  @  +  +  @  +  .  @     +  @  +     +  .     .        .  .  .   . t{ +< WY XY YY [! ZY `Y  Z .Z +Z @Z #Z $Z C4 @  +     @  .  @     +   . 0' F] V) s; %Z S/ &Z 1+ O> `$ c. +  +  +     @  +     .        .  +  @     .  @  .     @  .        .  @  @# G$ @% s% %# y; b& =# -# y% S. c. .        +  +  +     +     @     .  @  @  .  +        @        +  +  @     .     +  .  @  .  +  .  +  +  @  +     .  @     .  +     @  @  @  @  .  +  +  .     .  .     +        @     @  +  @  @  .     +     @  +  @  @  .  @        @  @  +  .  .  .  .  .     +     .  .  .  +  .     .  .  @  @  .  ",
"      +  .  @           +  @        +  @  @  +  .  .     @  @           @     @  @     @  +  .  @  +        .     .  @  .  @  @  .              @  .     +  @  @  .  +  @  +  +  @  +  .  @     +  @  +     +  .     .        .  .     @  +  +  .  .  .     .     +     @  +  .  .     +  +     @     )  U+ d. `) '# e& !# ~# YA b+ .+ +  @  .     +  +  +     @  +     .        .  +  @     .  @  .     @  .     )  +. .! /= b8 Z/ c8 `/ O] &! U. r     .     .        +  h4 p5 *Z =Z -Z ;Z >Z ,Z 'Z )Z !Z ~Z {Z ]Z s  T.    +  +  @     .     +  .  @  .  +  .  +  +  @  +     .  @     .  +     @  @  @  @  .  +  +  .     .  .     +  .  *5 ^Z /Z (Z _Z :Z <Z [Z 4/ +  }Z |Z 1Z 2Z 78 3Z 4Z 5Z 6Z ++ @  +  %* *K =K 7Z 8Z 9Z 0Z aZ bZ cZ dZ eZ fZ gZ hZ a% j3 Gt iZ /v n_ p_ H. +  +           @  S$ _: 0_ fz jZ -j kZ -u lZ mZ nZ oZ pZ qZ I= rZ sZ tZ uZ vZ wZ xZ yZ [S    @     q] )a zZ AZ *V BZ CZ DZ F3 5@ |f *6 EZ FZ 4f GZ HZ IZ 6f )  .     +  @  @  .  +  @  +  +  @  +  .  @     +  @  +     +  .     .        .  .     @  +  +  .  .  .     .  .  $; /y  p JZ KZ LZ MZ NZ OZ PZ td QZ RZ SZ TZ @# .  +  +  +  +     +  .  J; P] C^ UZ -! S]  | ,! U] :@ b. %     .  +  @     .  @  .     @  .        .  @  .  @                 +  ++ @+ #+ f; VZ :v :# :* *@ I% +$ `  %  +     .  @  @  .  +        @        +  +  @     .     +  .  @  .  +  .  +  +  @  +     .  @     .  +     @  @  @  @  .  +  +  .     .  .     +        @     @  +  @  @  .     +     @  +  @  @  .  @        @  @  +  .  .  .  .  .     +     .  .  .  +  .     .  .  @  @  .  @  .     .  .  +        ",
"@  @  .  +  @  +  +  @  +  .  @     +  @  +     +  .     .        .  .     @  +  +  .  .  .     .     +     @  +  .  .     +  +     @  .  @     +     .  +  +  +  +     +     @  .     +  +  +     @  +     .        .  +  @     .  @  .     @  .        .  @  .  @                 +     @  .        .. +. 4] w* WZ XZ 3# H8 4# ]+ +# +  @  .  +        @        +  +  @     .     +  .  @  .  +  .  +  +  @  @  .. ~!  ^ cf ]! ^l ,( /! 6~ (! U+    +  +  .     .  .  .  O4 YZ ZZ `Z  ` .` +` @` #` $` %` &` *` B!    @  @  .  @        @  @  +  .  .  .  .  .     +     .  .  .  +  .     .  .  @  @  .  @  .     .  .  +              +  i> =` -` ;` >` ,` '` )` l)  . Q8 !` ~` {` ]` ^` /` (` _` @#    +   . J; J[ :` <` [` }` |` 1` 2` 3` 4` 5` EN Ad dz 6` 7` 8` 9` 0` Jq M_ +_ $_ H. Y( Z( ~_ 1. {h ;B Dy a` b` c` d` e` Cd :' f` g` h` i` j` k` l` m` n` B_ &K J     .  +  .  W8 o` p` q` r` s` t` u` UC +  v` w` #g x` %g y` z` A` JW +     .  +  +  +  +     +     @  .     +  +  +     @  +     .        .  +  @     .  @  .     @  .        .  @  .  +  4+ }# I- B` C` D` M- E` F` G` H` I` J` mA u2 +     +     @     .  +   . ua K` )( $> ;9 h| ,C ,g )C H- }  .     +  .  @  .  +  .  +  +  @  +     .  @     .  +     @  @  @  @     /+ (+ 5# 4* L` M` 9# (@ _@ :@ 9* c. .  .  @  @  .     +     @  +  @  @  .  @        @  @  +  .  .  .  .  .     +     .  .  .  +  .     .  .  @  @  .  @  .     .  .  +              +  .  @           +  @        +  @  @  +  .  .     @  @           @     @  @     @  +  .  @  +        .     .  @  .  @  @  .              @  .     +  ",
"   +  +  @     .     +  .  @  .  +  .  +  +  @  +     .  @     .  +     @  @  @  @  .  +  +  .     .  .     +        @     @  +  @  @  .     +     @  +  @  @  .  @        @  @  +  .  .  .  .  .     +     .  .  .  +  .     .  .  @  @  .  @  .     .  .  +              +  .  @           @  @  r  U+ u& 6+ w& ;^ e# ~C g# b+ N` +        @     @  @     @  +  .  @  +        .     .  @  .  @  @  .        T. d. uC ~> 8! /( ){ /> !^ X, d. )  +  @  +  .  @     +  ^+ d3 O` P` Q` R` S` }) T` U` V` W` X` =) T. .  .  .     .     +     @  +  .  .     +  +     @  .  @     +     .  +  +  +  +     +     @  .     +  +  +     @  +     P2 K% /S Y` Z` ``   .$h %h 4+ <] .Y . .+ .@ .# .>> $ .M+ A@           . t{ % .& .* .= .- .; .> ., .' .S$ [: Oz ) .! .~ .{ .] .^ ./ .( ._ .: .< .[ .iy Ev } .| .1 .2 .3 .4 .5 .6 .7 .y  8 .!_ 9 .0 .a .b .c .d .e .f .wV s  )  @  @  @  ^+ g .h .i .Ra Sa j .k .l .A0 I  +d m .n .o .p .q .r .s .af    @  +  @  @  .  @        @  @  +  .  .  .  .  .     +     .  .  .  +  .     .  .  @  @  .  @  .     .  .  +        .  4+ E| t .u .v .w .u; x .y .z .`m A .'m J. @  .  .     @  @        .  :> <> Zg 9# bQ ]^ B .^^ <( g! H  .  .     .  @  .  @  @  .              @  .     +  @  @  .  +  @  +  +  ++ P_ e+ f+ C .^)  7 C& i* l+ b@ b. c. .     .  .     @  +  +  .  .  .     .     +     @  +  .  .     +  +     @  .  @     +     .  +  +  +  +     +     @  .     +  +  +     @  +     .        .  +  @     .  @  .     @  .        .  @  .  @                 +     @  .     .        +  +  +     +     @     .  @  @  .  +        @     ",
".  @     +     .  +  +  +  +     +     @  .     +  +  +     @  +     .        .  +  @     .  @  .     @  .        .  @  .  @                 +     @  .     .        +  +  +     +     @     .  @  @  .  +        @        +  +  @     .     +  .  @  .  +  .  +  +  @  +     .  @     .  +     )  .. +. k* o+ D .I& t# y- t+ k@ ^+ +        @     @  +  @  @  .     +     @  +  @  @  .  @        @  @  +     U+  % A- U% |( E .e> f> g> 4) r        .  .  @  @  .  +  h4 (a F .G .H .I .J .K .L .M .N .%/ C2 J     @  @        +  @  @  +  .  .     @  @           @     @  @     @  +  .  @  +        .     .  @  .  @  @  .              $; Ph O .P .Q .Th R .S .7; J; @# T .U .V .W .X .Y .7C r) (+ @        .  c. b. Z  Z .+W ` . ..5m I* ...`A +..@..#..$..%..&..*..=..-..;.. y >..,..'..)..!..~..{..]..^../..(.._..:..<..[..}..|..=u  . 1..)L +r 2..4O .R d  T.       .  +  +# 3..4..5..6..7..8.._b :b W5 ]7 9..0..a..b..c..d..e..mn I     @  .     .        +  +  +     +     @     .  @  @  .  +        @        +  +  @     .     +  .  @  .  +  .  +  +  @  ^+ J; x' f..g..h..i..N- j..k..l..m..n..o..=& .     .  .     +         . >, !' p..l> 6( 7) a] Nh P- m+ 4+ +  @  .  @        @  @  +  .  .  .  .  .     +     .  .  .  +  .        ++ (+ _+ 7( K& q..r..N& ~. 4> ]. ^. .     +  .  @           +  @        +  @  @  +  .  .     @  @           @     @  @     @  +  .  @  +        .     .  @  .  @  @  .              @  .     +  @  @  .  +  @  +  +  @  +  .  @     +  @  +     +  .     .        .  .     @  +  +  .  .  .     .     +     @  +  .  .     +  +     @  ",
"   @  @     @  +  .  @  +        .     .  @  .  @  @  .              @  .     +  @  @  .  +  @  +  +  @  +  .  @     +  @  +     +  .     .        .  .     @  +  +  .  .  .     .     +     @  +  .  .     +  +     @  .  @     +     .  +  +  +  +     +     @  .     +  +  +     @  +        r  @$ ', 4^ S( s..C$ R& S& b+ 5@ +        .  @  .  @                 +     @  .     .        +  +  +     +  r  0* X| u[ 7^ y!  ; h] F> @; +. )     +  +  @     .     +  q9 t..u..v..w..x..y..T, z..A..B..Y= B! T. @     @  @  @  @  .  +  +  .     .  .     +        @     @  +  @  @  .     +     @  +  @  @  .  @        @  @  +  .  .  .  $; }4 C..D..Fi E..F..G..H..j} )  I..J..K..L..M..N..O..n..D% ++ +           %  ^. rs Al pm [  Pc P..Q..R..S..T..U..V..W..X..Y..Z..`.. +..+.++.@+.#+.$+.%+.&+.*+.=+.-+.;+.>+.,+.'+.)+.!+.~+.{+.]+.^+.U[ |  SM 0t cN *  T.    .     +  +  q] /+.tE (+.mb _+.ob pb :+.5@ <+.[+.}+.|+.1+.2+.3+.4+.5+.)     .  .     @  +  +  .  .  .     .     +     @  +  .  .     +  +     @  .  @     +     .  +  +  +  +     +     @  .     +  $; #^ @d 8{ 6+.7+.8+.9+.0+.a+.b+.c+.H$ /+ @  .     @  .        .  +  4+ C! m) D! E! -; F! G! DD 3^ ;# %  .        +  +  +     +     @     .  @  @  .  +        @        +  +  @  d+ G$ T& I# d+.e+.f+.X& g+.O~ S. .  +     .  @     .  +     @  @  @  @  .  +  +  .     .  .     +        @     @  +  @  @  .     +     @  +  @  @  .  @        @  @  +  .  .  .  .  .     +     .  .  .  +  .     .  .  @  @  .  @  .     .  .  +              +  .  @           +  @        +  @  @  +  .  .     @  @           @  ",
"@     .  +     @  @  @  @  .  +  +  .     .  .     +        @     @  +  @  @  .     +     @  +  @  @  .  @        @  @  +  .  .  .  .  .     +     .  .  .  +  .     .  .  @  @  .  @  .     .  .  +              +  .  @           +  @        +  @  @  +  .  .     @  @           @        )  U+ a% d= f. e@ `&  * V#  @ .+ ^+ @  .  @  @  .              @  .     +  @  @  .  +  @  +  +  @  +  .  @  T. x. w- 6+ y) h+.1; z) ., P! E+ |        @  +  +  .  .  .  .  i+.j+.k+.l+.m+.N7 n+.o+.p+.q+.&! 5+ r  .  @     +     .  +  +  +  +     +     @  .     +  +  +     @  +     .        .  +  @     .  @  .     @  .        .  @  .  @  .  L6 r+.s+.t+.u+.v+.w+.(( M} c. Q8 QB x+.ac y+.z+.A+.B+.C+.A@ .  @  @  .  +  .  &   . 65 D+.E+.F+.G+.H+.I+.J+.K+.L+.M+.N+.O+.P+.=z Q+.yg R+.Hf S+.T+.Ny Oy 6z U+.V+.W+.X+.Yz Y+.Z+.Gu KT `+. @..@.yK +@.@# T.       @  +  @  @  .  .  >4 @@.#@.$@.%@.&@.Nb j4 ES +  .e *@.=@.-@.1+.;@.>@.,@.'@.      .  .  .  +  .     .  .  @  @  .  @  .     .  .  +              +  .  @           +  @        +  @  @  +  .  .     @  @  .  4+ %; )@.)5 !@.~@.{@.]@.^@./@.(@.Y% G$ @  .     .  @  .  @  @  .  .  t{ B) 8; W{ ^Y k^ l^ q0 qE T+ `     +  +  @  +  .  @     +  @  +     +  .     .        .  .     @  +  @  ++ @+ D% @@ X# vd o^ _@.Y$ |/ -@ ^. .  .  +     @  .  @     +     .  +  +  +  +     +     @  .     +  +  +     @  +     .        .  +  @     .  @  .     @  .        .  @  .  @                 +     @  .     .        +  +  +     +     @     .  @  @  .  +        @        +  +  @     .     +  .  @  .  +  .  +  +  @  +     .  ",
".  @  @  .  +        @        +  +  @     .     +  .  @  .  +  .  +  +  @  +     .  @     .  +     @  @  @  @  .  +  +  .     .  .     +        @     @  +  @  @  .     +     @  +  @  @  .  @        @  @  +  .  .  .  .  .     +     .  .  .  +  .     .  .  @  @  .  @  .     .  .  +     r  +. y. E* c) 4+ :@.r^ &$ 6_ 5@ +     +  @  @  +  .  .     @  @           @     @  @     @  +  .  @  +     .. (. U= <@.P) l; [@. ~ Z= Y= /. T.    @  .     +  @  @  .  +# }@.qa |@.1@.2@.3@.4@.5@.}[ I( (! U+          .        .  .     @  +  +  .  .  .     .     +     @  +  .  .     +  +     @  .  @     +     .  +  +  +  +     +     @  .  P2 6@.7@.8@.9@.0@.a@.b@. p c  af c@.A7 d@.e@.f@.g@.h@.i@.C3 @        .  @  .  @  $; 50 j@.k@.l@.m@.n@.o@.p@.q@.r@.s@.;k t@.&< u@.v@.w@.x@.pg y@.z@.A@.B@.C@.D@.E@.F@.G@.H@.I@.J@.K@.L@.M@.N@.O@.P@.K. (+ @  +  .  +  +  @  +  @  +# ES Q@.R@.S@.T@.U@.V@.!c Pc )  Kh W@.X@.Y@.Z@.`@. #..#.x.    @     @  +  @  @  .     +     @  +  @  @  .  @        @  @  +  .  .  .  .  .     +     .  .  .  +  .     .  .  @  @  .  @  .  .  >, z, +#.@#.7+.##.$#.%#.&#.*#.=#.6Z ++ +  @        +  @  @  +  .  $; E] F] V) J{ W) X) +~ xM @~ x; c. @  +  .  @  +        .     .  @  .  @  @  .              @  .     @  @  /+ G$ ## >* ,* '* -#.>$ ~* 2+ ;# 4+ +  +     +  .     .        .  .     @  +  +  .  .  .     .     +     @  +  .  .     +  +     @  .  @     +     .  +  +  +  +     +     @  .     +  +  +     @  +     .        .  +  @     .  @  .     @  .        .  @  .  @                 +     @  .     .        +  +  +     +     @     ",
".  @     +  @  +     +  .     .        .  .     @  +  +  .  .  .     .     +     @  +  .  .     +  +     @  .  @     +     .  +  +  +  +     +     @  .     +  +  +     @  +     .        .  +  @     .  @  .     @  .        .  @  .  @                 +     @  .     .        +  +  +  T. .. K  oq =% y^ -~ ;#.`. ]# 5@ +  @        +  +  @     .     +  .  @  .  +  .  +  +  @  +     .  @        )  c@ 7, 1% D; Z/ >#.`/ H; I; u& T.       +        @     @  +  h4 ,#.LY '#.)#.>c !#.~#.{#.]#.^#.d. T.    @  @  +  .  .  .  .  .     +     .  .  .  +  .     .  .  @  @  .  @  .     .  .  +              +  .  @           +  @        +  $; /#.$h (#._#.:#.<#.[#.}#.`$ )  He |#.1#.2#.F4 3#.4#.Un 5#.}| @     .     .  @  :> 3../a 6#.7#.8#.9#.0#.a#.b#.c#.d#.sr uF e#.f#.xD g#.h#.i#.j#.k#.l#.m#.n#.o#.p#.q#.ww r#.yK zt s#.t#.u#.v#.w#.x#.JC y#.   .  .     .     +  +  ]+ z#.A#.B#.5X C#.D#.QY E#.q] JW F#.G#.H#.I#.J#.K#.L#.M#... @     @  .     +  +  +     @  +     .        .  +  @     .  @  .     @  .        .  @  .  @                 +     @  .     .     .  :> k] )@.N#.O#.P#.Q#.R#.S#.T#.|#._` =&       @        +  +  @      . Y~ U#.L; !~ R] .{ V#.~~ G^ 0$ b. .  .  @     .  +     @  @  @  @  .  +  +  .     .  .     +        @     ++ A@ #+ 54 /* W#._* <# -+ _) -@ `  c. @        @  @  +  .  .  .  .  .     +     .  .  .  +  .     .  .  @  @  .  @  .     .  .  +              +  .  @           +  @        +  @  @  +  .  .     @  @           @     @  @     @  +  .  @  +        .     .  @  .  @  @  .              @  .     +  @  @  .  +  @  +  +  @  +  ",
"      +  @        +  @  @  +  .  .     @  @           @     @  @     @  +  .  @  +        .     .  @  .  @  @  .              @  .     +  @  @  .  +  @  +  +  @  +  .  @     +  @  +     +  .     .        .  .     @  +  +  .  .  .     .     +     @  +  .  .     +  +     @  .  @  )  r  c@ [$ }* X#.M^ Y#.&& 4# .+ G. +     +  +  +     @  +     .        .  +  @     .  @  .     @  .           0%  % r, _~ t, :~ <~ .> c$ (! U+       .        +  +  +     +  <8 Z#.`#. $..$.+$.@$.#$.M, g/ m& J     @  +  @     .     +  .  @  .  +  .  +  +  @  +     .  @     .  +     @  @  @  @  .  +  +  .     .  .     +        @     @  +  @  @  $; a8 $$.%$.&$.*$.=$.-$.;$.% .}  B0 S6 Na >$.,$.'$.)$.!$.~$.4s H.    .  .  .  +  -) {$.]$.^$./$.($._$.:$.<$.[$.:: zd 'B }$.F: |$.1$.2$.3$.4$.5$.6$.ey !w ;B ^x 7$.Nw Md hi 8$.9$.0$.a$.b$.c$.d$.e$.f$.g$.)  @  @     @  +  .  ^+ D2 h$.i$.j$.k$.l$.m$.=W Wf S$ n$.o$.p$.q$.(3 r$.s$.t$.n$.)  @  .  +  @  +  +  @  +  .  @     +  @  +     +  .     .        .  .     @  +  +  .  .  .     .     +     @  +  .  .     +  +     @   . i> o! u$.v$.w$.x$.y$.z$.A$.B$.~@ A@ @  .     +  +  +     @  +     $; #^ @> )( <! ;9 |~ 1~ b{ o[ F& c. .        .  @  .  @                 +     @  .     .        +  +  +     =& G$ 4$ 4* n@ 5~ }+ J, @m >- ;# c. .  .  +  +  @     .     +  .  @  .  +  .  +  +  @  +     .  @     .  +     @  @  @  @  .  +  +  .     .  .     +        @     @  +  @  @  .     +     @  +  @  @  .  @        @  @  +  .  .  .  .  .     +     .  .  .  +  .     .  .  @  @  .  @  .     .  .  +              +  .  @     ",
"      .  @  .  @                 +     @  .     .        +  +  +     +     @     .  @  @  .  +        @        +  +  @     .     +  .  @  .  +  .  +  +  @  +     .  @     .  +     @  @  @  @  .  +  +  .     .  .     +        @     @  +  @  @  .     +     @  +  @  @  .  @        I  U+ K  a* M, ^- N, C$.a+ b+ 5@ +  +  .  +  .     .  .  @  @  .  @  .     .  .  +              +  .  @     r  K  Q, R, v[ 0~ U, 32 C( D| P# T.    @  @           @     @  +  A0 D$.E$.F$.G$.H$.I$.J$.K$.^; L* I  .  @  @  .              @  .     +  @  @  .  +  @  +  +  @  +  .  @     +  @  +     +  .     .        .  .     @  +  +  .  .  .     .  .  L$.;U M$.N$.O$.P$.Q$.R$.S$.<@ I  ,a T$.U$.V$.W$.X$.Y$.6s kR /_ @  +     @  .  :> {$.Z$.`$.L1  %..%.+%.o8 O4 G. +  H. @_ hi Sz @%./v #%.$%.%%.&%.Dv *%.=%.!_ Y( +  @  @  <] -%.;%.>%.,%.'%.)%.!%.k1 <+.@  +  +     +     +  q] ~%.{%.]%.^%./%.(%._%.:%. @ r  <%.[%.}%.|%.1%.2%.3%.3@.[*    +  .  +  +  @  +     .  @     .  +     @  @  @  @  .  +  +  .     .  .     +        @     @  +  @  @  .     +     @  +  @  @  .  @  .  4+ KQ 4%.5%.6%.7%.8%.9%.0%.U .Jc l@ @  .  .  +  .     .  .  @  @   . :> <> d~  / a%.j{ w2 f~ @' .t S. %  @           +  @        +  @  @  +  .  .     @  @           @     @  ++ A@ e+ C@ g+ b%.c%.+t k+ @/ m+ S. %  .  @  @  .              @  .     +  @  @  .  +  @  +  +  @  +  .  @     +  @  +     +  .     .        .  .     @  +  +  .  .  .     .     +     @  +  .  .     +  +     @  .  @     +     .  +  +  +  +     +     @  .     +  +  +     @  +     .        .  +  @     .  @  .     @  .  ",
"@  @  +  .  .     @  @           @     @  @     @  +  .  @  +        .     .  @  .  @  @  .              @  .     +  @  @  .  +  @  +  +  @  +  .  @     +  @  +     +  .     .        .  .     @  +  +  .  .  .     .     +     @  +  .  .     +  +     @  .  @     +     .  +        r  d. k* %' d%.+b X= e%.*& .+ ^+ @  +     .        .  +  @     .  @  .     @  .        .  @  .  @        )  x. [$ f%.>' l: q{ r{ s{ g> C2 r     +     +     @     .  @  @   . -8 M9 g%.h%.i%.j%.k%.l%.*% [$ U+    +  .  @  .  +  .  +  +  @  +     .  @     .  +     @  @  @  @  .  +  +  .     .  .     +        @     @  +  @  @  .     +     @  +  @  +  :> 8Q m%.&5 n%.o%.p%.q%.r%.T% }  8c s%.>* t%./X u%.v%.w%.x%./k =& .  @  @  .  +# y%.z%.A%.B%.C%.D%.E%.:! ua  . .  @  @  @  @  $_ Md Md Md zd zd Z( S$ +  +  @  @  @  )  @b F%.G%.H%.I%.J%.K%.L%.Cn x. )  +        .  .  5@ 1{ M%.N%.O%.P%.Q%.R%.S%.'3 5@ '@.T%.U%.V%.1%.h^ W%.b# O2 r  @  +  .  @     +  @  +     +  .     .        .  .     @  +  +  .  .  .     .     +     @  +  .  .     +  +     @  .  @     +     .  +  +   . p3 X%.Y%.Z%.`%. &..&.+&.@&.#&.08 ++ +     .        .  +  @     .   . >, n~ o~ +t q~ w{ r~ (' M( a. ^. .           +     @  .     .        +  +  +     +     @     .  @  @     ++ l@ l5 <' n* 1b z+ N& ~. C+ W@ ^. .  .  @  .  +  .  +  +  @  +     .  @     .  +     @  @  @  @  .  +  +  .     .  .     +        @     @  +  @  @  .     +     @  +  @  @  .  @        @  @  +  .  .  .  .  .     +     .  .  .  +  .     .  .  @  @  .  @  .     .  .  +              +  .  @           +  @        +  ",
".  @  .     @  .        .  @  .  @                 +     @  .     .        +  +  +     +     @     .  @  @  .  +        @        +  +  @     .     +  .  @  .  +  .  +  +  @  +     .  @     .  +     @  @  @  @  .  +  +  .     .  .     +        @     @  +  @  @  .     +     @  I  x. X@ 5& 3b -/ r* J+ .# b+ 5@ .  .  .  .     +     .  .  .  +  .     .  .  @  @  .  @  .     .  .  +     r  (. ,/ A~ N: G{ D~ $&.F~ X( /. )     +  @  @  +  .  .     @  @  +# d8 %&.&&.*&.=&.-&.;&.8~ e. z> r  @        .     .  @  .  @  @  .              @  .     +  @  @  .  +  @  +  +  @  +  .  @     +  @  +     +  .     .        .  .     @  +  +   . >, X%.>&.,&.'&.I| )&.!&.~&.i' af {&.hb (Y ]&.p2 ^&.P( /&.Q| AS @  +  +  +  +# p; (&._&.:&.<&.|W [&.b! Ym 4+ @  +     .        .  +  @     .  @  .     @  .        )  mj }&.:4 |&.fP 0r 1&.2&.Bo ..    .     .     ^+ .* 3&.%@ 4&.5&.6&.7&.8&.9&.4# ++ Bo Ao 0&.a&.b&.c&.d&.e&.z% )     .     +  .  @  .  +  .  +  +  @  +     .  @     .  +     @  @  @  @  .  +  +  .     .  .     +        @     @  +  @  @  .     +     @  +  :> qd f&.g&.h&.i&.j&.k&.l&.@v &0    .  .     +     .  .  .  +  .  .  $; l) H~ I~ )< d' {/ ]/ g' O> <@ %           +  .  @           +  @        +  @  @  +  .  .     @  @     )  d+ J. ## 0& t* P+ R> {< -# f( S. c.    .     .  @  .  @  @  .              @  .     +  @  @  .  +  @  +  +  @  +  .  @     +  @  +     +  .     .        .  .     @  +  +  .  .  .     .     +     @  +  .  .     +  +     @  .  @     +     .  +  +  +  +     +     @  .     +  +  +     @  +     .        .  +  @     ",
"@     @  +  @  @  .     +     @  +  @  @  .  @        @  @  +  .  .  .  .  .     +     .  .  .  +  .     .  .  @  @  .  @  .     .  .  +              +  .  @           +  @        +  @  @  +  .  .     @  @           @     @  @     @  +  .  @  +        .     .  @  .  @  @  )  U+ K  `) V= m&.f& y* R$ ]$ .+ ^+ +  @  +  +  @  +  .  @     +  @  +     +  .     .        .  .     @  .  )  /. L] (/ R{ &M n&._< v' o&.u& T.       +  +     @  .  @     +     -) p&.AU q&.:9 p  r&.9,  ) s&.[* @  +  +     @  +     .        .  +  @     .  @  .     @  .        .  @  .  @                 +     @  .     .        +  +  +     +     @     .  +  $; <> t&.u&.v&.w&.x&.y&.z&.T% }  08 $+ A&.B&.C&.D&.E&.F&.G&.H&./_ =& +      . L$.I&.J&.K&.L&.M&.N&.O&.h5 o# +  +  .     .  .     +        @     @  +  @  @  .     I  P&.;s Q&.R&.'s S&.T&.d= d. )  @  +  .  .  +  .+ .g U&.V&.W&.X&.TS Y&.Z&.`&.5@ x. 3@. *..*.+*.@*.#*.$*.w- U+ @              +  .  @           +  @        +  @  @  +  .  .     @  @           @     @  @     @  +  .  @  +        .     .  @  .  @  @  .      . a8 %*.&*.**.=*.-*.;*.>*.,*.He @# +  +  @  +  .  @     +  @  +      . J; x' V{ z' A' </ '*.Tb E' a# k& .  .  .     .     +     @  +  .  .     +  +     @  .  @     +     .  +  ++ @+ ^# k6 #@ $@ %@ G' X] I% w. `  .  @  +     .        .  +  @     .  @  .     @  .        .  @  .  @                 +     @  .     .        +  +  +     +     @     .  @  @  .  +        @        +  +  @     .     +  .  @  .  +  .  +  +  @  +     .  @     .  +     @  @  @  @  .  +  +  .     .  .     +        ",
"   @  +  .  @  +        .     .  @  .  @  @  .              @  .     +  @  @  .  +  @  +  +  @  +  .  @     +  @  +     +  .     .        .  .     @  +  +  .  .  .     .     +     @  +  .  .     +  +     @  .  @     +     .  +  +  +  +     +     @  .     +  +  +     @     .. /. n( n& .% Vb %& H* &$ ]+ 5@ +  @  .        .  @  .  @                 +     @  .     .        +  +  @  .. t@ 8+ )*.7_ l; 3/ !*.R' (! s  T. @        +  +  @     .     +  .  65 I8 AU ~*.{*.pP ]*.^*./*.(*.l&    .  +     @  @  @  @  .  +  +  .     .  .     +        @     @  +  @  @  .     +     @  +  @  @  .  @        @  @  +  .  .  .  .  .     +     .   . #^ _*.:*.<*.[*.}*.|*.1*.v( i' )  9- 2*..b 3*.4*.5*.6*.7*.8*.}$./_ @     .  $; }4 9*.0*.Mo a*.b*.c*.(, j} .  @  @           @     @  @     @  +  .  @  +        @b d*.t4 e*.f*.g*.h*.i*.]l U+       @  .  +  c+ *l 4| j*.k*.l*.m*.n*.o*.V# 1{ ++ ', p*.q*.r*.s*.t*.u*.[v t@ r     .  .     @  +  +  .  .  .     .     +     @  +  .  .     +  +     @  .  @     +     .  +  +  +  +     +     @  .     +  +  +     @  +     .  .  v*.Q2 w*.x*.y*.*) z*.A*.D6 B*.@#       .  @  .  @                 +  $; _! [c ={ U' q_ C*.D*.|, 7- H- c.    @     .  @  @  .  +        @        +  +  @     .     +  .  @  .  @  @# (+ ## {@ *4 ^@ /@ t& _@ >- 3+ }     @  @  @  .  +  +  .     .  .     +        @     @  +  @  @  .     +     @  +  @  @  .  @        @  @  +  .  .  .  .  .     +     .  .  .  +  .     .  .  @  @  .  @  .     .  .  +              +  .  @           +  @        +  @  @  +  .  .     @  @           @     @  @  ",
"   +     @  .     +  +  +     @  +     .        .  +  @     .  @  .     @  .        .  @  .  @                 +     @  .     .        +  +  +     +     @     .  @  @  .  +        @        +  +  @     .     +  .  @  .  +  .  +  +  @  +     .  @     .  +     @  @  @  @  T. 0% K   ) N) E*.F*.X% O* b+ 5@ +     @  +  @  @  .     +     @  +  @  @  .  @        @  @  +  .  .  .  .  T. a% G*.sq a/ '{ '^ tq ~{ {{ e, T. @  @  .  @  .     .  .  +           q9 I8 H*.I*.J*.K*.L*.M*.N*.n$.r  .  @  @  +  .  .     @  @           @     @  @     @  +  .  @  +        .     .  @  .  @  @  .              @  .     +  @  @  .  +  @  +  +  @  +  .  :> <> f1 O*.Aj |> P*._{ Q*.T- c  59 |l `_ R*.S*.T*.U*.V*.W*.7l 8l #_ @  +   . y, X*.Y*.Vm Wm g| Z*.`*.%; 4+ @     +     .  +  +  +  +     +     @  .     +  @  6f  =..=.+=.@=.#=.$=.%=.z> )  @     .  +  5@ k. !M &=.*=.==.-=.;=.>=.y- E$ 5@ x. 7, f2 ,=.@*.'=.)=.]#..! +. )  +  +  +     +     @     .  @  @  .  +        @        +  +  @     .     +  .  @  .  +  .  +  +  @  +     .  @     .  +     @  @  @  @  .  +  +  .  :> y%.!=.~=.{=.]=.^=./=.(=.]0 d+ @  @  .     +     @  +  @  @  .  @  .  %* <> /] ,x /{ e! ^[ _{ j, k, b. .  .  .  .  +  .     .  .  @  @  .  @  .     .  .  +              +     ++ A@ #+ 6@ 7@ 8@ _=.Ac +& `* -@ `  c. .     @  @           @     @  @     @  +  .  @  +        .     .  @  .  @  @  .              @  .     +  @  @  .  +  @  +  +  @  +  .  @     +  @  +     +  .     .        .  .     @  +  +  .  .  .     .     +     @  +  .  .     +  +     @  .  @     +     .  +  +  +  +  ",
"@  .     +  @  @  .  +  @  +  +  @  +  .  @     +  @  +     +  .     .        .  .     @  +  +  .  .  .     .     +     @  +  .  .     +  +     @  .  @     +     .  +  +  +  +     +     @  .     +  +  +     @  +     .        .  +  @     .  @  .     @  .        .  @  )  .. +. {% d4 :=.+6 <=.q, *& ]+ ^+ +        +  +  +     +     @     .  @  @  .  +        @        +  +  @     J  y. [=.hP [[ 5{ v, cr 3) +> U+       .  @     .  +     @  @  @  @   . W8 }=.|=.1=.2=.3=.4=.*% [R '@.)     @  +  @  @  .     +     @  +  @  @  .  @        @  @  +  .  .  .  .  .     +     .  .  .  +  .     .  .  @  @  .  @  .     .  .  +              +   . i> 7{ 8{ 9{ C, ': R^ 5=.6=.7=.&  #+ 'm 8=.9=.0=.a=.b=.c=./m d=.}$./_ H. +  -) q< e=.f=.g=.h=.i=.j=.Q! J;    .  @  @  .              @  .     +  @  @  .  ++ k=.l=.m=.3k ij n=.o=.p=.[* ++ +     +  5@ V< on  Y q=.Ql r=.>P s=.H* `0 ]# )  m% q( t=.u=.v=.w=.x=.y=.X@ |     +  +     @  .  @     +     .  +  +  +  +     +     @  .     +  +  +     @  +     .        .  +  @     .  @  .     @  .        .  @  .  @            . z=.Ge A=.B=.C=.D=.E=.F=.6U d+ +  +     +     @     .  @  @  .  +  .   . >, z, A, $d G=.': E, F, o[ F& }  @  .  +  .  +  +  @  +     .  @     .  +     @  @  @  @  .  +  +  .     ++ &h 5# ~= :% H=.I=.}% J=.T- <@ c. .  .  +     @  +  @  @  .  @        @  @  +  .  .  .  .  .     +     .  .  .  +  .     .  .  @  @  .  @  .     .  .  +              +  .  @           +  @        +  @  @  +  .  .     @  @           @     @  @     @  +  .  @  +        .     .  @  .  @  @  .              ",
"@     .     +  .  @  .  +  .  +  +  @  +     .  @     .  +     @  @  @  @  .  +  +  .     .  .     +        @     @  +  @  @  .     +     @  +  @  @  .  @        @  @  +  .  .  .  .  .     +     .  .  .  +  .     .  .  @  @  .  @  .     .  .  +              +  .  @  r  x. m% M] c) m/ x@ O, ]& b+ 5@ +  .     @  @           @     @  @     @  +  .  @  +        .     .  @  .  I  ># 7~ h) [y T, Y^ K=.W, X, +. )  @  .  +  @  +  +  @  +  .  @     +  +  (_ L=.M=.N=.O=.P=.Q=.k* U- 0%    @  +  +  .  .  .     .     +     @  +  .  .     +  +     @  .  @     +     .  +  +  +  +     +     @  .     +  +  +     @  +     .        .  +  @     .  $; %; &; Z,  t R=.S=.T=.U=.V=.O= I  m@ I4 O..W=. n X=.+n Yo Y=.$n 8l /_ S$ $; y%.Z=.`=. -.E...-.+-._*.t{ .  +        @        +  +  @     .     +  .  @  af +d @-.#-.$-.%-.&-.*-.[R N^    .  +  G. =-.--.;-.>-.,-.'-.)-.!-.]O ~-.N% +  +. @. {-.]-.^-.mO /-.(-.e- +. T. +     @  +  @  @  .  @        @  @  +  .  .  .  .  .     +     .  .  .  +  .     .  .  @  @  .  @  .     .  .  +              +  .  @           +  +   . y, T3 Qh _-.:-.<-.[-.}-.|-.1-.         @     @  @     @  +  .  @  +  .  4+ Y, &; Z, ./ 2-.s/ 3-.4-..t ;# %     @  .     +  @  @  .  +  @  +  +  @  +  .  @     +  @  +     +     )  /+ e+ h# g+ f* d_ ]5 c= I@ O~ S. c.    .     +     @  +  .  .     +  +     @  .  @     +     .  +  +  +  +     +     @  .     +  +  +     @  +     .        .  +  @     .  @  .     @  .        .  @  .  @                 +     @  .     .        +  +  +     +     @     .  @  @  .  +        @        +  +  ",
"@  +  +  .  .  .     .     +     @  +  .  .     +  +     @  .  @     +     .  +  +  +  +     +     @  .     +  +  +     @  +     .        .  +  @     .  @  .     @  .        .  @  .  @                 +     @  .     .        +  +  +     +     @     .  @  @  .  +  )  U+ a% J@ c% d% }& f= O@ t+ 5-.G. .  @  .  +  .  +  +  @  +     .  @     .  +     @  @  @  @  .  +  +  .  )  U+ $] ^: j~ 6-.k~ 7-.d% %t 4& ..    .     +     @  +  @  @  .  @        +  W8 8-.9-.0-.a-.b-.c-.[$ d-...    .  .  +  .     .  .  @  @  .  @  .     .  .  +              +  .  @           +  @        +  @  @  +  .  .     @  @           @     @  @     @  +  .  @   . t{ H: e-.f-.g-.h-.i-.j-.k-.l-.[  <] Tn m-.Vn Wn n-.o-.p-.Yo #n i< qk +_ G. q-.w4 r-.s-.t-.Aj u-.8H /,  . .     .        .  .     @  +  +  .  .  .     @b v-.w-.x-.y-.z-.A-.B-.C-.)  +  +  )_ D-.E-.=s >-.lp F-.F-.G-.H-.I-.C} e4 .. y. 2{ 3{ [[ 5{ v, J-.X; X@ J           .  +  @     .  @  .     @  .        .  @  .  @                 +     @  .     .        +  +  +     +     @     .  @  @  .  +        @        +  +  P2 Jo q3 K-.L-.M-.N-.cb Wa <] @  +  @  +     .  @     .  +     @  @  +  ^+ >, !' 5( p~ v{ w{ r~ (' J: r> }  .     @  +  @  @  .     +     @  +  @  @  .  @        @  @  +  .  .     ++ `{ _+ <' h% O-./9 U@ x] 3^ `$ ^. c. @  @  .  @  .     .  .  +              +  .  @           +  @        +  @  @  +  .  .     @  @           @     @  @     @  +  .  @  +        .     .  @  .  @  @  .              @  .     +  @  @  .  +  @  +  +  @  +  .  @     +  @  +     +  .     .        .  .     ",
"   +  @        +  @  @  +  .  .     @  @           @     @  @     @  +  .  @  +        .     .  @  .  @  @  .              @  .     +  @  @  .  +  @  +  +  @  +  .  @     +  @  +     +  .     .        .  .     @  +  +  .  .  .     .     +     @  +  .  .     +  @  r  x. 4& n% o% =  D{ E{ K+ b+ 5@ ^+    +     @  .     +  +  +     @  +     .        .  +  @     .  @  .     r  )> P-.B> N: G{ n5 O: ,3 X( /. )     +     @  .     .        +  +  +     ^+ P2 lZ Q-.R-.S-.T-.U-.m% '@.r  @        +  +  @     .     +  .  @  .  +  .  +  +  @  +     .  @     .  +     @  @  @  @  .  +  +  .     .  .     +        @     @  +  @  @  .     +     @  +  $; Q/ F| V-.W-.X-.Y-.Z-.`-. ;..;.+;.l@ mA @;.Uo #;.n-.Fp Xo $;.%;.&;.>< +_ <8 *;.=;.-;.;;.>;.,;.9*.Jo c.          +  .  @           +  @        +  ++ g$.';.);.!;.~;.GZ {;.];.n$.)  S$ N` ^;./;.(;._;.lp :;.<;.[;.};.|;.7}  +    0* I; u[ [y p/ (: 1;.x[ X, +. )     +  @  @  .  +  @  +  +  @  +  .  @     +  @  +     +  .     .        .  .     @  +  +  .  .  .     .     +     @  +  .  .     +  +     @  .  @     +     -) lZ T3 2;.3;.4;.5;.6;.i0 59 @  +  +  +     @  +     .        .  +  @  .  $; 0' a' I~ J{ 83 e' f' g' h' x; %                 +     @  .     .        +  +  +     +     @     .  @  ++ @# J. 9& *$ T/ Q= 7;.=# x% y% ;# c. .  +  .  @  .  +  .  +  +  @  +     .  @     .  +     @  @  @  @  .  +  +  .     .  .     +        @     @  +  @  @  .     +     @  +  @  @  .  @        @  @  +  .  .  .  .  .     +     .  .  .  +  .     .  .  @  @  .  @  .     .  .  +              +  .  @        ",
".  @  .  @                 +     @  .     .        +  +  +     +     @     .  @  @  .  +        @        +  +  @     .     +  .  @  .  +  .  +  +  @  +     .  @     .  +     @  @  @  @  .  +  +  .     .  .     +        @     @  +  @  @  .     +     @  +  @  @  T. 0% K  `) A% W/ 8;.9;.V# .* .+ ^+ .  +     .  .  .  +  .     .  .  @  @  .  @  .     .  .  +              )  /. L] (/ s' ,_ l; U~ v' +, u& r  @  +  .  .     @  @           @     @  @  .  65 f_ 0;.a;.b;.c;.}@ K  0%    @  .  @  @  .              @  .     +  @  @  .  +  @  +  +  @  +  .  @     +  @  +     +  .     .        .  .     @  +  +  .  .  .     .     +     @  +  .  .  .  Y~ K; d;.e;.f;.g;.h;.{@.i;.{K !S $  (+ 5s To kr j;.k;.l;.Xo m;.n;.o;.Vx zd jd p;.q;.r;.s;.t;.u;.(l 4+ .  @  .     @  .        .  @  .  @        )  v;.w;..V x;.y;.z;.A;.k1 '@.+  e4 B;.C;.D;.E;.F;.<;.G;.H;.I;.J;.K;.nn +  /. G~ O/ L;.M;..} l~ m~ %/ 4& r     @  .  +  .  +  +  @  +     .  @     .  +     @  @  @  @  .  +  +  .     .  .     +        @     @  +  @  @  .     +     @  +  @  @  .  @        @  @  +  .  $; 1/ <S N;.O;.P;.Q;.R;.sa K6 @  .     .  .  @  @  .  @  .     .  .  +     .  J; P] Z~ W{ %, ;! C' Y{ o< :@ c  %  .  @  @  +  .  .     @  @           @     @  @     @  +  .  @  +     ++ @+ #+ ^$ S;.F% T;.U;.*@ =@ `$ ^. %     .     +  @  @  .  +  @  +  +  @  +  .  @     +  @  +     +  .     .        .  .     @  +  +  .  .  .     .     +     @  +  .  .     +  +     @  .  @     +     .  +  +  +  +     +     @  .     +  +  +     @  +     .        .  +  @     .  @  .     @  .        ",
"+  +     @  +     .        .  +  @     .  @  .     @  .        .  @  .  @                 +     @  .     .        +  +  +     +     @     .  @  @  .  +        @        +  +  @     .     +  .  @  .  +  .  +  +  @  +     .  @     .  +     @  @  @  @  .  +  +     .. /. )! *( >@ q< V;.]- N% 6_ 5@ +  @  .     +     @  +  @  @  .  @        @  @  +  .  .  .  .  .     +     .. X@ c* M' N' O' #] Q' R' S' J     .     .  .  +              +  .  @         . 65 A0 h0 W;.X;.Y;.s&.JW ..       @  @           @     @  @     @  +  .  @  +        .     .  @  .  @  @  .              @  .     +  @  @  .  +  @  +  +  @  +  .  @     +  @  +     +  .     .   . >, Z;.`;. >..>.+>.@>.#>.$>.%>.&>.$  (+ *>.s2 kr =>.->.l;.;>.>>.Q= ,>.kC 6a '>.)>.!>.De ~>.{>.]>.J; +     +     @  .     +  +  +     @  +     )  :W ^>./>.(>._>.:>.<>.Qs .. 5@ eJ [>.}>.|>.1>.8q 8q F;.I;.5r Ps V< S$ .. 2>.EX 3>.4>.5>.6>.7>.8>.9' s  )  +     @     .  @  @  .  +        @        +  +  @     .     +  .  @  .  +  .  +  +  @  +     .  @     .  +     @  @  @  @  .  +  +  .     .  .     +        @   . ab }4 9>.0>.-/ 8d x5 a>.K6 @  @  @  .  @        @  @  +  .  .  .  .  .  .  $; /, :! T' U' 5/ V' r6 => 1! H- c. .  @  .     .  .  +              +  .  @           +  @        +  @  @  @# (+ 57 b>.c>.d>.=^ (@ 0# a# D+ c. .     @  +  .  @  +        .     .  @  .  @  @  .              @  .     +  @  @  .  +  @  +  +  @  +  .  @     +  @  +     +  .     .        .  .     @  +  +  .  .  .     .     +     @  +  .  .     +  +     @  .  @     +     .  +  +  +  +     +     @  .     +  ",
"+     +  .     .        .  .     @  +  +  .  .  .     .     +     @  +  .  .     +  +     @  .  @     +     .  +  +  +  +     +     @  .     +  +  +     @  +     .        .  +  @     .  @  .     @  .        .  @  .  @                 +     @  .     .        )  a$ d.  ) c# d- e>.X% 4@  + c+ ^+ +        @        +  +  @     .     +  .  @  .  +  .  +  +  @  +     .  f>.d. @. ~9 {> ]> ^> b/ *) g>.L* )  .     .  .     +        @     @  +  @  @  .   . W5 A0 h>.i>.j>.k>.l>.B0 I     @  @  +  .  .  .  .  .     +     .  .  .  +  .     .  .  @  @  .  @  .     .  .  +              +  .  @           +  @        +  @  @  +  .  .     @  @           +  4} /, m>.n>.o>.)X p>.q>.r>.s>.t>.u>.&  C4 Bq v>.w>.x>.y>.z>.lx A>.B>.C>.F$ D>.E>.F>.G>.H>.I>.+5 .5 +  @  +  .  @     +  @  +     +  .     .  af ]R J>.K>.L>.M>.N>.O>.P>.)  oc 6! &=.Q>.R>.S>.T>.U>.I;.5r V>.W>.G. r  5; oO X>.Y>.Z>.`>. ,..,..( 5+ T.    +     @  .     +  +  +     @  +     .        .  +  @     .  @  .     @  .        .  @  .  @                 +     @  .     .        +  +  +     +     @     .  ^+ -) a8 +,.@,.#,.$,.%,.n$.K6 @  @     .     +  .  @  .  +  .  +  +  @  +     .  &,.][ /] ^{ /{ _] *,.~) /^ 4> S.  . .     .  .     +        @     @  +  @  @  .     +     @  +  @  @  .  ++ A@ e+ f+ =,.`%  & .& +& ;+ b@ b.  . .  .  .  .  +  .     .  .  @  @  .  @  .     .  .  +              +  .  @           +  @        +  @  @  +  .  .     @  @           @     @  @     @  +  .  @  +        .     .  @  .  @  @  .              @  .     +  @  @  .  +  @  +  +  @  +  .  @     +  @  ",
"@  +  .  @     +  @  +     +  .     .        .  .     @  +  +  .  .  .     .     +     @  +  .  .     +  +     @  .  @     +     .  +  +  +  +     +     @  .     +  +  +     @  +     .        .  +  @     .  @  .     @  .        .  @  .  @                    .. +. p# ]% x- s$ t# +7 {+ ]+ ^+ +     @     .  @  @  .  +        @        +  +  @     .     +  .  @  .  @  U+ y. A- U% <^ d> e> w, 3) [^ ..    @  @  @  @  .  +  +  .     .  .     +        +# <8 g .-,.%$ ;,.>,.,,.l@ af @  +  @  @  .  @        @  @  +  .  .  .  .  .     +     .  .  .  +  .     .  .  @  @  .  @  .     .  .  +              +  .  @           +  @        +  @  @  +  .  .  .  %* ',.),.!,.~,.{,.],.}` ^,./,.(,._,.&  G$ 5s v>.:,.<,.[,.},.[,.|,.1,.#_ ^7 2,.(Z 3,.:Z 4,.5,.p3 +  @  @  .  +  @  +  +  @  +  .  @     +  <] 6,.!E 7,.`U 8,.9,.0,.cd $; i4 a,.b,.c,.d,.e,.f,.g,.h,.i,.V< )_ T. 5+ j,.k,.l,.m,.n,.o,.$#.p,.q,.U+ )  +     .  +  +  +  +     +     @  .     +  +  +     @  +     .        .  +  @     .  @  .     @  .        .  @  .  @                 +     @  .     .        +  +  ^+ :> #^ C..r,.s,.t,.u,.a% .. @        @        +  +  @     .     +  .  @  .  +   . #^ z, p! v,.6( M- &D 8) 9) m+ ^.    @  @  @  .  +  +  .     .  .     +        @     @  +  @  @  .     +  @# (+ v+ ;& w# r! Q- z# |% A# <@ 4+ .  .  .  .  .     +     .  .  .  +  .     .  .  @  @  .  @  .     .  .  +              +  .  @           +  @        +  @  @  +  .  .     @  @           @     @  @     @  +  .  @  +        .     .  @  .  @  @  .              @  .     +  @  @  .  +  @  +  +  ",
".     +        @     @  +  @  @  .     +     @  +  @  @  .  @        @  @  +  .  .  .  .  .     +     .  .  .  +  .     .  .  @  @  .  @  .     .  .  +              +  .  @           +  @        +  @  @  +  .  .     @  @           @     @  @     @  +     r  U+ m% 1% B# w,.D# x,.z~ b+ 5@ +              @  .     +  @  @  .  +  @  +  +  @  +  .  @     +  @  +     T. [@ X| h) Z- `- i) W( j) j] B! )  .  .  .     .     +     @  +  .  .     +  +     +# j6 y,.z,.A,.B,.C,.D,.Q8 @# +     +     @  .     +  +  +     @  +     .        .  +  @     .  @  .     @  .        .  @  .  @                 +     @  .     .        +  +  +     +     @     .  @  @   . #, E,.F,.G,.H,.o} I,.J,.K,.L,.M,.QN &  w( 5s @;.N,.O,.P,.Q,.R,.T$.^& -b S,.T,.U,.0Y V,.8Y f_ .  @  .  +  +  .     .  .     +        @  ]7 _8 W,.!7 S8 F6 X,.!F )T 65 Y,.Z,.`,.T4  '..'.+'.h,.@'.r< G. !  VX #'.IY $'.%'.&'.*'.='.-'.;'.B! T. .  .  @  @  .  @  .     .  .  +              +  .  @           +  @        +  @  @  +  .  .     @  @           @     @  @     @  +  .  @  +        .     .  @  .  @  +  $; o# )2 >'.,'.''.C< s  I  @  @  .  +  @  +  +  @  +  .  @     +  @  +     +  .  4+ %; m) )'.E! K> b( p) ,; '; <@ c. .     .     +     @  +  .  .     +  +     @  .  @     +     .  +  @  @  /+ ^& H# I# !; K# ~; c= I@ m+ b. %  +     .        .  +  @     .  @  .     @  .        .  @  .  @                 +     @  .     .        +  +  +     +     @     .  @  @  .  +        @        +  +  @     .     +  .  @  .  +  .  +  +  @  +     .  @     .  +     @  @  @  @  .  +  +  .     .  ",
"+  .     .        .  .     @  +  +  .  .  .     .     +     @  +  .  .     +  +     @  .  @     +     .  +  +  +  +     +     @  .     +  +  +     @  +     .        .  +  @     .  @  .     @  .        .  @  .  @                 +     @  .     .           .. +. Z& /; !'.}X Ai `+ ]# .+ ^+ +        @        +  +  @     .     +  .  @  .  +  .  +  +  @  +     .  )  /. w- [; }; h^ h( G7 A) '_ X~ r  .     .  .     +        @     @  +  @  @  .     +  $; (_ ~'.{'.]'.^'./'.i0 g$.d+ @  +  .  .  .  .  .     +     .  .  .  +  .     .  .  @  @  .  @  .     .  .  +              +  .  @           +  @        +  @  @  +  .  .     @  @           @     @  @  .   . >, D_ r%.('._'.:'.<'.['.}'.|'.1'.aP #  (+ K2 2'.3'.4'.%9 5'.6'.-9 7'.8'.9'.0'.%b $b a'.c6 ^+ .  @     +  @  +     +  .     .        ]7 _8 n7 S7 Za R7 Qb !F b'..5 69 c'.d'.e'.f'.g'.&& h'.IE G. T. 8< UX i'.j'.RX k'.l'.m'.n'.xZ o'.r     @     @  .     +  +  +     @  +     .        .  +  @     .  @  .     @  .        .  @  .  @                 +     @  .     .        +  +  +     +     @     .  @  @  .  ^+ 4+ b. at @W p'.1  T. )     .     +  .  @  .  +  .  +  +  @  +     .  @     .  ^+ t{ U{ R! 9; %8 oE b; H) E3 e; ^. .     +        @     @  +  @  @  .     +     @  +  @  @  .  @        @  ++ u+ #+ @@ g; 3& j% k% q'.;, `$ `  c. +  .     .  .  @  @  .  @  .     .  .  +              +  .  @           +  @        +  @  @  +  .  .     @  @           @     @  @     @  +  .  @  +        .     .  @  .  @  @  .              @  .     +  @  @  .  +  @  +  +  @  +  .  @     +  @  +     ",
"@  .  +  @  +  +  @  +  .  @     +  @  +     +  .     .        .  .     @  +  +  .  .  .     .     +     @  +  .  .     +  +     @  .  @     +     .  +  +  +  +     +     @  .     +  +  +     @  +     .        .  +  @     .  @  .     @  .        .     r  x.  % #$ r'.$  `@ 8& K+ F. 5@ +  +        +  +  +     +     @     .  @  @  .  +        @        +  +     .. t@ ,# j; k; A] m; s'.Z= o; s  )  +     .  @     .  +     @  @  @  @  .  +  +  .     :> q-.t'.u'.v'.w'.x'.2Q y'.af @  @  .     +     @  +  @  @  .  @        @  @  +  .  .  .  .  .     +     .  .  .  +  .     .  .  @  @  .  @  .     .  .  +              +  .  @           +  @        +  @  +  $; /y z'.A'.B'.C'.D'.E'.F'.G'.H'.I'.1Q I* J'.K'.L'.C9 MC M'.n0 6U {$.V7 N'.O'.Y7 Da P'.c6 .        @  .     +  @  @  .  +  @  +  +  59 T0 n7 m7 )7 l7 k7 R8 b'.Q'.H*.R'.RC r8 S'.T'.U'.6d S$ !  i} V'.W'.X'.Y'.Z'.`'. )..).+).7< 9< &     +  +     @  .  @     +     .  +  +  +  +     +     @  .     +  +  +     @  +     .        .  +  @     .  @  .     @  .        .  @  .  @                 +     @  .     .  %  c. }  '  #  !        @     .  @  @  .  +        @        +  +  @     .     +  $; 4/ F] V) J{ W) H] @).#).O> `$ .     .  +     @  @  @  @  .  +  +  .     .  .     +        @     @  +  ++ A@ (+ ## 0& T/ $).;$ >$ ~* :@ S. c. .  @  @  +  .  .  .  .  .     +     .  .  .  +  .     .  .  @  @  .  @  .     .  .  +              +  .  @           +  @        +  @  @  +  .  .     @  @           @     @  @     @  +  .  @  +        .     .  @  .  @  @  .              @  .     +  @  ",
"+  .     .  .     +        @     @  +  @  @  .     +     @  +  @  @  .  @        @  @  +  .  .  .  .  .     +     .  .  .  +  .     .  .  @  @  .  @  .     .  .  +              +  .  @           +  @        +  @  @  +  .  .     @  @           @     )  0% K  V. W. !$ A; ~# `. := .@ ^+ +  @  .  @  @  .              @  .     +  @  @  .  +  @  +  +  @  +  .  )  +. q' +! @! Z/ '~ `/  ( &! 5+ r  .  .     @  +  +  .  .  .     .     +     @  +  .  .  $; Tm &m %).&).*).=).-).JW af .  +  +  +  +     +     @  .     +  +  +     @  +     .        .  +  @     .  @  .     @  .        .  @  .  @                 +     @  .     .        +  +  +     +     @     .  +   . Ro ;).>).,).').)).!).~).{).]).^).1..t@ /).().l7 )7 /8 _).:).{$.<).QC X7 Y7 28 P'.Ba ^+    @  @  @  @  .  +  +  .     .  .     <] o7 [a [).}).S0 |).Q0 1).f_ 2).3).4).5).6).7).8).s] %= .R 9).`: 0).[T )V )V YW a).b).5: s  T.    .  .  +  .     .  .  @  @  .  @  .     .  .  +              +  .  @           +  @        +  @  @  +  .  .     @  @           @     @  @     @  +  .  @  +        .     .  @  .  .     %  &  &        @  .     +  @  @  .  +  @  +  +  @  +  .  @     +  @  +  .  J; P] L; D^ W1 ;! #( ~~ U] 0$ b. .  .  .  .     .     +     @  +  .  .     +  +     @  .  @     +     .  ++ @+ #+ ~l /$ T; c).=+ :$ _) -@ `   .    @  +     .        .  +  @     .  @  .     @  .        .  @  .  @                 +     @  .     .        +  +  +     +     @     .  @  @  .  +        @        +  +  @     .     +  .  @  .  +  .  +  +  @  +     .  @     .  +     @  @  @  @  .  +  ",
".  .     +     .  .  .  +  .     .  .  @  @  .  @  .     .  .  +              +  .  @           +  @        +  @  @  +  .  .     @  @           @     @  @     @  +  .  @  +        .     .  @  .  @  @  .              @  .     +  @  @  .  +  @  +     .. c@ [$ }$ d).W; 2$ 3$ 4# ]+ ^+    .        .  .     @  +  +  .  .  .     .     +     @  +  .  .     +  @  .. &* c* ;( df `; ,( .> c$ (! J        +     @  .     +  +  +     @  +     .        .  +  +# #, /, e).f).g).K@ 5+ x= I  .  @  .  @                 +     @  .     .        +  +  +     +     @     .  @  @  .  +        @        +  +  @     .     +  .  @  .  +  .  +  +  @  +     .  @     .  +     @  @  .  :> h).i).j).k).l).@o m).n).o).p).q).&I Hm r).s).t).u).v).cd w).x).QC y).9a 28 fD z). .    @  @  +  .  .  .  .  .     +     .  ]7  b T7 /8 )7 l7 '7 l8 A).q-.B).C).D).E).aY F).G).hO H)._r I).J).K).}T )V [T L).M).N)..< T.    @  +  .  .     @  @           @     @  @     @  +  .  @  +        .     .  @  .  @  @  .              @  .     +  @  @  .  +  @  +  +  @  +  .  @     +  @  +     +  .     .        .  .     @  .  +  .  .  .     .     +     @  +  .  .     +  +     @  .  @     +   . _! @> || 1| 0{ h| >g 'C 1! F& c. +  +  +     @  +     .        .  +  @     .  @  .     @  .        .  @  @# G$ m@ 4* 5$ O).P).<# /s a# <@ }  .        +  +  +     +     @     .  @  @  .  +        @        +  +  @     .     +  .  @  .  +  .  +  +  @  +     .  @     .  +     @  @  @  @  .  +  +  .     .  .     +        @     @  +  @  @  .     +     @  +  @  @  .  @        @  @  +  .  .  .  ",
"+     @  .     +  +  +     @  +     .        .  +  @     .  @  .     @  .        .  @  .  @                 +     @  .     .        +  +  +     +     @     .  @  @  .  +        @        +  +  @     .     +  .  @  .  +  .  +  +  @  +     .  @     T. U+ X~ v& b$ 6~ !> T< 6!  @ .@ +  +  .     +        @     @  +  @  @  .     +     @  +  @  @  .  @        I  z% @. ~> 8! {] 9! ]C Q).a! d. T. .  .  +  .     .  .  @  @  .  @  .     .  .  +            . :> 3+ t&.VN R).S).#; .. )     +  @  @  +  .  .     @  @           @     @  @     @  +  .  @  +        .     .  @  .  @  @  .              @  .     +  @  @  .  +  @  +  +  @  +  .  @     +  @  +     +  .     .  .  `   = O> 3> T).U).X) V).W).X).Y).Z).`). !._R .!.+!.O>.v` w).@!.QC 18 9a #!.Ca 4b ^+    .  +  +  +  +     +     @  .     +  <] }b `a m7 ^8 $!.'7 }5 %!..5 &!.*!.=!.-!.;!.>!.,!.'!.)!.!!.~!.{!.]!.^!.[T /!.(!.UX (T r  @     @  .     .        +  +  +     +     @     .  @  @  .  +        @        +  +  @     .     +  .  @  .  +  .  +  +  @  +     .  @     .  +     @  @  @  @  .  +  +  .     .  .     +        @     @  +  @  @  .     +     @  +  @  @  .  @        @  @  +  .  .  .  .  .  %* ;) [> l9 m9 e! !) _!.3> 4> ;# .  @  .  @  .     .  .  +              +  .  @           +  @        +  ++ A@ e+ f+ A& :!.%j l# i* @/ $' `  c. .  @     @  +  .  @  +        .     .  @  .  @  @  .              @  .     +  @  @  .  +  @  +  +  @  +  .  @     +  @  +     +  .     .        .  .     @  +  +  .  .  .     .     +     @  +  .  .     +  +     @  .  @     +     .  +  +  +  +     ",
"      .  .     @  +  +  .  .  .     .     +     @  +  .  .     +  +     @  .  @     +     .  +  +  +  +     +     @  .     +  +  +     @  +     .        .  +  @     .  @  .     @  .        .  @  .  @                 +     @  .     .        +     r  c@ k* G& H& q$ p9 i~ j@ ]+ G. +     @        +  +  @     .     +  .  @  .  +  .  +  +  @  +     .  @  )  U+ m& b> U% c> 7] <!.jV g> X@ |     .  .     +        @     @  +  @  @  .     +     @  +  @  +  4+ 4+ O= 4M Q& `r |  T.    .  .  .     +     .  .  .  +  .     .  .  @  @  .  @  .     .  .  +              +  .  @           +  @        +  @  @  +  .  .     @  @           @     @  @     @  +  .  @  +        .  .  `  `$ H! [!.}!.|!.1!.'K 2!.3!.4!.5!.6!.7!.8!.9!.Sg mj 0!.ba aa 0a a!.b!.c!.Ba ^+ @  +     +  .     .        .  .     @  <] T0 T7 S7 m8 ]8 :a d!.A).P2 p7 e!.;` f!.g!.h!.i!..L j!.k!.l!.m!.8R n!.o!.p!._T .< T.    @     @  .     +  +  +     @  +     .        .  +  @     .  @  .     @  .        .  @  .  @                 +     @  .     .        +  +  +     +     @     .  @  @  .  +        @        +  +  @     .     +  .  @  .  +  .  +  +  @  +     .  @     .  +     @  @  @  @  .  ^+ i> 4( V9 l> K( M- a] p> P- a. }     +  @  @  .     +     @  +  @  @  .  @        @  @  +  .  .  .  .     @# (+ v+ q!.t> r!.s!.N& B+ w= W@ 4+ .  .  @  .     .  .  +              +  .  @           +  @        +  @  @  +  .  .     @  @           @     @  @     @  +  .  @  +        .     .  @  .  @  @  .              @  .     +  @  @  .  +  @  +  +  @  +  .  @     +  @  +     +  .     .  ",
"@  .     .        +  +  +     +     @     .  @  @  .  +        @        +  +  @     .     +  .  @  .  +  .  +  +  @  +     .  @     .  +     @  @  @  @  .  +  +  .     .  .     +        @     @  +  @  @  .     +     @  +  @  @  .  @        )  I  x. (. 4^ 5^ y> t!.y~ u!.b+ 5@ ^+ .  +  .     .  .  @  @  .  @  .     .  .  +              +  .  @        r  [@ X| v!.U( Jn  ; h] >D k) B! )  @  @           @     @  @     @  +  .  @  +        .     .  @   . .  %  '  I* *  !  T.    .     +  @  @  .  +  @  +  +  @  +  .  @     +  @  +     +  .     .        .  .     @  +  +  .  .  .     .     +     @  +  .  .     +  +     @  .  @     +     .  +  +  +  +     +     @  .  .  4+ ]. g! =, w!.x!.y!.z!.A!.B!.C!.D!.E!.F!.G!.l=.[* H!.I!.q8 0a RC J!.K!.L!.+                 +     @  .     .        <] T0 n0 m7 MC ]8 M!.N!.P0 h4 O!.P!.Q!.R!.S!.T!.U!.V!.W!.X!.Y!.Z!.`!. ~..~.eQ +~.!     .  +  +  @  +     .  @     .  +     @  @  @  @  .  +  +  .     .  .     +        @     @  +  @  @  .     +     @  +  @  @  .  @        @  @  +  .  .  .  .  .     +     .  .  .  +  .     .  .  @  @  .  @  .     .  .  +              +  .  @           +  @        +  @  @  +  .  4+ C! I> 0^ l] #M %_ ]/ &_ '; D+ %  @  +  .  @  +        .     .  @  .  @  @  .              @  .     @  ++ A@ G$ |l @~.,* #~.L$ $~.v* m+ S. c. @  +     +  .     .        .  .     @  +  +  .  .  .     .     +     @  +  .  .     +  +     @  .  @     +     .  +  +  +  +     +     @  .     +  +  +     @  +     .        .  +  @     .  @  .     @  .        .  @  .  @                 +     ",
".  +  .     .  .  @  @  .  @  .     .  .  +              +  .  @           +  @        +  @  @  +  .  .     @  @           @     @  @     @  +  .  @  +        .     .  @  .  @  @  .              @  .     +  @  @  .  +  @  +  +  @  +  .  @  T. .. a% d= c% %~.&~.y* e^  @ .@ ^+ .     @  +  +  .  .  .     .     +     @  +  .  .     +  +     @  .  @  )  x. X> Y> *~.&M l;  , ., +, 4& r        +  +  +     @  +     .        .  +  @     .  @  .     @  .  .  .  .     &     &              +     @  .     .        +  +  +     +     @     .  @  @  .  +        @        +  +  @     .     +  .  @  .  +  .  +  +  @  +     .  @     .  +     @  @  @  @  .  +  +  .     .  .     +  .  c. 9* 0$ =~.;{ -~.;~.>~.,~.'~.)~.!~./3 ~~.{~.[S ]~..0 Z8 ^~. 9 /~.+9 L!. . .  .     +     .  .  .  +  .     .  .  <] (~._~.LC :~.<~.[~.K'.[7  . Ph }~.|~.1~.2~.3~.4~.5~.6~.tP 7~.8~.9~.0~.a~..< T.          @  @           @     @  @     @  +  .  @  +        .     .  @  .  @  @  .              @  .     +  @  @  .  +  @  +  +  @  +  .  @     +  @  +     +  .     .        .  .     @  +  +  .  .  .     .     +     @  +  .  .     +  +     @  .  @     +     .  +  +  +  +     +     .  #, Q! V{ W{ A' ;! &, *, =, :@ c  .  .  +  @     .  @  .     @  .        .  @  .  @                 +     ++ @+ +@ U$ F' b~.A* t. Y$ c~.}# ^. .     .  @  @  .  +        @        +  +  @     .     +  .  @  .  +  .  +  +  @  +     .  @     .  +     @  @  @  @  .  +  +  .     .  .     +        @     @  +  @  @  .     +     @  +  @  @  .  @        @  @  +  .  .  .  .  .     +     .  .  ",
"   .  .     +        @     @  +  @  @  .     +     @  +  @  @  .  @        @  @  +  .  .  .  .  .     +     .  .  .  +  .     .  .  @  @  .  @  .     .  .  +              +  .  @           +  @        +  @  @  +  .  .     @  @              v~ x. y. E* d~.i> ,, e~.K+ ]+ G. +  .  .  @  .  @  @  .              @  .     +  @  @  .  +  @  +  +  @     r  ', 8+ f~.%{ Q) P' &{ lU o; s  )     .  .     @  +  +  .  .  .     .     +     @  +  .  .     +  +     @  .  @     +     .  +  +  +  +     +     @  .     +  +  +     @  +     .        .  +  @     .  @  .     @  .        .  @  .  @                 +     @  .     .        +  +  +     +     @     .  @  @  .  +        @  .  .   . t{ a# mZ g~.h~.i~.j~.k~.l~.m~.n~.o~.p~..  M9 q~.r~.s~.t~.a9 u~.Q'.+  @  @  @  .  +  +  .     .  .     +     ]7 v~.w~.x~.y~.g9 z~.A~.T .+  B~.C~.D~.E~.F~.G~.H~.UK dZ I~.J~.K~.L~.M~.yN T.       +     .  .  .  +  .     .  .  @  @  .  @  .     .  .  +              +  .  @           +  @        +  @  @  +  .  .     @  @           @     @  @     @  +  .  @  +        .     .  @  .  @  @  .              @  .     +  @  @  .  +  @  +  +  @  +  .  @     +  @  +     +  .     .  .  c. 0' q; _, U' q_ V' }, ;{ 7- s1 c.    +     @  +  .  .     +  +     @  .  @     +     .  +  +  +  +     @  d+ G$ ## Z' ]@ =4 O. P. N~.a# ;# 4+       .  +  @     .  @  .     @  .        .  @  .  @                 +     @  .     .        +  +  +     +     @     .  @  @  .  +        @        +  +  @     .     +  .  @  .  +  .  +  +  @  +     .  @     .  +     @  @  @  @  .  +  +  .  ",
".  .  +              +  .  @           +  @        +  @  @  +  .  .     @  @           @     @  @     @  +  .  @  +        .     .  @  .  @  @  .              @  .     +  @  @  .  +  @  +  +  @  +  .  @     +  @  +     +  .     .        T. J  K  V. =% 4, s_ 3@ t| b+ .@ +  +  .  @  +  .  .     +  +     @  .  @     +     .  +  +  +  +     +     )  +. e- sq O~.0, a, !{ *) I; e, r     .  +  @     .  @  .     @  .        .  @  .  @                 +     @  .     .        +  +  +     +     @     .  @  @  .  +        @        +  +  @     .     +  .  @  .  +  .  +  +  @  +     .  @     .  +     @  @  @  @  .  +  +  .     .  .     +        @     @  +  @  @  .     +     @  +  +   . :) F& W! P~.Q~.R~.S~.T~.U~.V~.W~.m! P2 40 X~.Y~.Z~.`~. {..{.W8 .  .  @  @  .  @  .     .  .  +           af N9 +{.@{.#{.R9 ${.Cb %{.@# y, !' &{.*{.={.-{.;{.>{.,{.'{.){.dR !{.9< T.    @     @  +  .  @  +        .     .  @  .  @  @  .              @  .     +  @  @  .  +  @  +  +  @  +  .  @     +  @  +     +  .     .        .  .     @  +  +  .  .  .     .     +     @  +  .  .     +  +     @  .  @     +     .  +  +  +  +     +     @  .     +  +  +     @  +     .        .  J; !l /] ^{ h, |> i, b4 j, k, b.  . @  .  @                 +     @  .     .        +  +  +     +     @  )  A@ D% 6@ 7@ M. [{ <# !% @& -@ `   . .     .     +  .  @  .  +  .  +  +  @  +     .  @     .  +     @  @  @  @  .  +  +  .     .  .     +        @     @  +  @  @  .     +     @  +  @  @  .  @        @  @  +  .  .  .  .  .     +     .  .  .  +  .     .  .  @  @  .  @  .     ",
"@                 +     @  .     .        +  +  +     +     @     .  @  @  .  +        @        +  +  @     .     +  .  @  .  +  .  +  +  @  +     .  @     .  +     @  @  @  @  .  +  +  .     .  .     +        @     @  +  @  @  .        .. [* >+ }* X#.)+ 2* && P@ .+ G. +  .  .  .  .  .     +     .  .  .  +  .     .  .  @  @  .  @  .     .     .. y. r, 3{ S_ Cc ^! 6{ |[ h/ J     @        +  @  @  +  .  .     @  @           @     @  @     @  +  .  @  +        .     .  @  .  @  @  .              @  .     +  @  @  .  +  @  +  +  @  +  .  @     +  @  +     +  .     .        .  .     @  +  +  .  .  .     .     +     @  +  .  .     +  +     @  .  @     +     .  +  +  +  +     +  .  4+ i' ~{.{{.]{.^{./{.({._{.:{.d  9l x9 <{.[{.}{.|{.1{.2{.W5 +  @  .        .  @  .  @                 ++ Ha Ia 3{.4{.@8 5{.6{.l{ `{ -) 7{.S$.K, 8{.9{.0{.a{.mL b{.c{.pQ %=          +  +  @     .     +  .  @  .  +  .  +  +  @  +     .  @     .  +     @  @  @  @  .  +  +  .     .  .     +        @     @  +  @  @  .     +     @  +  @  @  .  @        @  @  +  .  .  .  .  .     +     .  .  .  +  .     .  .  @  @  .  @  .     .  .  +              +  .  @           +  @  .   . +% z, 9] 9{ d{.a{ ): b{ 3~ $' }     @     @  @     @  +  .  @  +        .     .  @  .  @  @  .           @# (+ v+ ~= {= H, {: |+ @m a# 3+ 4+ .  +  .  @     +  @  +     +  .     .        .  .     @  +  +  .  .  .     .     +     @  +  .  .     +  +     @  .  @     +     .  +  +  +  +     +     @  .     +  +  +     @  +     .        .  +  @     .  @  .     @  .        .  @  .  ",
"@  +        .     .  @  .  @  @  .              @  .     +  @  @  .  +  @  +  +  @  +  .  @     +  @  +     +  .     .        .  .     @  +  +  .  .  .     .     +     @  +  .  .     +  +     @  .  @     +     .  +  +  +  +     @  )  I  U+ )> L, M, za d* O, a+ F$ .@ +  .  .  +  @     .  @  .     @  .        .  @  .  @                 +     I  K  Z& o/ e{.0~ U, b~ x[ X, +. T. @     .  @  @  .  +        @        +  +  @     .     +  .  @  .  +  .  +  +  @  +     .  @     .  +     @  @  @  @  .  +  +  .     .  .     +        @     @  +  @  @  .     +     @  +  @  @  .  @        @  @  +  .  .  .  .  .     +     .  .  .  +  .     .  .  @  @  .  @  .     .  .  +              +  .  .  c. b. at pN ct f{.8t p'..< %  P8 g{.h{.i{.j{.k{.l{.jb h4 @     @  @     @  +  .  @  +        .        I..m{.n{.o{.78 p{.q{.9c 08 +  o# H- r{.=N s{.t{.u{.v{.DM %= T.    .  @     +  @  +     +  .     .        .  .     @  +  +  .  .  .     .     +     @  +  .  .     +  +     @  .  @     +     .  +  +  +  +     +     @  .     +  +  +     @  +     .        .  +  @     .  @  .     @  .        .  @  .  @                 +     @  .     .        +  +  +     +     @     .  +  $; %; e: h{ ./ j{ w2 f~ 4-.l% S. %  .     +  .  @  .  +  .  +  +  @  +     .  @     .  +     @  @  @  @  @  A@ J. h# 7% w{.g~ +t i* @/ F& k& %  @  +  @  @  .     +     @  +  @  @  .  @        @  @  +  .  .  .  .  .     +     .  .  .  +  .     .  .  @  @  .  @  .     .  .  +              +  .  @           +  @        +  @  @  +  .  .     @  @           @     @  @     @  +  .  ",
"   +     @  +  .  .     +  +     @  .  @     +     .  +  +  +  +     +     @  .     +  +  +     @  +     .        .  +  @     .  @  .     @  .        .  @  .  @                 +     @  .     .        +  +  +     +     @     .  @  )  J  +. @. G& d%.*' r+ f% j@ .+ ^+ +     +  .  @  .  +  .  +  +  @  +     .  @     .  +     @  @  @  @  .  @  U+ S' v& j~ |; k~ l~ d% %/ 4& J  @  +  @  @  .     +     @  +  @  @  .  @        @  @  +  .  .  .  .  .     +     .  .  .  +  .     .  .  @  @  .  @  .     .  .  +              +  .  @           +  @        +  @  @  +  .  .     @  @           @     @  @     @  +  .  @  +        .     .  @  .  @  @  .              @  .     +  @  @  .  +  @  +  +  .  c. != Ik ^O -  *  &  -) x{.y{.z{.A{.B{.C{.D{.(a +# @  +  +  .  .  .     .     +     @  +  .     Q8 E{.F{.G{.H{.I{.J{.k6 2& ++ c. ^. [  Al K{.Q* P* %= T.       @  +  +     @  +     .        .  +  @     .  @  .     @  .        .  @  .  @                 +     @  .     .        +  +  +     +     @     .  @  @  .  +        @        +  +  @     .     +  .  @  .  +  .  +  +  @  +     .  @     .  +     @  @  @  @  .  +  +  .     .  .     +        @     @  +  @  @  .   . i> h5 ~' p~ ]' w{ r~ (' _' DR }  @  +  .  .  .  .  .     +     .  .  .  +  .     .  .  @  @  .  @  .  @  ++ @+ v+ G/ n* 1b [' A+ ~. {. W@ ^. %  +  @        +  @  @  +  .  .     @  @           @     @  @     @  +  .  @  +        .     .  @  .  @  @  .              @  .     +  @  @  .  +  @  +  +  @  +  .  @     +  @  +     +  .     .        .  .     @  +  +  .  .  .     .  ",
"+  @  +  .  @     +  @  +     +  .     .        .  .     @  +  +  .  .  .     .     +     @  +  .  .     +  +     @  .  @     +     .  +  +  +  +     +     @  .     +  +  +     @  +     .        .  +  @     .  @  .     @  .        T. x. X@ n% 3b -/ r* L{.&$ b+ 5@ +  +     .        +  +  +     +     @     .  @  @  .  +        @        @  I  [@ 3' A~ 4' C~ n5 o5 O/ Y= @$    .  @  +     .  @     .  +     @  @  @  @  .  +  +  .     .  .     +        @     @  +  @  @  .     +     @  +  @  @  .  @        @  @  +  .  .  .  .  .     +     .  .  .  +  .     .  .  @  @  .  @  .     .  .  +              +  .  @           +  @        +  @  @  +  .  .     @  @           @     @  @     @  +  .     +        .     .  .  (_ M{.N{.O{.P{.Q{.R@.R{.D2 ^+    +  @  @  .  +  @  +  +  @  +  .  @     +  l@ S{.T{.U{.V{.W{.X{.Y{.@% /+ .  .  .  %  %  %  &  .     .     +     @  +  .  .     +  +     @  .  @     +     .  +  +  +  +     +     @  .     +  +  +     @  +     .        .  +  @     .  @  .     @  .        .  @  .  @                 +     @  .     .        +  +  +     +     @     .  @  @  .  +        @        +  +  @     .     +  .  @  .  +  .  +  +  @  +     .  +  4+ 0' H~ b' Q5 au K~ L~ g' K{ <@ c.    .  .     +        @     @  +  @  @  .     +     @  +  @  @  .  @  @  d+ ^& 9& $# sb P+ Z{.R+ `{.DR S. c. .  .  .  +  .     .  .  @  @  .  @  .     .  .  +              +  .  @           +  @        +  @  @  +  .  .     @  @           @     @  @     @  +  .  @  +        .     .  @  .  @  @  .              @  .     +  @  @  .  +  @  +  ",
"   +  @  @  +  .  .     @  @           @     @  @     @  +  .  @  +        .     .  @  .  @  @  .              @  .     +  @  @  .  +  @  +  +  @  +  .  @     +  @  +     +  .     .        .  .     @  +  +  .  .  .     .     +  )  0% L* U= V=  ].!# l* `+ ]# .@ S$    +     .  +  +  +  +     +     @  .     +  +  +     @  +     .        )  x= d@ (/ S~ (< l; S{ v' w' X~ r  .  @  .  @                 +     @  .     .        +  +  +     +     @     .  @  @  .  +        @        +  +  @     .     +  .  @  .  +  .  +  +  @  +     .  @     .  +     @  @  @  @  .  +  +  .     .  .     +        @     @  +  @  @  .     +     @  +  @  @  .  @        @  @  +  .  .  .  .  .     +     .  .  .  +  .     .  .  @  @  .  ^+ w6 .].WX +].Sa @].#].@@.RB ^+ .  @           +  @        +  @  @  +  .     $].U9 %].&].*].=].-].;].K2 v# @  @  +  .  @  +        .     .  @  .  @  @  .              @  .     +  @  @  .  +  @  +  +  @  +  .  @     +  @  +     +  .     .        .  .     @  +  +  .  .  .     .     +     @  +  .  .     +  +     @  .  @     +     .  +  +  +  +     +     @  .     +  +  +     @  +     .        .  +  @     .  @  .     @  .        .  @  .  @           .  J; U{ y' `~ D3 O; C' >].E' a# `  .     +     @     .  @  @  .  +        @        +  +  @     .     +     ++ A@ ^# U$ #@ F% %@ !A j& I% ]. c  %  +     @  @  @  @  .  +  +  .     .  .     +        @     @  +  @  @  .     +     @  +  @  @  .  @        @  @  +  .  .  .  .  .     +     .  .  .  +  .     .  .  @  @  .  @  .     .  .  +              +  .  @           +  @     ",
"@  .  +  +  .     .  .     +        @     @  +  @  @  .     +     @  +  @  @  .  @        @  @  +  .  .  .  .  .     +     .  .  .  +  .     .  .  @  @  .  @  .     .  .  +              +  .  @           +  @        +  @  @     r  /. ,].H' F* ,@ '].K' N% k@ G. +     @  +  .  @  +        .     .  @  .  @  @  .              @  .     @  .. m% V+ )*.7_ Q) ], &{ R' '( U+ &  +  @  +     +  .     .        .  .     @  +  +  .  .  .     .     +     @  +  .  .     +  +     @  .  @     +     .  +  +  +  +     +     @  .     +  +  +     @  +     .        .  +  @     .  @  .     @  .        .  @  .  @                 +     @  .     .        +  +  +     +     @     .  @  @  .  +        @        +  +  @     .     +  'a p5 )].!].~].{].PY ]].^].q] .  @     .  +     @  @  @  @  .  +  +  .     .  /].(]._].:].<].$c [].O..}].D% ++ .     +     @  +  @  @  .  @        @  @  +  .  .  .  .  .     +     .  .  .  +  .     .  .  @  @  .  @  .     .  .  +              +  .  @           +  @        +  @  @  +  .  .     @  @           @     @  @     @  +  .  @  +        .     .  @  .  @  @  .              @  .     +  @  @  .  +  @  +  +  @  +  .  @     +  @  +     +  .     .   . /, (, T' U' lq V' W' => 7- `$ %  .     +     @  +  .  .     +  +     @  .  @     +     .  +  +  +  +     /+ L+ M+ #% ]@ ^@ `' t& _@ a# 3+ }  .        .  +  @     .  @  .     @  .        .  @  .  @                 +     @  .     .        +  +  +     +     @     .  @  @  .  +        @        +  +  @     .     +  .  @  .  +  .  +  +  @  +     .  @     .  +     @  @  @  ",
"@  @  .  +  +  .     .  .     +        @     @  +  @  @  .     +     @  +  @  @  .  @        @  @  +  .  .  .  .  .     +     .  .  .  +  .     .  .  @  @  .  @  .     .  .  +              +  .  @           +  @        +     I  U+ K   ) |].1@ W% 3@ 4@ := c+ +  +  @     @  +  .  @  +        .     .  @  .  @  @  .              @     )  +. 7, 8, 9, -4 ){ tq 1].'O L* T. @     +  @  +     +  .     .        .  .     @  +  +  .  .  .     .     +     @  +  .  .     +  +     @  .  @     +     .  +  +  +  +     +     @  .     +  +  +     @  +     .        .  +  @     .  @  .     @  .        .  @  .  @                 +     @  .     .        +  +  +     +     @     .  @  @  .  +        @        +  +  @     .  +  O4 :b 2].3].4].5].6].7].Vc .@ @  .  @     .  +     @  @  @  @  .  +  +  .     @  8].9].0].a].b].c].d].e].ib /+ @  .     +     @  +  @  @  .  @        @  @  +  .  .  .  .  .     +     .  .  .  +  .     .  .  @  @  .  @  .     .  .  +              +  .  @           +  @        +  @  @  +  .  .     @  @           @     @  @     @  +  .  @  +        .     .  @  .  @  @  .              @  .     +  @  @  .  +  @  +  +  @  +  .  @     +  @  +     +  .      . %* ][ >) f].h, ]^ ^[ _{ j, k, b. %  .     +     @  +  .  .     +  +     @  .  @     +     .  +  +  +  +  )  A@ W# 6@ 7@ 8@ 'x 0@ a@ @& -@ `  %  .        .  +  @     .  @  .     @  .        .  @  .  @                 +     @  .     .        +  +  +     +     @     .  @  @  .  +        @        +  +  @     .     +  .  @  .  +  .  +  +  @  +     .  @     .  +     @  @  ",
"@           @     @  @     @  +  .  @  +        .     .  @  .  @  @  .              @  .     +  @  @  .  +  @  +  +  @  +  .  @     +  @  +     +  .     .        .  .     @  +  +  .  .  .     .     +     @  +  .  .     .     .. +. {% += f@ Ch g].q, 4# ]+ G. +     +     @  .     +  +  +     @  +     .        .  +  @     .  @  .     0%  % 2{ h].t, 5{ ^! 6{ |[ h/ J  )     +     @  .     .        +  +  +     +     @     .  @  @  .  +        @        +  +  @     .     +  .  @  .  +  .  +  +  @  +     .  @     .  +     @  @  @  @  .  +  +  .     .  .     +        @     @  +  @  @  .     +     @  +  @  @  .  @        @  @  +  .  .  .  .  .     +     .  .  .  +  .     .  .  @  @  .  @  .     .  .  +        ^+ i].j].k].l].m].n].o].p].MQ ^+    +  @  @  +  .  .     @  @           @     @  @  <] Jc ia q].r].s].t].u].v].u+ @  @  .  @  @  .              @  .     +  @  @  .  +  @  +  +  @  +  .  @     +  @  +     +  .     .        .  .     @  +  +  .  .  .     .     +     @  +  .  .     +  +     @  .  @     +     .  +  +  +  +     +     @  .     +  +  +     @  +     .        .  +  @     .  @  .     @  .        .  @  .  @                 +     @  .     .        +   . #^ z, 8{ B, :1 |~ w].b{ o[ 4~ 4+ .     @        +  +  @     .     +  .  @  .  +  .  +  +  @  +     .  @  @# (+ -& ~= >> x].y].z# ]= k, W@ ^. .  .  .     +        @     @  +  @  @  .     +     @  +  @  @  .  @        @  @  +  .  .  .  .  .     +     .  .  .  +  .     .  .  @  @  .  @  .     .  .  +              +  .  @           +  @        +  @  @  +  .  .     @  ",
"@  .  @  .     .  .  +              +  .  @           +  @        +  @  @  +  .  .     @  @           @     @  @     @  +  .  @  +        .     .  @  .  @  @  .              @  .     +  @  @  .  +  @  +  +  @  +  .  @     )  x. z> u@ v@ r[ e) _= g) F$ .@ ^+ @  @  +  +  .  .  .     .     +     @  +  .  .     +  +     @  .  @     )  U. n/ 8~ X^ p/ U, f{ x[ X, +. T.    +  +  +     @  +     .        .  +  @     .  @  .     @  .        .  @  .  @                 +     @  .     .        +  +  +     +     @     .  @  @  .  +        @        +  +  @     .     +  .  @  .  +  .  +  +  @  +     .  @     .  +     @  @  @  @  .  +  +  .     .  .     +        @     @  +  @  @  .     +     @  +  @  @  .  @     .  .@ rk z].A].jc B].u5 C].D].F$ +  .  .  .  +  .     .  .  @  @  .  @  .     .  .  +  @# [7 +c @c E].F].G].H].I].D% =& @        +  @  @  +  .  .     @  @           @     @  @     @  +  .  @  +        .     .  @  .  @  @  .              @  .     +  @  @  .  +  @  +  +  @  +  .  @     +  @  +     +  .     .        .  .     @  +  +  .  .  .     .     +     @  +  .  .     +  +     @  .  @     +     .  +  +  +  +     +     @  .     +  +  +     @  +     .        .  :> KQ &; Z, ./ v2 w2 k{ V[ 3^ ;# c. @  .  @                 +     @  .     .        +  +  +     +     @  )  @# e+ f$ J].K].L].L# H@ I@ b@ o#  . .     .     +  .  @  .  +  .  +  +  @  +     .  @     .  +     @  @  @  @  .  +  +  .     .  .     +        @     @  +  @  @  .     +     @  +  @  @  .  @        @  @  +  .  .  .  .  .     +     .  .  .  +  .     .  .  @  ",
"      @  .     +  @  @  .  +  @  +  +  @  +  .  @     +  @  +     +  .     .        .  .     @  +  +  .  .  .     .     +     @  +  .  .     +  +     @  .  @     +     .  +  +  +  +     +     @  .     +  +  +     @  +  T. J  d. :& <& [& M@ M].x) ]# ]+ ^+ @  .        .  @  .  @                 +     @  .     .        +  +  +  )  U+ w- x/ y/ N]..} r{ fd %t E+ J           +  +  @     .     +  .  @  .  +  .  +  +  @  +     .  @     .  +     @  @  @  @  .  +  +  .     .  .     +        @     @  +  @  @  .     +     @  +  @  @  .  @        @  @  +  .  .  .  .  .     +     .  .  .  +  .     .  .  @  @  .  @  .     .  .  +              +  .  @           +  @        +  @  @  +  .  .     @  @           @  ^+ >4 Qc w/ O].P].5&.Q].R].Vc 5@ .     .  @  .  @  @  .              @  .     +  @  @  )  08 S].T].U].V].W].X].Y].mA }| @  +     +  .     .        .  .     @  +  +  .  .  .     .     +     @  +  .  .     +  +     @  .  @     +     .  +  +  +  +     +     @  .     +  +  +     @  +     .        .  +  @     .  @  .     @  .        .  @  .  @                 +     @  .     .        +  +  +     +     @     .  @  @  .  +        @        +  +  @     .     +  .  @  .  ^+ n! S| o~ C/ v{ S] ;A >A I) T+ ^. .  @  @  @  @  .  +  +  .     .  .     +        @     @  +  @  @  .     ++ l@ T$ 1} Z].'A )A !A x] C+ <@ 4+ .  .  .  .  .  .     +     .  .  .  +  .     .  .  @  @  .  @  .     .  .  +              +  .  @           +  @        +  @  @  +  .  .     @  @           @     @  @     @  +  .  @  +        .     .  @  .  @  @  .        ",
"      +  +  @     .     +  .  @  .  +  .  +  +  @  +     .  @     .  +     @  @  @  @  .  +  +  .     .  .     +        @     @  +  @  @  .     +     @  +  @  @  .  @        @  @  +  .  .  .  .  .     +     .  .  .     T. /. 4& *8 N) /+ 5} 8& &$ 6_ 5@ .  +              +  .  @           +  @        +  @  @  +  .  .     @  @  .. (. ,# j; k; l; m; 7' P: I{ /. )  +        .     .  @  .  @  @  .              @  .     +  @  @  .  +  @  +  +  @  +  .  @     +  @  +     +  .     .        .  .     @  +  +  .  .  .     .     +     @  +  .  .     +  +     @  .  @     +     .  +  +  +  +     +     @  .     +  +  +     @  +     .        .  +  @     .  @  .     @  .        .  @  .  @                 +     +  .@ Pb `]. ^..^.+^.3d 4d @^.MQ ^+ @     .  @  @  .  +     &  &  &  %  .  +  @     .     @  1-.%{.#^.$^.%^.&^.*^.=^.-^./k @  @     .  +     @  @  @  @  .  +  +  .     .  .     +        @     @  +  @  @  .     +     @  +  @  @  .  @        @  @  +  .  .  .  .  .     +     .  .  .  +  .     .  .  @  @  .  @  .     .  .  +              +  .  @           +  @        +  @  @  +  .  .     @  @           @     @  @     @  +  .  @  +        .     .  @  .  @  @  .        .  4+ 0' '< L[ J{ t; ;^.I] #).O> W@  . @  +  .  @     +  @  +     +  .     .        .  .     @  +  +  .  .  @  d+ G$ 9& 03 ve >^.*# N~ ]< :' m$ 4+ .  @  .  @     +     .  +  +  +  +     +     @  .     +  +  +     @  +     .        .  +  @     .  @  .     @  .        .  @  .  @                 +     @  .     .        +  +  +     +     @     .  @  @  .  +        @  ",
"   .  @  .  @  @  .              @  .     +  @  @  .  +  @  +  +  @  +  .  @     +  @  +     +  .     .        .  .     @  +  +  .  .  .     .     +     @  +  .  .     +  +     @  .  @     +     .  +  +  +  +     @  I  U+ d. U= ,^.WA f& ~# {$ ]# 5@ ^+       .  +  @     .  @  .     @  .        .  @  .  @                 +  )  +. .! 1% @! Z/ F; G; )~ &! yZ T.    @     .  @  @  .  +        @        +  +  @     .     +  .  @  .  +  .  +  +  @  +     .  @     .  +     @  @  @  @  .  +  +  .     .  .     +        @     @  +  @  @  .     +     @  +  @  @  .  @        @  @  +  .  .  .  .  .     +     .  .  .  +  .     .  .  @  @  .  @  .     .  .  +              +  .  @           +  @        +  @  @  ^+ oc '^.)^.!^.~^.Mg {^.Td ]^.k@ +  @     @  +        &  *  Qk >  >  ,  $  %  @  @  .        @# I0 @@ ^^./^.43 (^._^.:^.Xt yd H. +  @  +  .  @     +  @  +     +  .     .        .  .     @  +  +  .  .  .     .     +     @  +  .  .     +  +     @  .  @     +     .  +  +  +  +     +     @  .     +  +  +     @  +     .        .  +  @     .  @  .     @  .        .  @  .  @                 +     @  .     .        +  +  +     +     @     .  @  @  .  +        @        +  +  .  J; P] +( D^ R] |a #( Q; $( 0$ b.    +     .  @     .  +     @  @  @  @  .  +  +  .     .  .     +        ++ @+ ^# ^$ (# V] :# <# *@ %>.-@ `  .  .  .  @        @  @  +  .  .  .  .  .     +     .  .  .  +  .     .  .  @  @  .  @  .     .  .  +              +  .  @           +  @        +  @  @  +  .  .     @  @           @     @  @     @  +  .  @  +        .  ",
"   +     @  .     .        +  +  +     +     @     .  @  @  .  +        @        +  +  @     .     +  .  @  .  +  .  +  +  @  +     .  @     .  +     @  @  @  @  .  +  +  .     .  .     +        @     @  +  @  @     r  /. [$ H' WZ 2# !! ~+ <^.]+ ^+ @  @  +  .  .  .  .  .     +     .  .  .  +  .     .  .  @  @  .  @  .  )  .. &* q( {! df .^ ,( .2 ff (! U+       +  @        +  @  @  +  .  .     @  @           @     @  @     @  +  .  @  +        .     .  @  .  @  @  .              @  .     +  @  @  .  +  @  +  +  @  +  .  @     +  @  +     +  .     .        .  .     @  +  +  .  .  .     .     +     @  +  .  .     +  +     @  .  @     +     .  +  +  +  +     +     @  .     +  +  +     @  +     .  5@ Wf Xf [^.bl `f }^.|^.1^.me 5@ .        .  @     T. C{ 2^.^  kD 5D 3^.4^.!= .     .        @  &h f$ 5^.6^.7^.|1 z3 8^.jX 9^.=& +        @        +  +  @     .     +  .  @  .  +  .  +  +  @  +     .  @     .  +     @  @  @  @  .  +  +  .     .  .     +        @     @  +  @  @  .     +     @  +  @  @  .  @        @  @  +  .  .  .  .  .     +     .  .  .  +  .     .  .  @  @  .  @  .     .  .  +              +  .  @           +  @        +  @  @  +  .  .     @  @         . #^ @> #> <! ;9 0^.*> ,g =] F& }     .     .  @  .  @  @  .              @  .     +  @  @  .  +  @  +  @  /+ w( 5# q& L` 2| a^.(@ _@ 0$ <@ }  .        .  .     @  +  +  .  .  .     .     +     @  +  .  .     +  +     @  .  @     +     .  +  +  +  +     +     @  .     +  +  +     @  +     .        .  +  @     .  @  .     @  .        .  @  .  @              ",
"@  +     .  @     .  +     @  @  @  @  .  +  +  .     .  .     +        @     @  +  @  @  .     +     @  +  @  @  .  @        @  @  +  .  .  .  .  .     +     .  .  .  +  .     .  .  @  @  .  @  .     .  .  +     r  x. X~ a* -^ ;^ e# b^.z@ := c+ +     +  @  @  +  .  .     @  @           @     @  @     @  +  .  @  +     I  a% @. 7! ,^ $) '^ )^ !^ _> d. T.    @  .     +  @  @  .  +  @  +  +  @  +  .  @     +  @  +     +  .     .        .  .     @  +  +  .  .  .     .     +     @  +  .  .     +  +     @  .  @     +     .  +  +  +  +     +     @  .     +  +  +     @  +     .        .  +  @     .  @  .     @  .        .  @  .  @                 +     @  .     .        +  +  +     +     @     .  G.  @ c^.d^.e^.f^.Ng Og }f g^. @ +     .     +     )  9< h^.i^.j^.k^.l^.~J 0P &>.m^.&  .  +     @  A@ _` n^.o^.p^.q^.r^.s^.t^.u^.jy @        @     @  +  @  @  .     +     @  +  @  @  .  @        @  @  +  .  .  .  .  .     +     .  .  .  +  .     .  .  @  @  .  @  .     .  .  +              +  .  @           +  @        +  @  @  +  .  .     @  @           @     @  @     @  +  .  @  +        .     .  @  .  @  @  .              @  .     +  @  @  .  +  @  +  +  @  +  .  @     .  :> ;) [> 9# m9 ({ v^.^^ 3> 4> #' .  @  +  +  .  .  .     .     +     @  +  .  .     +  +     @  .  @     @  A@ e+ C@ i# ^) k# C& i* E& F& S. c. +  +  +     @  +     .        .  +  @     .  @  .     @  .        .  @  .  @                 +     @  .     .        +  +  +     +     @     .  @  @  .  +        @        +  +  @     .     +  .  @  .  +  .  +  +  ",
"@  .  +        @        +  +  @     .     +  .  @  .  +  .  +  +  @  +     .  @     .  +     @  @  @  @  .  +  +  .     .  .     +        @     @  +  @  @  .     +     @  +  @  @  .  @        @  @  +  .  .  .     }^ a% k* G& :^ )3 ,, u# _% .@ ^+ .  @  @  .  @  .     .  .  +              +  .  @           +  @           0% 4] A- 6] c> 7] <!.3( l! 4) J        @  @     @  +  .  @  +        .     .  @  .  @  @  .              @  .     +  @  @  .  +  @  +  +  @  +  .  @     +  @  +     +  .     .        .  .     @  +  +  .  .  .     .     +     @  +  .  .     +  +     @  .  @     +     .  +  +  +  +     +     @  .     +  +  +     @  +     .        .  +  @     .  @  .     @  .        .  @  .  +  .@ w^.x^.y^.z^.A^.Ah B^.$& .g .@       +  +  +  )  J  7< C^.D^.E^.F^.G^.H^.I^.J^._,.c. .     +  +  ++ ;> f$ K^.L^.M^.of N^.O^.rf o4 @_ @  +     .  @     .  +     @  @  @  @  .  +  +  .     .  .     +        @     @  +  @  @  .     +     @  +  @  @  .  @        @  @  +  .  .  .  .  .     +     .  .  .  +  .     .  .  @  @  .  @  .     .  .  +              +  .  @           +  @        +  @  @  +  .  .     @  @           @     @  @     @  +  .  @  +        .     .  @  .  @  @   . n! j> V9 0] 6( M- &D b] 9) b@ ^. +  @  +  +  @  +  .  @     +  @  +     +  .     .        .  .     @  @  ++ @+ J& ;& *D >& 2^ N& B+ 4> ]. ^. %     +  +     @  .  @     +     .  +  +  +  +     +     @  .     +  +  +     @  +     .        .  +  @     .  @  .     @  .        .  @  .  @                 +     @  .     .        +  +  +     +     @     .  @  ",
"+     @  .  @     +     .  +  +  +  +     +     @  .     +  +  +     @  +     .        .  +  @     .  @  .     @  .        .  @  .  @                 +     @  .     .        +  +  +     +     @     .  @  @     )  x. ', O& G+ 5m C$ P^.S& F$ 5@ +  +  .  @  .  +  .  +  +  @  +     .  @     .  +     @  @  @  @  .  +  +  T. [@ X- 8( Z- `-  ; h] 9( G> c@    @  @  .     +     @  +  @  @  .  @        @  @  +  .  .  .  .  .     +     .  .  .  +  .     .  .  @  @  .  @  .     .  .  +              +  .  @           +  @        +  @  @  +  .  .     @  @           @     @  @     @  +  .  @  +        .     .  @  .  @  @  .              @  .     +  @  @  .  +  @  +  +  @  +  .  @     +  @  +     +  .  ^+ Q^.R^.S^.T^.U^.V^.W^.X^.oi  @ ^+ .     .     @  |  @, xZ Y^.Z^.`^. /.E'../.+/.@/.l-.q  c.    .  +  @  @# _+ p. 7% #/.$/.3g %/.&/.SP */.=& @  +     .        .  +  @     .  @  .     @  .        .  @  .  @                 +     @  .     .        +  +  +     +     @     .  @  @  .  +        @        +  +  @     .     +  .  @  .  +  .  +  +  @  +     .  @     .  +     @  @  @  @  .  +  +  .     .  .     +        @     @  +  @  @  .     +     @  +  @  @  .  @        @  @  +  .  .  .  :> H> I> D! =; -; b( =/.n] '; O= c. .  @  @  .  @  .     .  .  +              +  .  @           +  @     )  /+ e+ I! I# ,* 7. -/.u* T> b@ b. c. .     @  @     @  +  .  @  +        .     .  @  .  @  @  .              @  .     +  @  @  .  +  @  +  +  @  +  .  @     +  @  +     +  .     .        .  .     @  +  +  .  .  .     .     +     @  +  .  .     +  ",
"   .        .  +  @     .  @  .     @  .        .  @  .  @                 +     @  .     .        +  +  +     +     @     .  @  @  .  +        @        +  +  @     .     +  .  @  .  +  .  +  +  @  +        )  U+ d. u/ f. d4 ;/.~& R$ t+ .+ G. .     .  .     +        @     @  +  @  @  .     +     @  +  @  @  .  @  )  x. w- [; W%.>/.O! Bi 3; Ci 5; r     .  .  .  +  .     .  .  @  @  .  @  .     .  .  +              +  .  @           +  @        +  @  @  +  .  .     @  @           @     @  @     @  +  .  @  +        .     .  @  .  @  @  .              @  .     +  @  @  .  +  @  +  +  @  +  .  @     +  @  +     +  .     .        .  .     @  +  +  .  .  .     .     +     @  +  .  .     +  G. b+ rq G% ,/.'/.)/.!/.~/.{/.&$ .+ +     +        T. e, A= ]/.^/.//.(/._/.:/.</.[/.}/.h~ kS c  .  .  @  .  ++ G$ I! |/.-h 1/.2/.,h 3/.4/.5/./_ @     +     @  .     .        +  +  +     +     @     .  @  @  .  +        @        +  +  @     .     +  .  @  .  +  .  +  +  @  +     .  @     .  +     @  @  @  @  .  +  +  .     .  .     +        @     @  +  @  @  .     +     @  +  @  @  .  @        @  @  +  .  .  .  .  .     +     .  .  .  +  .     .  .  @  @  .  @  .     .  .  +           .  #, B) nj 9; E) a; b; H) I) e; ^.    @  +  .  .     @  @           @     @  @     @  +  .  @  +           ++ @+ T$ @@ 6/.sK tE 7/.^N .$ `$ ^. .     +  @  @  .  +  @  +  +  @  +  .  @     +  @  +     +  .     .        .  .     @  +  +  .  .  .     .     +     @  +  .  .     +  +     @  .  @     +     .  +  +  +  +     +     @  .     +  +  +     @  +  ",
"   +  +  +     +     @     .  @  @  .  +        @        +  +  @     .     +  .  @  .  +  .  +  +  @  +     .  @     .  +     @  @  @  @  .  +  +  .     .  .     +        @     @  +  @  @  .     +     @     I  x.  % E* A. }  %$ uj L/ F$ +# .  +  .     +     .  .  .  +  .     .  .  @  @  .  @  .     .  .  +        .. t@ c& += k; A] m;  ~ d- .~ s  T. .  @  @  +  .  .     @  @           @     @  @     @  +  .  @  +        .     .  @  .  @  @  .              @  .     +  @  @  .  +  @  +  +  @  +  .  @     +  @  +     +  .     .        .  .     @  +  +  .  .  .     .     +     @  +  .  .     +  +     @  .  @     +     .  +  +  +  +     +     @  .     +  +  +     @  +     .        .  +  +  .+ E$ 8/.9/.0/.MR a/.b/.c/.rq b+ ^+ @           r  P# d/.e/.f/.g/.h/.i/.j/.k/.l/.m/.{@.n/.o/.p/.}  %  .  @  @  @# 2& q/.r/.Yh s/.t/.u/.v/.w/.o4 @_ @  +  .  @  .  +  .  +  +  @  +     .  @     .  +     @  @  @  @  .  +  +  .     .  .     +        @     @  +  @  @  .     +     @  +  @  @  .  @        @  @  +  .  .  .  .  .     +     .  .  .  +  .     .  .  @  @  .  @  .     .  .  +              +  .  @           +  @        +  @  @  +  .  .     @  @           @     @  @     @  +  .  @  +   . E] F] r; c' x/.l( &Z #).w; x; c.       @  .     +  @  @  .  +  @  +  +  @  +  .  @     +  @  +     +     d+ (+ 9& s% $~ y/.;$ >$ ~* a# <@ c. .     .     +     @  +  .  .     +  +     @  .  @     +     .  +  +  +  +     +     @  .     +  +  +     @  +     .        .  +  @     .  @  .     @  .        .  @  .  @                 +     @  .     .     ",
"      @  @  +  .  .  .  .  .     +     .  .  .  +  .     .  .  @  @  .  @  .     .  .  +              +  .  @           +  @        +  @  @  +  .  .     @  @           @     @  @     @  +  .  @  +        T. U+ L* b# W. !$ ~$ z/.`.  @ .@ +  @  .     +  @  @  .  +  @  +  +  @  +  .  @     +  @  +     +  .     .  )  +. L] /= @! B} '~ G; )~ &! 5+ r  .     +     @  +  .  .     +  +     @  .  @     +     .  +  +  +  +     +     @  .     +  +  +     @  +     .        .  +  @     .  @  .     @  .        .  @  .  @                 +     @  .     .        +  +  +     +     @     .  @  @  .  +        @        +  +  @     .     +  .  @  .  +  .  +  +  @  +     .  @     .  +     @  @  @  +  +  c+ L' j. A/.B/.C/.D/.E/.F/.R$ *l G. @  +  @     &  #; 5: G/.H/.I/.J/.K/.L/.M/.N/.O/.P/.Q/.R/.,$ S/.6O }  .     @  @  @+ M+ e].q. T/.Mi U/.V/.W/.X/.Y/.@_ +     .  .  +              +  .  @           +  @        +  @  @  +  .  .     @  @           @     @  @     @  +  .  @  +        .     .  @  .  @  @  .              @  .     +  @  @  .  +  @  +  +  @  +  .  @     +  @  +     +  .     .        .  .     @  +  +  .  .  .     .     +     @  +  .  .     +  +     @  .  @     +     .  +  +  +  +  .  J; K; L; D^ W1 |a >! D8 U] :@ `  &  .        .  +  @     .  @  .     @  .        .  @  .  @              ++ u2 #+ ^$ ]~ Z/.`/.=+ !% m# n# `  %  +     @     .  @  @  .  +        @        +  +  @     .     +  .  @  .  +  .  +  +  @  +     .  @     .  +     @  @  @  @  .  +  +  .     .  .     +        @     @  +  @  @  .     +     @  +  @  @  .  @  ",
"+        @     @  +  @  @  .     +     @  +  @  @  .  @        @  @  +  .  .  .  .  .     +     .  .  .  +  .     .  .  @  @  .  @  .     .  .  +              +  .  @           +  @        +  @  @        r  c@ >+ o( 7+ 1$  (.~+ {+ ]+ G. +  @  +  .  @  +        .     .  @  .  @  @  .              @  .     @  @  .. ~! 8+ ;( ]! ^l ,( .> ff .(.s     @  +     +  .     .        .  .     @  +  +  .  .  .     .     +     @  +  .  .     +  +     @  .  @     +     .  +  +  +  +     +     @  .     +  +  +     @  +     .        .  +  @     .  @  .     @  .        .  @  .  @                 +     @  .     .        +  +  +     +     @     .  @  @  .  +        @        +  +  @     .     +  +  )_ j@ +(.K' @(.#(.$(.%(.&(.i~ Sl .+ +  +     @  )  s  w: *(.=(.-(.;(.>(.,(.'(.)(.!(.~(.)X {(.](.^(./(.(,._,.}  .  +     @# e+ ((._(.:(.<(.[(.}(.|(.Pw [} ,< H. +  +  .     +     .  .  .  +  .     .  .  @  @  .  @  .     .  .  +              +  .  @           +  @        +  @  @  +  .  .     @  @           @     @  @     @  +  .  @  +        .     .  @  .  @  @  .              @  .     +  @  @  .  +  @  +  +  @  +  .  @     +  @  +     +  .     .        .  .     @  +  +  .  .  .     .     +     @  $; _! @> )( <! %> h| >g |! -> 8- c.    .  +  +  +  +     +     @  .     +  +  +     @  +     .           @  /+ G$ ib 6# >> [+ [% J, 1+ :@ <@ c. .  @                 +     @  .     .        +  +  +     +     @     .  @  @  .  +        @        +  +  @     .     +  .  @  .  +  .  +  +  @  +     .  @     .  +     @  @  @  @  .  +  +  .     .  .     ",
"@     @  +  .  @  +        .     .  @  .  @  @  .              @  .     +  @  @  .  +  @  +  +  @  +  .  @     +  @  +     +  .     .        .  .     @  +  +  .  .  .     .     +     @  +  .  .        )  U+ [@ '9 w& 6~ !> e$ 6!  @ 5@ ^+ +     +     @  .     +  +  +     @  +     .        .  +  @     .  @  .  r  z% x  XH 8! {] 9! ]C (> _> d. T.       +     @  .     .        +  +  +     +     @     .  @  @  .  +        @        +  +  @     .     +  .  @  .  +  .  +  +  @  +     .  @     .  +     @  @  @  @  .  +  +  .     .  .     +        @     @  +  @  @  .     +     @  +  @  @  .  @        @  @  +  .  .  .  .  .     +     .  .  .  +  .     .  .  @  @  .  @  .     .  .  +  +  G. V< on 1(.2(.3(.<N 4(.5(.mv 6(.]# ^+ +  @  @  &  9< 7(.8(.9(.0(.a(.b(.c(.d(.e(.f(.;+ g(.h(.i(.j(.k(.l(.m(.n(.o(.$  .  @     A@ m@ p(.q(.r(.s(.t(.u(.v(.w(.x(.k< @_ @  +  @  +  +  @  +  .  @     +  @  +     +  .     .        .  .     @  +  +  .  .  .     .     +     @  +  .  .     +  +     @  .  @     +     .  +  +  +  +     +     @  .     +  +  +     @  +     .        .  +  @     .  @  .     @  .        .  @  .  @                 +     @  .     .        +  +  +     +     @     .  @  @  .  +        .  %* <> y(.9# z(.({ !) :] A(..t b. c. +  .  +  +  @  +     .  @     .  +     @  @  @  @  .  +  +  .           A@ e+ f+ 7% B(.C(.D(.i* j* F& S. c. +     @  +  @  @  .  @        @  @  +  .  .  .  .  .     +     .  .  .  +  .     .  .  @  @  .  @  .     .  .  +              +  .  @           +  @        +  @  @  +  .  .     @  @           @     @  ",
"   .  .  .  +  .     .  .  @  @  .  @  .     .  .  +              +  .  @           +  @        +  @  @  +  .  .     @  @           @     @  @     @  +  .  @  +        .     .  @  .  @  @  .        )  J  a% k* %' E(.F(.0> a> {+ .+ G. +  @  +  .  @     +  @  +     +  .     .        .  .     @  +  +  .  .     x. S' ;' @7 G(.E .1) jV g> [^ |  @     @  .  @     +     .  +  +  +  +     +     @  .     +  +  +     @  +     .        .  +  @     .  @  .     @  .        .  @  .  @                 +     @  .     .        +  +  +     +     @     .  @  @  .  +        @        +  +  @     .     +  .  @  .  +  .  +  +  @  +     .  @     .  +     @  @  @  @  .  +  +  .     .  .     +  +  G. =-.Ps ;-.H(.I(.J(.K(.L(.M(.Ll 6J c+ +  @  .  )  9< wV bX N(.O(.P(.Q(.R(.S(.T(._T Kk U(.V(.W(.YY X(.Y(.['.Z(.`(. _.._.}  .  .  ++ @+ K. +_.@_.#_.$_.L@.%_.&_.*_.=_.,< =& @  @        +  @  @  +  .  .     @  @           @     @  @     @  +  .  @  +        .     .  @  .  @  @  .              @  .     +  @  @  .  +  @  +  +  @  +  .  @     +  @  +     +  .     .        .  .     @  +  +  .  .  .     .     +     @  +  .  .     +  +     @  .  @     +     .  +  +  +  +     +     @  .     +  +  +     @  +     .  .  n! 4( p..l> 6( 7) &D L( P- a. ^. .     .  @  .  @                 +     @  .     .        +  +  +     +  @# (+ _+ */ -_.;_.DK N& B+ C+ <@ ^. %  +  +  @     .     +  .  @  .  +  .  +  +  @  +     .  @     .  +     @  @  @  @  .  +  +  .     .  .     +        @     @  +  @  @  .     +     @  +  @  @  .  @        @  @  +  .  .  .  .  .     +  ",
"   @  +  @  @  .     +     @  +  @  @  .  @        @  @  +  .  .  .  .  .     +     .  .  .  +  .     .  .  @  @  .  @  .     .  .  +              +  .  @           +  @        +  @  @  +  .     )  I  x= m% O& :. >_.t!.y~ F# b+ c+ ^+ .  @  +        .     .  @  .  @  @  .              @  .     +  @  @     I  '& X| T( N: Jn i) h] j) G~ +.       +  .     .        .  .     @  +  +  .  .  .     .     +     @  +  .  .     +  +     @  .  @     +     .  +  +  +  +     +     @  .     +  +  +     @  +     .        .  +  @     .  @  .     @  .        .  @  .  @                 +     @  .     .        +  +  +     +     @     .  @  @  .  +        @        +  +  @     .     +  .  +  5@ W>.on ,_.>-.lp '_.)_.!_.~_.{_.u!.e4 +  @  @  T. 9< wV B_ uV tV ]_.^_./_.(_.__.:_.D< #  3+ <_.JZ B'.C'.sX [_.}_.0M |_. _.q  %  .  @  ++ ^& v].1_.2_.3_.4_.5_.6_.7_.8_.x(.,< H. +  .  +  .     .  .  @  @  .  @  .     .  .  +              +  .  @           +  @        +  @  @  +  .  .     @  @           @     @  @     @  +  .  @  +        .     .  @  .  @  @  .              @  .     +  @  @  .  +  @  +  +  @  +  .  @     +  @  +     +  .     .        .  .     @  +  +  .  .  .     .     +     @  +  .  .     +  +  $; C! m) 0^ M[ -; 9_.M> N> '; <@  .    +     @  .     +  +  +     @  +     .        .  +  @     .  @  .  @  A@ G$ M+ 0_.a_.b_.8. S> Y& a. S. %  .  +     @  .     .        +  +  +     +     @     .  @  @  .  +        @        +  +  @     .     +  .  @  .  +  .  +  +  @  +     .  @     .  +     @  @  @  @  .  +  +  .     .  .     +        @  ",
"   @  +     .        .  +  @     .  @  .     @  .        .  @  .  @                 +     @  .     .        +  +  +     +     @     .  @  @  .  +        @        +  +  @     .     +  .  @  .  +  T. .. ]9 c_.U> n& ;_ Q$ `+  @ .+ ^+ @  @  @  @  .  +  +  .     .  .     +        @     @  +  @  @  .     +  )  [* w- ^< S~ `> l; S{ ., P! )> r  .  .  .  .  .     +     .  .  .  +  .     .  .  @  @  .  @  .     .  .  +              +  .  @           +  @        +  @  @  +  .  .     @  @           @     @  @     @  +  .  @  +        .     .  @  .  @  @  .              @  .     +  @  @  .  +  @  +  +  @  +  .  @     +  @  +     +  .     .        .  .     @  +  +  .  .  .     +  G. W>.V>.d_.I;.e_.mp G;.f_.g_.|;.h_.:= S$    .  T. 1  7(.vV uV i_.wU j_.]_.k_.wF a[ o'.r  .  4+ j} ;).l_.m_.n_.o_.p_.q_.0M r_.s_.q  }     @  @# W# i@.t_.u_.v_.w_.x_.6_.y_.8_.=_.'B =& @  +     .        +  +  +     +     @     .  @  @  .  +        @        +  +  @     .     +  .  @  .  +  .  +  +  @  +     .  @     .  +     @  @  @  @  .  +  +  .     .  .     +        @     @  +  @  @  .     +     @  +  @  @  .  @        @  @  +  .  .  .  .  .     +     .  .  .  +  .     .  .  @  @  .  @  .     .  .  +               . t{ U{ V{ $, ]N O; X{ >].Z{ a# ^. .  .  .  .     @  @           @     @  @     @  +  .  @  +        .     ++ @+ #+ @@ #@ z_.A* $* u. ;, `$ `  .  +  @  @  .  +  @  +  +  @  +  .  @     +  @  +     +  .     .        .  .     @  +  +  .  .  .     .     +     @  +  .  .     +  +     @  .  @     +     .  +  +  +  +     +     @  .     +  +  +  ",
"+  +     @  .  @     +     .  +  +  +  +     +     @  .     +  +  +     @  +     .        .  +  @     .  @  .     @  .        .  @  .  @                 +     @  .     .        +  +  +     +  )  r  /. +> E* B# +% t# )@ L' F. G. .  +  +  @     .     +  .  @  .  +  .  +  +  @  +     .  @     .  +     @  .. m% ), !, ~, Q) #] (N lU T) /.          @     @  +  @  @  .     +     @  +  @  @  .  @        @  @  +  .  .  .  .  .     +     .  .  .  +  .     .  .  @  @  .  @  .     .  .  +              +  .  @           +  @        +  @  @  +  .  .     @  @           @     @  @     @  +  .  @  +        .     .  @  .  @  @  .              @  .     +  @  @  .  +  @  +  +  @  +  c+ r< --.,_._;.H;.:;.9q A_.B_.5r C_. + 5@ .     T. 1  :r 3% D_.xU wU E_.sV F_.G_.H_.%[ %= &      . :> I_.S$.J_.K_.L_.7V M_.N_.0M |_. _.O_.$  .  ++ A@ D% P_.Q_.R_.S_.w_.T_.U_.y_.V_.x(.k< @_ +  @  @  .  @  .     @  .        .  @  .  @                 +     @  .     .        +  +  +     +     @     .  @  @  .  +        @        +  +  @     .     +  .  @  .  +  .  +  +  @  +     .  @     .  +     @  @  @  @  .  +  +  .     .  .     +        @     @  +  @  @  .     +     @  +  @  @  .  @        @  @  +  .  .  .  .  .     +  $; /, q; _, U' q_ -{ }, => 7- +$ c. +  .     .  .  +              +  .  @           +  @        +  @  @  @  @# G$ M+ Z' ]@ nq W_.>$ ~* :@ S. c. .  @  +  .  @  +        .     .  @  .  @  @  .              @  .     +  @  @  .  +  @  +  +  @  +  .  @     +  @  +     +  .     .        .  .     @  +  +  .  .  .     .     +     @  +  .  .     ",
"@  +  @  @  .     +     @  +  @  @  .  @        @  @  +  .  .  .  .  .     +     .  .  .  +  .     .  .  @  @  .  @  .     .  .  +              +  .  @           +  @        +  @  @  +  .     I  U+ U. '$ W. ,O M* z& O* #} 5@ S$ +  .  @  +        .     .  @  .  @  @  .              @  .     +  @  @  )  +. 7, 1% O~.0, 9! b/ c, {{ e, I  +     +  .     .        .  .     @  +  +  .  .  .     .     +     @  +  .  .     +  +     @  .  @     +     .  +  +  +  +     +     @  .     +  +  +     @  +     .        .  +  @     .  @  .     @  .        .  @  .  @                 +     @  .     .        +  +  +     +     @     .  @  @  .  +        @        +  +  @     .  @  S$ N` 3C X_.Y_.Z_.U>.9q 8q lp I;.`_.E-.V< 5@ +     T. wO 9S  :.BT .:.xT E_.+:.@:.iW vV wV 9< T. @     @   . %*  = #:.$:.%:.6V 7V p_.&:.*:.=:.s_.o(.$     ++ u2 <d -^.-:.R_.;:.>:.,:.':.):.!:.~:.M_ Md @  +  .  @  @  .  @  .     .  .  +              +  .  @           +  @        +  @  @  +  .  .     @  @           @     @  @     @  +  .  @  +        .     .  @  .  @  @  .              @  .     +  @  @  .  +  @  +  +  @  +  .  @     +  @  +     +  .     .        .  .     @  +  +  .  .  .     .     +     @  +  .  .     +  +     @   . %* ][ >) f]./{ |> ^[ {:.yc s@ b. .  @  .     +  +  +     @  +     .        .  +  @     .  @  .     @     ++ @+ G# 6@ d/ <{ c4 <# !% `* $' `  c. .  .     .        +  +  +     +     @     .  @  @  .  +        @        +  +  @     .     +  .  @  .  +  .  +  +  @  +     .  @     .  +     @  @  @  @  .  +  +  .     .  .     +        @     ",
".  .     +        @     @  +  @  @  .     +     @  +  @  @  .  @        @  @  +  .  .  .  .  .     +     .  .  .  +  .     .  .  @  @  .  @  .     .  .  +              +  .  @           @  )  .. +. {% e@ ]:.)+ 2$ f/ P@ ]+ ^:.@        @     @  @     @  +  .  @  +        .     .  @  .  @  @  .        U+  % g/ s, S_ 5{ v, 6{ |[ 4) J  @  +  @  +  .  @     +  @  +     +  .     .        .  .     @  +  +  .  .  .     .     +     @  +  .  .     +  +     @  .  @     +     .  +  +  +  +     +     @  .     +  +  +     @  +     .        .  +  @     .  @  .     @  .        .  @  .  @                 +     @  .     .        +  +  +     +     @     .  @  @  .  +        S$ Xy 3q _$ /:.(:._:.:;.8q H;.I;.J;.i,.W>.5@ +     |  ::.<:.[:.}:.OS |:.j_.1:.2:.uV vV wV 9<    +  .     .  .  .  %* O~ )C $:.3:.4:.o_.5:.6:.7:.8:.9:.ss }  .  ++ u2 o..jX -:.R_.0:.w_.,:.O@.a:.b:.9A ;: hi H. @  +  +  .  +  .     .  .  @  @  .  @  .     .  .  +              +  .  @           +  @        +  @  @  +  .  .     @  @           @     @  @     @  +  .  @  +        .     .  @  .  @  @  .              @  .     +  @  @  .  +  @  +  +  @  +  .  @     +  @  +     +  .     .        .  .     @  +  +  .  .  .     .     +     @  +  $; #^ 7{ 8{ 9{ C, ': TP b{ o[ F& }  .  +  +  +  +     +     @  .     +  +  +     @  +     .        .  +  @  @# (+ v+ :+ :% [+ I, UP |% T- <@ ^. .                 +     @  .     .        +  +  +     +     @     .  @  @  .  +        @        +  +  @     .     +  .  @  .  +  .  +  +  @  +     .  @     .  +     @  @  @  @  .  +  +  .     ",
"+  +  +     +     @  .     +  +  +     @  +     .        .  +  @     .  @  .     @  .        .  @  .  @                 +     @  .     .        +  +  +     +     @     .  @  @  .  +     )  I  U+ t@ du c) c:.x@ 0+ d:.b+ 5@ +  .  +  .  +  +  @  +     .  @     .  +     @  @  @  @  .  +  +  .        `l K  Q, Aa [y T, (: b~ g{ X, P# &     +     @  +  @  @  .  @        @  @  +  .  .  .  .  .     +     .  .  .  +  .     .  .  @  @  .  @  .     .  .  +              +  .  @           +  @        +  @  @  +  .  .     @  @           @     @  @     @  +  .  @  +        .     .  @  .  @  @  .              @  .     +  @  @  .  +  @  +  +  @  +  .  @     +  @  +  +  )_ st ]4 e:.f:.g:.h:.i:.<;._:.I;.;-.i,.D-.5@    &  %= j:.k:.l:.m:.n:.RR o:.p:.q:.uV vV wV 9< T. .     .  +  +  +  +  .  %* w) #:.$:.r:.L_.7V aU s:.t:.u:.v:.w:.,  %  @  u2 x:.-^.-:.y:.z:.A:.B:.C:.D:.E:.Tk F:.4C #_ @              +     @  .     .        +  +  +     +     @     .  @  @  .  +        @        +  +  @     .     +  .  @  .  +  .  +  +  @  +     .  @     .  +     @  @  @  @  .  +  +  .     .  .     +        @     @  +  @  @  .     +     @  +  @  @  .  @        @  @  +  .  .  .  .  .     +     .  .  .  +  .     .  .  @  @  .  +  %* %; k9 Z, G:.R=.w2 f~ i: l% ;# .           +  @        +  @  @  +  .  .     @  @           @     @  @  ++ A@ J. f+ H:.h+ I:.9% n{ zi w) b. c. +  @  .              @  .     +  @  @  .  +  @  +  +  @  +  .  @     +  @  +     +  .     .        .  .     @  +  +  .  .  .     .     +     @  +  .  .     +  +     @  .  @     +     .  +  ",
".  +        @        +  +  @     .     +  .  @  .  +  .  +  +  @  +     .  @     .  +     @  @  @  @  .  +  +  .     .  .     +        @     @  +  @  @  .     +     @  +  @  @  .  @     )  0% a% b% N$ fd e= J:.=' t+ .+ ^+ +  +  .  +  .     .  .  @  @  .  @  .     .  .  +              +  .  @  )  U+ -' f%.>' l: k~ l~ d% )' 4& |        @  @           @     @  @     @  +  .  @  +        .     .  @  .  @  @  .              @  .     +  @  @  .  +  @  +  +  @  +  .  @     +  @  +     +  .     .        .  .     @  +  +  .  .  +  @  +  @  +  @  @  +  .  .     +  +     @  .  @     +     .  +  +  +  +     +     @  .     +  +  +     @  +     .        +  +  Y( Xy K:.L:.+s M:.N:.O:.P:.Q:._:.R:.S:.E-.V< G. .  !  )G xN L~.T:.U:.V:.W:.X:.Y:.Z:.`:. <.wV 9< T. @     .  @  @  .  +        .  `  w) #:.$:.3:.6V .<.+<.@<.#<.a .$<.;V b  %     u+ %<.-^.&<.*<.=<.-<.jE ;<.><.,<.'<.sr Jp 1_ $_ +  @  .  .     +        @     @  +  @  @  .     +     @  +  @  @  .  @        @  @  +  .  .  .  .  .     +  +  +  +  +  S$ +     +  .  @  @  .  @  .     .  .  +              +  .  @           +  @        +  @  @  +  .  .     @  @           @     @  @     @  +  .  @  +        .     .  @  .  @  @  .              @  .     +  +  #, S| u$.p~ v{ v2 r~ )<.x{ f( ^. .  @  +     +  .     .        .  .     @  +  +  .  .  .     .     +     /+ v# t$ T$.h% I/ j% k% Y$ 3^ W@ ^.  .    .  +  +  +  +     +     @  .     +  +  +     @  +     .        .  +  @     .  @  .     @  .        .  @  .  @                 +     @  .     .        +  +  +     +     @     .  @  @  ",
".  @                 +     @  .     .        +  +  +     +     @     .  @  @  .  +        @        +  +  @     .     +  .  @  .  +  .  +  +  @  +     .  @     .  +     @  @  @  @  .  @  I  /. X@ n% o% p% D{  # &$ 6_ G. +  +  @  @  .     +     @  +  @  @  .  @        @  @  +  .  .  .  .  .     I  )> ,/ A~ N: C~ 6' !<.O/ I{ /. )  .  @  .     .  .  +              +  .  @           +  @        +  @  @  +  .  .     @  @           @     @  @     @  +  .  @  +        .     .  @  .  @  @  .              @  .     +  @  @  .  +  @  S$ Y( $_ $_ +  H.    +  @  +     +  .     .        .  .     @  +  +  .  .  .     .     +     @  +  .  .     +  +  @  +  G. !_ 1. 2C ~<.Gs {<.]<.^<./<.(<._<.:<.<<.V>.V< )_ .  !  `r [<.}<.|<.~!.1<.2<.tZ 3<.4<.5<.6<.wV 9< T.    .        .  @  .  @        .  .  `  M} )C 7<.8<.9<.0<.a<.b<.c<.d<.e<.gO o(.'     A@ <d f<.g<.h<.i<.pF j<.k<.l<.bA m<.n<.th M_ +_ H. +     @  .  +  .  +  +  @  +     .  @     .  +     @  @  @  @  .  +  +  .     .  .     +        @  @  S$ Y( Y( Md $_ H. S$    @  +  @  @  .  @        @  @  +  .  .  .  .  .     +     .  .  .  +  .     .  .  @  @  .  @  .     .  .  +              +  .  @           +  @        +  @  @  +  .  .     @  @           @     +  $; 0' H~ I~ c' J~ K~ ]/ g' ^/ i' c. @  .  @  @  .              @  .     +  @  @  .  +  @  +  +  @  +  .  @  d+ G$ H$ $# T5 u% o<.K] x% :' S. 4+ .     @  +  +  .  .  .     .     +     @  +  .  .     +  +     @  .  @     +     .  +  +  +  +     +     @  .     +  +  +     @  +     .        .  +  @     .  @  .     @  .        .  @  ",
"+  .  +  +  @  +     .  @     .  +     @  @  @  @  .  +  +  .     .  .     +        @     @  +  @  @  .     +     @  +  @  @  .  @        @  @  +  .  .  .  .  .     +     .  .  .  @  )  U+ d. U= A% W/ !# Z| `+ ]$ .+ ^+ +              +  .  @           +  @        +  @  @  +  .  .     @  @  )  +. X> ^< S~ p<.l; u' ub w' 5+ r           .     .  @  .  @  @  .              @  .     +  @  @  .  +  @  +  +  @  +  .  @     +  @  +     +  .     .        .  .     @  +  +  .  .  .     .     +     @  +  .  .     +  +     @  .  +  +  )_ Z( Z( m. Md $_ Y( @  @  @  @  .     +  +  +     @  +     .        .  +  @     .  @  .     @  .        .  @  +  Y( !_ `( {h @i q<.r<.s<.t<.u<.v<.w<.x<.2: y<.1[ r< G. &  )G z<.!G A<.B<.C<.D<.m!.E<.F<.G<.H<.I<.[= %= )     .     +  .  @  .  +  .  +  +  @  +  .  `  M} 7- J<.K<.L<.M<.rR N<.O<.P<.i!.8= Q<.,  &  P_ TZ R<.S<.T<.U<.V<.W<.qC X<.Y<.Z<.HA `<.Jq -A m. $_ @  .  @        @  @  +  .  .  .  .  .     +     .  .  .  +  .     .  .  @  @  .  +  +  H. S$ )_ !_ !_ #k Jd Zs 1_ @  @  @        +  @        +  @  @  +  .  .     @  @           @     @  @     @  +  .  @  +        .     .  @  .  @  @  .              @  .     +  @  @  .  +  @  +  +  @  +  .  @     +  @  +     +  .  .  #, U{ y' 9; D3 ;!  [.[/ vp >- b. .     .     +     @  +  .  .     +  +     @  .  @     +     .  +  @  @  @  @+ D% U$ q. F% .[.H% *@ I% `$ ^.  .    .        .  +  @     .  @  .     @  .        .  @  .  @                 +     @  .     .        +  +  +     +     @     .  @  @  .  +        @        +  +  @     .     +  .  @  .  ",
"   +     @     .  @  @  .  +        @        +  +  @     .     +  .  @  .  +  .  +  +  @  +     .  @     .  +     @  @  @  @  .  +  +  .     .  .     +        @     @  +  @  @  .     r  +. >+ J% >@ ~- {- +[.L' ]+ G. +  +  .  .  .  .  .     +     .  .  .  +  .     .  .  @  @  .  @  .        |  m% 8+ Y; 7_ {, 3/ &{ R' S' s     @  @        +  @  @  +  .  .     @  @           @     @  @     @  +  .  @  +        .     .  @  .  @  @  .              @  .     +  @  @  .  +  @  +  +  @  +  .  @     +  @  +     +  .     .  .  +  h4 _D @[.#[.m_ $[.+_ +_ Md @_ S$ @  +     @  +  .  .     +  +     @  .  @     +     .  +  +  +  +     +  @  H. )_ ~_ ~h ^x }y |z %[.&[.*[.!u Mv {u ]u =[.-[.;[.>[.,[. . =  GI '[.)[.![.~[.{[.][.^[.Z!./[.([.KS _[.:[.%=          .        +  +  +     +     @     .  +  .  `   = ^/ <[.[[.}[.|[.1[.2[.3[.4[.5[.6[.7[.8[.#  @# ^e 9[.Kj 0[.a[.b[.c[.d[.e[.#u 0: f[.g[.`<.h[.i[.Vf Md $_ +  .     .  .     +        @     @  +  @  @  .     +     @  +  @  +  S$ Y( Z( zd ~_ Qe Hk Dv Gv j[.k[.l[.@# ++    .  .  .  +  .     .  .  @  @  .  @  .     .  .  +              +  .  @           +  @        +  @  @  +  .  .     @  @           @     @  @     @  +  .  @  +        .     .  @  .  @  @  .     .   . /, :! T' U' 5/ [, }, K, 6/ `$ c. +  @  +  .  @     +  @  +     +  .     .        .  .     @  +  +  .     @# G$ m[.n[.o[.>] R% p[.t^ :@ <@ 4+ .     @  .  @     +     .  +  +  +  +     +     @  .     +  +  +     @  +     .        .  +  @     .  @  .     @  .        .  @  .  @                 +     @  .     .        +  +  +  ",
"@  +  .  .     +  +     @  .  @     +     .  +  +  +  +     +     @  .     +  +  +     @  +     .        .  +  @     .  @  .     @  .        .  @  .  @                 +     @     r  U+ K   ) c# lU e# mU 4@ b+ c+ +  .  @  @  .  +        @        +  +  @     .     +  .  @  .  +  .  +  .  I  +. e- q[.a/ '{ '^ tq u_ ^#.d. T. @  .  +  +  .     .  .     +        @     @  +  @  @  .     +     @  +  @  @  .  @        @  @  +  .  .  .  .  .     +     .  .  .  +  .     .  .  @  @  .  @  .     .  .  +              +  .  @  .   . H7 r[.s[.t[.u[.v[.w[.-A |_ |_ Vf x[.m. y[.H. @  @  @     @  @     @  +  .  @  +        .     +  @  +  Z( #k Hk fu z[.A[.B[.C[._A D[.E[.F[.G[.Zu H[.I[.J[._$ 3q N` I* qs K[.w,.xP L[.M[.N[.O[.P[.8L Q[.9~.R[.S[.nP |     .  .  .  .     .     +     @  +  .  .     +  +  .  .  `  `$ C+ T[.U[.V[.W[.z!.X[.Y[.Z[.`[.7=  }.bt Al T. jy !h .}.+}.@}.#}.$}.%}.&}.*}.=}.-}.;}.>}.Gg ,}.w[.Uf Ld 2_ $_ S$ @     @                 +     @  .     +  @  S$ Y( zd Qe '}.)}.@k +k (e ZB 0g !}.~}.{}.]}.^}.@# )     +  +  @     .     +  .  @  .  +  .  +  +  @  +     .  @     .  +     @  @  @  @  .  +  +  .     .  .     +        @     @  +  @  @  .     +     @  +  @  @  .  @        @  @  +  .  .  .  .  .     +  %* ]{ c/ g, h, |> i, _{ j, k, b.  . +  .     .  .  +              +  .  @           +  @        +  @  @  ++ A@ #+ 6@ ,% /}.(^ l# +& `* n# `  .     @  +  .  @  +        .     .  @  .  @  @  .              @  .     +  @  @  .  +  @  +  +  @  +  .  @     +  @  +     +  .     .        .  .     @  +  +  .  .  .     .     +     ",
".     +     @  +  @  @  .  @        @  @  +  .  .  .  .  .     +     .  .  .  +  .     .  .  @  @  .  @  .     .  .  +              +  .  @           +  @        +  @  @  +     )  l& +. .= d4 (}._}.2] :}.j@ .+ ^+ +  +  .  @  +        .     .  @  .  @  @  .              @  .     +  @     J  &* r, s, 4{ 5{ v, 2) i_ h/ J  @  +     +  .     .        .  .     @  +  +  .  .  .     .     +     @  +  .  .     +  +     @  .  @     +     .  +  +  +  +     +     @  .     +  +  +     @  +     .        .  +  @     .  @  .     +  $; gD <}.[}.EN }}.|}.1}.F@ 2}.be 3}.3}.Yy Zs de Vf $k Md $_ Y( S$ S$ @  S$ @  H. @  S$ $_ $_ Z( #k <P @k Se gu 4}.Gv 5}.!}.6}.:A 7}.8}.AB 9}.0}.a}.Qv Rv n, IE  . b}.jH *I c}.d}.e}.W!.f}.g}.=Q h}.U:.i}.w@ M~.wO T.       +        @     @  +  @  @  .     +     @  +  @  @  .  +  4+ <@ s@ j}.k}.P. l}.m}.n}.o}..O p}.{L q}.r}.s}.W* I  t}.u}.v}.w}.x}.y}.rv gw z}.uv vv A}.B}.C}.D}.E}.F}.Gt 3}.Cv w5 $k m. Md $_ H. S$ H. $_ Y( Y( Z( G}.Ad Bd uw H}.Se *t &%.hy I}.J}.K}.L}.M}.N}.*L O}.P}._> I     @  .  @  @  .              @  .     +  @  @  .  +  @  +  +  @  +  .  @     +  @  +     +  .     .        .  .     @  +  +  .  .  .     .     +     @  +  .  .     +  +     @  .  @     +     .  +  +  +  +# >, 7{ i/ B, 0{ ': J4 F, G, Z  c. .     .        .  +  @     .  @  .     @  .        .  @  .  @           @# l@ 3* ;& w# r! Q- z# |% A# Q}.4+  .    +     @     .  @  @  .  +        @        +  +  @     .     +  .  @  .  +  .  +  +  @  +     .  @     .  +     @  @  @  @  .  +  +  .     .  .     +        @     @  +  @  @  ",
"@     +     .  +  +  +  +     +     @  .     +  +  +     @  +     .        .  +  @     .  @  .     @  .        .  @  .  @                 +     @  .     .        +  +  +        r  U+ t@ V- B# R}.87 d] z~ ]+ 5@ +  .  +  +  @     .     +  .  @  .  +  .  +  +  @  +     .  @     .  +     I  K  X- o/ X^ S}.e{ f{ `^ X, ]9 T.          @     @  +  @  @  .     +     @  +  @  @  .  @        @  @  +  .  .  .  .  .     +     .  .  .  +  .     .  .  @  @  .  @  .     .  .  +              +  .  @           +  @        +  @  @  .   . #, T}.U}.V}.W}.X}.Y}.Z}.`}. |..|.#[.+|.~j @|.Ft #|.be m_ }_ Gd Fd Gd yP Gd Hd yP Fd $|.ww %|.xw &|.[( *|.wf =|.-|.;|.>|.,|.'|.[A )|.CB !|.~|.{|.]|.^|.^+ /|.jH *I (|._|.:|.SK <|.[|.}|.sY ||.1|.2|.3|.4|.C{ T. +     @  +  .  .     +  +     @  .  @     +     .  +  +  +  +     +  c. S. a# & .5|.6|.7|.8|.9|.$p %p 0|.a|.b|.XO c|.Jr -  <] U1 aw d|.cw e|.f|.g|.d[.h|.VS i|.'y j|.k|.l|.m|.n|.o|.pw ~j p|.q|.m_ }_ $|.Fd &t $|.r|.%|.%%.I}.s|.-t t|.u|.v|.w|.x|.y|.z|.A|.B|.xN C|.D|.E|.F|.B! r  )  .  +  .  +  +  @  +     .  @     .  +     @  @  @  @  .  +  +  .     .  .     +        @     @  +  @  @  .     +     @  +  @  @  .  @        @  @  +  .  .  .  .  .     +     .  .  .  +  .     .  .  @  +  %* KQ k9 Z,  t v2 s/ G|.ed C+ #'  . .  @           +  @        +  @  @  +  .  .     @  @           @     ++ A@ e+ H# ); J# p] H|.M# I@ m+ S. c.    .  @  @  .              @  .     +  @  @  .  +  @  +  +  @  +  .  @     +  @  +     +  .     .        .  .     @  +  +  .  .  .     .     +     @  +  .  .     +  +     @  .  ",
"+  +  @     .     +  .  @  .  +  .  +  +  @  +     .  @     .  +     @  @  @  @  .  +  +  .     .  .     +        @     @  +  @  @  .     +     @  +  @  @  .  @        @  @  )  J  P# :& K@ [& I|.J|.>_ ]# .+ ^+ +  .     .  .  @  @  .  @  .     .  .  +              +  .  @           )  x. -' D] _z gd K|.l~ !'.B/ X@ r              @     @  @     @  +  .  @  +        .     .  @  .  @  @  .              @  .     +  @  @  .  +  @  +  +  @  +  .  @     +  @  +     +  .     .        .  .     @  +  +  .  .  .     .     +  .  +  4+ o# w) L|.M|.N|.O|.P|.Q|.R|.S|.T|.U|.V|.W|.d_ X|.Y|.Z|.`|. 1..1.6e 6e 2e +1.2e :_ G@.E( @1.#1.$1.%1.&1.*1.Jx =1.-1.;1.F[.>1.,1.DB jt '1.)1.3q $; Q* !1.~1.{1.]1.^1./1.(1._1.rI :1.<1.[1.}1.|1.S[.pQ |        @     .  @  @  .  +        @        +  +  @     .     +  .  @  .  +  .   . `  $' |/ 11.b{ k{ 21.31.#p 41.51.RL 61.=r 71.81.)n Kk 59 5/.91.01.jx a1.b1.c1.d1.-z e1.>y f1.g1..+.h1.4u i1.j1.k1.l1.m1.n1.o1.+1.p1.G@.q1.r1.r1.s1.t1.`e X+.u1.v1.w1.x1.6B y1.z1.A1.B1.C1.bL $O %= r  &     .  .  +              +  .  @           +  @        +  @  @  +  .  .     @  @           @     @  @     @  +  .  @  +        .     .  @  .  @  @  .              @  .     +  @  @  .  +  @  +  +  @  +  .  @   . i> B) ~' }} q~ S] |} m^ I) e; `  .     @  +  +  .  .  .     .     +     @  +  .  .     +  +     @  .  @  @# u+ +@ f; (Y 3& Z# M) v= 4> D+ ^. .  .  +  +  +     @  +     .        .  +  @     .  @  .     @  .        .  @  .  @                 +     @  .     .        +  +  +     +     @     .  @  @  .  +        @        ",
".     +  +  +     @  +     .        .  +  @     .  @  .     @  .        .  @  .  @                 +     @  .     .        +  +  +     +     @     .  @  @  .  +        @     r  x. t@ Y@ D1.++ `@ z] &$ F. 5@ +  .  +  +  @  +     .  @     .  +     @  @  @  @  .  +  +  .     .  .     r  (. c& xE P) A] m; 7' O/ I{ @$       @  +  @  @  .  @        @  @  +  .  .  .  .  .     +     .  .  .  +  .     .  .  @  @  .  @  .     .  .  +              +  .  @           +  @        +  @  @  +  .  .     @  @           @     @  @     +   . 4+ c  ;# e; E1.F1.G1.H1.I1.J1.K1.L1.M1.N1.O1.P1.Q1.R1.S1.T1.U1.V1.W1.X1.Y1.$f Z1.#+.`1. 2..2.+2.@2.#2.}w $2.%2.&2.Ry *2.=2.-2.;2.hC D-.,  -/ >2.,2.Cr '2.h  )2.!2.5N LM }O DO ~2.{2.]2.FN Ds 1  T.    .  @     +     .  +  +  +  +     +     @  .     +  +  +     @  +     .        .   . 4+ i' ~{.^2./2.(2._2.:2.<2.[2.}2.QL |2.12.22.32.42.bE R* U+ 52.62.72.82.92.02.a2.b2.c2.d2.e2.f2.g2.h2.i2.j2.k2.l2.m2.n2.&f o2.Y1.p2.q2.r2.s2.t2.u2.v2.w2.x2.y2.z2.8W A2.B2.C2.D2.E2.j:.)G C{ F2.T.    @     @  @  @  @  .  +  +  .     .  .     +        @     @  +  @  @  .     +     @  +  @  @  .  @        @  @  +  .  .  .  .  .     +     .  .  .  +  .     .  .  @  @  .  @  .     .  .  +              +  .  @  $; Q/ F| ~/ s; W) S/ +~ {( ^/ i' c. .     @  @           @     @  @     @  +  .  @  +        .     .  @     /+ J. ## s% %# y; G2.=# -# a. S. c. .  .  +  @  +  +  @  +  .  @     +  @  +     +  .     .        .  .     @  +  +  .  .  .     .     +     @  +  .  .     +  +     @  .  @     +     .  +  +  +  +     +     @  ",
".     +  @  @  .  +  @  +  +  @  +  .  @     +  @  +     +  .     .        .  .     @  +  +  .  .  .     .     +     @  +  .  .     +  +     @  .  @     +     .  +     @  )  U+ a% V^ d& e& !# XA h& ]# 5@ +  +     .        .  +  @     .  @  .     @  .        .  @  .  @           )  +. .! V- @! N] F; G;  ( ze u& r  +     +     @     .  @  @  .  +        @        +  +  @     .     +  .  @  .  +  .  +  +  @  +     .  @     .  +     @  @  @  @  .  +  +  .     .  .     +        @     @  +  @  @  .     +     @  +  @  @  .  @  .  %  %  }  b. 8- l% g' z: gN H2.I2.J2.K2.L2.M2.N2.O2.P2.Q2.R2.S2.T2.U2.V2.W2.Gf X2.Y2.Z2.hg `2.dv 1h  3.Iz B@..3.+3.@3.#3.Sx $3.t{ ;L %3.&3.*3.=3.-3.;3.>3.5~.UK 6N }O 8N 9N ,3.'3.)3.c{.pQ %= T.          .     .  @  .  @  @  .              @  .     +  @  @  .  +  @  +  +  @  +  .  @  .  c. `  Z  !3.~3.{3.]3.^3./3.(3._3.:3.<3.[3.}3.|3.13.23.%r 3D 3M ne kF 33.43.53.63.73.83.93.`w 03.a3.b3.hA c3.d3.e3.f3.g3.h3.S2.i3.ZR j3.k3.l3.m3.n3.o3.iZ p3.q3.r3.s3.t3.u3.DT $O 1  *  T. &        .     @  .        .  @  .  @                 +     @  .     .        +  +  +     +     @     .  @  @  .  +        @        +  +  @     .     +  .  @  .  +  .  +  +  @  +     .  @     .  +     @  @  @  @  .  +  ^+ #, P] +( #h E^ O; fL v3.$( :@ D* .  @  @  .     +     @  +  @  @  .  @        @  @  +  .  .  .  .  .     ++ @+ #+ ^$ ]~ w3.i& <# *@ sB n# ^. c. +  .     .  .  +              +  .  @           +  @        +  @  @  +  .  .     @  @           @     @  @     @  +  .  @  +        .     .  @  .  @  @  .              @  ",
"+  .  @  .  +  .  +  +  @  +     .  @     .  +     @  @  @  @  .  +  +  .     .  .     +        @     @  +  @  @  .     +     @  +  @  @  .  @        @  @  +  .  .  .     v~ +. >+ Y] x3.`] 3# ~+ {+ ]+ 5@ .  @  @  .  @  .     .  .  +              +  .  @           +  @           .. y3.q( cf df .^ ^! .> L  '( U+       @  @     @  +  .  @  +        .     .  @  .  @  @  .              @  .     +  @  @  .  +  @  +  +  @  +  .  @     +  @  +     +  .     .        .  .     @  +  +  .  .  .     .     +     @  +  .  .     +  +     .  .  .  }  b. O_.r> 7- z3.A3.B3.C3.D3.E3.F3.ky G3.H3.I3.J3.K3.L3.M3.N3.O3.P3.Q3.R3.z@.S3.T3.U3.V3.W3.X3.Y3.Z3.K^ N% ]. _  `3. 4.4K .4.+4.@4.#4.$4.%4.&4._1._M *4.NN =4.2O 3O -4.;4.%= T.       .  @  @  .  +        @        +  +  @     .     +  .  @  .  +  .  +  +  @  +     .  @     .  +  .  c. ;# >4.t>.|_.,4.'4.)4.!4.~4.{4.]4.^4./4.HH (4._4.:4.<4.[4.}4.Q& +~.t$ |4.14.24.34.44.54.64.74.84.94.04.a4.b4.b4.b4.c4.d4.e4.f4.g4.h4.i4.j4.k4.l4.m4.n4.o4.p4.3|.xN nP C{ |  &  &  +              +  .  @           +  @        +  @  @  +  .  .     @  @           @     @  @     @  +  .  @  +        .     .  @  .  @  @  .              @  .     +  @  @  .  +  @  +  +  @  +  .  @     +  @  +     +  .     $; #^ @> ;g q4.;9 {| *> |! 1! $' c.    .     +     @  +  .  .     +  +     @  .  @     +     .  +  +  +  @  @# (+ p& 6# L` M` c- t& _@ >- ;# 4+    .        .  +  @     .  @  .     @  .        .  @  .  @                 +     @  .     .        +  +  +     +     @     .  @  @  .  +        @        +  +  @     .     ",
"+  .  .  .  .  .     +     .  .  .  +  .     .  .  @  @  .  @  .     .  .  +              +  .  @           +  @        +  @  @  +  .  .     @  @           @     @  @  r  0% K  a* w& !9 y& z& a+ b+ .@ +  .  @  @  .              @  .     +  @  @  .  +  @  +  +  @  +  .  @     )  a% @. ~9 {> ]> r4.]C C( _> P# T.    @  +  +  .  .  .     .     +     @  +  .  .     +  +     @  .  @     +     .  +  +  +  +     +     @  .     +  +  +     @  +     .        .  +  @     .  @  .     @  .        .  @  .  @                 +     @  .     .     .  c. ^. <@ p/.tQ {K s4.t4.u4.AQ v4.PL w4.x4.y4.z4.F| 0S A4.B4.C4.D4.E4.F4.G4.H4.I4.J4.K4.N% #^ L4.+W ;E M4.N4.O4.P4.Q4.R4.S4.T4.Vp Wp U4.V4.W4.X4.Y4.FO 2O 3O tM Z4.1  !        @  +  @  @  .     +     @  +  @  @  .  @        @  @  +  .  .  .  .  .     +     .  .  .  +  .     .  .  .  .  `  i' 9 .`4. 5..5.+5.@5.#5.$5.%5.hK &5.*5.=5.-5.;5.>5.,5.'5.)5.!5.AW ~5.{5.]5.^5.:)./5.(5.Wz _5.:5.<5.$w ;..[5.U9 D| }5.|5.15.25.35.45.55.65.75.85.95.vR EN 05.%= !  &     @  .     +  @  @  .  +  @  +  +  @  +  .  @     +  @  +     +  .     .        .  .     @  +  +  .  .  .     .     +     @  +  .  .     +  +     @  .  @     +     .  +  +  +  +     +     @  .     +  +  +     @  +     .        .  %* ;) k9 l9 a5.e! !) ^^ b5.c5.H   . @  .  @                 +     @  .     .        +  +  +     +     @  )  A@ e+ h# C .`% fy d5.i* @/ b@ `   . .     .     +  .  @  .  +  .  +  +  @  +     .  @     .  +     @  @  @  @  .  +  +  .     .  .     +        @     @  +  @  @  .     +     @  +  @  @  .  @        @  @  ",
"@  @  @  @  .  +  +  .     .  .     +        @     @  +  @  @  .     +     @  +  @  @  .  @        @  @  +  .  .  .  .  .     +     .  .  .  +  .     .  .  @  @  .  )  .. P, k* e5.H& )3 f5.s# P@ ]+ ^+ @           +  @        +  @  @  +  .  .     @  @           @     @  @     0%  % A- t6 |) 7] 2( f> g> m! ..    @  @  .              @  .     +  @  @  .  +  @  +  +  @  +  .  @     +  @  +     +  .     .        .  .     @  +  +  .  .  .     .     +     @  +  .  .     +  +     @  .  @     +     .  +  +  +  +     +     @  .     +  +  +         . }  H  at r{.g5.h5.i5.j5.k5.l5.m5.n5.o5.p5.q5.r5.s5.t5.u5.v5.w5.x5.y5.z5.A5.B5.C5.D5.E5.F5.G5.H5.I5.J5.K5.L5.M5.N5.O5.P5.Q5.Tq R5.S5.T5.U5.|= V5.4O 2  C{ T.          .     +  .  @  .  +  .  +  +  @  +     .  @     .  +     @  @  @  @  .  +  +  .     .  .     +        @     @  .  .  %  b. W5..;.I'.X5.Y5.Z5.`5. 6..6.+6.&5.@6.#6.$6.%6.&6.*6.=6.-6.;6.G5.>6.,6.'6.)6.!6.~6.{6.]6.^6./6.(6._6.:6.<6.[6.[6.}6.|6.16.26.36.46.56.W| 66.76.GI C{ !           +  @  @  +  .  .     @  @           @     @  @     @  +  .  @  +        .     .  @  .  @  @  .              @  .     +  @  @  .  +  @  +  +  @  +  .  @     +  @  +     +  .     .        .  .     @  +  +  .  .  .     .     +     @   . >, j> V9 v,.|^ M- &D 1^ 9) Z  4+    .  +  +  +  +     +     @  .     +  +  +     @  +     .           @  ++ (+ _+ :+ w# q..s!.y$ ~. C+ ]. 4+ .  @                 +     @  .     .        +  +  +     +     @     .  @  @  .  +        @        +  +  @     .     +  .  @  .  +  .  +  +  @  +     .  @     .  +     ",
"@        +  +  @     .     +  .  @  .  +  .  +  +  @  +     .  @     .  +     @  @  @  @  .  +  +  .     .  .     +        @     @  +  @  @  .     +     @  +  @     r  x. m% *3 EK 86.C$ D$ E$ 6% 5@ ^+    +     .  .  .  +  .     .  .  @  @  .  @  .     .  .  +              I  u& w! `9 g] `- V( h] F> j] @$ )  @  +  .  .     @  @           @     @  @     @  +  .  @  +        .     .  @  .  @  @  .              @  .     +  @  @  .  +  @  +  +  @  +  .  @     +  @  +     +  .     .        .  .     @  +  +  .  .  .     .     +     @  +  .  .     .   . }  H  96.06.kM a6.b6.c6.d6.e6.f6.g6.h6.i6.j6.iG k6. G l6.m6.n6.o6.p6.q6.r6.s6.t6.u6.UF u6.(o  H v6.w6.Vp x6.y6.z6.A6.Ar -I B6.C6.D6.E6.JO C{ !     +     @  .     .        +  +  +     +     @     .  @  @  .  +        @        +  +  @     .     +  .  @  .  +  .  +  +  @  +     .  .  %  c  O= ;V F6.G6.H6.I6.J6.K6.L6.M6.N6.O6.P6.Q6.BH DH R6.<o S6.S6.<o VF VF VF VF VF T6.U6.)p V6.W6.X6.Y6.Z6.`6. 7..7.+7.@7.#7.$7.%7.LP b}.C{ !  &  .  .  +  .     .  .  @  @  .  @  .     .  .  +              +  .  @           +  @        +  @  @  +  .  .     @  @           @     @  @     @  +  .  @  +        .     .  @  .  @  @  .              @  .     +  @  @  .  +  @  +  +  @  +  .  @  .  :> l) 9^ D! E! -; F! =/.DD w= <@ c.    @  +  +  .  .  .     .     +     @  +  .  .     +  +     @  .  @  )  /+ &7.H# I# d^ V& 8. u* 0. b@ S. c. .  +  +  +     @  +     .        .  +  @     .  @  .     @  .        .  @  .  @                 +     @  .     .        +  +  +     +     @     .  @  @  .  +        ",
".     @  +  +  .  .  .     .     +     @  +  .  .     +  +     @  .  @     +     .  +  +  +  +     +     @  .     +  +  +     @  +     .        .  +  @     .     )  J  a% ^; f. ]% *7. * V# ]# .@ ^+ .        +     @  .     .        +  +  +     +     @     .  @  @  .  +  )  /. w- [; y) |; O! 2; 3; '_ 5; r     @  .  +  .  +  +  @  +     .  @     .  +     @  @  @  @  .  +  +  .     .  .     +        @     @  +  @  @  .     +     @  +  @  @  .  @        @  @  +  .  .  .  .  .     +     .  .  .  +  .     .  .  @  @  .  @  .     .  .  +              +  .  .  }  [  hO LO 5M 6M =7.-7.o  iM ;7.>7.,7.'7.)7.!7.~7.{7.3n ]7.^7./7.(7._7.:7.<7.[7.}7.|7.17.27.37.47.57.Xq 67.77.87.os 97.p'.b}.C{ T.       +  @  @  .  +  @  +  +  @  +  .  @     +  @  +     +  .     .        .  .     @  +  +  .  .  .     .     +     @  +  .  .     +  +     @  .  .  %  ^. b  &>.gH 07.a7.b7.nK c7.d7.e7.f7.g7.h7.i7.j7.2n &H 2n &H 2n &H &H &H &H k7.l7.m7.n7.37.o7.p7.q7.r7.s7.Dr t7.u7.fJ v7.cN *  T.    +     @  .     .        +  +  +     +     @     .  @  @  .  +        @        +  +  @     .     +  .  @  .  +  .  +  +  @  +     .  @     .  +     @  @  @  @  .  +  +  .     .  .     +        @     @  +  @  @  .     +     @  +  @  @  .  @        @  @  ^+ t{ B) t] 9; w7.a; l^ &8 U! a# ^. .  .     .  .  @  @  .  @  .     .  .  +              +  .  @           ++ u+ T$ @@ +* x7.y7.p^ u. W! +$ ^. .           @     @  @     @  +  .  @  +        .     .  @  .  @  @  .              @  .     +  @  @  .  +  @  +  +  @  +  .  @     +  @  +     +  .     .        .  ",
"+     @  @  @  @  .  +  +  .     .  .     +        @     @  +  @  @  .     +     @  +  @  @  .  @        @  @  +  .  .  .  .  .     +     .  .  .  +  .     .     r  x= &* E* =* 4} %$ ;* L/ k@ G. +     +  .  @           +  @        +  @  @  +  .  .     @  @           @  v~ '& z7.j; A7.Q) B] n; vj .~ /.       .  @  .  @  @  .              @  .     +  @  @  .  +  @  +  +  @  +  .  @     +  @  +     +  .     .        .  .     @  +  +  .  .  .     .     +     @  +  .  .     +  +     @  .  @     +     .  +  +  +  +     +     @  .     +  +  +     @  +     .     .  %  }  [  4^.kI B7.C7.D7.E7.FL F7.G7.H7.I7.J7.K7..F L7.M7.N7.O7.P7.Q7.R7.S7.T7.#q U7.V7.W7.X7.]n Er Y7.RM Z7.qs =  T. )  .  +        @        +  +  @     .     +  .  @  .  +  .  +  +  @  +     .  @     .  +     @  @  @  @  .  +  +  .     .  .     +        @     @  +  @  @  .  .  +  %  %  c  rs a  3L `7.D7.E7. 8..8.+8.H7.0n J7.@8.YI #8.$8.%8.YI YI %8.&8.*8.=8.-8.;8.W7.>8.,8.'8.)8.!8.=3 NK p% *  T. &     +  .  @           +  @        +  @  @  +  .  .     @  @           @     @  @     @  +  .  @  +        .     .  @  .  @  @  .              @  .     +  @  @  .  +  @  +  +  @  +  .  @     +  @  +     +  .     .        .  .     @  +  +  .  .  .     .     +  .  @  $; 0' U) r; J{ %Z u; I] 1+ K{ i'  .    .  +  +  +  +     +     @  .     +  +  +     @  +     .           @  /+ G$ ## >* ,* v^ -#.!* ~* :@ 3+ c. .  @                 +     @  .     .        +  +  +     +     @     .  @  @  .  +        @        +  +  @     .     +  .  @  .  +  .  +  +  @  +     .  @     .  ",
"+  +  .     .  .     +        @     @  +  @  @  .     +     @  +  @  @  .  @        @  @  +  .  .  .  .  .     +     .  .  .  +  .     .  .  @  @  .  @  .     )  J  z% '$ M, !$ Y. ~/.`.  + 5@ +  .  +  @        +  @  @  +  .  .     @  @           @     @  @     @  +  )  [* s&.~8.{8.Z/ F; `/ O] I; K  I                 @  .     +  @  @  .  +  @  +  +  @  +  .  @     +  @  +     +  .     .        .  .     @  +  +  .  .  .     .     +     @  +  .  .     +  +     @  .  @     +     .  +  +  +  +     +     @  .     +  +  +     @  +     .        .  +  @     .  @  .     @  .  %  %  != ,  8[.:  )n _H ]8.^8./8.(8._8.-E :8.<8.[8.}8.|8.18.3E 28.38.48.58.wL KE 5m 68.qs 3m *  #  &           +  +  @     .     +  .  @  .  +  .  +  +  @  +     .  @     .  +     @  @  @  @  .  +  +  .     .  .     +        @     @  +  @  @  .     +     @  +  @  @  .  @           .  %  != rs 8[.78.B7.'L 88.^8./8.98.08.AJ AJ a8.AJ b8.zJ zJ zJ c8.d8.58.e8.7t 5m >_.f8.g8.=  #  #              +  @        +  @  @  +  .  .     @  @           @     @  @     @  +  .  @  +        .     .  @  .  @  @  .              @  .     +  @  @  .  +  @  +  +  @  +  .  @     +  @  +     +  .     .        .  .     @  +  +  .  .  .     .     +     @  +  .  .     +  +     .  J; K; L; UZ -! </ h8.i8.j8.k8.^. +     @  .     +  +  +     @  +     .        .  +  @     .  @  .     @  ++ `{ #+ H^ /* l8.m8.<# !% `* `$ `   . .  @  .     .        +  +  +     +     @     .  @  @  .  +        @        +  +  @     .     +  .  @  .  +  .  +  +  @  +     .  @     .  +     @  @  @  @  .  ",
"   @     @  +  @  @  .     +     @  +  @  @  .  @        @  @  +  .  .  .  .  .     +     .  .  .  +  .     .  .  @  @  .  @  .     .  .  +              +     .. +. [$ HG X#.M^ 2* && {+ .+ G. +  .  .     @  @           @     @  @     @  +  .  @  +        .     .  @  I  te o$.n8.r*.uB o8./! 6~ h/ U+ @  @  @  .  +  @  +  +  @  +  .  @     +  @  +     +  .     .        .  .     @  +  +  .  .  .     .     +     @  +  .  .     +  +     @  .  @     +     .  +  +  +  +     +     @  .     +  +  +     @  +     .        .  +  @     .  @  .     @  .        .  @  .  @                 +  .  .  %  $  ,  p8.pm q8.7D 7D yl vG xl r8.kD f(.^  1E yL s8.ml Q* 3m =  I* &  .        .     +  .  @  .  +  .  +  +  @  +     .  @     .  +     @  @  @  @  .  +  +  .     .  .     +        @     @  +  @  @  .     +     @  +  @  @  .  @        @  @  +  .  .  .  .  .     +     .  .  .  .  c. '  ,  p8.pm t8.7D u8.zL R* -L -L u8.R* R* =L v8.ml |E 3m =  *  #  &           .  @  @  +  .  .     @  @           @     @  @     @  +  .  @  +        .     .  @  .  @  @  .              @  .     +  @  @  .  +  @  +  +  @  +  .  @     +  @  +     +  .     .        .  .     @  +  +  .  .  .     .     +     @  +  .  .     +  +     @  .  @     +     .  +  +  +  $; j} K` || w8.0{ x8.y8.z8.A8.3+ .  +     .        .  +  @     .  @  .     @  .        .  @  .  @           @# (+ 3* 2! T^ 5* 6* J, 9$ >- 9* 4+ .     +     @     .  @  @  .  +        @        +  +  @     .     +  .  @  .  +  .  +  +  @  +     .  @     .  +     @  @  @  @  .  +  +  .     .  .     +     ",
"@     .  @  @  .  +        @        +  +  @     .     +  .  @  .  +  .  +  +  @  +     .  @     .  +     @  @  @  @  .  +  +  .     .  .     +        @     I  a$ 0* x/ M, c* r$ O, a+ b+ c+ +  .  @        @  @  +  .  .  .  .  .     +     .  .  .  +  .     .  .  @  @  ]7 B8.C8.D8.E8.F8.G8.7! x  d. T. +  .  @           +  @        +  @  @  +  .  .     @  @           @     @  @     @  +  .  @  +        .     .  @  .  @  @  .              @  .     +  @  @  .  +  @  +  +  @  +  .  @     +  @  +     +  .     .        .  .     @  +  +  .  .  .     .     +     @  +  .  .     +  +     @  .  @     +     .  .  %  %  %  $  $  I* I* I* #  &  %  .        .     .        .  +  @     .  @  .     @  .        .  @  .  @                 +     @  .     .        +  +  +     +     @     .  @  @  .  +        @        +  +  @     .     +  .  @  .  +  .  +  +  @  +     .  @     .  +     @  @  .  .  .  .  .  %  &  %  %  &  %  &  &     &     .  @  @  .     +     @  +  @  @  .  @        @  @  +  .  .  .  .  .     +     .  .  .  +  .     .  .  @  @  .  @  .     .  .  +              +  .  @           +  @        +  @  @  +  .  .     @  @           @     @  @     @  +  .  @  +        .     .  @  .  @  @  .              @  .     +  @  @  .  +  @  +  :> <> H8.I8.J8.o%.K8.L8.M8.0' $; .     .        .  .     @  +  +  .  .  .     .     +     @  +  .  .     @  /+ e+ h# 0= h+ N8.h* i* h~ m+ b. c. +     +     @  .     +  +  +     @  +     .        .  +  @     .  @  .     @  .        .  @  .  @                 +     @  .     .        +  +  +     +     ",
"@     @  @     @  +  .  @  +        .     .  @  .  @  @  .              @  .     +  @  @  .  +  @  +  +  @  +  .  @     +  @  +     +  .     .        .  &  .. c@ k* e5.j: *' l* k: t+ .+ G. +  @  +  .  .     +  +     @  .  @     +     .  +  +  +  +     +     @  .     b6 O8.P8.Q8.R8.S8.T8.u,.y. J     +  @     .  @  .     @  .        .  @  .  @                 +     @  .     .        +  +  +     +     @     .  @  @  .  +        @        +  +  @     .     +  .  @  .  +  .  +  +  @  +     .  @     .  +     @  @  @  @  .  +  +  .     .  .     +        @     @  +  @  @  .     +     @  +  @  @  .  @        @  @  +  .  .  .  .  .     +     .  .  .  +  .     .  .  @  @  .  @  .     .  .  +              +  .  @           +  @        +  @  @  +  .  .     @  @           @     @  @     @  +  .  @  +        .     .  @  .  @  @  .              @  .     +  @  @  .  +  @  +  +  @  +  .  @     +  @  +     +  .     .        .  .     @  +  +  .  .  .     .     +     @  +  .  .     +  +     @  .  @     +     .  +  +  +  +     +     @  .     +  +  +     @  +     .        .  +  @     .  @  .     @  .        .  @  .  @                 +     @  .     .        +  +  +     +     @     .  @  @  .  +        @        +  +  @     .     +  .  @  .  ^+ +% Ji U8.V8.s;.W8.X8.Y8.Z8.$; +     @  @  @  @  .  +  +  .     .  .     +        @     @  +  @  @  .     ++ l@ v+ <' x+ o* 2b A+ ~. {. <@ 4+ .  .  .  .  .  .     +     .  .  .  +  .     .  .  @  @  .  @  .     .  .  +              +  .  @           +  @        +  @  @  +  .  .     @  @           ",
"   +  @  +     +  .     .        .  .     @  +  +  .  .  .     .     +     @  +  .  .     +  +     @  .  @     +     .  +  +  +  +     +     @  .     @  I  x. h> y= G+ 1' ;/ L{.&$ F$ 5@ +  @  .  @  .     @  .        .  @  .  @                 +     @  .     .        |9 `8. 9..9.86 pe +9.@9.[4 )  @  .  +        @        +  +  @     .     +  .  @  .  +  .  +  +  @  +     .  @     .  +     @  @  @  @  .  +  +  .     .  .     +        @     @  +  @  @  .     +     @  +  @  @  .  @        @  @  +  .  .  .  .  .     +     .  .  .  +  .     .  .  @  @  .  @  .     .  .  +              +  .  @           +  @        +  @  @  +  .  .     @  @           @     @  @     @  +  .  @  +        .     .  @  .  @  @  .              @  .     +  @  @  .  +  @  +  +  @  +  .  @     +  @  +     +  .     .        .  .     @  +  +  .  .  .     .     +     @  +  .  .     +  +     @  .  @     +     .  +  +  +  +     +     @  .     +  +  +     @  +     .        .  +  @     .  @  .     @  .        .  @  .  @                 +     @  .     .        +  +  +     +     @     .  @  @  .  +        @        +  +  @     .     +  .  @  .  +  .  +  +  @  +     .  @     .  +     @  @  @  @  .  +  +  .     .  .     +        @     @  +  @  @  .     +     @  +  :> jd #9.$9.%9.&9.*9.=9.jd :> .  .  .  .     +     .  .  .  +  .     .  .  @  @  .  @  .     .  .  +     ++ d+ L+ #~ -9.t% P+ 8. ;9.]< :' S. c. .  @  @  +  .  .     @  @           @     @  @     @  +  .  @  +        .     .  @  .  @  @  .              @  .     +  @  @  .  +  @  +  +  @  +  .  @  ",
"   +  .  @  .  +  .  +  +  @  +     .  @     .  +     @  @  @  @  .  +  +  .     .  .     +        @     @  +  @  @  .     +     @  +  @  @  .  @     T. 0% z% c& V= >9.Y+ y* V#  @ .+ ^+ +  +  .  +  .     .  .  @  @  .  @  .     .  .  +              +  .  @        )  ,9.,7 '9.)9.!9.~9.{9.]9.9^.$k ^9.$k ^9.m. m. m. $k G}.$k $k m. $k #k zd $k #k m. m. zd m. zd $k zd $k $k zd m. m. m. m. $k zd m. #k $k $k zd #k $k #k #k $k /9.zd $k m. #k $k #k m. #k zd m. zd m. m. zd zd $k $k #k /9.zd zd zd m. zd m. /9.m. $k /9.zd zd m. /9.#k $k $k zd $k m. #k G}.zd #k #k #k #k m. #k m. $k zd m. #k #k #k $k $k #k m. zd m. G}.zd /9.$k $k zd $k zd m. $k zd G}.m. zd $k zd $k m. m. m. m. m. #k m. $k zd m. #k m. m. #k /9.#k m. #k m. $k m. zd $k $k zd #k m. m. $k m. m. #k #k $k m. zd G}.#k (9.$k zd #k zd #k #k $k #k m. zd ^9.m. zd #k m. $k $k $k $k zd #k #k zd m. zd (9.m. #k m. m. ^9.m. ^9.#k $k $k zd m. #k m. $k #k $k $k (9.$k m. m. $k $k #k zd zd (9.zd (9.m. #k m. zd #k zd #k zd m. zd zd $k $k zd $k zd G}.zd zd #k m. m. m. m. #k zd $k m. m. m. #k $k m. m. /9.$k $k #k zd zd ^9.$k ^9.m. m. m. $k G}.$k $k m. $k #k zd $k #k m. m. zd m. zd $k zd $k $k zd m. m. m. m. $k zd m. #k $k $k zd #k $k #k #k $k /9.zd $k m. #k $k #k m. #k zd m. zd m. m. zd zd v_ '3 _9.:9.v9 yV <9.[9.0!.h4 +     @  +  .  .     +  +     @  .  @     +     .  +  +  +  +     +     @  .  ++ u+ ^# @@ +* :v Ub &@ X] sB n# `   . +     .  @  .     @  .        .  @  .  @                 +     @  .     .        +  +  +     +     @     .  @  @  .  +        @        +  +  @     .  ",
".     +     @  +  .  .     +  +     @  .  @     +     .  +  +  +  +     +     @  .     +  +  +     @  +     .        .  +  @     .  @  .     @  .     r  /. >+ n& .% I' :@.H* N% ]+ 5@ +  @  .     .        +  +  +     +     @     .  @  @  .  +        @        +  +  @  z9 }9.|9.19.29.39.49.59.69.79.'j 'j 89.99.09.'j 99.09.>j a9.'j ,j a9.,j )j 89.>j 09.a9.)j )j 99.)j 99.a9.'j a9.'j )j 'j 99.)j a9.89.99.,j >j ,j a9.)j ,j 99.a9.99.,j >j 09.)j )j )j )j a9.>j 99.)j )j 09.>j )j 99.)j 09.a9.'j )j ,j )j a9.)j )j >j a9.a9.a9.a9.>j )j 'j 99.a9.a9.89.,j 99.99.)j ,j ,j )j 09.09.a9.,j 'j a9.99.a9.'j a9.a9.'j 99.,j 09.09.99.>j 99.a9.09.99.)j 99.09.,j 'j 09.a9.a9.a9.99.99.09.a9.89.'j 'j 09.89.'j 89.89.'j 89.09.,j 99.09.,j >j 99.)j )j 99.)j 99.99.09.)j 99.'j )j )j 09.)j )j 99.09.99.89.99.,j )j )j )j 99.)j 89.99.a9.)j 'j 99.>j a9.09.09.)j >j 89.99.>j a9.'j 09.99.89.89.>j 99.,j 89.99.09.99.a9.09.)j ,j 99.)j 99.)j 99.'j 09.a9.a9.)j 'j )j 'j 99.a9.a9.a9.a9.89.99.a9.)j a9.)j 99.99.89.)j 89.a9.>j a9.,j a9.09.,j 'j )j 89.99.99.99.99.a9.>j 89.'j 99.)j a9.09.)j 'j 09.89.)j >j )j 'j 89.99.09.'j 99.09.>j a9.'j ,j a9.,j )j 89.>j 09.a9.)j )j 99.)j 99.a9.'j a9.'j )j 'j 99.)j a9.89.99.,j >j ,j a9.)j ,j 99.a9.99.,j >j 09.)j )j )j )j a9.>j 99.)j )j 09.>j b9.c9.}k d9.e9.f9.g9.h9.%7 'a .  .  +              +  .  @           +  @        +  @  @  +  .  .     @  @  ++ @# L+ M+ {@ ]@ ^@ /@ t& t^ >- S. 4+ .     .     .  @  .  @  @  .              @  .     +  @  @  .  +  @  +  +  @  +  .  @     +  @  +     +  .     .        .  .     @  +  +  .  .  .     ",
"+  .  @           +  @        +  @  @  +  .  .     @  @           @     @  @     @  +  .  @  +        .     .  @  .  @  @  .              @  .     )  U+ U.  ) }c i9.2@ j9.O* .* .@ +     +  @  +     +  .     .        .  .     @  +  +  .  .  .     .     +     @  +     B0 k9.l9.m9.n9.o9.p9.q9.r9.s9.[i :i :i :i :i t9.}i :i [i }i :i }i :i t9.:i }i }i :i }i :i }i [i :i t9.}i }i :i }i :i }i }i :i [i }i t9.[i t9.}i }i }i }i }i [i :i }i }i :i }i t9.}i }i t9.t9.:i [i :i }i }i }i :i }i }i t9.:i }i }i }i }i }i :i :i [i }i :i [i :i t9.[i :i t9.t9.:i t9.[i t9.}i :i [i }i :i :i [i [i }i }i }i :i t9.:i :i [i :i t9.}i t9.}i }i [i [i [i t9.}i }i :i [i :i }i }i :i }i [i t9.}i }i }i }i }i :i :i :i t9.:i t9.}i :i }i :i t9.:i :i :i }i :i :i }i [i t9.}i :i [i :i t9.:i [i }i }i [i :i t9.[i }i }i }i t9.}i }i }i t9.}i }i :i :i :i [i }i [i [i }i [i [i [i }i [i }i }i :i :i }i :i }i [i :i }i t9.}i :i }i [i :i [i }i }i }i }i :i [i :i [i [i :i :i }i :i t9.[i t9.:i }i }i :i u9.:i }i t9.t9.}i t9.}i }i :i t9.}i [i :i t9.:i t9.:i }i :i }i t9.}i }i t9.:i t9.}i t9.:i }i }i t9.}i }i :i [i :i :i :i :i t9.}i :i [i }i :i }i :i t9.:i }i }i :i }i :i }i [i :i t9.}i }i :i }i :i }i }i :i [i }i t9.[i t9.}i }i }i }i }i [i :i }i }i :i }i t9.}i }i t9.t9.:i [i :i }i v9.w9.x9.I[.y9.z9.A9.B9.Ob i4 +#    +  +  @     .     +  .  @  .  +  .  +  +  @  +     .  @     .  +     @  @  @  ++ A@ ^# X* 7@ ^) C9.D9.E9.;+ F& b. .     @  +  @  @  .     +     @  +  @  @  .  @        @  @  +  .  .  .  .  .     +     .  .  .  +  .     .  .  @  @  .  @  .     .  .  +              ",
"   .  @     .  +     @  @  @  @  .  +  +  .     .  .     +        @     @  +  @  @  .     +     @  +  @  @  .  @        @  @  +  .  .  .  .  .  )  .. +. p# += f@ Xf Bc f/ 1{ ]+ G. +  .  @  .     .  .  +              +  .  @           +  @        +  @  @  +  .  .     <] F9.G9.w3 P1 H9.I9.J9.K9.L9.ah 0h M9.N9.O9.i#.i#.M9.P9.M9.ah Q9.ah ah M9.i#.i#.i#.i#.ah M9.i#.0h ah ah M9.0h ah 0h 0h ah 0h M9.N9.i#.O9.ah 0h i#.0h M9.i#.M9.P9.i#.M9.M9.ah ah 0h 0h M9.M9.M9.i#.Q9.N9.0h P9.N9.0h M9.M9.P9.0h 0h ah ah M9.ah i#.0h i#.M9.O9.0h O9.0h i#.0h ah ah M9.i#.0h 0h O9.ah ah 0h i#.M9.i#.i#.M9.0h N9.ah M9.ah M9.ah ah M9.i#.i#.0h ah M9.ah i#.i#.i#.i#.i#.0h P9.ah 0h i#.0h i#.P9.0h 0h 0h i#.0h i#.N9.i#.Q9.ah ah M9.0h P9.P9.ah ah i#.O9.0h ah i#.M9.i#.O9.M9.ah M9.0h M9.0h 0h ah 0h ah M9.ah i#.M9.0h i#.ah N9.ah ah M9.0h 0h M9.i#.0h M9.i#.0h i#.i#.ah i#.ah 0h ah ah M9.i#.0h i#.N9.0h N9.ah M9.N9.ah i#.ah N9.0h M9.M9.M9.0h M9.i#.O9.P9.0h 0h M9.0h M9.i#.M9.M9.ah ah M9.ah M9.ah M9.M9.0h i#.i#.i#.i#.O9.M9.ah ah i#.i#.0h ah P9.i#.0h ah N9.0h Q9.Q9.ah N9.ah i#.i#.i#.ah i#.ah ah P9.ah 0h M9.N9.O9.i#.i#.M9.P9.M9.ah Q9.ah ah M9.i#.i#.i#.i#.ah M9.i#.0h ah ah M9.0h ah 0h 0h ah 0h M9.N9.i#.O9.ah 0h i#.0h M9.i#.M9.P9.i#.M9.M9.ah ah 0h 0h M9.M9.M9.i#.Q9.N9.R9.j#.S9.T9.U9.V9.W9.X9.Y9.6d ^+ .  @     +     .  +  +  +  +     +     @  .     +  +  +     @  +     .           @  /+ (+ _+ :+ {= Z9.*d q@ `9.A# W@ 4+ .  @                 +     @  .     .        +  +  +     +     @     .  @  @  .  +        @        +  +  @     .     +  .  @  .  +  .  +  +  @  +  ",
"   .     +     @  +  .  .     +  +     @  .  @     +     .  +  +  +  +     +     @  .     +  +  +     @  +     .        .  +  @     .  @  .     I  U+ m% 1% c)  0.x@ .0.z@ F$ 5@ +     +     @  .     .        +  +  +     +     @     .  @  @  .  +        @        +  +  @# +0.$+ @0.#0.$0.%0.&0.*0.=0.pg qg sg ng pg og sg pg og ng sg pg rg pg rg og ng og og sg og qg pg og pg pg sg sg sg qg pg pg og sg og pg pg og pg pg qg rg pg pg pg rg ng og og qg og qg pg og pg og qg og og og pg og og pg sg qg pg og sg og qg og sg pg pg sg og qg sg pg pg pg qg rg pg pg qg pg rg og og og sg pg sg pg pg sg pg sg pg sg pg rg og og pg og pg sg og pg og pg og rg sg og sg pg pg pg pg og sg ng sg sg og og pg ng -0.sg qg og pg pg og rg og pg qg og pg qg pg pg og qg pg sg og qg og og og pg og pg -0.pg rg qg og og pg qg og pg pg qg pg pg og sg og og og og -0.pg og sg pg og pg ng -0.og pg pg og pg og pg sg og qg pg pg og pg og pg pg og sg pg qg sg qg pg pg pg pg pg sg ng pg pg og pg og pg pg -0.qg og sg og pg pg pg og rg pg qg og pg pg pg pg pg og og sg pg og sg og qg sg og -0.qg og qg sg ng pg og sg pg og ng sg pg rg pg rg og ng og og sg og qg pg og pg pg sg sg sg qg pg pg og sg og pg pg og pg pg qg rg pg pg pg rg ng og og qg og qg pg og pg og qg ;0.>0.,0.'0.)0.!0.~0.{0.z@ b+ ^+    .  .  +              +  .  @           +  @        +  @  @  +  .  .     @  @     )  A@ e+ h# g+ h+ d_ b= H@ I@ m+ S. %     .     .  @  .  @  @  .              @  .     +  @  @  .  +  @  +  +  @  +  .  @     +  @  +     +  .     .        .  .     @  +  +  .  .  .  ",
".     .  @  .  @  @  .              @  .     +  @  @  .  +  @  +  +  @  +  .  @     +  @  +     +  .     .        .  .     @  +  +  .  .  .  )  J  a% :& c% d% e= f= ]0.t+ k@ G. +  @  .  @     +     .  +  +  +  +     +     @  .     +  +  +     @  +     .        .  +  ++ @+ 3* ^0./0.(0._0.:0.sz <0.Hf Hf Gf Hf [0.[0.Hf Hf Hf Gf }0.Hf Gf Hf Gf [0.}0.Gf Gf Gf Hf Gf Hf }0.[0.|0.Hf Hf 10.Gf }0.20.Hf Hf [0.|0.Gf Hf [0.Gf Hf |0.Gf Hf Gf Gf 10.Gf Gf Hf Gf }0.|0.Hf 20.|0.Gf Hf Hf }0.Hf Hf Gf Gf Gf Gf Hf Gf Gf Hf Gf 20.Hf Hf Hf Hf Gf Hf }0.Gf Hf Gf 20.}0.Gf }0.Hf Gf }0.Hf Hf Hf }0.Gf Gf 10.10.Gf 10.Hf |0.}0.Gf Gf Gf Gf Gf 20.Gf |0.Hf Hf Gf }0.Gf Hf Gf 10.Gf Hf Hf Hf Hf |0.10.Hf }0.Hf [0.Gf Hf }0.[0.Gf Hf }0.Gf |0.|0.Hf }0.Hf Hf Hf Hf Hf Hf Hf Hf }0.Hf Gf |0.}0.|0.Hf Hf |0.}0.Gf Hf 30.Hf Hf |0.Hf Hf Hf [0.Hf Gf Hf Gf Hf Hf |0.Gf Hf Gf Gf Hf Gf Gf }0.[0.|0.}0.Gf }0.Gf Gf Hf Gf }0.Hf Gf 10.Hf Hf Gf Gf Gf 10.Gf Hf 30.}0.Gf }0.}0.Gf Gf 10.}0.Gf Gf Hf Hf 10.Hf Hf Gf Hf Gf |0.Gf |0.Gf [0.|0.Hf Hf Gf }0.Gf Gf |0.}0.Hf Gf 20.Gf Hf Hf Gf Gf }0.}0.Gf Hf Gf }0.Hf |0.Hf Hf Gf Hf Gf Hf [0.[0.Hf Hf Hf Gf }0.Hf Gf Hf Gf [0.}0.Gf Gf Gf Hf Gf Hf }0.[0.|0.Hf Hf 10.Gf }0.20.Hf Hf [0.|0.Gf Hf [0.Gf Hf |0.Gf Hf Gf Gf 10.Gf Gf Hf Gf }0.|0.Hf 20.|0.Gf Gf 40.50.60.70.80.90.!M j@ 5@ +  .     +        @     @  +  @  @  .     +     @  +  @  @  .  @        @  @  +  .  .     ++ `{ _+ <' h% O-./9 U@ x] 3^ `$ ^. c. @  @  .  @  .     .  .  +              +  .  @           +  @        +  @  @  +  .  .     @  @           @     @  @     @  +  .  @  +        ",
"+  .  @     +  @  +     +  .     .        .  .     @  +  +  .  .  .     .     +     @  +  .  .     +  +     @  .  @     +     .  +  +  +  @  r  x. X@ n% q* p% z= r% K+ F. G. +     .        .  +  @     .  @  .     @  .        .  @  .  @                 +     @  .     @  @# u+ o. 00.V_.a0.b0.c0.d0.e0.$f #f e0.@f f0.e0.e0.e0.e0.e0.$f $f g0.e0.$f g0.$f @f %f $f h0.@f $f @f %f h0.e0.$f %f e0.$f f0.g0.%f #f e0.#f $f h0.$f $f g0.$f @f e0.@f e0.e0.g0.g0.%f @f e0.e0.$f g0.h0.e0.e0.$f #f g0.@f #f e0.g0.e0.#f f0.$f @f @f @f @f e0.$f e0.$f @f $f $f @f e0.$f $f g0.%f @f #f $f g0.$f @f f0.g0.g0.e0.g0.$f @f g0.e0.g0.e0.@f #f e0.e0.@f e0.#f @f $f $f g0.e0.g0.g0.e0.g0.g0.g0.g0.g0.e0.#f $f $f e0.$f e0.g0.$f e0.@f e0.$f #f %f $f g0.g0.g0.e0.e0.$f g0.f0.g0.g0.$f h0.g0.h0.h0.g0.@f $f #f e0.$f #f $f e0.@f @f e0.@f e0.e0.$f @f e0.g0.@f @f $f @f $f e0.$f e0.h0.e0.#f @f $f @f e0.@f h0.e0.e0.@f e0.e0.$f g0.$f $f $f $f h0.e0.$f g0.e0.$f e0.f0.h0.$f e0.e0.f0.e0.$f e0.g0.$f @f e0.e0.$f e0.$f e0.e0.$f g0.g0.@f g0.@f e0.e0.g0.e0.e0.g0.h0.e0.g0.$f g0.@f e0.e0.h0.@f $f g0.$f e0.e0.e0.$f #f e0.@f f0.e0.e0.e0.e0.e0.$f $f g0.e0.$f g0.$f @f %f $f h0.@f $f @f %f h0.e0.$f %f e0.$f f0.g0.%f #f e0.#f $f h0.$f $f g0.$f @f e0.@f e0.e0.g0.g0.%f @f e0.e0.$f @f +f i0.j0.k0.l0.m0.n0.^;.c+ +  @  @  +  .  .  .  .  .     +     .  .  .  +  .     .  .  @  @  .  @  .     .  .  +        )  d+ J. ## 0_.%# Q= R= S= T= :' ;# c.    @  +  .  .     @  @           @     @  @     @  +  .  @  +        .     .  @  .  @  @  .              @  .     +  @  @  .  +  @  +  +  @  ",
"   @  @  +  .  .  .  .  .     +     .  .  .  +  .     .  .  @  @  .  @  .     .  .  +              +  .  @           +  @        +  @  @  )  J  K  V^ A% B% X/ o0.P~ ]# p' ^+ +     @  +  .  @  +        .     .  @  .  @  @  .              @  .     +  @  @  .  +  @  +  +  @  =& }| p0.>< q0.Tf 8e `|.4e 4e 4e +1.3e 4e +1.r0.4e 4e +1.+1.2e +1.+1.3e 2e 3e +1.3e 3e +1.+1.+1.3e +1.+1.3e 4e r0.4e 4e 2e 4e 2e 2e +1.2e +1.4e 2e 4e 4e +1.3e +1.+1.2e 3e 4e +1.3e +1.4e 4e 2e +1.3e 3e +1.4e +1.3e 4e 2e 4e 4e +1.4e +1.4e .1.4e 4e 4e 4e +1.3e 4e +1.4e +1.3e 3e +1.+1.+1.4e +1.4e 3e 4e 2e 3e 4e r0.+1.3e 6e 4e 3e 4e 2e +1.4e .1.+1.4e 2e +1.4e +1.+1.+1.2e +1.4e +1.3e 2e 4e 3e 2e +1.4e 4e 3e 4e 4e +1.+1.+1.+1.4e +1.+1.4e +1.6e 4e 4e 4e 4e +1.4e 3e +1.4e +1.3e 3e +1.3e 4e +1.3e 4e 4e 3e 3e +1.2e r0.+1.+1.r0.4e 2e 3e +1.+1.+1.+1.+1.6e +1.2e 4e 4e +1.3e +1.4e +1.r0.+1.4e 4e 4e 4e 2e r0.4e 3e 4e 4e +1.4e 3e 4e +1.4e 3e +1.2e 2e 4e 3e 4e 4e 4e 4e 4e 4e 4e 4e 3e 3e 2e 2e 3e 2e 4e 4e 2e 3e +1.3e 2e 4e 4e 2e 4e 4e 4e 6e 3e +1.4e +1.4e 4e 2e +1.4e +1.+1.4e +1.2e 3e .1.2e 3e 2e 3e +1.+1.4e +1.3e 4e +1.r0.4e 4e +1.+1.2e +1.+1.3e 2e 3e +1.3e 3e +1.+1.+1.3e +1.+1.3e 4e r0.4e 4e 2e 4e 2e 2e +1.2e +1.4e 2e 4e 4e +1.3e +1.+1.2e 3e 4e +1.3e +1.4e 4e 2e +1.2e 1e s0.zc HB t0.]A c+ +     .  @  .  @                 +     @  .     .        +  +  +     +     @     .  @  @  .  +     )  @+ #+ ^$ u0.w3.v0.<# *@ =@ -@ k& .  .  +  .  +  +  @  +     .  @     .  +     @  @  @  @  .  +  +  .     .  .     +        @     @  +  @  @  .     +     @  +  @  @  .  @     ",
"+  @        +  @  @  +  .  .     @  @           @     @  @     @  +  .  @  +        .     .  @  .  @  @  .              @  .     +  @  )  r  x. >+ ;@ x3.~- J' w0.L' ]+ 5@ +  +     +  .     .        .  .     @  +  +  .  .  .     .     +     @  +  .  .     +  +     @  .  @     @  =& #_ 1_ |_ Jd Fd Ed x0.Hd Hd x0.Gd x0.Fd x0.Gd Gd x0.Ed x0.Ed Hd x0.Fd Gd Gd Fd Gd Fd Gd Hd yP Hd [P Fd Hd Id Hd Ed [P [P Hd Hd Fd Gd Hd Fd Hd Fd Ed Gd Fd Fd Fd Hd x0.Hd Gd [P yP Gd Hd Id Fd Gd Ed Gd Gd [P x0.Fd Hd Ed Fd Hd x0.Id Hd x0.Fd Id x0.Fd Hd Fd Gd yP Hd Ed x0.x0.[P Hd Gd Hd Gd Fd Fd x0.yP Hd Fd Id Ed Fd Ed [P Hd Hd Hd Fd Hd Gd Fd [P Fd Ed Gd x0.Gd Hd Id Gd Gd [P Gd Gd x0.yP Id Id Fd Id [P x0.Gd x0.Fd x0.x0.Fd Ed x0.yP Hd Hd Fd Gd x0.Hd x0.Id x0.Hd Hd Ed Hd x0.Id Hd Gd [P [P Fd Gd Gd Ed Fd Gd Gd Fd yP x0.Hd Gd Hd Hd Ed Hd Hd Hd Hd Hd Gd Gd x0.x0.Gd x0.Ed Hd x0.Gd Fd Gd yP Gd Hd x0.Hd [P [P Ed Gd x0.Hd Fd Hd Hd x0.Fd Hd Fd Fd Hd Fd yP Gd Ed x0.Gd x0.Gd Fd Id Ed Fd Gd Ed yP Id Gd Hd Fd Fd yP Id Fd Ed yP Gd Fd Gd Gd Fd Fd Id Gd Fd Fd Gd Hd Id Hd Ed x0.Hd yP x0.Fd x0.Fd Ed x0.Hd Hd x0.Gd x0.Fd x0.Gd Gd x0.Ed x0.Ed Hd x0.Fd Gd Gd Fd Gd Fd Gd Hd yP Hd [P Fd Hd Id Hd Ed [P [P Hd Hd Fd Gd Hd Fd Hd Fd Ed Gd Fd Fd Fd Hd x0.Hd Gd [P yP Gd Hd Id Fd yP y0./e ~_ )_ S$ +  +     .     +  .  @  .  +  .  +  +  @  +     .  @     .  +     @  @  @  @  .  +  +  .     .  .     @  @# G$ p& z0.A0.B0.c- (@ _@ :@ 3+ }  .  +  @  @  .  @        @  @  +  .  .  .  .  .     +     .  .  .  +  .     .  .  @  @  .  @  .     .  .  +              +  .  @           ",
"+  +  .  .  .     .     +     @  +  .  .     +  +     @  .  @     +     .  +  +  +  +     +     @  .     +  +  +     @  +     .        T. a$ K  b# c# d- ]( e$ C0. @ v! +  +  @  .  @                 +     @  .     .        +  +  +     +     @     .  @  @  .  +        @        @  +  @  @  +  @  S$ +  H. S$ S$ +  S$ S$ H. S$ H. +  H. @  S$ S$ @  H. H. H. H. S$ S$ S$ +  H. S$ +  @  S$ @  @  H. H. H. S$ H. H. S$ @  S$ @  H. S$ H. H. +  H. H. @  H. H. S$ +  +  +  S$ +  @  S$ H. S$ S$ +  S$ S$ @  S$ +  H. H. S$ H. S$ H. S$ +  S$ @  H. @  H. S$ +  H. H. @  @  S$ H. H. @  S$ H. H. S$ +  S$ H. H. H. H. @  H. H. H. H. H. H. H. S$ S$ H. S$ @  H. S$ H. S$ H. +  H. H. S$ H. @  @  @  H. S$ H. S$ H. H. S$ S$ H. S$ S$ H. S$ +  H. @  S$ H. S$ H. S$ +  @  S$ H. @  +  +  H. H. S$ S$ +  +  S$ @  +  H. S$ H. H. S$ S$ +  H. S$ S$ H. H. +  H. @  S$ H. +  S$ S$ S$ S$ @  S$ H. H. S$ H. S$ S$ S$ H. H. S$ @  S$ @  @  S$ S$ H. H. S$ H. S$ H. H. +  H. @  S$ H. +  H. @  @  @  H. H. S$ H. H. S$ H. S$ @  H. S$ S$ S$ H. S$ H. H. @  +  H. H. +  S$ H. @  H. H. @  S$ S$ H. @  S$ H. S$ +  H. S$ S$ +  S$ S$ H. S$ H. +  H. @  S$ S$ @  H. H. H. H. S$ S$ S$ +  H. S$ +  @  S$ @  @  H. H. H. S$ H. H. S$ @  S$ @  H. S$ H. H. +  H. H. @  H. H. S$ +  +  +  S$ +  @  S$ +  +  +  .  +  .     .  .  @  @  .  @  .     .  .  +              +  .  @           +  @        +  @  @  +  .  .     @  ++ @+ #+ h# i# ^) k# i! a@ <$  = b. %  .        .     .  @  .  @  @  .              @  .     +  @  @  .  +  @  +  +  @  +  .  @     +  @  +     +  .     .        .  .     @  ",
"            +     @  .     .        +  +  +     +     @     .  @  @  .  +        @        +  +  @     .     +  .  @  .  +  .  +  .  )  r  +. p# <@.j! a> k! u# *& e4 G. +  .  +  +  .     .  .     +        @     @  +  @  @  .     +     @  +  @  @  .  @        @  @  +  .  .  .  .  .     +     .  .  .  +  .     .  .  @  @  .  @  .     .  .  +              +  .  @           +  @        +  @  @  +  .  .     @  @           @     @  @     @  +  .  @  +        .     .  @  .  @  @  .              @  .     +  @  @  .  +  @  +  +  @  +  .  @     +  @  +     +  .     .        .  .     @  +  +  .  .  .     .     +     @  +  .  .     +  +     @  .  @     +     .  +  +  +  +     +     @  .     +  +  +     @  +     .        .  +  @     .  @  .     @  .        .  @  .  @                 +     @  .     .        +  +  +     +     @     .  @  @  .  +        @        +  +  @     .     +  .  @  .  +  .  +  +  @  +     .  @     .  +     @  @  @  @  .  +  +  .     .  .     +        @     @  +  @  @  .     +     @  +  @  @  .  @        @  @  +  .  .  .  .  .     +     .  .  .  +  .     .  .  @  @  .  @  .     .  .  +              +  .  @           +  @        +  @  @  +  .  .     @  @           @     @  @     @  +  .  @  +        .     .  @  .  @  @  .              @  .     +  @  @  .  +  @  +  +  @  +  .  @     +  @  +     +  .     .        .  .     @  +  +  .  .     @# @+ v+ 7( w# Oh y# R- |% A# ]. 4+ .  @  .  @     +     .  +  +  +  +     +     @  .     +  +  +     @  +     .        .  +  @     .  @  .     @  .        .  @  .  @     ",
".     +  +     @  .  @     +     .  +  +  +  +     +     @  .     +  +  +     @  +     .        .  +  @     .  @  .     @  .        T. x. t@ 1% D0.W- D# u! S& b+ 5@ +  +     .        +  +  +     +     @     .  @  @  .  +        @        +  +  @     .     +  .  @  .  +  .  +  +  @  +     .  @     .  +     @  @  @  @  .  +  +  .     .  .     +        @     @  +  @  @  .     +     @  +  @  @  .  @        @  @  +  .  .  .  .  .     +     .  .  .  +  .     .  .  @  @  .  @  .     .  .  +              +  .  @           +  @        +  @  @  +  .  .     @  @           @     @  @     @  +  .  @  +        .     .  @  .  @  @  .              @  .     +  @  @  .  +  @  +  +  @  +  .  @     +  @  +     +  .     .        .  .     @  +  +  .  .  .     .     +     @  +  .  .     +  +     @  .  @     +     .  +  +  +  +     +     @  .     +  +  +     @  +     .        .  +  @     .  @  .     @  .        .  @  .  @                 +     @  .     .        +  +  +     +     @     .  @  @  .  +        @        +  +  @     .     +  .  @  .  +  .  +  +  @  +     .  @     .  +     @  @  @  @  .  +  +  .     .  .     +        @     @  +  @  @  .     +     @  +  @  @  .  @        @  @  +  .  .  .  .  .     +     .  .  .  +  .     .  .  @  @  .  @  .     .  .  +              +  .  @           +  @        +  @  @  +  .  .     @  @           @     @  @     @  +  .  @  +  )  d+ G$ H# ); !; K# ~; {; I@ a. b. c.    @  .     +  @  @  .  +  @  +  +  @  +  .  @     +  @  +     +  .     .        .  .     @  +  +  .  .  .     .     +     @  +  .  ",
".  +  @     .  @  .     @  .        .  @  .  @                 +     @  .     .        +  +  +     +     @     .  @  @  .  +     T. .. d. Z& /; L! _; Ai V# .* .+ ^+ @  .  +  .  +  +  @  +     .  @     .  +     @  @  @  @  .  +  +  .     .  .     +        @     @  +  @  @  .     +     @  +  @  @  .  @        @  @  +  .  .  .  .  .     +     .  .  .  +  .     .  .  @  @  .  @  .     .  .  +              +  .  @           +  @        +  @  @  +  .  .     @  @           @     @  @     @  +  .  @  +        .     .  @  .  @  @  .              @  .     +  @  @  .  +  @  +  +  @  +  .  @     +  @  +     +  .     .        .  .     @  +  +  .  .  .     .     +     @  +  .  .     +  +     @  .  @     +     .  +  +  +  +     +     @  .     +  +  +     @  +     .        .  +  @     .  @  .     @  .        .  @  .  @                 +     @  .     .        +  +  +     +     @     .  @  @  .  +        @        +  +  @     .     +  .  @  .  +  .  +  +  @  +     .  @     .  +     @  @  @  @  .  +  +  .     .  .     +        @     @  +  @  @  .     +     @  +  @  @  .  @        @  @  +  .  .  .  .  .     +     .  .  .  +  .     .  .  @  @  .  @  .     .  .  +              +  .  @           +  @        +  @  @  +  .  .     @  @           @     @  @     @  +  .  @  +        .     .  @  .  @  @  .              @  .     +  @  @  .  +  @  +  +  @  +  .  @     +  @  @  ++ @+ +@ @@ E0.qj j% rj F0.;, +$ ^. .  .  .  .     .     +     @  +  .  .     +  +     @  .  @     +     .  +  +  +  +     +     @  .     +  +  +     @  +     .        ",
"      @        +  +  @     .     +  .  @  .  +  .  +  +  @  +     .  @     .  +     @  @  @  @  .  +  +  .     .  .     +     )  I  +. y. #$ $$ $  7&  # &$ ]+ G. +  @  @  .  @        @  @  +  .  .  .  .  .     +     .  .  .  +  .     .  .  @  @  .  @  .     .  .  +              +  .  @           +  @        +  @  @  +  .  .     @  @           @     @  @     @  +  .  @  +        .     .  @  .  @  @  .              @  .     +  @  @  .  +  @  +  +  @  +  .  @     +  @  +     +  .     .        .  .     @  +  +  .  .  .     .     +     @  +  .  .     +  +     @  .  @     +     .  +  +  +  +     +     @  .     +  +  +     @  +     .        .  +  @     .  @  .     @  .        .  @  .  @                 +     @  .     .        +  +  +     +     @     .  @  @  .  +        @        +  +  @     .     +  .  @  .  +  .  +  +  @  +     .  @     .  +     @  @  @  @  .  +  +  .     .  .     +        @     @  +  @  @  .     +     @  +  @  @  .  @        @  @  +  .  .  .  .  .     +     .  .  .  +  .     .  .  @  @  .  @  .     .  .  +              +  .  @           +  @        +  @  @  +  .  .     @  @           @     @  @     @  +  .  @  +        .     .  @  .  @  @  .              @  .     +  @  @  .  +  @  +  +  @  +  .  @     +  @  +     +  .     .        .  .     @  +  +  .  .  .     .     +     @  +  .  .     +  +     @  .  @     +     .  +  +  +  +     @  ++ /+ G$ ## 0_.G0.>^.&~ >$ ~* 3, <@ c. .  .  +  @     .  @  .     @  .        .  @  .  @                 +     @  .     .        +  +  +     +     @     .  @  @  .  +  ",
".  @     .  +     @  @  @  @  .  +  +  .     .  .     +        @     @  +  @  @  .     +     @  +  @  @  .  @        @  @  @  T. U+ U. '$ =% G_.u1 B; h& .* .@ ^+ +     .  .  @  @  .  @  .     .  .  +              +  .  @           +  @        +  @  @  +  .  .     @  @           @     @  @     @  +  .  @  +        .     .  @  .  @  @  .              @  .     +  @  @  .  +  @  +  +  @  +  .  @     +  @  +     +  .     .        .  .     @  +  +  .  .  .     .     +     @  +  .  .     +  +     @  .  @     +     .  +  +  +  +     +     @  .     +  +  +     @  +     .        .  +  @     .  @  .     @  .        .  @  .  @                 +     @  .     .        +  +  +     +     @     .  @  @  .  +        @        +  +  @     .     +  .  @  .  +  .  +  +  @  +     .  @     .  +     @  @  @  @  .  +  +  .     .  .     +        @     @  +  @  @  .     +     @  +  @  @  .  @        @  @  +  .  .  .  .  .     +     .  .  .  +  .     .  .  @  @  .  @  .     .  .  +              +  .  @           +  @        +  @  @  +  .  .     @  @           @     @  @     @  +  .  @  +        .     .  @  .  @  @  .              @  .     +  @  @  .  +  @  +  +  @  +  .  @     +  @  +     +  .     .        .  .     @  +  +  .  .  .     .     +     @  +  .  .     +  +     @  .  @     +     .  +  +  +  +     +     @  .     +  +  +     @  +     .        .  +  @     .  @  .     @  ++ `{ W# ^$ S; GG H0.<# :$ `* -@ `   . .  @  .     .        +  +  +     +     @     .  @  @  .  +        @        +  +  @     .     +  .  @  .  +  .  +  +  @  +     ",
".  .  .  .  .     +     .  .  .  +  .     .  .  @  @  .  @  .     .  .  +              +  .  @           +  @        +  @  ++ r  /. [$ o( |$ I0.2$ ~+ {+ ]+ ^+ +  @     @  +  .  @  +        .     .  @  .  @  @  .              @  .     +  @  @  .  +  @  +  +  @  +  .  @     +  @  +     +  .     .        .  .     @  +  +  .  .  .     .     +     @  +  .  .     +  +     @  .  @     +     .  +  +  +  +     +     @  .     +  +  +     @  +     .        .  +  @     .  @  .     @  .        .  @  .  @                 +     @  .     .        +  +  +     +     @     .  @  @  .  +        @        +  +  @     .     +  .  @  .  +  .  +  +  @  +     .  @     .  +     @  @  @  @  .  +  +  .     .  .     +        @     @  +  @  @  .     +     @  +  @  @  .  @        @  @  +  .  .  .  .  .     +     .  .  .  +  .     .  .  @  @  .  @  .     .  .  +              +  .  @           +  @        +  @  @  +  .  .     @  @           @     @  @     @  +  .  @  +        .     .  @  .  @  @  .              @  .     +  @  @  .  +  @  +  +  @  +  .  @     +  @  +     +  .     .        .  .     @  +  +  .  .  .     .     +     @  +  .  .     +  +     @  .  @     +     .  +  +  +  +     +     @  .     +  +  +     @  +     .        .  +  @     .  @  .     @  .        .  @  .  @                 +     @  .     .        +  +  +     +     @     .  @  @  .  +        @        +  +  @     @  @# (+ m@ 0- 5$ ,> J0.K0.K, a# 3+ c. .  @     .  +     @  @  @  @  .  +  +  .     .  .     +        @     @  +  @  @  .     +     @  +  @  @  .  @        @  @  +  ",
"   +  +     @  .  @     +     .  +  +  +  +     +     @  .     +  +  +     @  +     .        .  +  @     .  @  .     @     r  U+ u& v& )9 6~ !> z& a+ b+ 5@ G. .  @  .     .        +  +  +     +     @     .  @  @  .  +        @        +  +  @     .     +  .  @  .  +  .  +  +  @  +     .  @     .  +     @  @  @  @  .  +  +  .     .  .     +        @     @  +  @  @  .     +     @  +  @  @  .  @        @  @  +  .  .  .  .  .     +     .  .  .  +  .     .  .  @  @  .  @  .     .  .  +              +  .  @           +  @        +  @  @  +  .  .     @  @           @     @  @     @  +  .  @  +        .     .  @  .  @  @  .              @  .     +  @  @  .  +  @  +  +  @  +  .  @     +  @  +     +  .     .        .  .     @  +  +  .  .  .     .     +     @  +  .  .     +  +     @  .  @     +     .  +  +  +  +     +     @  .     +  +  +     @  +     .        .  +  @     .  @  .     @  .        .  @  .  @                 +     @  .     .        +  +  +     +     @     .  @  @  .  +        @        +  +  @     .     +  .  @  .  +  .  +  +  @  +     .  @     .  +     @  @  @  @  .  +  +  .     .  .     +        @     @  +  @  @  .     +     @  +  @  @  .  @        @  @  +  .  .  .  .  .     +     .  .  .  +  .     .  .  @  @  .  @  .     .  .  +              +  .  @           +  @        +  @  @  +  .  .     @  @           @     @  @     @  +  .  @  +        .     @  @+ ^& X* Z% 5> L0.l# i* @/ F& b. %  +  @  @  .  +  @  +  +  @  +  .  @     +  @  +     +  .     .        .  .     @  +  +  .  .  .     .     +     @  +  .  .  ",
".  .     .     +     @  +  .  .     +  +     @  .  @     +     .  +  +  +  +     +     @  .     +  +  +     @  +     .  )  .. +. _^ 8> H& M0.0> s# t+ .+ ^+ +     .  @  .  @                 +     @  .     .        +  +  +     +     @     .  @  @  .  +        @        +  +  @     .     +  .  @  .  +  .  +  +  @  +     .  @     .  +     @  @  @  @  .  +  +  .     .  .     +        @     @  +  @  @  .     +     @  +  @  @  .  @        @  @  +  .  .  .  .  .     +     .  .  .  +  .     .  .  @  @  .  @  .     .  .  +              +  .  @           +  @        +  @  @  +  .  .     @  @           @     @  @     @  +  .  @  +        .     .  @  .  @  @  .              @  .     +  @  @  .  +  @  +  +  @  +  .  @     +  @  +     +  .     .        .  .     @  +  +  .  .  .     .     +     @  +  .  .     +  +     @  .  @     +     .  +  +  +  +     +     @  .     +  +  +     @  +     .        .  +  @     .  @  .     @  .        .  @  .  @                 +     @  .     .        +  +  +     +     @     .  @  @  .  +        @        +  +  @     .     +  .  @  .  +  .  +  +  @  +     .  @     .  +     @  @  @  @  .  +  +  .     .  .     +        @     @  +  @  @  .     +     @  +  @  @  .  @        @  @  +  .  .  .  .  .     +     .  .  .  +  .     .  .  @  @  .  @  .     .  .  +              +  .  @           +  @        +  @  @  +  .  .     @  @           @     @  @  @# (+ v+ q!.N0.u> Q( A+ B+ C+ W@ c. c. @  @  .              @  .     +  @  @  .  +  @  +  +  @  +  .  @     +  @  +     +  .     .        .  .     @  +  +  .  ",
"@  .  +  .  +  +  @  +     .  @     .  +     @  @  @  @  .  +  +  .     .  .     +        @     @  +  @  @  .     +  )  I  U+ -).O0.5^ x~ C$ y~ F# F. 5@ ^+ .  .  .  .     +     .  .  .  +  .     .  .  @  @  .  @  .     .  .  +              +  .  @           +  @        +  @  @  +  .  .     @  @           @     @  @     @  +  .  @  +        .     .  @  .  @  @  .              @  .     +  @  @  .  +  @  +  +  @  +  .  @     +  @  +     +  .     .        .  .     @  +  +  .  .  .     .     +     @  +  .  .     +  +     @  .  @     +     .  +  +  +  +     +     @  .     +  +  +     @  +     .        .  +  @     .  @  .     @  .        .  @  .  @                 +     @  .     .        +  +  +     +     @     .  @  @  .  +        @        +  +  @     .     +  .  @  .  +  .  +  +  @  +     .  @     .  +     @  @  @  @  .  +  +  .     .  .     +        @     @  +  @  @  .     +     @  +  @  @  .  @        @  @  +  .  .  .  .  .     +     .  .  .  +  .     .  .  @  @  .  @  .     .  .  +              +  .  @           +  @        +  @  @  +  .  .     @  @           @     @  @     @  +  .  @  +        .     .  @  .  @  @  .              @  .     +  @  @  .  +  @  +  +  @  +  .  @     +  @  +     +  .     .        .  .     @  +  +  .  .  .     .     +     @  +  .  .     +  +     @  .  @     +     .  +  +  +  +     +     @  .     +  +  +     @  +     .        .  +  @  A@ G$ H# P> Q> e+.L$ 9. 0. w) S. c.                   +     @  .     .        +  +  +     +     @     .  @  @  .  +        @        +  +  @     .     +  .  ",
"@  .  @     +     .  +  +  +  +     +     @  .     +  +  +     @  +     .        .  +  @     .  @  .     @  .           .. L* c_.c% V> W> y* V# ]# .+ ^+ +     .        +  +  +     +     @     .  @  @  .  +        @        +  +  @     .     +  .  @  .  +  .  +  +  @  +     .  @     .  +     @  @  @  @  .  +  +  .     .  .     +        @     @  +  @  @  .     +     @  +  @  @  .  @        @  @  +  .  .  .  .  .     +     .  .  .  +  .     .  .  @  @  .  @  .     .  .  +              +  .  @           +  @        +  @  @  +  .  .     @  @           @     @  @     @  +  .  @  +        .     .  @  .  @  @  .              @  .     +  @  @  .  +  @  +  +  @  +  .  @     +  @  +     +  .     .        .  .     @  +  +  .  .  .     .     +     @  +  .  .     +  +     @  .  @     +     .  +  +  +  +     +     @  .     +  +  +     @  +     .        .  +  @     .  @  .     @  .        .  @  .  @                 +     @  .     .        +  +  +     +     @     .  @  @  .  +        @        +  +  @     .     +  .  @  .  +  .  +  +  @  +     .  @     .  +     @  @  @  @  .  +  +  .     .  .     +        @     @  +  @  @  .     +     @  +  @  @  .  @        @  @  +  .  .  .  .  .     +     .  .  .  +  .     .  .  @  @  .  @  .     .  .  +              +  .  @           +  @        +  @  @  +  .  .     @  @           @     @  @     @  +  .  @  +        .     .  @  .  @  @     ++ @+ +@ @@ P0.W$ ${ t. 5_ C* `$ `  .  +  +  @  +  .  @     +  @  +     +  .     .        .  .     @  +  +  .  .  .     .     +     @  +  .  .     +  +     ",
"   .  +  @     .  @  .     @  .        .  @  .  @                 +     @  .     .        +  +  +     +     @        I  [* +> E* Q0.>, t# e~.&$ F. 5@ +     .     +  .  @  .  +  .  +  +  @  +     .  @     .  +     @  @  @  @  .  +  +  .     .  .     +        @     @  +  @  @  .     +     @  +  @  @  .  @        @  @  +  .  .  .  .  .     +     .  .  .  +  .     .  .  @  @  .  @  .     .  .  +              +  .  @           +  @        +  @  @  +  .  .     @  @           @     @  @     @  +  .  @  +        .     .  @  .  @  @  .              @  .     +  @  @  .  +  @  +  +  @  +  .  @     +  @  +     +  .     .        .  .     @  +  +  .  .  .     .     +     @  +  .  .     +  +     @  .  @     +     .  +  +  +  +     +     @  .     +  +  +     @  +     .        .  +  @     .  @  .     @  .        .  @  .  @                 +     @  .     .        +  +  +     +     @     .  @  @  .  +        @        +  +  @     .     +  .  @  .  +  .  +  +  @  +     .  @     .  +     @  @  @  @  .  +  +  .     .  .     +        @     @  +  @  @  .     +     @  +  @  @  .  @        @  @  +  .  .  .  .  .     +     .  .  .  +  .     .  .  @  @  .  @  .     .  .  +              +  .  @           +  @        +  @  @  +  .  .     @  @           @     @  @     @  +  .  @  +        .     .  @  .  @  @  .              @  .     +  @  @  .  +  @  +  +  @  +  .  @     +  @  +     +     )  @# G$ ~@ mq o[.7/ &% >$ ~* >- <@ 4+    .     +     @  +  .  .     +  +     @  .  @     +     .  +  +  +  +     +     @  .     +  +  +     @  +     .     ",
"+  .  .     @  @           @     @  @     @  +  .  @  +        .     .  @  .  @  @  .              @  .     @  @  )  U+ P, V. 8/ -% s_ R0.S0. + 5@ ^+ @  +     +  .     .        .  .     @  +  +  .  .  .     .     +     @  +  .  .     +  +     @  .  @     +     .  +  +  +  +     +     @  .     +  +  +     @  +     .        .  +  @     .  @  .     @  .        .  @  .  @                 +     @  .     .        +  +  +     +     @     .  @  @  .  +        @        +  +  @     .     +  .  @  .  +  .  +  +  @  +     .  @     .  +     @  @  @  @  .  +  +  .     .  .     +        @     @  +  @  @  .     +     @  +  @  @  .  @        @  @  +  .  .  .  .  .     +     .  .  .  +  .     .  .  @  @  .  @  .     .  .  +              +  .  @           +  @        +  @  @  +  .  .     @  @           @     @  @     @  +  .  @  +        .     .  @  .  @  @  .              @  .     +  @  @  .  +  @  +  +  @  +  .  @     +  @  +     +  .     .        .  .     @  +  +  .  .  .     .     +     @  +  .  .     +  +     @  .  @     +     .  +  +  +  +     +     @  .     +  +  +     @  +     .        .  +  @     .  @  .     @  .        .  @  .  @                 +     @  .     .        +  +  +     +     @     .  @  @  .  +        @        +  +  @     .     +  .  @  .  +  .  +  +  @  +     .  @     .  +     @  @  @  @  .  +  +  .     .  .     +        @     @  +  @  @  .     +     @  +  ++ A@ G# ]) ,% Q_ R_ =+ -+ _) -@ :)  . .     +     .  .  .  +  .     .  .  @  @  .  @  .     .  .  +              +  .  @           +  @        +  @  @  ",
"+  @  +     .  @     .  +     @  @  @  @  .  +  +  .     .  .     +        @     @  +  @  @  .     +     @  +  )  r  @$ >+ }* p, 1* 2* q, 1{ ]+ ^+ +  .     +     .  .  .  +  .     .  .  @  @  .  @  .     .  .  +              +  .  @           +  @        +  @  @  +  .  .     @  @           @     @  @     @  +  .  @  +        .     .  @  .  @  @  .              @  .     +  @  @  .  +  @  +  +  @  +  .  @     +  @  +     +  .     .        .  .     @  +  +  .  .  .     .     +     @  +  .  .     +  +     @  .  @     +     .  +  +  +  +     +     @  .     +  +  +     @  +     .        .  +  @     .  @  .     @  .        .  @  .  @                 +     @  .     .        +  +  +     +     @     .  @  @  .  +        @        +  +  @     .     +  .  @  .  +  .  +  +  @  +     .  @     .  +     @  @  @  @  .  +  +  .     .  .     +        @     @  +  @  @  .     +     @  +  @  @  .  @        @  @  +  .  .  .  .  .     +     .  .  .  +  .     .  .  @  @  .  @  .     .  .  +              +  .  @           +  @        +  @  @  +  .  .     @  @           @     @  @     @  +  .  @  +        .     .  @  .  @  @  .              @  .     +  @  @  .  +  @  +  +  @  +  .  @     +  @  +     +  .     .        .  .     @  +  +  .  .  .     .     +     @  +  .  .     +  +     @  .  @     +     .  +  +  +  +     +     @  .     +  +  +     @  +     .        .  +  @     .  @  .     @     @# l@ _+ ~= T0.[+ I, |+ 1+ :@ <@ 4+ .  @  .     .        +  +  +     +     @     .  @  @  .  +        @        +  +  @     .     +  .  @  .  +  .  +  ",
"@  @           @     @  @     @  +  .  @  +        .     .  @  .  @  @  .              @  .     +  @  @  .  @  I  U+ U. L, U0.^- d* V0.a+ b+ 5@ +  +  .     .        .  .     @  +  +  .  .  .     .     +     @  +  .  .     +  +     @  .  @     +     .  +  +  +  +     +     @  .     +  +  +     @  +     .        .  +  @     .  @  .     @  .        .  @  .  @                 +     @  .     .        +  +  +     +     @     .  @  @  .  +        @        +  +  @     .     +  .  @  .  +  .  +  +  @  +     .  @     .  +     @  @  @  @  .  +  +  .     .  .     +        @     @  +  @  @  .     +     @  +  @  @  .  @        @  @  +  .  .  .  .  .     +     .  .  .  +  .     .  .  @  @  .  @  .     .  .  +              +  .  @           +  @        +  @  @  +  .  .     @  @           @     @  @     @  +  .  @  +        .     .  @  .  @  @  .              @  .     +  @  @  .  +  @  +  +  @  +  .  @     +  @  +     +  .     .        .  .     @  +  +  .  .  .     .     +     @  +  .  .     +  +     @  .  @     +     .  +  +  +  +     +     @  .     +  +  +     @  +     .        .  +  @     .  @  .     @  .        .  @  .  @                 +     @  .     .        +  +  +     +     @     .  @  @  .  +        @        +  +  @     .     +  .  @  .  +  .  +  +  @  +     .  @     .  +     @  @  @  @  .  +  +  .     .  .     +        @     @  +  @  @  .     +     @  +  @  @  .  @  @  )  A@ e+ h# g+ W0.g~ j$ D& E& m+ b. c. .  .  +  .     .  .  @  @  .  @  .     .  .  +              +  .  @           +  @        +  @  @  +  .  .     ",
"+  @  +     +  .     .        .  .     @  +  +  .  .  .     .     +     @  +  .  .     +  +     @  .  @        .. +. k* o+ X0.#/ r+ f% ]$ .+ ^+ +  +  +  +     @  +     .        .  +  @     .  @  .     @  .        .  @  .  @                 +     @  .     .        +  +  +     +     @     .  @  @  .  +        @        +  +  @     .     +  .  @  .  +  .  +  +  @  +     .  @     .  +     @  @  @  @  .  +  +  .     .  .     +        @     @  +  @  @  .     +     @  +  @  @  .  @        @  @  +  .  .  .  .  .     +     .  .  .  +  .     .  .  @  @  .  @  .     .  .  +              +  .  @           +  @        +  @  @  +  .  .     @  @           @     @  @     @  +  .  @  +        .     .  @  .  @  @  .              @  .     +  @  @  .  +  @  +  +  @  +  .  @     +  @  +     +  .     .        .  .     @  +  +  .  .  .     .     +     @  +  .  .     +  +     @  .  @     +     .  +  +  +  +     +     @  .     +  +  +     @  +     .        .  +  @     .  @  .     @  .        .  @  .  @                 +     @  .     .        +  +  +     +     @     .  @  @  .  +        @        +  +  @     .     +  .  @  .  +  .  +  +  @  +     .  @     .  +     @  @  @  @  .  +  +  .     .  .     +        @     @  +  @  @  .     +     @  +  @  @  .  @        @  @  +  .  .  .  .  .     +     .  .  .  +  .     .  .  @  @  .  @  .     .  .  +              +  .  @           +  @        +  @  @  ++ @+ v+ #3 x+ o* [' !. ~. .t ]. ^. .     @  +  .  @  +        .     .  @  .  @  @  .              @  .     +  @  @  .  +  @  +  +  @  +  .  @     ",
"         @     @  @     @  +  .  @  +        .     .  @  .  @  @  .              @  .     +  @  @  .  +  ++ I  U+ m% Y@ -^ Y0.r* Z0..# b+ 5@ ^+ .     .        .  .     @  +  +  .  .  .     .     +     @  +  .  .     +  +     @  .  @     +     .  +  +  +  +     +     @  .     +  +  +     @  +     .        .  +  @     .  @  .     @  .        .  @  .  @                 +     @  .     .        +  +  +     +     @     .  @  @  .  +        @        +  +  @     .     +  .  @  .  +  .  +  +  @  +     .  @     .  +     @  @  @  @  .  +  +  .     .  .     +        @     @  +  @  @  .     +     @  +  @  @  .  @        @  @  +  .  .  .  .  .     +     .  .  .  +  .     .  .  @  @  .  @  .     .  .  +              +  .  @           +  @        +  @  @  +  .  .     @  @           @     @  @     @  +  .  @  +        .     .  @  .  @  @  .              @  .     +  @  @  .  +  @  +  +  @  +  .  @     +  @  +     +  .     .        .  .     @  +  +  .  .  .     .     +     @  +  .  .     +  +     @  .  @     +     .  +  +  +  +     +     @  .     +  +  +     @  +     .        .  +  @     .  @  .     @  .        .  @  .  @                 +     @  .     .        +  +  +     +     @     .  @  @  .  +        @        +  +  @     .     +  .  @  .  +  .  +  +  @  +     .  @     .  +     @  @  @  @  .  +  +  .     .  .     +        @     @  +  @  @  .     +     @  +  @  @  .  @        @  @  @  @# G$ ## 0& O+ k' L$ {< S+ y% S.  . .     .  .  @  @  .  @  .     .  .  +              +  .  @           +  @        +  @  @  +  .  .     @  @  ",
"   @  .     .        +  +  +     +     @     .  @  @  .  +        @        +  +  @     .     +  .  @  .  @  .. '@.`0. a..a.x* o' P~  @ .@ G. .  @  @  @  @  .  +  +  .     .  .     +        @     @  +  @  @  .     +     @  +  @  @  .  @        @  @  +  .  .  .  .  .     +     .  .  .  +  .     .  .  @  @  .  @  .     .  .  +              +  .  @           +  @        +  @  @  +  .  .     @  @           @     @  @     @  +  .  @  +        .     .  @  .  @  @  .              @  .     +  @  @  .  +  @  +  +  @  +  .  @     +  @  +     +  .     .        .  .     @  +  +  .  .  .     .     +     @  +  .  .     +  +     @  .  @     +     .  +  +  +  +     +     @  .     +  +  +     @  +     .        .  +  @     .  @  .     @  .        .  @  .  @                 +     @  .     .        +  +  +     +     @     .  @  @  .  +        @        +  +  @     .     +  .  @  .  +  .  +  +  @  +     .  @     .  +     @  @  @  @  .  +  +  .     .  .     +        @     @  +  @  @  .     +     @  +  @  @  .  @        @  @  +  .  .  .  .  .     +     .  .  .  +  .     .  .  @  @  .  @  .     .  .  +              +  .  @           +  @        +  @  @  +  .  .     @  @           @     @  @     @  +  .  @  +        .     .  @  .  @  @  .              @  .     +  @  @  .  +  @  +  +  @  +  .  @     +  @  +     +  .     .        .  .     @  +  +  .  .  .     .     +     @  +  .  .     +  +     @  ++ @+ 2& @@ +* z_.+a.!A @a.@~ W@ 4+ .  @  .     +  +  +     @  +     .        .  +  @     .  @  .     @  .        .  @  .  @                 +  ",
"@  @  .  @        @  @  +  .  .  .  .  .     +     .  .  .  +  .     .  .  @  @  .  @  .     .  .  +     I  @b 55 #a.p, R6 $a.}k D+.k@ G. +     +  @  @  +  .  .     @  @           @     @  @     @  +  .  @  +        .     .  @  .  @  @  .              @  .     +  @  @  .  +  @  +  +  @  +  .  @     +  @  +     +  .     .        .  .     @  +  +  .  .  .     .     +     @  +  .  .     +  +     @  .  @     +     .  +  +  +  +     +     @  .     +  +  +     @  +     .        .  +  @     .  @  .     @  .        .  @  .  @                 +     @  .     .        +  +  +     +     @     .  @  @  .  +        @        +  +  @     .     +  .  @  .  +  .  +  +  @  +     .  @     .  +     @  @  @  @  .  +  +  .     .  .     +        @     @  +  @  @  .     +     @  +  @  @  .  @        @  @  +  .  .  .  .  .     +     .  .  .  +  .     .  .  @  @  .  @  .     .  .  +              +  .  @           +  @        +  @  @  +  .  .     @  @           @     @  @     @  +  .  @  +        .     .  @  .  @  @  .              @  .     +  @  @  .  +  @  +  +  @  +  .  @     +  @  +     +  .     .        .  .     @  +  +  .  .  .     .     +     @  +  .  .     +  +     @  .  @     +     .  +  +  +  +     +     @  .     +  +  +     @  +     .        .  +  @     .  @  .     @  .        .  @  .  @                 +     @  .     .        +  +  +     +     @     .  @  @  .  +        @        +  +  @  @# (+ ~@ %a.P% YC &a.*a.=a.h).J; .  +     .  @     .  +     @  @  @  @  .  +  +  .     .  .     +        @     @  +  @  @  .     +     @  +  ",
"+  .  .  .     .     +     @  +  .  .     +  +     @  .  @     +     .  +  +  +  +     +     @  .     @  @# JW -a.;a.>a.,a.'a.`&.^f .@ ^+ +  @  .  @  .     @  .        .  @  .  @                 +     @  .     .        +  +  +     +     @     .  @  @  .  +        @        +  +  @     .     +  .  @  .  +  .  +  +  @  +     .  @     .  +     @  @  @  @  .  +  +  .     .  .     +        @     @  +  @  @  .     +     @  +  @  @  .  @        @  @  +  .  .  .  .  .     +     .  .  .  +  .     .  .  @  @  .  @  .     .  .  +              +  .  @           +  @        +  @  @  +  .  .     @  @           @     @  @     @  +  .  @  +        .     .  @  .  @  @  .              @  .     +  @  @  .  +  @  +  +  @  +  .  @     +  @  +     +  .     .        .  .     @  +  +  .  .  .     .     +     @  +  .  .     +  +     @  .  @     +     .  +  +  +  +     +     @  .     +  +  +     @  +     .        .  +  @     .  @  .     @  .        .  @  .  @                 +     @  .     .        +  +  +     +     @     .  @  @  .  +        @        +  +  @     .     +  .  @  .  +  .  +  +  @  +     .  @     .  +     @  @  @  @  .  +  +  .     .  .     +        @     @  +  @  @  .     +     @  +  @  @  .  @        @  @  +  .  .  .  .  .     +     .  .  .  +  .     .  .  @  @  .  @  .     .  .  +              +  .  @           +  @        +  @  @  +  .  .     @  @           @     @  @     @  +     ++ @+ +0.rd J{.)a.!a.~a.{a.K; #,  .             @  .     +  @  @  .  +  @  +  +  @  +  .  @     +  @  +     +  .     .        .  .     @  +  ",
"   .  @  .     @  .        .  @  .  @                 +     @  .     .        +  +  +     +     @        d+ g$.]a.^a./a.(a.y{.d3 <8 +# +  @     .     +  .  @  .  +  .  +  +  @  +     .  @     .  +     @  @  @  @  .  +  +  .     .  .     +        @     @  +  @  @  .     +     @  +  @  @  .  @        @  @  +  .  .  .  .  .     +     .  .  .  +  .     .  .  @  @  .  @  .     .  .  +              +  .  @           +  @        +  @  @  +  .  .     @  @           @     @  @     @  +  .  @  +        .     .  @  .  @  @  .              @  .     +  @  @  .  +  @  +  +  @  +  .  @     +  @  +     +  .     .        .  .     @  +  +  .  .  .     .     +     @  +  .  .     +  +     @  .  @     +     .  +  +  +  +     +     @  .     +  +  +     @  +     .        .  +  @     .  @  .     @  .        .  @  .  @                 +     @  .     .        +  +  +     +     @     .  @  @  .  +        @        +  +  @     .     +  .  @  .  +  .  +  +  @  +     .  @     .  +     @  @  @  @  .  +  +  .     .  .     +        @     @  +  @  @  .     +     @  +  @  @  .  @        @  @  +  .  .  .  .  .     +     .  .  .  +  .     .  .  @  @  .  @  .     .  .  +              +  .  @           +  @        +  @  @  +  .  .     @  @           @     @  @     @  +  .  @  +        .     .  @  .  @  @  .              @  .     +  @  @  .  +  @  +  +  @  +  .  @     +  @  +     +  .     .        .  .     @  +  @  @# 08 j9 _a.:a.o0 <a.[a.=( Tm $; .     +  +     @  .  @     +     .  +  +  +  +     +     @  .     +  +  +     @  +     .        .  +  @  ",
"   .  .     @  +  +  .  .  .     .     +     @  +  .  .     +  +     @  .  @     +     .  +  +  +  +  )  <] y'.}a.|a.+  1a.2a.L6 #,  . .     .        .  .  @     .     .        .        .     .                    +        .     .        +  .  .     .     @     .  @     .  +                 .  +        .     .  .  @  .  +  .  .  .  @  +     .  @     .  +     @  @     @  .  +  .  .     .  .     .        @     @  .        .     +     @  .  @     .  @           @  +  .  .  .  .  .     .     .  .  .  .  .     .  .     @  .  @  .     .  .  +              .  .  @           .  @        .     @  .  .  .     @                             @  .  .     .        .     .     .  @  @  .                 .     +        .  +     +  +     .  .  @     .  @  .     .  .     .        .  .        .  .  .  .  .     .     +     @  .  .  .     .  +        .        .     .  .  .  .  +     +        .     +  +  .        +     .        .  .  @     .     .        .        .     .                    +        .     .        +  .  .     .     @     .  @     .  +                 .  +        .     .  .  @  .  +  .  .  .  @  +     .  @     .  +     @  @     @  .  +  .  .     .  .     .        @     @  .        .     +     @  .  @     .  @           @  +  .  .  .  .  .     .     .  .  .  .  .     .  .     @  .  @  .     .  .  +              .  .  @           .  @        .     @  .  .  .     @                       I  ne |-.3a.4a.5a.6a.7a.8a.*5 $; .  @  .  @  @  .              @  .     +  @  @  .  +  @  +  +  @  +  .  @     +  @  +     +  .     .     ",
".  @  +        .     .  @  .  @  @  .              @  .     +  @  @  .  +  @  +  +  @  +  .  @     +  ++ d+ Q8 9a.0a.aa.ba.ca.O~ `$ [  '  $  $  $  '  '  '  I* '  #  $  I* #  $  '  '  I* $  $  #  #  '  #  I* $  I* '  $  $  $  $  I* $  #  #  '  I* $  $  $  #  #  $  I* '  I* I* '  $  #  #  '  #  '  #  #  '  da.I* $  #  '  #  I* I* I* I* I* $  I* #  $  I* $  I* I* $  $  $  I* $  I* #  I* '  #  #  '  $  I* I* #  #  I* $  $  #  I* '  I* $  '  #  '  $  '  $  $  #  $  #  '  ea.I* '  $  I* #  #  #  #  '  $  $  '  I* $  fa.I* $  I* I* #  I* #  $  #  #  '  I* $  I* #  $  #  #  fa.#  #  I* #  #  $  '  '  '  $  '  I* $  I* $  $  '  $  '  I* '  '  #  #  '  #  '  #  '  '  $  I* I* I* I* $  '  #  #  I* I* $  #  I* I* $  #  #  $  '  '  ea.#  ea.I* I* I* #  da.#  #  I* #  $  '  #  $  I* I* '  I* '  #  '  #  #  '  I* I* I* I* #  '  I* $  #  #  '  $  #  $  $  #  ga.'  #  I* $  #  $  I* $  '  I* '  I* I* '  '  #  #  $  $  '  '  '  I* '  #  $  I* #  $  '  '  I* $  $  #  #  '  #  I* $  I* '  $  $  $  $  I* $  #  #  '  I* $  $  $  #  #  $  I* '  I* I* '  $  #  #  '  #  '  #  #  '  da.I* $  #  '  #  I* I* I* I* I* $  I* #  $  I* $  I* I* $  $  $  I* $  I* #  I* '  #  #  '  $  I* I* #  #  I* $  $  #  I* '  I* $  '  #  '  $  '  $  $  #  $  #  '  ea.I* '  $  I* #  #  #  #  '  $  $  '  I* $  fa.I* $  I* I* #  I* #  $  #  #  '  I* $  I* #  $  #  #  fa.#  #  I* #  #  $  '  '  '  $  '  I* $  I* $  $  '  #  *  d. U- oe ha.ia.ja.ka.!a.j6 +# .  +              +  .  @           +  @        +  @  @  +  .  .     @  @           @     @  @     @  +  ",
"@  +  +  @  +  .  @     +  @  +     +  .     .        .  .     @  +  +  .  .  .     .     +     @  +     d+ 08 la.ma.na.oa.pa.qa.4G ss K{.Ok >  >  >  ;  Kk >  Jk ^O >  ^O >  >  >  ^O ^O >  Kk Ok Kk Hr >  ;  ^O ^O >  ^O >  ^O ^O Ok Jk Kk >  ^O Ok ^O Kk Kk Kk Kk Kk >  ^O ^O >  ^O >  Kk ^O ;  ;  >  Hr >  Kk ^O Kk Ok ^O ^O K{.>  ^O Kk ^O ^O Kk >  >  ^O Kk >  Jk >  K{.^O >  >  K{.>  >  ^O >  ^O Ok Jk Kk >  >  Kk ^O ^O ^O ^O >  >  >  Ok ^O >  K{.Kk >  Kk Kk Jk ^O Jk ;  ^O ^O >  Hr >  Kk ^O >  ^O ^O K{.^O ^O Kk ^O ^O >  Ok Ok K{.>  K{.Kk >  ^O >  >  Ok >  >  Kk >  Ok ^O Jk >  ^O >  Jk >  Ok >  Hr ^O Kk Jk >  Ok ^O ^O Kk Kk ;  ^O ^O Kk ;  ^O ^O >  Ok Ok Jk ^O Jk ^O Kk Jk ^O Jk ^O Jk ^O ^O >  >  ^O >  Kk ^O >  ^O >  ^O Ok ^O ^O >  Jk Kk Kk Kk ^O >  Jk >  Jk Jk >  >  ^O >  >  ^O ;  Ok ^O Kk >  ^O >  ^O ;  Ok Kk >  ^O Kk Ok K{.^O Jk >  ;  Ok Ok >  Kk Ok ^O ;  Kk ^O ;  >  Ok ^O ;  >  ^O ^O K{.^O Kk >  Jk Ok >  >  >  ;  Kk >  Jk ^O >  ^O >  >  >  ^O ^O >  Kk Ok Kk Hr >  ;  ^O ^O >  ^O >  ^O ^O Ok Jk Kk >  ^O Ok ^O Kk Kk Kk Kk Kk >  ^O ^O >  ^O >  Kk ^O ;  ;  >  Hr >  Kk ^O Kk Ok ^O ^O K{.>  ^O Kk ^O ^O Kk >  >  ^O Kk >  Jk >  K{.^O >  >  K{.>  >  ^O >  ^O Ok Jk Kk >  >  Kk ^O ^O ^O ^O >  >  >  Ok ^O >  K{.Kk >  Kk Kk Jk ^O Jk ;  ^O ^O >  Hr >  Kk ^O >  ^O ^O K{.^O ^O Kk ^O ^O >  Ok Ok K{.>  K{.Kk >  ^O >  >  Ok >  >  Kk >  Ok ^O Jk >  ^O >  Jk >  Ok >  Hr ^O Kk Jk >  Ok ^O ^O Kk Kk Jk ^O b}.[= ra.sa.ta.$_ ua.va.wa.oc xa.         @     @  @     @  +  .  @  +        .     .  @  .  @  @  .              @  .     +  @  @  .  +  ",
"   @  +  +  .  .  .     .     +     @  +  .  .     +  +     @  .  @     +     .  +  +  +  +     +     @  @# l@ Jc ya.za.Aa.Ba.Ca.Da.Ea.Fa.4D Ga.4D Ha.Ha.Ga.Ha.Ga.Ha.Ha.Ga.|D Ha.4D |D 4D Ha.Ha.Ha.Ha.Ha.|D Ia.Ha.Ha.Ga.|D 4D Ha.Ha.Ja.4D Ga.|D Ga.Ha.Ha.Ha.Ga.kD Ha.4D Ga.Ha.Ha.Ha.Ha.Ha.Ga.Ga.|D Ha.Ga.|D Ga.4D |D Ga.Ja.4D Ga.4D |D Ja.Ha.Ga.|D Ha.Ga.Ia.|D |D kD Ha.kD Ga.Ja.Ga.Ga.|D Ga.4D Ha.4D Ha.Ha.|D |D |D 4D Ha.Ha.Ga.|D 4D Ha.Ha.Ga.kD |D 4D kD Ha.Ha.Ha.kD Ia.Ga.Ga.4D Ga.4D Ha.Ga.Ha.Ga.4D Ga.Ga.4D Ha.Ga.Ga.|D |D 4D Ha.Ga.|D Ga.4D Ia.|D |D Ha.|D Ga.4D |D Ha.Ha.Ha.4D kD Ha.Ha.4D Ha.kD Ga.Ga.Ga.|D Ha.|D |D Ha.|D |D |D Ha.|D Ha.kD Ga.Ga.Ha.Ga.Ha.|D Ga.Ha.4D Ha.Ga.kD |D Ga.|D Ha.Ha.Ha.Ha.Ga.|D Ia.|D |D Ga.4D Ha.Ja.Ja.|D 4D Ga.Ha.Ha.Ga.kD Ga.Ha.4D 4D Ha.4D Ha.Ha.Ga.4D Ha.|D 4D 4D Ga.4D Ga.Ha.Ga.Ha.Ja.Ha.kD 4D Ga.4D Ha.4D Ja.Ha.Ha.4D Ha.Ha.Ga.|D Ga.Ga.Ga.Ga.Ja.Ha.Ga.|D Ha.Ga.Ha.Ia.Ja.Ga.Ha.Ha.Ga.Ha.Ga.Ha.|D Ga.4D Ha.Ha.Ga.Ha.Ga.Ha.Ha.Ga.|D Ha.4D |D 4D Ha.Ha.Ha.Ha.Ha.|D Ia.Ha.Ha.Ga.|D 4D Ha.Ha.Ja.4D Ga.|D Ga.Ha.Ha.Ha.Ga.kD Ha.4D Ga.Ha.Ha.Ha.Ha.Ha.Ga.Ga.|D Ha.Ga.|D Ga.4D |D Ga.Ja.4D Ga.4D |D Ja.Ha.Ga.|D Ha.Ga.Ia.|D |D kD Ha.kD Ga.Ja.Ga.Ga.|D Ga.4D Ha.4D Ha.Ha.|D |D |D 4D Ha.Ha.Ga.|D 4D Ha.Ha.Ga.kD |D 4D kD Ha.Ha.Ha.kD Ia.Ga.Ga.4D Ga.4D Ha.Ga.Ha.Ga.4D Ga.Ga.4D Ha.Ga.Ga.|D |D 4D Ha.Ga.|D Ga.4D Ia.|D |D Ha.|D Ga.4D |D Ha.Ha.Ha.4D kD Ha.Ha.4D Ha.kD Ga.Ga.Ga.|D Ha.|D |D Ha.|D |D |D Ha.|D Ha.f{.m- Ka.La.Ma.Na.Oa.Pa.Qa.Ra.]+ ^+ @  @  .              @  .     +  @  @  .  +  @  +  +  @  +  .  @     +  @  +     +  .     .        .  .  ",
"+        @        +  +  @     .     +  .  @  .  +  .  +  +  @  +     .  @     .  +     @  @  @  @  .  @  ++ A@ He Sa.Ta.Ua.Va.Wa.Xa.Ya.Za.`a.dm  b. b.dm  b.dm .b. b.dm  b. b.+b. b. b..b. b. b.dm @b.@b.+b.dm +b..b.dm  b.dm dm dm dm dm .b.dm @b. b. b.dm  b.dm #b.dm @b.dm  b. b. b. b.dm @b. b. b..b..b.dm  b. b..b.dm  b. b.dm dm dm #b. b.#b. b..b. b. b.#b. b. b. b. b.dm dm  b.dm .b. b.dm  b.dm  b.@b. b. b.dm  b..b..b..b. b.dm  b.dm  b. b.dm dm  b.dm dm  b.`a.@b. b..b.dm  b.dm  b.dm @b..b.dm  b..b.dm @b. b. b.dm `a.@b.@b.dm .b.@b. b.dm  b. b.`a.dm @b. b.`a.dm  b. b.@b. b..b.dm  b.@b.dm dm dm dm .b.dm  b. b.dm  b.dm dm dm  b. b.dm .b.dm .b. b.dm `a. b. b.dm  b.dm  b. b.dm #b..b.dm  b.@b. b..b..b..b. b. b.dm  b. b.dm  b.dm .b. b.dm dm dm  b.dm  b. b..b.@b. b. b.@b.dm  b..b. b. b..b.dm dm  b..b.dm #b.dm `a. b.dm dm @b.dm dm  b.dm  b.dm #b..b.dm dm .b. b. b. b. b.dm dm dm dm  b.dm +b..b.dm .b. b. b. b.#b.dm  b. b.dm  b.dm .b. b.dm  b. b.+b. b. b..b. b. b.dm @b.@b.+b.dm +b..b.dm  b.dm dm dm dm dm .b.dm @b. b. b.dm  b.dm #b.dm @b.dm  b. b. b. b.dm @b. b. b..b..b.dm  b. b..b.dm  b. b.dm dm dm #b. b.#b. b..b. b. b.#b. b. b. b. b.dm dm  b.dm .b. b.dm  b.dm  b.@b. b. b.dm  b..b..b..b. b.dm  b.dm  b. b.dm dm  b.dm dm  b.`a.@b. b..b.dm  b.dm  b.dm @b..b.dm  b..b.dm @b. b. b.dm `a.@b.@b.dm .b.@b. b.dm  b. b.`a.dm @b. b.`a.dm  b. b.@b. b..b.dm  b.@b.dm dm dm dm .b.dm  b. b.dm  b.dm dm dm  b.$b.%b.&b.*b.=b.-b.;b.>b.,b. @ .@ +  .     @  .        .  @  .  @                 +     @  .     .        +  +  +     +     @     .  @  @  .  ",
"+  +     +     @     .  @  @  .  +        @        +  +  @     .     +  .  @  .  +  .  +  +  @  +     .  ++ @# (+ K. 'b.)b.!b.~b.{b.]b.^b./b.(b._b.:b.<b.[b.:b.[b.[b._b._b.}b.:b._b._b.:b.[b.:b.[b._b.:b._b._b.<b._b._b.[b._b._b.:b.(b.(b.<b.:b.<b.[b.:b._b.:b.:b.(b.:b.:b.[b.:b.(b._b._b.:b._b.:b.}b.:b.(b.:b.[b._b.[b._b.:b.(b._b._b.[b.[b.:b._b._b.[b.:b._b._b.:b.(b.(b.}b._b.}b._b.[b._b._b.}b._b._b._b._b.:b.:b._b.:b.[b._b.:b._b.:b._b.(b._b._b.:b._b.[b.[b.[b._b.:b._b.:b._b._b.:b.:b._b.:b.:b._b.|b.(b._b.[b.:b._b.:b._b.:b.(b.[b.:b._b.[b.(b.(b._b._b.:b.|b.(b.(b.:b.[b.(b._b.:b._b._b.|b.:b.(b._b.|b.:b._b._b.(b._b.[b.:b._b.(b.:b.:b.:b.:b.[b.:b._b._b.:b._b.:b.:b.:b._b._b.:b.[b.(b.[b.[b.:b.|b._b._b.:b._b.:b._b._b.(b.}b.[b.:b._b.(b._b.[b.[b.[b._b.[b.:b._b._b.:b._b.:b.[b._b.:b.:b.:b._b.:b._b._b.[b.(b._b._b.(b.:b._b.[b._b._b.[b.:b.:b._b.[b.:b.}b.:b.<b._b.:b.:b.(b.:b.:b._b.:b._b.(b.}b.[b.:b.:b.[b._b._b._b._b.:b.:b.:b.(b._b.:b.<b.[b.:b.[b.[b._b._b.}b.:b._b._b.:b.[b.:b.[b._b.:b._b._b.<b._b._b.[b._b._b.:b.(b.(b.<b.:b.<b.[b.:b._b.:b.:b.(b.:b.:b.[b.:b.(b._b._b.:b._b.:b.}b.:b.(b.:b.[b._b.[b._b.:b.(b._b._b.[b.[b.:b._b._b.[b.:b._b._b.:b.(b.(b.}b._b.}b._b.[b._b._b.}b._b._b._b._b.:b.:b._b.:b.[b._b.:b._b.:b._b.(b._b._b.:b._b.[b.[b.[b._b.:b._b.:b._b._b.:b.:b._b.:b.:b._b.|b.(b._b.[b.:b._b.:b._b.:b.(b.[b.:b._b.[b.(b.(b._b._b.:b.|b.(b.(b.:b.[b.(b._b.:b._b._b.|b.:b.(b._b.|b.:b._b._b.(b._b.[b.:b._b.(b.:b._b._b._b.1b.2b.3b.4b.5b.6b.7b.E. F. G. @  +     .        .  +  @     .  @  .     @  .        .  @  .  @                 +     @  .     .        +  ",
"               +     @  .     .        +  +  +     +     @     .  @  @  .  +        @        +  +  @        ++ /+ 8b.mA 9b.0b.ab.bb.cb.db.eb.W1.fb.U1.W1.fb.eb.W1.U1.U1.W1.U1.fb.eb.eb.fb.W1.fb.fb.W1.fb.W1.W1.U1.W1.U1.fb.W1.W1.fb.W1.eb.W1.gb.eb.U1.W1.fb.gb.W1.W1.W1.gb.eb.fb.fb.fb.fb.fb.W1.hb.ib.fb.fb.fb.eb.fb.W1.fb.fb.W1.U1.fb.U1.fb.W1.fb.fb.eb.W1.W1.W1.W1.X1.fb.U1.W1.W1.W1.fb.U1.ib.W1.fb.W1.gb.fb.X1.X1.W1.gb.U1.W1.W1.W1.W1.W1.W1.U1.ib.U1.fb.fb.ib.X1.W1.W1.fb.ib.fb.W1.X1.U1.U1.fb.W1.W1.W1.W1.W1.fb.W1.eb.U1.U1.fb.eb.U1.eb.eb.W1.eb.fb.gb.W1.X1.U1.eb.W1.fb.fb.W1.fb.ib.W1.fb.fb.W1.W1.fb.fb.fb.fb.fb.W1.X1.ib.eb.ib.gb.fb.fb.fb.ib.fb.eb.W1.W1.fb.U1.W1.fb.W1.fb.fb.fb.X1.eb.W1.eb.W1.W1.fb.W1.eb.eb.X1.W1.W1.eb.W1.fb.W1.W1.fb.fb.U1.W1.fb.W1.fb.W1.W1.fb.W1.W1.fb.W1.fb.W1.W1.W1.W1.W1.W1.eb.ib.W1.fb.W1.fb.W1.ib.eb.fb.eb.W1.eb.W1.gb.W1.fb.U1.U1.fb.eb.ib.ib.W1.W1.W1.eb.eb.W1.W1.fb.W1.X1.fb.U1.fb.eb.fb.eb.fb.U1.eb.W1.fb.U1.W1.fb.eb.W1.U1.U1.W1.U1.fb.eb.eb.fb.W1.fb.fb.W1.fb.W1.W1.U1.W1.U1.fb.W1.W1.fb.W1.eb.W1.gb.eb.U1.W1.fb.gb.W1.W1.W1.gb.eb.fb.fb.fb.fb.fb.W1.hb.ib.fb.fb.fb.eb.fb.W1.fb.fb.W1.U1.fb.U1.fb.W1.fb.fb.eb.W1.W1.W1.W1.X1.fb.U1.W1.W1.W1.fb.U1.ib.W1.fb.W1.gb.fb.X1.X1.W1.gb.U1.W1.W1.W1.W1.W1.W1.U1.ib.U1.fb.fb.ib.X1.W1.W1.fb.ib.fb.W1.X1.U1.U1.fb.W1.W1.W1.W1.W1.fb.W1.eb.U1.U1.fb.eb.U1.eb.eb.W1.eb.fb.gb.W1.X1.U1.eb.W1.fb.fb.W1.fb.ib.W1.fb.fb.W1.W1.fb.fb.fb.fb.fb.W1.X1.ib.eb.ib.gb.fb.fb.W1.jb.kb.lb.mb.nb.ob.y[ `H  + G. ^+ +  +  +  +     +     @  .     +  +  +     @  +     .        .  +  @     .  @  .     @  .        .  @  .  @  ",
"            @  .     +  @  @  .  +  @  +  +  @  +  .  @     +  @  +     +  .     .        .  .     @  +  +     ++ /+ C4 52.pb.qb.rb.sb.h0.@f @f e0.h0.h0.#f %f @f %f g0.f0.g0.$f f0.h0.f0.h0.e0.f0.g0.%f @f e0.h0.h0.f0.#f %f h0.e0.$f e0.g0.$f h0.#f #f @f %f @f e0.%f $f g0.g0.@f %f @f %f g0.g0.g0.g0.g0.h0.e0.%f h0.g0.h0.e0.e0.h0.h0.h0.g0.h0.g0.#f g0.$f #f %f @f h0.e0.e0.%f e0.g0.f0.h0.%f e0.@f g0.f0.@f %f @f h0.@f f0.h0.%f h0.#f $f %f e0.$f h0.g0.%f #f %f #f @f h0.f0.$f g0.@f @f e0.h0.e0.g0.%f g0.%f h0.%f #f @f g0.h0.e0.#f f0.#f %f @f #f %f g0.#f #f h0.$f @f @f h0.@f g0.f0.e0.h0.h0.$f f0.@f e0.@f $f %f %f @f #f @f g0.@f @f h0.g0.g0.g0.g0.f0.@f %f e0.g0.g0.h0.#f e0.g0.h0.%f #f h0.$f $f %f #f %f g0.e0.g0.%f g0.%f %f e0.#f f0.$f #f f0.g0.g0.$f e0.@f #f $f #f %f $f g0.g0.g0.e0.#f $f g0.h0.%f %f $f h0.%f h0.h0.%f h0.$f #f e0.f0.#f f0.e0.h0.@f g0.@f e0.g0.@f @f #f %f h0.h0.$f @f @f e0.$f e0.h0.e0.#f h0.@f @f e0.h0.h0.#f %f @f %f g0.f0.g0.$f f0.h0.f0.h0.e0.f0.g0.%f @f e0.h0.h0.f0.#f %f h0.e0.$f e0.g0.$f h0.#f #f @f %f @f e0.%f $f g0.g0.@f %f @f %f g0.g0.g0.g0.g0.h0.e0.%f h0.g0.h0.e0.e0.h0.h0.h0.g0.h0.g0.#f g0.$f #f %f @f h0.e0.e0.%f e0.g0.f0.h0.%f e0.@f g0.f0.@f %f @f h0.@f f0.h0.%f h0.#f $f %f e0.$f h0.g0.%f #f %f #f @f h0.f0.$f g0.@f @f e0.h0.e0.g0.%f g0.%f h0.%f #f @f g0.h0.e0.#f f0.#f %f @f #f %f g0.#f #f h0.$f @f @f h0.@f g0.f0.e0.h0.h0.$f f0.@f e0.@f $f %f %f @f #f @f g0.@f @f %f %f tb.ub.vb.wb.xb.m: c+ +  .  +  @        +  @  @  +  .  .     @  @           @     @  @     @  +  .  @  +        .     .  @  .  @  @  .  ",
"            +  .  @           +  @        +  @  @  +  .  .     @  @           @     @  @     @  +  .  @  +     @  ++ /+ /_ U[ yb.~f zb.99.a9.a9.a9.99.99.09.a9.89.a9.a9.09.)j a9.)j )j a9.)j 09.99.99.09.,j 09.99.)j )j 99.)j 99.99.09.)j 99.a9.)j )j 09.)j )j 99.09.99.89.99.99.)j )j )j 99.)j )j 99.a9.)j a9.99.09.a9.09.09.)j 09.)j 99.09.a9.a9.09.99.89.)j 09.99.99.09.99.09.99.a9.09.)j 99.99.)j 99.)j 99.a9.09.a9.a9.)j a9.)j a9.99.a9.a9.a9.a9.)j 99.a9.)j a9.)j 99.99.)j )j )j a9.09.a9.99.a9.09.99.a9.)j )j 99.99.99.99.a9.09.)j a9.99.)j a9.09.)j a9.09.)j )j 09.)j a9.)j 99.09.a9.99.09.09.a9.a9.99.a9.99.)j 89.09.09.a9.)j )j 99.)j 99.a9.a9.a9.a9.)j a9.99.)j a9.)j 99.99.09.99.a9.)j 99.99.a9.99.99.09.09.)j )j )j )j a9.09.99.09.)j 09.09.)j 99.09.09.a9.a9.)j 99.09.a9.)j )j 09.a9.a9.99.a9.09.)j a9.99.a9.a9.)j 99.99.99.)j 99.99.)j 09.09.a9.99.a9.a9.99.a9.a9.a9.a9.a9.99.,j 09.09.99.09.99.a9.09.99.)j 99.09.,j a9.09.a9.a9.a9.99.99.09.a9.89.a9.a9.09.)j a9.)j )j a9.)j 09.99.99.09.,j 09.99.)j )j 99.)j 99.99.09.)j 99.a9.)j )j 09.)j )j 99.09.99.89.99.99.)j )j )j 99.)j )j 99.a9.)j a9.99.09.a9.09.09.)j 09.)j 99.09.a9.a9.09.99.89.)j 09.99.99.09.99.09.99.a9.09.)j 99.99.)j 99.)j 99.a9.09.a9.a9.)j a9.)j a9.99.a9.a9.a9.a9.)j 99.a9.)j a9.)j 99.99.)j )j )j a9.09.a9.99.a9.09.99.a9.)j )j 99.99.99.99.a9.09.)j a9.99.)j a9.09.)j a9.09.)j )j 09.)j a9.)j 99.09.a9.99.09.09.a9.a9.99.a9.99.)j 89.09.09.a9.)j )j 99.)j 99.a9.89.Ab.Bb.gt fB Xy c+ +  +     @  +  @  @  .  @        @  @  +  .  .  .  .  .     +     .  .  .  +  .     .  .  @  @  .  @  .     .  .  +  ",
"@     +  @  +     +  .     .        .  .     @  +  +  .  .  .     .     +     @  +  .  .     +  +     @  .  @     +  ++ H. #_ +_ 1_ Kd Ld w5 Kd w5 Ad Ld <P <P <P w5 w5 <P Ld Ad Ld tw <P Bd w5 w5 <P w5 Ad w5 w5 Ad tw Ld <P w5 Ad w5 Ld Ld Ld Ld Ld <P Ld w5 <P Ld <P Ld Ld Bd Bd <P tw <P Ld w5 Ld Ad w5 w5 (s <P Ld Ld w5 w5 Ld <P <P w5 Ld Ad tw <P (s w5 Ad Bd (s <P <P w5 <P w5 Ad Kd Ld Ad <P tw w5 w5 w5 w5 Ad <P <P Ad Ld <P (s Ld <P Ld Ld Kd tw Kd Bd w5 w5 Ad tw <P Ld w5 <P w5 w5 (s w5 w5 Ld w5 w5 <P Ad Ad (s <P (s Ld <P Ld <P <P Ad <P Ad Ld Ad Ad w5 Kd Bd w5 Ad Kd <P Ad <P tw Ld Ld tw <P Ad w5 w5 Ld Ld Bd w5 Ld Ld Bd w5 w5 <P Ad Ad Kd w5 Kd Ld Ld tw w5 tw w5 Kd w5 w5 <P Ad w5 <P Ld tw Ad Ld Ad w5 Ad w5 w5 Ad tw Ld Ld Ld w5 Ad tw <P Kd Kd Ad <P w5 <P <P w5 Bd Ad w5 Ld <P w5 <P w5 Bd Ad Ld <P Ld Ld Ad (s w5 Kd <P Bd Ad Ad Ad Ld Ad w5 Bd Ld w5 Bd Ad Ad Ld Bd <P w5 w5 (s w5 Ld <P tw Ad <P <P <P Bd Ld <P Kd w5 Ad Ld <P <P <P w5 w5 <P Ld Ad Ld tw <P Bd w5 w5 <P w5 Ad w5 w5 Ad tw Ld <P w5 Ad w5 Ld Ld Ld Ld Ld <P Ld w5 <P Ld <P Ld Ld Bd Bd <P tw <P Ld w5 Ld Ad w5 w5 (s <P Ld Ld w5 w5 Ld <P <P w5 Ld Ad tw <P (s w5 Ad Bd (s <P <P w5 <P w5 Ad Kd Ld Ad <P tw w5 w5 w5 w5 Ad <P <P Ad Ld <P (s Ld <P Ld Ld Kd tw Kd Bd w5 w5 Ad tw <P Ld w5 <P w5 w5 (s w5 w5 Ld w5 w5 <P Ad Ad (s <P (s Ld <P Ld <P <P Ad <P Ad Ld Ad Ad w5 Kd Bd w5 Ad Kd <P Ad <P tw Ld Ld tw <P Ad w5 w5 Ld Ld Bd w5 Ld Ld Bd w5 w5 <P Ad Qe vY !_ Cb.S$ +  @  @     @  @     @  +  .  @  +        .     .  @  .  @  @  .              @  .     +  @  @  .  +  @  +  +  @  +  .  ",
".  +     @  @  @  @  .  +  +  .     .  .     +        @     @  +  @  @  .     +     @  +  @  @  .  @        @  @  +  .     @  H. H. $_ Md $_ Z( Z( Y( Z( Y( $_ Y( Y( Md Md Y( Md Y( $_ Y( Y( Z( $_ $_ $_ $_ Z( Y( Md $_ $_ $_ Z( Md $_ $_ Z( Md Md Z( Y( Y( 2_ Md 2_ $_ $_ $_ Md y[.Md Md $_ Md Z( Y( Md Z( $_ $_ Y( $_ Y( Md Y( Md Md Y( $_ $_ $_ $_ Md Y( $_ Z( Md Md Y( Z( Md Z( Z( Md Db.Y( Md $_ Z( Md Z( $_ Z( Y( $_ Y( $_ $_ Y( Y( Md Md Z( Z( Y( Y( Y( $_ Y( $_ Z( $_ Md Z( Y( Y( $_ Z( Z( Md Md Y( Md $_ Z( $_ Y( Z( Z( Z( Z( $_ Z( $_ Md Y( $_ Z( Z( Z( Md Md Z( $_ Y( $_ $_ Y( Z( Md Md Y( Md Y( $_ Md Y( y[.$_ Y( Md Y( Md $_ $_ $_ $_ $_ Z( $_ Md Z( $_ Z( $_ $_ Z( Z( Z( $_ Z( $_ Md $_ Y( Md Md Y( Z( $_ $_ Md $_ $_ Z( Z( Md $_ Y( $_ Z( Y( Md Y( Z( Y( Z( Z( Md Z( Md Y( 2_ $_ Y( Z( $_ Md Md Md Md Y( Z( Z( Y( $_ Y( jC $_ Z( $_ $_ Md $_ Md Z( Md Md Y( $_ Z( $_ Md Z( Md Md jC Md Md $_ Md Md Z( Y( Y( Y( Z( jC $_ Z( $_ Z( Z( Y( Z( Y( $_ Y( Y( Md Md Y( Md Y( $_ Y( Y( Z( $_ $_ $_ $_ Z( Y( Md $_ $_ $_ Z( Md $_ $_ Z( Md Md Z( Y( Y( 2_ Md 2_ $_ $_ $_ Md y[.Md Md $_ Md Z( Y( Md Z( $_ $_ Y( $_ Y( Md Y( Md Md Y( $_ $_ $_ $_ Md Y( $_ Z( Md Md Y( Z( Md Z( Z( Md Db.Y( Md $_ Z( Md Z( $_ Z( Y( $_ Y( $_ $_ Y( Y( Md Md Z( Z( Y( Y( Y( $_ Y( $_ Z( $_ Md Z( Y( Y( $_ Z( Z( Md Md Y( Md $_ Z( $_ Y( Z( Z( Z( Z( $_ Z( $_ Md Y( $_ Z( Z( Z( Md Md Z( $_ Y( $_ $_ Y( Z( Md Md Y( Md Y( $_ Md Y( y[.$_ Y( Md Y( Md $_ $_ $_ $_ $_ Z( Y( Y( S$ @  +        +  +  +     +     @     .  @  @  .  +        @        +  +  @     .     +  .  @  .  +  .  +  +  @  +     .  @     ",
"   .  @  .  @                 +     @  .     .        +  +  +     +     @     .  @  @  .  +        @        +  +  @     .     +     @  +  +  .  +  +  @  +  @  +  @     +  +  @  @  @  @  @  +  +  +  +  @  +  .  @  +     @  @  @  @  +  @  @  +  @  +     @  +  @  @  .  @  @  @  @  @  +  +  .  .  +  .  @  +  @  +  +  +  +  +     +  .  @  @  +  @  +  @  +  .  +  @  @  @  @  +  .  @  @        +  @  @     +  @  @  +  +  +  @  @  @  @     @  @  @  @  @  @  @  +  +  @  +     @  +  @  +  @  .  @  @  +  @  @        @  +  @  +  @  @  +  +  @  +  +  @  +  +  @     +  @  +  @  +  .  @  +  @     +  .  @  @  +  +  +  .  +     .  @  +  @  @  +  +  .  @  +  +  @  @  .  @  @  +  @  +  +  +  +  +     +  @  @  +  @  +  +  +  @  @  +     +     @  +  +  @  @  +  @  +  @  @  +  @  @  +  @  .  @           @  @  +  @  @  +  @  +     @  +  +  +  @  +  @  @     .  @  @  .  +  @     @  @     +  +  @     +  @  +  +  @  +  +  .  +  +  @  +  @  +  @     +  +  @  @  @  @  @  +  +  +  +  @  +  .  @  +     @  @  @  @  +  @  @  +  @  +     @  +  @  @  .  @  @  @  @  @  +  +  .  .  +  .  @  +  @  +  +  +  +  +     +  .  @  @  +  @  +  @  +  .  +  @  @  @  @  +  .  @  @        +  @  @     +  @  @  +  +  +  @  @  @  @     @  @  @  @  @  @  @  +  +  @  +     @  +  @  +  @  .  @  @  +  @  @        @  +  @  +  @  @  +  +  @  +  +  @  +  +  @     +  @  +  @  +  .  @  +  @     +  .  @  @  +  +  +  .  +     .  @  +  +  @  +  .  .     +  +     @  .  @     +     .  +  +  +  +     +     @  .     +  +  +     @  +     .        .  +  @     .  @  .     @  .     ",
".     .        +  +  +     +     @     .  @  @  .  +        @        +  +  @     .     +  .  @  .  +  .  +  +  @  +     .  @     .  +     @  @  @  @  .  +  +  .     .  .     +        @     @  +  @  @  .     +     @  +  @  @  .  @        @  @  +  .  .  .  .  .     +     .  .  .  +  .     .  .  @  @  .  @  .     .  .  +              +  .  @           +  @        +  @  @  +  .  .     @  @           @     @  @     @  +  .  @  +        .     .  @  .  @  @  .              @  .     +  @  @  .  +  @  +  +  @  +  .  @     +  @  +     +  .     .        .  .     @  +  +  .  .  .     .     +     @  +  .  .     +  +     @  .  @     +     .  +  +  +  +     +     @  .     +  +  +     @  +     .        .  +  @     .  @  .     @  .        .  @  .  @                 +     @  .     .        +  +  +     +     @     .  @  @  .  +        @        +  +  @     .     +  .  @  .  +  .  +  +  @  +     .  @     .  +     @  @  @  @  .  +  +  .     .  .     +        @     @  +  @  @  .     +     @  +  @  @  .  @        @  @  +  .  .  .  .  .     +     .  .  .  +  .     .  .  @  @  .  @  .     .  .  +              +  .  @           +  @        +  @  @  +  .  .     @  @           @     @  @     @  +  .  @  +        .     .  @  .  @  @  .              @  .     +  @  @  .  +  @  +  +  @  +  .  @     +  @  +     +  .     .        .  .     @  +  +  .  .  .     .     +     @  +  .  .     +  +     @  .  @     +     .  +  +  +  +     +     @  .     +  +  +     @  +     .        .  +  @     .  @  .     @  .        .  @  .  @                 +     @  ",
"   .  +     @  @  @  @  .  +  +  .     .  .     +        @     @  +  @  @  .     +     @  +  @  @  .  @        @  @  +  .  .  .  .  .     +     .  .  .  +  .     .  .  @  @  .  @  .     .  .  +              +  .  @           +  @        +  @  @  +  .  .     @  @           @     @  @     @  +  .  @  +        .     .  @  .  @  @  .              @  .     +  @  @  .  +  @  +  +  @  +  .  @     +  @  +     +  .     .        .  .     @  +  +  .  .  .     .     +     @  +  .  .     +  +     @  .  @     +     .  +  +  +  +     +     @  .     +  +  +     @  +     .        .  +  @     .  @  .     @  .        .  @  .  @                 +     @  .     .        +  +  +     +     @     .  @  @  .  +        @        +  +  @     .     +  .  @  .  +  .  +  +  @  +     .  @     .  +     @  @  @  @  .  +  +  .     .  .     +        @     @  +  @  @  .     +     @  +  @  @  .  @        @  @  +  .  .  .  .  .     +     .  .  .  +  .     .  .  @  @  .  @  .     .  .  +              +  .  @           +  @        +  @  @  +  .  .     @  @           @     @  @     @  +  .  @  +        .     .  @  .  @  @  .              @  .     +  @  @  .  +  @  +  +  @  +  .  @     +  @  +     +  .     .        .  .     @  +  +  .  .  .     .     +     @  +  .  .     +  +     @  .  @     +     .  +  +  +  +     +     @  .     +  +  +     @  +     .        .  +  @     .  @  .     @  .        .  @  .  @                 +     @  .     .        +  +  +     +     @     .  @  @  .  +        @        +  +  @     .     +  .  @  .  +  .  +  +  @  +     .  @  ",
"@  .  @                 +     @  .     .        +  +  +     +     @     .  @  @  .  +        @        +  +  @     .     +  .  @  .  +  .  +  +  @  +     .  @     .  +     @  @  @  @  .  +  +  .     .  .     +        @     @  +  @  @  .     +     @  +  @  @  .  @        @  @  +  .  .  .  .  .     +     .  .  .  +  .     .  .  @  @  .  @  .     .  .  +              +  .  @           +  @        +  @  @  +  .  .     @  @           @     @  @     @  +  .  @  +        .     .  @  .  @  @  .              @  .     +  @  @  .  +  @  +  +  @  +  .  @     +  @  +     +  .     .        .  .     @  +  +  .  .  .     .     +     @  +  .  .     +  +     @  .  @     +     .  +  +  +  +     +     @  .     +  +  +     @  +     .        .  +  @     .  @  .     @  .        .  @  .  @                 +     @  .     .        +  +  +     +     @     .  @  @  .  +        @        +  +  @     .     +  .  @  .  +  .  +  +  @  +     .  @     .  +     @  @  @  @  .  +  +  .     .  .     +        @     @  +  @  @  .     +     @  +  @  @  .  @        @  @  +  .  .  .  .  .     +     .  .  .  +  .     .  .  @  @  .  @  .     .  .  +              +  .  @           +  @        +  @  @  +  .  .     @  @           @     @  @     @  +  .  @  +        .     .  @  .  @  @  .              @  .     +  @  @  .  +  @  +  +  @  +  .  @     +  @  +     +  .     .        .  .     @  +  +  .  .  .     .     +     @  +  .  .     +  +     @  .  @     +     .  +  +  +  +     +     @  .     +  +  +     @  +     .        .  +  @     .  @  .     @  .        .  ",
"      @     @  @     @  +  .  @  +        .     .  @  .  @  @  .              @  .     +  @  @  .  +  @  +  +  @  +  .  @     +  @  +     +  .     .        .  .     @  +  +  .  .  .     .     +     @  +  .  .     +  +     @  .  @     +     .  +  +  +  +     +     @  .     +  +  +     @  +     .        .  +  @     .  @  .     @  .        .  @  .  @                 +     @  .     .        +  +  +     +     @     .  @  @  .  +        @        +  +  @     .     +  .  @  .  +  .  +  +  @  +     .  @     .  +     @  @  @  @  .  +  +  .     .  .     +        @     @  +  @  @  .     +     @  +  @  @  .  @        @  @  +  .  .  .  .  .     +     .  .  .  +  .     .  .  @  @  .  @  .     .  .  +              +  .  @           +  @        +  @  @  +  .  .     @  @           @     @  @     @  +  .  @  +        .     .  @  .  @  @  .              @  .     +  @  @  .  +  @  +  +  @  +  .  @     +  @  +     +  .     .        .  .     @  +  +  .  .  .     .     +     @  +  .  .     +  +     @  .  @     +     .  +  +  +  +     +     @  .     +  +  +     @  +     .        .  +  @     .  @  .     @  .        .  @  .  @                 +     @  .     .        +  +  +     +     @     .  @  @  .  +        @        +  +  @     .     +  .  @  .  +  .  +  +  @  +     .  @     .  +     @  @  @  @  .  +  +  .     .  .     +        @     @  +  @  @  .     +     @  +  @  @  .  @        @  @  +  .  .  .  .  .     +     .  .  .  +  .     .  .  @  @  .  @  .     .  .  +              +  .  @           +  @        +  @  @  +  .  .     @  @     ",
"+     @  +  @  @  .  @        @  @  +  .  .  .  .  .     +     .  .  .  +  .     .  .  @  @  .  @  .     .  .  +              +  .  @           +  @        +  @  @  +  .  .     @  @           @     @  @     @  +  .  @  +        .     .  @  .  @  @  .              @  .     +  @  @  .  +  @  +  +  @  +  .  @     +  @  +     +  .     .        .  .     @  +  +  .  .  .     .     +     @  +  .  .     +  +     @  .  @     +     .  +  +  +  +     +     @  .     +  +  +     @  +     .        .  +  @     .  @  .     @  .        .  @  .  @                 +     @  .     .        +  +  +     +     @     .  @  @  .  +        @        +  +  @     .     +  .  @  .  +  .  +  +  @  +     .  @     .  +     @  @  @  @  .  +  +  .     .  .     +        @     @  +  @  @  .     +     @  +  @  @  .  @        @  @  +  .  .  .  .  .     +     .  .  .  +  .     .  .  @  @  .  @  .     .  .  +              +  .  @           +  @        +  @  @  +  .  .     @  @           @     @  @     @  +  .  @  +        .     .  @  .  @  @  .              @  .     +  @  @  .  +  @  +  +  @  +  .  @     +  @  +     +  .     .        .  .     @  +  +  .  .  .     .     +     @  +  .  .     +  +     @  .  @     +     .  +  +  +  +     +     @  .     +  +  +     @  +     .        .  +  @     .  @  .     @  .        .  @  .  @                 +     @  .     .        +  +  +     +     @     .  @  @  .  +        @        +  +  @     .     +  .  @  .  +  .  +  +  @  +     .  @     .  +     @  @  @  @  .  +  +  .     .  .     +        @     @  +  @  @  .     ",
"@  @  +  .  .  .  .  .     +     .  .  .  +  .     .  .  @  @  .  @  .     .  .  +              +  .  @           +  @        +  @  @  +  .  .     @  @           @     @  @     @  +  .  @  +        .     .  @  .  @  @  .              @  .     +  @  @  .  +  @  +  +  @  +  .  @     +  @  +     +  .     .        .  .     @  +  +  .  .  .     .     +     @  +  .  .     +  +     @  .  @     +     .  +  +  +  +     +     @  .     +  +  +     @  +     .        .  +  @     .  @  .     @  .        .  @  .  @                 +     @  .     .        +  +  +     +     @     .  @  @  .  +        @        +  +  @     .     +  .  @  .  +  .  +  +  @  +     .  @     .  +     @  @  @  @  .  +  +  .     .  .     +        @     @  +  @  @  .     +     @  +  @  @  .  @        @  @  +  .  .  .  .  .     +     .  .  .  +  .     .  .  @  @  .  @  .     .  .  +              +  .  @           +  @        +  @  @  +  .  .     @  @           @     @  @     @  +  .  @  +        .     .  @  .  @  @  .              @  .     +  @  @  .  +  @  +  +  @  +  .  @     +  @  +     +  .     .        .  .     @  +  +  .  .  .     .     +     @  +  .  .     +  +     @  .  @     +     .  +  +  +  +     +     @  .     +  +  +     @  +     .        .  +  @     .  @  .     @  .        .  @  .  @                 +     @  .     .        +  +  +     +     @     .  @  @  .  +        @        +  +  @     .     +  .  @  .  +  .  +  +  @  +     .  @     .  +     @  @  @  @  .  +  +  .     .  .     +        @     @  +  @  @  .     +     @  +  @  @  .  @        ",
"+  +  @  +  .  @     +  @  +     +  .     .        .  .     @  +  +  .  .  .     .     +     @  +  .  .     +  +     @  .  @     +     .  +  +  +  +     +     @  .     +  +  +     @  +     .        .  +  @     .  @  .     @  .        .  @  .  @                 +     @  .     .        +  +  +     +     @     .  @  @  .  +        @        +  +  @     .     +  .  @  .  +  .  +  +  @  +     .  @     .  +     @  @  @  @  .  +  +  .     .  .     +        @     @  +  @  @  .     +     @  +  @  @  .  @        @  @  +  .  .  .  .  .     +     .  .  .  +  .     .  .  @  @  .  @  .     .  .  +              +  .  @           +  @        +  @  @  +  .  .     @  @           @     @  @     @  +  .  @  +        .     .  @  .  @  @  .              @  .     +  @  @  .  +  @  +  +  @  +  .  @     +  @  +     +  .     .        .  .     @  +  +  .  .  .     .     +     @  +  .  .     +  +     @  .  @     +     .  +  +  +  +     +     @  .     +  +  +     @  +     .        .  +  @     .  @  .     @  .        .  @  .  @                 +     @  .     .        +  +  +     +     @     .  @  @  .  +        @        +  +  @     .     +  .  @  .  +  .  +  +  @  +     .  @     .  +     @  @  @  @  .  +  +  .     .  .     +        @     @  +  @  @  .     +     @  +  @  @  .  @        @  @  +  .  .  .  .  .     +     .  .  .  +  .     .  .  @  @  .  @  .     .  .  +              +  .  @           +  @        +  @  @  +  .  .     @  @           @     @  @     @  +  .  @  +        .     .  @  .  @  @  .              @  .     +  @  @  .  +  @  ",
"   @  @  @  @  .  +  +  .     .  .     +        @     @  +  @  @  .     +     @  +  @  @  .  @        @  @  +  .  .  .  .  .     +     .  .  .  +  .     .  .  @  @  .  @  .     .  .  +              +  .  @           +  @        +  @  @  +  .  .     @  @           @     @  @     @  +  .  @  +        .     .  @  .  @  @  .              @  .     +  @  @  .  +  @  +  +  @  +  .  @     +  @  +     +  .     .        .  .     @  +  +  .  .  .     .     +     @  +  .  .     +  +     @  .  @     +     .  +  +  +  +     +     @  .     +  +  +     @  +     .        .  +  @     .  @  .     @  .        .  @  .  @                 +     @  .     .        +  +  +     +     @     .  @  @  .  +        @        +  +  @     .     +  .  @  .  +  .  +  +  @  +     .  @     .  +     @  @  @  @  .  +  +  .     .  .     +        @     @  +  @  @  .     +     @  +  @  @  .  @        @  @  +  .  .  .  .  .     +     .  .  .  +  .     .  .  @  @  .  @  .     .  .  +              +  .  @           +  @        +  @  @  +  .  .     @  @           @     @  @     @  +  .  @  +        .     .  @  .  @  @  .              @  .     +  @  @  .  +  @  +  +  @  +  .  @     +  @  +     +  .     .        .  .     @  +  +  .  .  .     .     +     @  +  .  .     +  +     @  .  @     +     .  +  +  +  +     +     @  .     +  +  +     @  +     .        .  +  @     .  @  .     @  .        .  @  .  @                 +     @  .     .        +  +  +     +     @     .  @  @  .  +        @        +  +  @     .     +  .  @  .  +  .  +  +  @  +     .  @     .  +  ",
".  .  .     .     +     @  +  .  .     +  +     @  .  @     +     .  +  +  +  +     +     @  .     +  +  +     @  +     .        .  +  @     .  @  .     @  .        .  @  .  @                 +     @  .     .        +  +  +     +     @     .  @  @  .  +        @        +  +  @     .     +  .  @  .  +  .  +  +  @  +     .  @     .  +     @  @  @  @  .  +  +  .     .  .     +        @     @  +  @  @  .     +     @  +  @  @  .  @        @  @  +  .  .  .  .  .     +     .  .  .  +  .     .  .  @  @  .  @  .     .  .  +              +  .  @           +  @        +  @  @  +  .  .     @  @           @     @  @     @  +  .  @  +        .     .  @  .  @  @  .              @  .     +  @  @  .  +  @  +  +  @  +  .  @     +  @  +     +  .     .        .  .     @  +  +  .  .  .     .     +     @  +  .  .     +  +     @  .  @     +     .  +  +  +  +     +     @  .     +  +  +     @  +     .        .  +  @     .  @  .     @  .        .  @  .  @                 +     @  .     .        +  +  +     +     @     .  @  @  .  +        @        +  +  @     .     +  .  @  .  +  .  +  +  @  +     .  @     .  +     @  @  @  @  .  +  +  .     .  .     +        @     @  +  @  @  .     +     @  +  @  @  .  @        @  @  +  .  .  .  .  .     +     .  .  .  +  .     .  .  @  @  .  @  .     .  .  +              +  .  @           +  @        +  @  @  +  .  .     @  @           @     @  @     @  +  .  @  +        .     .  @  .  @  @  .              @  .     +  @  @  .  +  @  +  +  @  +  .  @     +  @  +     +  .     .        .  .     @  +  +  ",
"         @  .     +  @  @  .  +  @  +  +  @  +  .  @     +  @  +     +  .     .        .  .     @  +  +  .  .  .     .     +     @  +  .  .     +  +     @  .  @     +     .  +  +  +  +     +     @  .     +  +  +     @  +     .        .  +  @     .  @  .     @  .        .  @  .  @                 +     @  .     .        +  +  +     +     @     .  @  @  .  +        @        +  +  @     .     +  .  @  .  +  .  +  +  @  +     .  @     .  +     @  @  @  @  .  +  +  .     .  .     +        @     @  +  @  @  .     +     @  +  @  @  .  @        @  @  +  .  .  .  .  .     +     .  .  .  +  .     .  .  @  @  .  @  .     .  .  +              +  .  @           +  @        +  @  @  +  .  .     @  @           @     @  @     @  +  .  @  +        .     .  @  .  @  @  .              @  .     +  @  @  .  +  @  +  +  @  +  .  @     +  @  +     +  .     .        .  .     @  +  +  .  .  .     .     +     @  +  .  .     +  +     @  .  @     +     .  +  +  +  +     +     @  .     +  +  +     @  +     .        .  +  @     .  @  .     @  .        .  @  .  @                 +     @  .     .        +  +  +     +     @     .  @  @  .  +        @        +  +  @     .     +  .  @  .  +  .  +  +  @  +     .  @     .  +     @  @  @  @  .  +  +  .     .  .     +        @     @  +  @  @  .     +     @  +  @  @  .  @        @  @  +  .  .  .  .  .     +     .  .  .  +  .     .  .  @  @  .  @  .     .  .  +              +  .  @           +  @        +  @  @  +  .  .     @  @           @     @  @     @  +  .  @  +        .     .  @  .  @  @  .     ",
"   +  .     .        .  .     @  +  +  .  .  .     .     +     @  +  .  .     +  +     @  .  @     +     .  +  +  +  +     +     @  .     +  +  +     @  +     .        .  +  @     .  @  .     @  .        .  @  .  @                 +     @  .     .        +  +  +     +     @     .  @  @  .  +        @        +  +  @     .     +  .  @  .  +  .  +  +  @  +     .  @     .  +     @  @  @  @  .  +  +  .     .  .     +        @     @  +  @  @  .     +     @  +  @  @  .  @        @  @  +  .  .  .  .  .     +     .  .  .  +  .     .  .  @  @  .  @  .     .  .  +              +  .  @           +  @        +  @  @  +  .  .     @  @           @     @  @     @  +  .  @  +        .     .  @  .  @  @  .              @  .     +  @  @  .  +  @  +  +  @  +  .  @     +  @  +     +  .     .        .  .     @  +  +  .  .  .     .     +     @  +  .  .     +  +     @  .  @     +     .  +  +  +  +     +     @  .     +  +  +     @  +     .        .  +  @     .  @  .     @  .        .  @  .  @                 +     @  .     .        +  +  +     +     @     .  @  @  .  +        @        +  +  @     .     +  .  @  .  +  .  +  +  @  +     .  @     .  +     @  @  @  @  .  +  +  .     .  .     +        @     @  +  @  @  .     +     @  +  @  @  .  @        @  @  +  .  .  .  .  .     +     .  .  .  +  .     .  .  @  @  .  @  .     .  .  +              +  .  @           +  @        +  @  @  +  .  .     @  @           @     @  @     @  +  .  @  +        .     .  @  .  @  @  .              @  .     +  @  @  .  +  @  +  +  @  +  .  @     +  @  +  ",
".  .     @  +  +  .  .  .     .     +     @  +  .  .     +  +     @  .  @     +     .  +  +  +  +     +     @  .     +  +  +     @  +     .        .  +  @     .  @  .     @  .        .  @  .  @                 +     @  .     .        +  +  +     +     @     .  @  @  .  +        @        +  +  @     .     +  .  @  .  +  .  +  +  @  +     .  @     .  +     @  @  @  @  .  +  +  .     .  .     +        @     @  +  @  @  .     +     @  +  @  @  .  @        @  @  +  .  .  .  .  .     +     .  .  .  +  .     .  .  @  @  .  @  .     .  .  +              +  .  @           +  @        +  @  @  +  .  .     @  @           @     @  @     @  +  .  @  +        .     .  @  .  @  @  .              @  .     +  @  @  .  +  @  +  +  @  +  .  @     +  @  +     +  .     .        .  .     @  +  +  .  .  .     .     +     @  +  .  .     +  +     @  .  @     +     .  +  +  +  +     +     @  .     +  +  +     @  +     .        .  +  @     .  @  .     @  .        .  @  .  @                 +     @  .     .        +  +  +     +     @     .  @  @  .  +        @        +  +  @     .     +  .  @  .  +  .  +  +  @  +     .  @     .  +     @  @  @  @  .  +  +  .     .  .     +        @     @  +  @  @  .     +     @  +  @  @  .  @        @  @  +  .  .  .  .  .     +     .  .  .  +  .     .  .  @  @  .  @  .     .  .  +              +  .  @           +  @        +  @  @  +  .  .     @  @           @     @  @     @  +  .  @  +        .     .  @  .  @  @  .              @  .     +  @  @  .  +  @  +  +  @  +  .  @     +  @  +     +  .     .        ",
"+              +  .  @           +  @        +  @  @  +  .  .     @  @           @     @  @     @  +  .  @  +        .     .  @  .  @  @  .              @  .     +  @  @  .  +  @  +  +  @  +  .  @     +  @  +     +  .     .        .  .     @  +  +  .  .  .     .     +     @  +  .  .     +  +     @  .  @     +     .  +  +  +  +     +     @  .     +  +  +     @  +     .        .  +  @     .  @  .     @  .        .  @  .  @                 +     @  .     .        +  +  +     +     @     .  @  @  .  +        @        +  +  @     .     +  .  @  .  +  .  +  +  @  +     .  @     .  +     @  @  @  @  .  +  +  .     .  .     +        @     @  +  @  @  .     +     @  +  @  @  .  @        @  @  +  .  .  .  .  .     +     .  .  .  +  .     .  .  @  @  .  @  .     .  .  +              +  .  @           +  @        +  @  @  +  .  .     @  @           @     @  @     @  +  .  @  +        .     .  @  .  @  @  .              @  .     +  @  @  .  +  @  +  +  @  +  .  @     +  @  +     +  .     .        .  .     @  +  +  .  .  .     .     +     @  +  .  .     +  +     @  .  @     +     .  +  +  +  +     +     @  .     +  +  +     @  +     .        .  +  @     .  @  .     @  .        .  @  .  @                 +     @  .     .        +  +  +     +     @     .  @  @  .  +        @        +  +  @     .     +  .  @  .  +  .  +  +  @  +     .  @     .  +     @  @  @  @  .  +  +  .     .  .     +        @     @  +  @  @  .     +     @  +  @  @  .  @        @  @  +  .  .  .  .  .     +     .  .  .  +  .     .  .  @  @  .  @  .     .  .  ",
"@  +  @  @  .  @        @  @  +  .  .  .  .  .     +     .  .  .  +  .     .  .  @  @  .  @  .     .  .  +              +  .  @           +  @        +  @  @  +  .  .     @  @           @     @  @     @  +  .  @  +        .     .  @  .  @  @  .              @  .     +  @  @  .  +  @  +  +  @  +  .  @     +  @  +     +  .     .        .  .     @  +  +  .  .  .     .     +     @  +  .  .     +  +     @  .  @     +     .  +  +  +  +     +     @  .     +  +  +     @  +     .        .  +  @     .  @  .     @  .        .  @  .  @                 +     @  .     .        +  +  +     +     @     .  @  @  .  +        @        +  +  @     .     +  .  @  .  +  .  +  +  @  +     .  @     .  +     @  @  @  @  .  +  +  .     .  .     +        @     @  +  @  @  .     +     @  +  @  @  .  @        @  @  +  .  .  .  .  .     +     .  .  .  +  .     .  .  @  @  .  @  .     .  .  +              +  .  @           +  @        +  @  @  +  .  .     @  @           @     @  @     @  +  .  @  +        .     .  @  .  @  @  .              @  .     +  @  @  .  +  @  +  +  @  +  .  @     +  @  +     +  .     .        .  .     @  +  +  .  .  .     .     +     @  +  .  .     +  +     @  .  @     +     .  +  +  +  +     +     @  .     +  +  +     @  +     .        .  +  @     .  @  .     @  .        .  @  .  @                 +     @  .     .        +  +  +     +     @     .  @  @  .  +        @        +  +  @     .     +  .  @  .  +  .  +  +  @  +     .  @     .  +     @  @  @  @  .  +  +  .     .  .     +        @     @  +  @  @  .     +     ",
".  +  +  @  +     .  @     .  +     @  @  @  @  .  +  +  .     .  .     +        @     @  +  @  @  .     +     @  +  @  @  .  @        @  @  +  .  .  .  .  .     +     .  .  .  +  .     .  .  @  @  .  @  .     .  .  +              +  .  @           +  @        +  @  @  +  .  .     @  @           @     @  @     @  +  .  @  +        .     .  @  .  @  @  .              @  .     +  @  @  .  +  @  +  +  @  +  .  @     +  @  +     +  .     .        .  .     @  +  +  .  .  .     .     +     @  +  .  .     +  +     @  .  @     +     .  +  +  +  +     +     @  .     +  +  +     @  +     .        .  +  @     .  @  .     @  .        .  @  .  @                 +     @  .     .        +  +  +     +     @     .  @  @  .  +        @        +  +  @     .     +  .  @  .  +  .  +  +  @  +     .  @     .  +     @  @  @  @  .  +  +  .     .  .     +        @     @  +  @  @  .     +     @  +  @  @  .  @        @  @  +  .  .  .  .  .     +     .  .  .  +  .     .  .  @  @  .  @  .     .  .  +              +  .  @           +  @        +  @  @  +  .  .     @  @           @     @  @     @  +  .  @  +        .     .  @  .  @  @  .              @  .     +  @  @  .  +  @  +  +  @  +  .  @     +  @  +     +  .     .        .  .     @  +  +  .  .  .     .     +     @  +  .  .     +  +     @  .  @     +     .  +  +  +  +     +     @  .     +  +  +     @  +     .        .  +  @     .  @  .     @  .        .  @  .  @                 +     @  .     .        +  +  +     +     @     .  @  @  .  +        @        +  +  @     .     +  .  @  .  +  ",
"+  @  @  .     +     @  +  @  @  .  @        @  @  +  .  .  .  .  .     +     .  .  .  +  .     .  .  @  @  .  @  .     .  .  +              +  .  @           +  @        +  @  @  +  .  .     @  @           @     @  @     @  +  .  @  +        .     .  @  .  @  @  .              @  .     +  @  @  .  +  @  +  +  @  +  .  @     +  @  +     +  .     .        .  .     @  +  +  .  .  .     .     +     @  +  .  .     +  +     @  .  @     +     .  +  +  +  +     +     @  .     +  +  +     @  +     .        .  +  @     .  @  .     @  .        .  @  .  @                 +     @  .     .        +  +  +     +     @     .  @  @  .  +        @        +  +  @     .     +  .  @  .  +  .  +  +  @  +     .  @     .  +     @  @  @  @  .  +  +  .     .  .     +        @     @  +  @  @  .     +     @  +  @  @  .  @        @  @  +  .  .  .  .  .     +     .  .  .  +  .     .  .  @  @  .  @  .     .  .  +              +  .  @           +  @        +  @  @  +  .  .     @  @           @     @  @     @  +  .  @  +        .     .  @  .  @  @  .              @  .     +  @  @  .  +  @  +  +  @  +  .  @     +  @  +     +  .     .        .  .     @  +  +  .  .  .     .     +     @  +  .  .     +  +     @  .  @     +     .  +  +  +  +     +     @  .     +  +  +     @  +     .        .  +  @     .  @  .     @  .        .  @  .  @                 +     @  .     .        +  +  +     +     @     .  @  @  .  +        @        +  +  @     .     +  .  @  .  +  .  +  +  @  +     .  @     .  +     @  @  @  @  .  +  +  .     .  .     +        @     @  ",
"@  .              @  .     +  @  @  .  +  @  +  +  @  +  .  @     +  @  +     +  .     .        .  .     @  +  +  .  .  .     .     +     @  +  .  .     +  +     @  .  @     +     .  +  +  +  +     +     @  .     +  +  +     @  +     .        .  +  @     .  @  .     @  .        .  @  .  @                 +     @  .     .        +  +  +     +     @     .  @  @  .  +        @        +  +  @     .     +  .  @  .  +  .  +  +  @  +     .  @     .  +     @  @  @  @  .  +  +  .     .  .     +        @     @  +  @  @  .     +     @  +  @  @  .  @        @  @  +  .  .  .  .  .     +     .  .  .  +  .     .  .  @  @  .  @  .     .  .  +              +  .  @           +  @        +  @  @  +  .  .     @  @           @     @  @     @  +  .  @  +        .     .  @  .  @  @  .              @  .     +  @  @  .  +  @  +  +  @  +  .  @     +  @  +     +  .     .        .  .     @  +  +  .  .  .     .     +     @  +  .  .     +  +     @  .  @     +     .  +  +  +  +     +     @  .     +  +  +     @  +     .        .  +  @     .  @  .     @  .        .  @  .  @                 +     @  .     .        +  +  +     +     @     .  @  @  .  +        @        +  +  @     .     +  .  @  .  +  .  +  +  @  +     .  @     .  +     @  @  @  @  .  +  +  .     .  .     +        @     @  +  @  @  .     +     @  +  @  @  .  @        @  @  +  .  .  .  .  .     +     .  .  .  +  .     .  .  @  @  .  @  .     .  .  +              +  .  @           +  @        +  @  @  +  .  .     @  @           @     @  @     @  +  .  @  +        .     .  @  .  @  ",
"@  .     +     @  +  @  @  .  @        @  @  +  .  .  .  .  .     +     .  .  .  +  .     .  .  @  @  .  @  .     .  .  +              +  .  @           +  @        +  @  @  +  .  .     @  @           @     @  @     @  +  .  @  +        .     .  @  .  @  @  .              @  .     +  @  @  .  +  @  +  +  @  +  .  @     +  @  +     +  .     .        .  .     @  +  +  .  .  .     .     +     @  +  .  .     +  +     @  .  @     +     .  +  +  +  +     +     @  .     +  +  +     @  +     .        .  +  @     .  @  .     @  .        .  @  .  @                 +     @  .     .        +  +  +     +     @     .  @  @  .  +        @        +  +  @     .     +  .  @  .  +  .  +  +  @  +     .  @     .  +     @  @  @  @  .  +  +  .     .  .     +        @     @  +  @  @  .     +     @  +  @  @  .  @        @  @  +  .  .  .  .  .     +     .  .  .  +  .     .  .  @  @  .  @  .     .  .  +              +  .  @           +  @        +  @  @  +  .  .     @  @           @     @  @     @  +  .  @  +        .     .  @  .  @  @  .              @  .     +  @  @  .  +  @  +  +  @  +  .  @     +  @  +     +  .     .        .  .     @  +  +  .  .  .     .     +     @  +  .  .     +  +     @  .  @     +     .  +  +  +  +     +     @  .     +  +  +     @  +     .        .  +  @     .  @  .     @  .        .  @  .  @                 +     @  .     .        +  +  +     +     @     .  @  @  .  +        @        +  +  @     .     +  .  @  .  +  .  +  +  @  +     .  @     .  +     @  @  @  @  .  +  +  .     .  .     +        @     @  +  @  ",
"      +  +  +     +     @     .  @  @  .  +        @        +  +  @     .     +  .  @  .  +  .  +  +  @  +     .  @     .  +     @  @  @  @  .  +  +  .     .  .     +        @     @  +  @  @  .     +     @  +  @  @  .  @        @  @  +  .  .  .  .  .     +     .  .  .  +  .     .  .  @  @  .  @  .     .  .  +              +  .  @           +  @        +  @  @  +  .  .     @  @           @     @  @     @  +  .  @  +        .     .  @  .  @  @  .              @  .     +  @  @  .  +  @  +  +  @  +  .  @     +  @  +     +  .     .        .  .     @  +  +  .  .  .     .     +     @  +  .  .     +  +     @  .  @     +     .  +  +  +  +     +     @  .     +  +  +     @  +     .        .  +  @     .  @  .     @  .        .  @  .  @                 +     @  .     .        +  +  +     +     @     .  @  @  .  +        @        +  +  @     .     +  .  @  .  +  .  +  +  @  +     .  @     .  +     @  @  @  @  .  +  +  .     .  .     +        @     @  +  @  @  .     +     @  +  @  @  .  @        @  @  +  .  .  .  .  .     +     .  .  .  +  .     .  .  @  @  .  @  .     .  .  +              +  .  @           +  @        +  @  @  +  .  .     @  @           @     @  @     @  +  .  @  +        .     .  @  .  @  @  .              @  .     +  @  @  .  +  @  +  +  @  +  .  @     +  @  +     +  .     .        .  .     @  +  +  .  .  .     .     +     @  +  .  .     +  +     @  .  @     +     .  +  +  +  +     +     @  .     +  +  +     @  +     .        .  +  @     .  @  .     @  .        .  @  .  @                 +     @  .     .  ",
".  @           +  @        +  @  @  +  .  .     @  @           @     @  @     @  +  .  @  +        .     .  @  .  @  @  .              @  .     +  @  @  .  +  @  +  +  @  +  .  @     +  @  +     +  .     .        .  .     @  +  +  .  .  .     .     +     @  +  .  .     +  +     @  .  @     +     .  +  +  +  +     +     @  .     +  +  +     @  +     .        .  +  @     .  @  .     @  .        .  @  .  @                 +     @  .     .        +  +  +     +     @     .  @  @  .  +        @        +  +  @     .     +  .  @  .  +  .  +  +  @  +     .  @     .  +     @  @  @  @  .  +  +  .     .  .     +        @     @  +  @  @  .     +     @  +  @  @  .  @        @  @  +  .  .  .  .  .     +     .  .  .  +  .     .  .  @  @  .  @  .     .  .  +              +  .  @           +  @        +  @  @  +  .  .     @  @           @     @  @     @  +  .  @  +        .     .  @  .  @  @  .              @  .     +  @  @  .  +  @  +  +  @  +  .  @     +  @  +     +  .     .        .  .     @  +  +  .  .  .     .     +     @  +  .  .     +  +     @  .  @     +     .  +  +  +  +     +     @  .     +  +  +     @  +     .        .  +  @     .  @  .     @  .        .  @  .  @                 +     @  .     .        +  +  +     +     @     .  @  @  .  +        @        +  +  @     .     +  .  @  .  +  .  +  +  @  +     .  @     .  +     @  @  @  @  .  +  +  .     .  .     +        @     @  +  @  @  .     +     @  +  @  @  .  @        @  @  +  .  .  .  .  .     +     .  .  .  +  .     .  .  @  @  .  @  .     .  .  +              +  ",
"@  @  @  .  +  +  .     .  .     +        @     @  +  @  @  .     +     @  +  @  @  .  @        @  @  +  .  .  .  .  .     +     .  .  .  +  .     .  .  @  @  .  @  .     .  .  +              +  .  @           +  @        +  @  @  +  .  .     @  @           @     @  @     @  +  .  @  +        .     .  @  .  @  @  .              @  .     +  @  @  .  +  @  +  +  @  +  .  @     +  @  +     +  .     .        .  .     @  +  +  .  .  .     .     +     @  +  .  .     +  +     @  .  @     +     .  +  +  +  +     +     @  .     +  +  +     @  +     .        .  +  @     .  @  .     @  .        .  @  .  @                 +     @  .     .        +  +  +     +     @     .  @  @  .  +        @        +  +  @     .     +  .  @  .  +  .  +  +  @  +     .  @     .  +     @  @  @  @  .  +  +  .     .  .     +        @     @  +  @  @  .     +     @  +  @  @  .  @        @  @  +  .  .  .  .  .     +     .  .  .  +  .     .  .  @  @  .  @  .     .  .  +              +  .  @           +  @        +  @  @  +  .  .     @  @           @     @  @     @  +  .  @  +        .     .  @  .  @  @  .              @  .     +  @  @  .  +  @  +  +  @  +  .  @     +  @  +     +  .     .        .  .     @  +  +  .  .  .     .     +     @  +  .  .     +  +     @  .  @     +     .  +  +  +  +     +     @  .     +  +  +     @  +     .        .  +  @     .  @  .     @  .        .  @  .  @                 +     @  .     .        +  +  +     +     @     .  @  @  .  +        @        +  +  @     .     +  .  @  .  +  .  +  +  @  +     .  @     .  +     @  ",
".  .  +  .     .  .  @  @  .  @  .     .  .  +              +  .  @           +  @        +  @  @  +  .  .     @  @           @     @  @     @  +  .  @  +        .     .  @  .  @  @  .              @  .     +  @  @  .  +  @  +  +  @  +  .  @     +  @  +     +  .     .        .  .     @  +  +  .  .  .     .     +     @  +  .  .     +  +     @  .  @     +     .  +  +  +  +     +     @  .     +  +  +     @  +     .        .  +  @     .  @  .     @  .        .  @  .  @                 +     @  .     .        +  +  +     +     @     .  @  @  .  +        @        +  +  @     .     +  .  @  .  +  .  +  +  @  +     .  @     .  +     @  @  @  @  .  +  +  .     .  .     +        @     @  +  @  @  .     +     @  +  @  @  .  @        @  @  +  .  .  .  .  .     +     .  .  .  +  .     .  .  @  @  .  @  .     .  .  +              +  .  @           +  @        +  @  @  +  .  .     @  @           @     @  @     @  +  .  @  +        .     .  @  .  @  @  .              @  .     +  @  @  .  +  @  +  +  @  +  .  @     +  @  +     +  .     .        .  .     @  +  +  .  .  .     .     +     @  +  .  .     +  +     @  .  @     +     .  +  +  +  +     +     @  .     +  +  +     @  +     .        .  +  @     .  @  .     @  .        .  @  .  @                 +     @  .     .        +  +  +     +     @     .  @  @  .  +        @        +  +  @     .     +  .  @  .  +  .  +  +  @  +     .  @     .  +     @  @  @  @  .  +  +  .     .  .     +        @     @  +  @  @  .     +     @  +  @  @  .  @        @  @  +  .  .  .  .  .     +     .  ",
"   +  @  @  .  +  @  +  +  @  +  .  @     +  @  +     +  .     .        .  .     @  +  +  .  .  .     .     +     @  +  .  .     +  +     @  .  @     +     .  +  +  +  +     +     @  .     +  +  +     @  +     .        .  +  @     .  @  .     @  .        .  @  .  @                 +     @  .     .        +  +  +     +     @     .  @  @  .  +        @        +  +  @     .     +  .  @  .  +  .  +  +  @  +     .  @     .  +     @  @  @  @  .  +  +  .     .  .     +        @     @  +  @  @  .     +     @  +  @  @  .  @        @  @  +  .  .  .  .  .     +     .  .  .  +  .     .  .  @  @  .  @  .     .  .  +              +  .  @           +  @        +  @  @  +  .  .     @  @           @     @  @     @  +  .  @  +        .     .  @  .  @  @  .              @  .     +  @  @  .  +  @  +  +  @  +  .  @     +  @  +     +  .     .        .  .     @  +  +  .  .  .     .     +     @  +  .  .     +  +     @  .  @     +     .  +  +  +  +     +     @  .     +  +  +     @  +     .        .  +  @     .  @  .     @  .        .  @  .  @                 +     @  .     .        +  +  +     +     @     .  @  @  .  +        @        +  +  @     .     +  .  @  .  +  .  +  +  @  +     .  @     .  +     @  @  @  @  .  +  +  .     .  .     +        @     @  +  @  @  .     +     @  +  @  @  .  @        @  @  +  .  .  .  .  .     +     .  .  .  +  .     .  .  @  @  .  @  .     .  .  +              +  .  @           +  @        +  @  @  +  .  .     @  @           @     @  @     @  +  .  @  +        .     .  @  .  @  @  .              @  .  ",
"+     @     .  @  @  .  +        @        +  +  @     .     +  .  @  .  +  .  +  +  @  +     .  @     .  +     @  @  @  @  .  +  +  .     .  .     +        @     @  +  @  @  .     +     @  +  @  @  .  @        @  @  +  .  .  .  .  .     +     .  .  .  +  .     .  .  @  @  .  @  .     .  .  +              +  .  @           +  @        +  @  @  +  .  .     @  @           @     @  @     @  +  .  @  +        .     .  @  .  @  @  .              @  .     +  @  @  .  +  @  +  +  @  +  .  @     +  @  +     +  .     .        .  .     @  +  +  .  .  .     .     +     @  +  .  .     +  +     @  .  @     +     .  +  +  +  +     +     @  .     +  +  +     @  +     .        .  +  @     .  @  .     @  .        .  @  .  @                 +     @  .     .        +  +  +     +     @     .  @  @  .  +        @        +  +  @     .     +  .  @  .  +  .  +  +  @  +     .  @     .  +     @  @  @  @  .  +  +  .     .  .     +        @     @  +  @  @  .     +     @  +  @  @  .  @        @  @  +  .  .  .  .  .     +     .  .  .  +  .     .  .  @  @  .  @  .     .  .  +              +  .  @           +  @        +  @  @  +  .  .     @  @           @     @  @     @  +  .  @  +        .     .  @  .  @  @  .              @  .     +  @  @  .  +  @  +  +  @  +  .  @     +  @  +     +  .     .        .  .     @  +  +  .  .  .     .     +     @  +  .  .     +  +     @  .  @     +     .  +  +  +  +     +     @  .     +  +  +     @  +     .        .  +  @     .  @  .     @  .        .  @  .  @                 +     @  .     .        +  +  +     ",
".        .  @  .  @                 +     @  .     .        +  +  +     +     @     .  @  @  .  +        @        +  +  @     .     +  .  @  .  +  .  +  +  @  +     .  @     .  +     @  @  @  @  .  +  +  .     .  .     +        @     @  +  @  @  .     +     @  +  @  @  .  @        @  @  +  .  .  .  .  .     +     .  .  .  +  .     .  .  @  @  .  @  .     .  .  +              +  .  @           +  @        +  @  @  +  .  .     @  @           @     @  @     @  +  .  @  +        .     .  @  .  @  @  .              @  .     +  @  @  .  +  @  +  +  @  +  .  @     +  @  +     +  .     .        .  .     @  +  +  .  .  .     .     +     @  +  .  .     +  +     @  .  @     +     .  +  +  +  +     +     @  .     +  +  +     @  +     .        .  +  @     .  @  .     @  .        .  @  .  @                 +     @  .     .        +  +  +     +     @     .  @  @  .  +        @        +  +  @     .     +  .  @  .  +  .  +  +  @  +     .  @     .  +     @  @  @  @  .  +  +  .     .  .     +        @     @  +  @  @  .     +     @  +  @  @  .  @        @  @  +  .  .  .  .  .     +     .  .  .  +  .     .  .  @  @  .  @  .     .  .  +              +  .  @           +  @        +  @  @  +  .  .     @  @           @     @  @     @  +  .  @  +        .     .  @  .  @  @  .              @  .     +  @  @  .  +  @  +  +  @  +  .  @     +  @  +     +  .     .        .  .     @  +  +  .  .  .     .     +     @  +  .  .     +  +     @  .  @     +     .  +  +  +  +     +     @  .     +  +  +     @  +     .        .  +  @     .  @  .     @  ",
"@  .     @  .        .  @  .  @                 +     @  .     .        +  +  +     +     @     .  @  @  .  +        @        +  +  @     .     +  .  @  .  +  .  +  +  @  +     .  @     .  +     @  @  @  @  .  +  +  .     .  .     +        @     @  +  @  @  .     +     @  +  @  @  .  @        @  @  +  .  .  .  .  .     +     .  .  .  +  .     .  .  @  @  .  @  .     .  .  +              +  .  @           +  @        +  @  @  +  .  .     @  @           @     @  @     @  +  .  @  +        .     .  @  .  @  @  .              @  .     +  @  @  .  +  @  +  +  @  +  .  @     +  @  +     +  .     .        .  .     @  +  +  .  .  .     .     +     @  +  .  .     +  +     @  .  @     +     .  +  +  +  +     +     @  .     +  +  +     @  +     .        .  +  @     .  @  .     @  .        .  @  .  @                 +     @  .     .        +  +  +     +     @     .  @  @  .  +        @        +  +  @     .     +  .  @  .  +  .  +  +  @  +     .  @     .  +     @  @  @  @  .  +  +  .     .  .     +        @     @  +  @  @  .     +     @  +  @  @  .  @        @  @  +  .  .  .  .  .     +     .  .  .  +  .     .  .  @  @  .  @  .     .  .  +              +  .  @           +  @        +  @  @  +  .  .     @  @           @     @  @     @  +  .  @  +        .     .  @  .  @  @  .              @  .     +  @  @  .  +  @  +  +  @  +  .  @     +  @  +     +  .     .        .  .     @  +  +  .  .  .     .     +     @  +  .  .     +  +     @  .  @     +     .  +  +  +  +     +     @  .     +  +  +     @  +     .        .  +  @     .  ",
".  .     @  @           @     @  @     @  +  .  @  +        .     .  @  .  @  @  .              @  .     +  @  @  .  +  @  +  +  @  +  .  @     +  @  +     +  .     .        .  .     @  +  +  .  .  .     .     +     @  +  .  .     +  +     @  .  @     +     .  +  +  +  +     +     @  .     +  +  +     @  +     .        .  +  @     .  @  .     @  .        .  @  .  @                 +     @  .     .        +  +  +     +     @     .  @  @  .  +        @        +  +  @     .     +  .  @  .  +  .  +  +  @  +     .  @     .  +     @  @  @  @  .  +  +  .     .  .     +        @     @  +  @  @  .     +     @  +  @  @  .  @        @  @  +  .  .  .  .  .     +     .  .  .  +  .     .  .  @  @  .  @  .     .  .  +              +  .  @           +  @        +  @  @  +  .  .     @  @           @     @  @     @  +  .  @  +        .     .  @  .  @  @  .              @  .     +  @  @  .  +  @  +  +  @  +  .  @     +  @  +     +  .     .        .  .     @  +  +  .  .  .     .     +     @  +  .  .     +  +     @  .  @     +     .  +  +  +  +     +     @  .     +  +  +     @  +     .        .  +  @     .  @  .     @  .        .  @  .  @                 +     @  .     .        +  +  +     +     @     .  @  @  .  +        @        +  +  @     .     +  .  @  .  +  .  +  +  @  +     .  @     .  +     @  @  @  @  .  +  +  .     .  .     +        @     @  +  @  @  .     +     @  +  @  @  .  @        @  @  +  .  .  .  .  .     +     .  .  .  +  .     .  .  @  @  .  @  .     .  .  +              +  .  @           +  @        +  @  @  +  ",
"   .     +  .  @  .  +  .  +  +  @  +     .  @     .  +     @  @  @  @  .  +  +  .     .  .     +        @     @  +  @  @  .     +     @  +  @  @  .  @        @  @  +  .  .  .  .  .     +     .  .  .  +  .     .  .  @  @  .  @  .     .  .  +              +  .  @           +  @        +  @  @  +  .  .     @  @           @     @  @     @  +  .  @  +        .     .  @  .  @  @  .              @  .     +  @  @  .  +  @  +  +  @  +  .  @     +  @  +     +  .     .        .  .     @  +  +  .  .  .     .     +     @  +  .  .     +  +     @  .  @     +     .  +  +  +  +     +     @  .     +  +  +     @  +     .        .  +  @     .  @  .     @  .        .  @  .  @                 +     @  .     .        +  +  +     +     @     .  @  @  .  +        @        +  +  @     .     +  .  @  .  +  .  +  +  @  +     .  @     .  +     @  @  @  @  .  +  +  .     .  .     +        @     @  +  @  @  .     +     @  +  @  @  .  @        @  @  +  .  .  .  .  .     +     .  .  .  +  .     .  .  @  @  .  @  .     .  .  +              +  .  @           +  @        +  @  @  +  .  .     @  @           @     @  @     @  +  .  @  +        .     .  @  .  @  @  .              @  .     +  @  @  .  +  @  +  +  @  +  .  @     +  @  +     +  .     .        .  .     @  +  +  .  .  .     .     +     @  +  .  .     +  +     @  .  @     +     .  +  +  +  +     +     @  .     +  +  +     @  +     .        .  +  @     .  @  .     @  .        .  @  .  @                 +     @  .     .        +  +  +     +     @     .  @  @  .  +        @        +  +  @  ",
".     @  .        .  @  .  @                 +     @  .     .        +  +  +     +     @     .  @  @  .  +        @        +  +  @     .     +  .  @  .  +  .  +  +  @  +     .  @     .  +     @  @  @  @  .  +  +  .     .  .     +        @     @  +  @  @  .     +     @  +  @  @  .  @        @  @  +  .  .  .  .  .     +     .  .  .  +  .     .  .  @  @  .  @  .     .  .  +              +  .  @           +  @        +  @  @  +  .  .     @  @           @     @  @     @  +  .  @  +        .     .  @  .  @  @  .              @  .     +  @  @  .  +  @  +  +  @  +  .  @     +  @  +     +  .     .        .  .     @  +  +  .  .  .     .     +     @  +  .  .     +  +     @  .  @     +     .  +  +  +  +     +     @  .     +  +  +     @  +     .        .  +  @     .  @  .     @  .        .  @  .  @                 +     @  .     .        +  +  +     +     @     .  @  @  .  +        @        +  +  @     .     +  .  @  .  +  .  +  +  @  +     .  @     .  +     @  @  @  @  .  +  +  .     .  .     +        @     @  +  @  @  .     +     @  +  @  @  .  @        @  @  +  .  .  .  .  .     +     .  .  .  +  .     .  .  @  @  .  @  .     .  .  +              +  .  @           +  @        +  @  @  +  .  .     @  @           @     @  @     @  +  .  @  +        .     .  @  .  @  @  .              @  .     +  @  @  .  +  @  +  +  @  +  .  @     +  @  +     +  .     .        .  .     @  +  +  .  .  .     .     +     @  +  .  .     +  +     @  .  @     +     .  +  +  +  +     +     @  .     +  +  +     @  +     .        .  +  @     .  @  ",
"+  +     +     @  .     +  +  +     @  +     .        .  +  @     .  @  .     @  .        .  @  .  @                 +     @  .     .        +  +  +     +     @     .  @  @  .  +        @        +  +  @     .     +  .  @  .  +  .  +  +  @  +     .  @     .  +     @  @  @  @  .  +  +  .     .  .     +        @     @  +  @  @  .     +     @  +  @  @  .  @        @  @  +  .  .  .  .  .     +     .  .  .  +  .     .  .  @  @  .  @  .     .  .  +              +  .  @           +  @        +  @  @  +  .  .     @  @           @     @  @     @  +  .  @  +        .     .  @  .  @  @  .              @  .     +  @  @  .  +  @  +  +  @  +  .  @     +  @  +     +  .     .        .  .     @  +  +  .  .  .     .     +     @  +  .  .     +  +     @  .  @     +     .  +  +  +  +     +     @  .     +  +  +     @  +     .        .  +  @     .  @  .     @  .        .  @  .  @                 +     @  .     .        +  +  +     +     @     .  @  @  .  +        @        +  +  @     .     +  .  @  .  +  .  +  +  @  +     .  @     .  +     @  @  @  @  .  +  +  .     .  .     +        @     @  +  @  @  .     +     @  +  @  @  .  @        @  @  +  .  .  .  .  .     +     .  .  .  +  .     .  .  @  @  .  @  .     .  .  +              +  .  @           +  @        +  @  @  +  .  .     @  @           @     @  @     @  +  .  @  +        .     .  @  .  @  @  .              @  .     +  @  @  .  +  @  +  +  @  +  .  @     +  @  +     +  .     .        .  .     @  +  +  .  .  .     .     +     @  +  .  .     +  +     @  .  @     +     .  +  +  ",
".  +  +  .     .  .     +        @     @  +  @  @  .     +     @  +  @  @  .  @        @  @  +  .  .  .  .  .     +     .  .  .  +  .     .  .  @  @  .  @  .     .  .  +              +  .  @           +  @        +  @  @  +  .  .     @  @           @     @  @     @  +  .  @  +        .     .  @  .  @  @  .              @  .     +  @  @  .  +  @  +  +  @  +  .  @     +  @  +     +  .     .        .  .     @  +  +  .  .  .     .     +     @  +  .  .     +  +     @  .  @     +     .  +  +  +  +     +     @  .     +  +  +     @  +     .        .  +  @     .  @  .     @  .        .  @  .  @                 +     @  .     .        +  +  +     +     @     .  @  @  .  +        @        +  +  @     .     +  .  @  .  +  .  +  +  @  +     .  @     .  +     @  @  @  @  .  +  +  .     .  .     +        @     @  +  @  @  .     +     @  +  @  @  .  @        @  @  +  .  .  .  .  .     +     .  .  .  +  .     .  .  @  @  .  @  .     .  .  +              +  .  @           +  @        +  @  @  +  .  .     @  @           @     @  @     @  +  .  @  +        .     .  @  .  @  @  .              @  .     +  @  @  .  +  @  +  +  @  +  .  @     +  @  +     +  .     .        .  .     @  +  +  .  .  .     .     +     @  +  .  .     +  +     @  .  @     +     .  +  +  +  +     +     @  .     +  +  +     @  +     .        .  +  @     .  @  .     @  .        .  @  .  @                 +     @  .     .        +  +  +     +     @     .  @  @  .  +        @        +  +  @     .     +  .  @  .  +  .  +  +  @  +     .  @     .  +     @  @  @  @  ",
"   .  .  +              +  .  @           +  @        +  @  @  +  .  .     @  @           @     @  @     @  +  .  @  +        .     .  @  .  @  @  .              @  .     +  @  @  .  +  @  +  +  @  +  .  @     +  @  +     +  .     .        .  .     @  +  +  .  .  .     .     +     @  +  .  .     +  +     @  .  @     +     .  +  +  +  +     +     @  .     +  +  +     @  +     .        .  +  @     .  @  .     @  .        .  @  .  @                 +     @  .     .        +  +  +     +     @     .  @  @  .  +        @        +  +  @     .     +  .  @  .  +  .  +  +  @  +     .  @     .  +     @  @  @  @  .  +  +  .     .  .     +        @     @  +  @  @  .     +     @  +  @  @  .  @        @  @  +  .  .  .  .  .     +     .  .  .  +  .     .  .  @  @  .  @  .     .  .  +              +  .  @           +  @        +  @  @  +  .  .     @  @           @     @  @     @  +  .  @  +        .     .  @  .  @  @  .              @  .     +  @  @  .  +  @  +  +  @  +  .  @     +  @  +     +  .     .        .  .     @  +  +  .  .  .     .     +     @  +  .  .     +  +     @  .  @     +     .  +  +  +  +     +     @  .     +  +  +     @  +     .        .  +  @     .  @  .     @  .        .  @  .  @                 +     @  .     .        +  +  +     +     @     .  @  @  .  +        @        +  +  @     .     +  .  @  .  +  .  +  +  @  +     .  @     .  +     @  @  @  @  .  +  +  .     .  .     +        @     @  +  @  @  .     +     @  +  @  @  .  @        @  @  +  .  .  .  .  .     +     .  .  .  +  .     .  .  @  @  .  @  .  ",
"+  .  .     +  +     @  .  @     +     .  +  +  +  +     +     @  .     +  +  +     @  +     .        .  +  @     .  @  .     @  .        .  @  .  @                 +     @  .     .        +  +  +     +     @     .  @  @  .  +        @        +  +  @     .     +  .  @  .  +  .  +  +  @  +     .  @     .  +     @  @  @  @  .  +  +  .     .  .     +        @     @  +  @  @  .     +     @  +  @  @  .  @        @  @  +  .  .  .  .  .     +     .  .  .  +  .     .  .  @  @  .  @  .     .  .  +              +  .  @           +  @        +  @  @  +  .  .     @  @           @     @  @     @  +  .  @  +        .     .  @  .  @  @  .              @  .     +  @  @  .  +  @  +  +  @  +  .  @     +  @  +     +  .     .        .  .     @  +  +  .  .  .     .     +     @  +  .  .     +  +     @  .  @     +     .  +  +  +  +     +     @  .     +  +  +     @  +     .        .  +  @     .  @  .     @  .        .  @  .  @                 +     @  .     .        +  +  +     +     @     .  @  @  .  +        @        +  +  @     .     +  .  @  .  +  .  +  +  @  +     .  @     .  +     @  @  @  @  .  +  +  .     .  .     +        @     @  +  @  @  .     +     @  +  @  @  .  @        @  @  +  .  .  .  .  .     +     .  .  .  +  .     .  .  @  @  .  @  .     .  .  +              +  .  @           +  @        +  @  @  +  .  .     @  @           @     @  @     @  +  .  @  +        .     .  @  .  @  @  .              @  .     +  @  @  .  +  @  +  +  @  +  .  @     +  @  +     +  .     .        .  .     @  +  +  .  .  .     .     +     @  ",
"      +  @  @  +  .  .     @  @           @     @  @     @  +  .  @  +        .     .  @  .  @  @  .              @  .     +  @  @  .  +  @  +  +  @  +  .  @     +  @  +     +  .     .        .  .     @  +  +  .  .  .     .     +     @  +  .  .     +  +     @  .  @     +     .  +  +  +  +     +     @  .     +  +  +     @  +     .        .  +  @     .  @  .     @  .        .  @  .  @                 +     @  .     .        +  +  +     +     @     .  @  @  .  +        @        +  +  @     .     +  .  @  .  +  .  +  +  @  +     .  @     .  +     @  @  @  @  .  +  +  .     .  .     +        @     @  +  @  @  .     +     @  +  @  @  .  @        @  @  +  .  .  .  .  .     +     .  .  .  +  .     .  .  @  @  .  @  .     .  .  +              +  .  @           +  @        +  @  @  +  .  .     @  @           @     @  @     @  +  .  @  +        .     .  @  .  @  @  .              @  .     +  @  @  .  +  @  +  +  @  +  .  @     +  @  +     +  .     .        .  .     @  +  +  .  .  .     .     +     @  +  .  .     +  +     @  .  @     +     .  +  +  +  +     +     @  .     +  +  +     @  +     .        .  +  @     .  @  .     @  .        .  @  .  @                 +     @  .     .        +  +  +     +     @     .  @  @  .  +        @        +  +  @     .     +  .  @  .  +  .  +  +  @  +     .  @     .  +     @  @  @  @  .  +  +  .     .  .     +        @     @  +  @  @  .     +     @  +  @  @  .  @        @  @  +  .  .  .  .  .     +     .  .  .  +  .     .  .  @  @  .  @  .     .  .  +              +  .  @           +  @  ",
".  .  .  .     +     .  .  .  +  .     .  .  @  @  .  @  .     .  .  +              +  .  @           +  @        +  @  @  +  .  .     @  @           @     @  @     @  +  .  @  +        .     .  @  .  @  @  .              @  .     +  @  @  .  +  @  +  +  @  +  .  @     +  @  +     +  .     .        .  .     @  +  +  .  .  .     .     +     @  +  .  .     +  +     @  .  @     +     .  +  +  +  +     +     @  .     +  +  +     @  +     .        .  +  @     .  @  .     @  .        .  @  .  @                 +     @  .     .        +  +  +     +     @     .  @  @  .  +        @        +  +  @     .     +  .  @  .  +  .  +  +  @  +     .  @     .  +     @  @  @  @  .  +  +  .     .  .     +        @     @  +  @  @  .     +     @  +  @  @  .  @        @  @  +  .  .  .  .  .     +     .  .  .  +  .     .  .  @  @  .  @  .     .  .  +              +  .  @           +  @        +  @  @  +  .  .     @  @           @     @  @     @  +  .  @  +        .     .  @  .  @  @  .              @  .     +  @  @  .  +  @  +  +  @  +  .  @     +  @  +     +  .     .        .  .     @  +  +  .  .  .     .     +     @  +  .  .     +  +     @  .  @     +     .  +  +  +  +     +     @  .     +  +  +     @  +     .        .  +  @     .  @  .     @  .        .  @  .  @                 +     @  .     .        +  +  +     +     @     .  @  @  .  +        @        +  +  @     .     +  .  @  .  +  .  +  +  @  +     .  @     .  +     @  @  @  @  .  +  +  .     .  .     +        @     @  +  @  @  .     +     @  +  @  @  .  @        @  @  +  .  ",
"+  @     .     +  .  @  .  +  .  +  +  @  +     .  @     .  +     @  @  @  @  .  +  +  .     .  .     +        @     @  +  @  @  .     +     @  +  @  @  .  @        @  @  +  .  .  .  .  .     +     .  .  .  +  .     .  .  @  @  .  @  .     .  .  +              +  .  @           +  @        +  @  @  +  .  .     @  @           @     @  @     @  +  .  @  +        .     .  @  .  @  @  .              @  .     +  @  @  .  +  @  +  +  @  +  .  @     +  @  +     +  .     .        .  .     @  +  +  .  .  .     .     +     @  +  .  .     +  +     @  .  @     +     .  +  +  +  +     +     @  .     +  +  +     @  +     .        .  +  @     .  @  .     @  .        .  @  .  @                 +     @  .     .        +  +  +     +     @     .  @  @  .  +        @        +  +  @     .     +  .  @  .  +  .  +  +  @  +     .  @     .  +     @  @  @  @  .  +  +  .     .  .     +        @     @  +  @  @  .     +     @  +  @  @  .  @        @  @  +  .  .  .  .  .     +     .  .  .  +  .     .  .  @  @  .  @  .     .  .  +              +  .  @           +  @        +  @  @  +  .  .     @  @           @     @  @     @  +  .  @  +        .     .  @  .  @  @  .              @  .     +  @  @  .  +  @  +  +  @  +  .  @     +  @  +     +  .     .        .  .     @  +  +  .  .  .     .     +     @  +  .  .     +  +     @  .  @     +     .  +  +  +  +     +     @  .     +  +  +     @  +     .        .  +  @     .  @  .     @  .        .  @  .  @                 +     @  .     .        +  +  +     +     @     .  @  @  .  +        @        +  ",
".  +  +  +  +     +     @  .     +  +  +     @  +     .        .  +  @     .  @  .     @  .        .  @  .  @                 +     @  .     .        +  +  +     +     @     .  @  @  .  +        @        +  +  @     .     +  .  @  .  +  .  +  +  @  +     .  @     .  +     @  @  @  @  .  +  +  .     .  .     +        @     @  +  @  @  .     +     @  +  @  @  .  @        @  @  +  .  .  .  .  .     +     .  .  .  +  .     .  .  @  @  .  @  .     .  .  +              +  .  @           +  @        +  @  @  +  .  .     @  @           @     @  @     @  +  .  @  +        .     .  @  .  @  @  .              @  .     +  @  @  .  +  @  +  +  @  +  .  @     +  @  +     +  .     .        .  .     @  +  +  .  .  .     .     +     @  +  .  .     +  +     @  .  @     +     .  +  +  +  +     +     @  .     +  +  +     @  +     .        .  +  @     .  @  .     @  .        .  @  .  @                 +     @  .     .        +  +  +     +     @     .  @  @  .  +        @        +  +  @     .     +  .  @  .  +  .  +  +  @  +     .  @     .  +     @  @  @  @  .  +  +  .     .  .     +        @     @  +  @  @  .     +     @  +  @  @  .  @        @  @  +  .  .  .  .  .     +     .  .  .  +  .     .  .  @  @  .  @  .     .  .  +              +  .  @           +  @        +  @  @  +  .  .     @  @           @     @  @     @  +  .  @  +        .     .  @  .  @  @  .              @  .     +  @  @  .  +  @  +  +  @  +  .  @     +  @  +     +  .     .        .  .     @  +  +  .  .  .     .     +     @  +  .  .     +  +     @  .  @     +     ",
"   @        +  +  @     .     +  .  @  .  +  .  +  +  @  +     .  @     .  +     @  @  @  @  .  +  +  .     .  .     +        @     @  +  @  @  .     +     @  +  @  @  .  @        @  @  +  .  .  .  .  .     +     .  .  .  +  .     .  .  @  @  .  @  .     .  .  +              +  .  @           +  @        +  @  @  +  .  .     @  @           @     @  @     @  +  .  @  +        .     .  @  .  @  @  .              @  .     +  @  @  .  +  @  +  +  @  +  .  @     +  @  +     +  .     .        .  .     @  +  +  .  .  .     .     +     @  +  .  .     +  +     @  .  @     +     .  +  +  +  +     +     @  .     +  +  +     @  +     .        .  +  @     .  @  .     @  .        .  @  .  @                 +     @  .     .        +  +  +     +     @     .  @  @  .  +        @        +  +  @     .     +  .  @  .  +  .  +  +  @  +     .  @     .  +     @  @  @  @  .  +  +  .     .  .     +        @     @  +  @  @  .     +     @  +  @  @  .  @        @  @  +  .  .  .  .  .     +     .  .  .  +  .     .  .  @  @  .  @  .     .  .  +              +  .  @           +  @        +  @  @  +  .  .     @  @           @     @  @     @  +  .  @  +        .     .  @  .  @  @  .              @  .     +  @  @  .  +  @  +  +  @  +  .  @     +  @  +     +  .     .        .  .     @  +  +  .  .  .     .     +     @  +  .  .     +  +     @  .  @     +     .  +  +  +  +     +     @  .     +  +  +     @  +     .        .  +  @     .  @  .     @  .        .  @  .  @                 +     @  .     .        +  +  +     +     @     .  @  @  .  +     ",
"@  +  .  .     @  @           @     @  @     @  +  .  @  +        .     .  @  .  @  @  .              @  .     +  @  @  .  +  @  +  +  @  +  .  @     +  @  +     +  .     .        .  .     @  +  +  .  .  .     .     +     @  +  .  .     +  +     @  .  @     +     .  +  +  +  +     +     @  .     +  +  +     @  +     .        .  +  @     .  @  .     @  .        .  @  .  @                 +     @  .     .        +  +  +     +     @     .  @  @  .  +        @        +  +  @     .     +  .  @  .  +  .  +  +  @  +     .  @     .  +     @  @  @  @  .  +  +  .     .  .     +        @     @  +  @  @  .     +     @  +  @  @  .  @        @  @  +  .  .  .  .  .     +     .  .  .  +  .     .  .  @  @  .  @  .     .  .  +              +  .  @           +  @        +  @  @  +  .  .     @  @           @     @  @     @  +  .  @  +        .     .  @  .  @  @  .              @  .     +  @  @  .  +  @  +  +  @  +  .  @     +  @  +     +  .     .        .  .     @  +  +  .  .  .     .     +     @  +  .  .     +  +     @  .  @     +     .  +  +  +  +     +     @  .     +  +  +     @  +     .        .  +  @     .  @  .     @  .        .  @  .  @                 +     @  .     .        +  +  +     +     @     .  @  @  .  +        @        +  +  @     .     +  .  @  .  +  .  +  +  @  +     .  @     .  +     @  @  @  @  .  +  +  .     .  .     +        @     @  +  @  @  .     +     @  +  @  @  .  @        @  @  +  .  .  .  .  .     +     .  .  .  +  .     .  .  @  @  .  @  .     .  .  +              +  .  @           +  @        +  @  ",
"   @     @  @     @  +  .  @  +        .     .  @  .  @  @  .              @  .     +  @  @  .  +  @  +  +  @  +  .  @     +  @  +     +  .     .        .  .     @  +  +  .  .  .     .     +     @  +  .  .     +  +     @  .  @     +     .  +  +  +  +     +     @  .     +  +  +     @  +     .        .  +  @     .  @  .     @  .        .  @  .  @                 +     @  .     .        +  +  +     +     @     .  @  @  .  +        @        +  +  @     .     +  .  @  .  +  .  +  +  @  +     .  @     .  +     @  @  @  @  .  +  +  .     .  .     +        @     @  +  @  @  .     +     @  +  @  @  .  @        @  @  +  .  .  .  .  .     +     .  .  .  +  .     .  .  @  @  .  @  .     .  .  +              +  .  @           +  @        +  @  @  +  .  .     @  @           @     @  @     @  +  .  @  +        .     .  @  .  @  @  .              @  .     +  @  @  .  +  @  +  +  @  +  .  @     +  @  +     +  .     .        .  .     @  +  +  .  .  .     .     +     @  +  .  .     +  +     @  .  @     +     .  +  +  +  +     +     @  .     +  +  +     @  +     .        .  +  @     .  @  .     @  .        .  @  .  @                 +     @  .     .        +  +  +     +     @     .  @  @  .  +        @        +  +  @     .     +  .  @  .  +  .  +  +  @  +     .  @     .  +     @  @  @  @  .  +  +  .     .  .     +        @     @  +  @  @  .     +     @  +  @  @  .  @        @  @  +  .  .  .  .  .     +     .  .  .  +  .     .  .  @  @  .  @  .     .  .  +              +  .  @           +  @        +  @  @  +  .  .     @  @        ",
".     .  .     +        @     @  +  @  @  .     +     @  +  @  @  .  @        @  @  +  .  .  .  .  .     +     .  .  .  +  .     .  .  @  @  .  @  .     .  .  +              +  .  @           +  @        +  @  @  +  .  .     @  @           @     @  @     @  +  .  @  +        .     .  @  .  @  @  .              @  .     +  @  @  .  +  @  +  +  @  +  .  @     +  @  +     +  .     .        .  .     @  +  +  .  .  .     .     +     @  +  .  .     +  +     @  .  @     +     .  +  +  +  +     +     @  .     +  +  +     @  +     .        .  +  @     .  @  .     @  .        .  @  .  @                 +     @  .     .        +  +  +     +     @     .  @  @  .  +        @        +  +  @     .     +  .  @  .  +  .  +  +  @  +     .  @     .  +     @  @  @  @  .  +  +  .     .  .     +        @     @  +  @  @  .     +     @  +  @  @  .  @        @  @  +  .  .  .  .  .     +     .  .  .  +  .     .  .  @  @  .  @  .     .  .  +              +  .  @           +  @        +  @  @  +  .  .     @  @           @     @  @     @  +  .  @  +        .     .  @  .  @  @  .              @  .     +  @  @  .  +  @  +  +  @  +  .  @     +  @  +     +  .     .        .  .     @  +  +  .  .  .     .     +     @  +  .  .     +  +     @  .  @     +     .  +  +  +  +     +     @  .     +  +  +     @  +     .        .  +  @     .  @  .     @  .        .  @  .  @                 +     @  .     .        +  +  +     +     @     .  @  @  .  +        @        +  +  @     .     +  .  @  .  +  .  +  +  @  +     .  @     .  +     @  @  @  @  .  +  +  ",
".  .  .     +     .  .  .  +  .     .  .  @  @  .  @  .     .  .  +              +  .  @           +  @        +  @  @  +  .  .     @  @           @     @  @     @  +  .  @  +        .     .  @  .  @  @  .              @  .     +  @  @  .  +  @  +  +  @  +  .  @     +  @  +     +  .     .        .  .     @  +  +  .  .  .     .     +     @  +  .  .     +  +     @  .  @     +     .  +  +  +  +     +     @  .     +  +  +     @  +     .        .  +  @     .  @  .     @  .        .  @  .  @                 +     @  .     .        +  +  +     +     @     .  @  @  .  +        @        +  +  @     .     +  .  @  .  +  .  +  +  @  +     .  @     .  +     @  @  @  @  .  +  +  .     .  .     +        @     @  +  @  @  .     +     @  +  @  @  .  @        @  @  +  .  .  .  .  .     +     .  .  .  +  .     .  .  @  @  .  @  .     .  .  +              +  .  @           +  @        +  @  @  +  .  .     @  @           @     @  @     @  +  .  @  +        .     .  @  .  @  @  .              @  .     +  @  @  .  +  @  +  +  @  +  .  @     +  @  +     +  .     .        .  .     @  +  +  .  .  .     .     +     @  +  .  .     +  +     @  .  @     +     .  +  +  +  +     +     @  .     +  +  +     @  +     .        .  +  @     .  @  .     @  .        .  @  .  @                 +     @  .     .        +  +  +     +     @     .  @  @  .  +        @        +  +  @     .     +  .  @  .  +  .  +  +  @  +     .  @     .  +     @  @  @  @  .  +  +  .     .  .     +        @     @  +  @  @  .     +     @  +  @  @  .  @        @  @  +  .  .  ",
".              @  .     +  @  @  .  +  @  +  +  @  +  .  @     +  @  +     +  .     .        .  .     @  +  +  .  .  .     .     +     @  +  .  .     +  +     @  .  @     +     .  +  +  +  +     +     @  .     +  +  +     @  +     .        .  +  @     .  @  .     @  .        .  @  .  @                 +     @  .     .        +  +  +     +     @     .  @  @  .  +        @        +  +  @     .     +  .  @  .  +  .  +  +  @  +     .  @     .  +     @  @  @  @  .  +  +  .     .  .     +        @     @  +  @  @  .     +     @  +  @  @  .  @        @  @  +  .  .  .  .  .     +     .  .  .  +  .     .  .  @  @  .  @  .     .  .  +              +  .  @           +  @        +  @  @  +  .  .     @  @           @     @  @     @  +  .  @  +        .     .  @  .  @  @  .              @  .     +  @  @  .  +  @  +  +  @  +  .  @     +  @  +     +  .     .        .  .     @  +  +  .  .  .     .     +     @  +  .  .     +  +     @  .  @     +     .  +  +  +  +     +     @  .     +  +  +     @  +     .        .  +  @     .  @  .     @  .        .  @  .  @                 +     @  .     .        +  +  +     +     @     .  @  @  .  +        @        +  +  @     .     +  .  @  .  +  .  +  +  @  +     .  @     .  +     @  @  @  @  .  +  +  .     .  .     +        @     @  +  @  @  .     +     @  +  @  @  .  @        @  @  +  .  .  .  .  .     +     .  .  .  +  .     .  .  @  @  .  @  .     .  .  +              +  .  @           +  @        +  @  @  +  .  .     @  @           @     @  @     @  +  .  @  +        .     .  @  .  @  @  ",
".  .  .  +  .     .  .  @  @  .  @  .     .  .  +              +  .  @           +  @        +  @  @  +  .  .     @  @           @     @  @     @  +  .  @  +        .     .  @  .  @  @  .              @  .     +  @  @  .  +  @  +  +  @  +  .  @     +  @  +     +  .     .        .  .     @  +  +  .  .  .     .     +     @  +  .  .     +  +     @  .  @     +     .  +  +  +  +     +     @  .     +  +  +     @  +     .        .  +  @     .  @  .     @  .        .  @  .  @                 +     @  .     .        +  +  +     +     @     .  @  @  .  +        @        +  +  @     .     +  .  @  .  +  .  +  +  @  +     .  @     .  +     @  @  @  @  .  +  +  .     .  .     +        @     @  +  @  @  .     +     @  +  @  @  .  @        @  @  +  .  .  .  .  .     +     .  .  .  +  .     .  .  @  @  .  @  .     .  .  +              +  .  @           +  @        +  @  @  +  .  .     @  @           @     @  @     @  +  .  @  +        .     .  @  .  @  @  .              @  .     +  @  @  .  +  @  +  +  @  +  .  @     +  @  +     +  .     .        .  .     @  +  +  .  .  .     .     +     @  +  .  .     +  +     @  .  @     +     .  +  +  +  +     +     @  .     +  +  +     @  +     .        .  +  @     .  @  .     @  .        .  @  .  @                 +     @  .     .        +  +  +     +     @     .  @  @  .  +        @        +  +  @     .     +  .  @  .  +  .  +  +  @  +     .  @     .  +     @  @  @  @  .  +  +  .     .  .     +        @     @  +  @  @  .     +     @  +  @  @  .  @        @  @  +  .  .  .  .  .     +     ",
"+  +  @  +     .  @     .  +     @  @  @  @  .  +  +  .     .  .     +        @     @  +  @  @  .     +     @  +  @  @  .  @        @  @  +  .  .  .  .  .     +     .  .  .  +  .     .  .  @  @  .  @  .     .  .  +              +  .  @           +  @        +  @  @  +  .  .     @  @           @     @  @     @  +  .  @  +        .     .  @  .  @  @  .              @  .     +  @  @  .  +  @  +  +  @  +  .  @     +  @  +     +  .     .        .  .     @  +  +  .  .  .     .     +     @  +  .  .     +  +     @  .  @     +     .  +  +  +  +     +     @  .     +  +  +     @  +     .        .  +  @     .  @  .     @  .        .  @  .  @                 +     @  .     .        +  +  +     +     @     .  @  @  .  +        @        +  +  @     .     +  .  @  .  +  .  +  +  @  +     .  @     .  +     @  @  @  @  .  +  +  .     .  .     +        @     @  +  @  @  .     +     @  +  @  @  .  @        @  @  +  .  .  .  .  .     +     .  .  .  +  .     .  .  @  @  .  @  .     .  .  +              +  .  @           +  @        +  @  @  +  .  .     @  @           @     @  @     @  +  .  @  +        .     .  @  .  @  @  .              @  .     +  @  @  .  +  @  +  +  @  +  .  @     +  @  +     +  .     .        .  .     @  +  +  .  .  .     .     +     @  +  .  .     +  +     @  .  @     +     .  +  +  +  +     +     @  .     +  +  +     @  +     .        .  +  @     .  @  .     @  .        .  @  .  @                 +     @  .     .        +  +  +     +     @     .  @  @  .  +        @        +  +  @     .     +  .  @  .  +  .  ",
"+  +  +  +     +     @  .     +  +  +     @  +     .        .  +  @     .  @  .     @  .        .  @  .  @                 +     @  .     .        +  +  +     +     @     .  @  @  .  +        @        +  +  @     .     +  .  @  .  +  .  +  +  @  +     .  @     .  +     @  @  @  @  .  +  +  .     .  .     +        @     @  +  @  @  .     +     @  +  @  @  .  @        @  @  +  .  .  .  .  .     +     .  .  .  +  .     .  .  @  @  .  @  .     .  .  +              +  .  @           +  @        +  @  @  +  .  .     @  @           @     @  @     @  +  .  @  +        .     .  @  .  @  @  .              @  .     +  @  @  .  +  @  +  +  @  +  .  @     +  @  +     +  .     .        .  .     @  +  +  .  .  .     .     +     @  +  .  .     +  +     @  .  @     +     .  +  +  +  +     +     @  .     +  +  +     @  +     .        .  +  @     .  @  .     @  .        .  @  .  @                 +     @  .     .        +  +  +     +     @     .  @  @  .  +        @        +  +  @     .     +  .  @  .  +  .  +  +  @  +     .  @     .  +     @  @  @  @  .  +  +  .     .  .     +        @     @  +  @  @  .     +     @  +  @  @  .  @        @  @  +  .  .  .  .  .     +     .  .  .  +  .     .  .  @  @  .  @  .     .  .  +              +  .  @           +  @        +  @  @  +  .  .     @  @           @     @  @     @  +  .  @  +        .     .  @  .  @  @  .              @  .     +  @  @  .  +  @  +  +  @  +  .  @     +  @  +     +  .     .        .  .     @  +  +  .  .  .     .     +     @  +  .  .     +  +     @  .  @     +     .  ",
"+     @  +     .        .  +  @     .  @  .     @  .        .  @  .  @                 +     @  .     .        +  +  +     +     @     .  @  @  .  +        @        +  +  @     .     +  .  @  .  +  .  +  +  @  +     .  @     .  +     @  @  @  @  .  +  +  .     .  .     +        @     @  +  @  @  .     +     @  +  @  @  .  @        @  @  +  .  .  .  .  .     +     .  .  .  +  .     .  .  @  @  .  @  .     .  .  +              +  .  @           +  @        +  @  @  +  .  .     @  @           @     @  @     @  +  .  @  +        .     .  @  .  @  @  .              @  .     +  @  @  .  +  @  +  +  @  +  .  @     +  @  +     +  .     .        .  .     @  +  +  .  .  .     .     +     @  +  .  .     +  +     @  .  @     +     .  +  +  +  +     +     @  .     +  +  +     @  +     .        .  +  @     .  @  .     @  .        .  @  .  @                 +     @  .     .        +  +  +     +     @     .  @  @  .  +        @        +  +  @     .     +  .  @  .  +  .  +  +  @  +     .  @     .  +     @  @  @  @  .  +  +  .     .  .     +        @     @  +  @  @  .     +     @  +  @  @  .  @        @  @  +  .  .  .  .  .     +     .  .  .  +  .     .  .  @  @  .  @  .     .  .  +              +  .  @           +  @        +  @  @  +  .  .     @  @           @     @  @     @  +  .  @  +        .     .  @  .  @  @  .              @  .     +  @  @  .  +  @  +  +  @  +  .  @     +  @  +     +  .     .        .  .     @  +  +  .  .  .     .     +     @  +  .  .     +  +     @  .  @     +     .  +  +  +  +     +     @  .     +  +  ",
"      @     @  +  @  @  .     +     @  +  @  @  .  @        @  @  +  .  .  .  .  .     +     .  .  .  +  .     .  .  @  @  .  @  .     .  .  +              +  .  @           +  @        +  @  @  +  .  .     @  @           @     @  @     @  +  .  @  +        .     .  @  .  @  @  .              @  .     +  @  @  .  +  @  +  +  @  +  .  @     +  @  +     +  .     .        .  .     @  +  +  .  .  .     .     +     @  +  .  .     +  +     @  .  @     +     .  +  +  +  +     +     @  .     +  +  +     @  +     .        .  +  @     .  @  .     @  .        .  @  .  @                 +     @  .     .        +  +  +     +     @     .  @  @  .  +        @        +  +  @     .     +  .  @  .  +  .  +  +  @  +     .  @     .  +     @  @  @  @  .  +  +  .     .  .     +        @     @  +  @  @  .     +     @  +  @  @  .  @        @  @  +  .  .  .  .  .     +     .  .  .  +  .     .  .  @  @  .  @  .     .  .  +              +  .  @           +  @        +  @  @  +  .  .     @  @           @     @  @     @  +  .  @  +        .     .  @  .  @  @  .              @  .     +  @  @  .  +  @  +  +  @  +  .  @     +  @  +     +  .     .        .  .     @  +  +  .  .  .     .     +     @  +  .  .     +  +     @  .  @     +     .  +  +  +  +     +     @  .     +  +  +     @  +     .        .  +  @     .  @  .     @  .        .  @  .  @                 +     @  .     .        +  +  +     +     @     .  @  @  .  +        @        +  +  @     .     +  .  @  .  +  .  +  +  @  +     .  @     .  +     @  @  @  @  .  +  +  .     .  .     +  ",
"+  .     .  .  @  @  .  @  .     .  .  +              +  .  @           +  @        +  @  @  +  .  .     @  @           @     @  @     @  +  .  @  +        .     .  @  .  @  @  .              @  .     +  @  @  .  +  @  +  +  @  +  .  @     +  @  +     +  .     .        .  .     @  +  +  .  .  .     .     +     @  +  .  .     +  +     @  .  @     +     .  +  +  +  +     +     @  .     +  +  +     @  +     .        .  +  @     .  @  .     @  .        .  @  .  @                 +     @  .     .        +  +  +     +     @     .  @  @  .  +        @        +  +  @     .     +  .  @  .  +  .  +  +  @  +     .  @     .  +     @  @  @  @  .  +  +  .     .  .     +        @     @  +  @  @  .     +     @  +  @  @  .  @        @  @  +  .  .  .  .  .     +     .  .  .  +  .     .  .  @  @  .  @  .     .  .  +              +  .  @           +  @        +  @  @  +  .  .     @  @           @     @  @     @  +  .  @  +        .     .  @  .  @  @  .              @  .     +  @  @  .  +  @  +  +  @  +  .  @     +  @  +     +  .     .        .  .     @  +  +  .  .  .     .     +     @  +  .  .     +  +     @  .  @     +     .  +  +  +  +     +     @  .     +  +  +     @  +     .        .  +  @     .  @  .     @  .        .  @  .  @                 +     @  .     .        +  +  +     +     @     .  @  @  .  +        @        +  +  @     .     +  .  @  .  +  .  +  +  @  +     .  @     .  +     @  @  @  @  .  +  +  .     .  .     +        @     @  +  @  @  .     +     @  +  @  @  .  @        @  @  +  .  .  .  .  .     +     .  .  .  ",
"   @  .        .  @  .  @                 +     @  .     .        +  +  +     +     @     .  @  @  .  +        @        +  +  @     .     +  .  @  .  +  .  +  +  @  +     .  @     .  +     @  @  @  @  .  +  +  .     .  .     +        @     @  +  @  @  .     +     @  +  @  @  .  @        @  @  +  .  .  .  .  .     +     .  .  .  +  .     .  .  @  @  .  @  .     .  .  +              +  .  @           +  @        +  @  @  +  .  .     @  @           @     @  @     @  +  .  @  +        .     .  @  .  @  @  .              @  .     +  @  @  .  +  @  +  +  @  +  .  @     +  @  +     +  .     .        .  .     @  +  +  .  .  .     .     +     @  +  .  .     +  +     @  .  @     +     .  +  +  +  +     +     @  .     +  +  +     @  +     .        .  +  @     .  @  .     @  .        .  @  .  @                 +     @  .     .        +  +  +     +     @     .  @  @  .  +        @        +  +  @     .     +  .  @  .  +  .  +  +  @  +     .  @     .  +     @  @  @  @  .  +  +  .     .  .     +        @     @  +  @  @  .     +     @  +  @  @  .  @        @  @  +  .  .  .  .  .     +     .  .  .  +  .     .  .  @  @  .  @  .     .  .  +              +  .  @           +  @        +  @  @  +  .  .     @  @           @     @  @     @  +  .  @  +        .     .  @  .  @  @  .              @  .     +  @  @  .  +  @  +  +  @  +  .  @     +  @  +     +  .     .        .  .     @  +  +  .  .  .     .     +     @  +  .  .     +  +     @  .  @     +     .  +  +  +  +     +     @  .     +  +  +     @  +     .        .  +  @     .  @  .  ",
"+     @  +  .  .     +  +     @  .  @     +     .  +  +  +  +     +     @  .     +  +  +     @  +     .        .  +  @     .  @  .     @  .        .  @  .  @                 +     @  .     .        +  +  +     +     @     .  @  @  .  +        @        +  +  @     .     +  .  @  .  +  .  +  +  @  +     .  @     .  +     @  @  @  @  .  +  +  .     .  .     +        @     @  +  @  @  .     +     @  +  @  @  .  @        @  @  +  .  .  .  .  .     +     .  .  .  +  .     .  .  @  @  .  @  .     .  .  +              +  .  @           +  @        +  @  @  +  .  .     @  @           @     @  @     @  +  .  @  +        .     .  @  .  @  @  .              @  .     +  @  @  .  +  @  +  +  @  +  .  @     +  @  +     +  .     .        .  .     @  +  +  .  .  .     .     +     @  +  .  .     +  +     @  .  @     +     .  +  +  +  +     +     @  .     +  +  +     @  +     .        .  +  @     .  @  .     @  .        .  @  .  @                 +     @  .     .        +  +  +     +     @     .  @  @  .  +        @        +  +  @     .     +  .  @  .  +  .  +  +  @  +     .  @     .  +     @  @  @  @  .  +  +  .     .  .     +        @     @  +  @  @  .     +     @  +  @  @  .  @        @  @  +  .  .  .  .  .     +     .  .  .  +  .     .  .  @  @  .  @  .     .  .  +              +  .  @           +  @        +  @  @  +  .  .     @  @           @     @  @     @  +  .  @  +        .     .  @  .  @  @  .              @  .     +  @  @  .  +  @  +  +  @  +  .  @     +  @  +     +  .     .        .  .     @  +  +  .  .  .     .     ",
"   @  @           @     @  @     @  +  .  @  +        .     .  @  .  @  @  .              @  .     +  @  @  .  +  @  +  +  @  +  .  @     +  @  +     +  .     .        .  .     @  +  +  .  .  .     .     +     @  +  .  .     +  +     @  .  @     +     .  +  +  +  +     +     @  .     +  +  +     @  +     .        .  +  @     .  @  .     @  .        .  @  .  @                 +     @  .     .        +  +  +     +     @     .  @  @  .  +        @        +  +  @     .     +  .  @  .  +  .  +  +  @  +     .  @     .  +     @  @  @  @  .  +  +  .     .  .     +        @     @  +  @  @  .     +     @  +  @  @  .  @        @  @  +  .  .  .  .  .     +     .  .  .  +  .     .  .  @  @  .  @  .     .  .  +              +  .  @           +  @        +  @  @  +  .  .     @  @           @     @  @     @  +  .  @  +        .     .  @  .  @  @  .              @  .     +  @  @  .  +  @  +  +  @  +  .  @     +  @  +     +  .     .        .  .     @  +  +  .  .  .     .     +     @  +  .  .     +  +     @  .  @     +     .  +  +  +  +     +     @  .     +  +  +     @  +     .        .  +  @     .  @  .     @  .        .  @  .  @                 +     @  .     .        +  +  +     +     @     .  @  @  .  +        @        +  +  @     .     +  .  @  .  +  .  +  +  @  +     .  @     .  +     @  @  @  @  .  +  +  .     .  .     +        @     @  +  @  @  .     +     @  +  @  @  .  @        @  @  +  .  .  .  .  .     +     .  .  .  +  .     .  .  @  @  .  @  .     .  .  +              +  .  @           +  @        +  @  @  +  .  .  ",
".  @  .     .  .  +              +  .  @           +  @        +  @  @  +  .  .     @  @           @     @  @     @  +  .  @  +        .     .  @  .  @  @  .              @  .     +  @  @  .  +  @  +  +  @  +  .  @     +  @  +     +  .     .        .  .     @  +  +  .  .  .     .     +     @  +  .  .     +  +     @  .  @     +     .  +  +  +  +     +     @  .     +  +  +     @  +     .        .  +  @     .  @  .     @  .        .  @  .  @                 +     @  .     .        +  +  +     +     @     .  @  @  .  +        @        +  +  @     .     +  .  @  .  +  .  +  +  @  +     .  @     .  +     @  @  @  @  .  +  +  .     .  .     +        @     @  +  @  @  .     +     @  +  @  @  .  @        @  @  +  .  .  .  .  .     +     .  .  .  +  .     .  .  @  @  .  @  .     .  .  +              +  .  @           +  @        +  @  @  +  .  .     @  @           @     @  @     @  +  .  @  +        .     .  @  .  @  @  .              @  .     +  @  @  .  +  @  +  +  @  +  .  @     +  @  +     +  .     .        .  .     @  +  +  .  .  .     .     +     @  +  .  .     +  +     @  .  @     +     .  +  +  +  +     +     @  .     +  +  +     @  +     .        .  +  @     .  @  .     @  .        .  @  .  @                 +     @  .     .        +  +  +     +     @     .  @  @  .  +        @        +  +  @     .     +  .  @  .  +  .  +  +  @  +     .  @     .  +     @  @  @  @  .  +  +  .     .  .     +        @     @  +  @  @  .     +     @  +  @  @  .  @        @  @  +  .  .  .  .  .     +     .  .  .  +  .     .  .  @  @  ",
"+  @  @  .  @        @  @  +  .  .  .  .  .     +     .  .  .  +  .     .  .  @  @  .  @  .     .  .  +              +  .  @           +  @        +  @  @  +  .  .     @  @           @     @  @     @  +  .  @  +        .     .  @  .  @  @  .              @  .     +  @  @  .  +  @  +  +  @  +  .  @     +  @  +     +  .     .        .  .     @  +  +  .  .  .     .     +     @  +  .  .     +  +     @  .  @     +     .  +  +  +  +     +     @  .     +  +  +     @  +     .        .  +  @     .  @  .     @  .        .  @  .  @                 +     @  .     .        +  +  +     +     @     .  @  @  .  +        @        +  +  @     .     +  .  @  .  +  .  +  +  @  +     .  @     .  +     @  @  @  @  .  +  +  .     .  .     +        @     @  +  @  @  .     +     @  +  @  @  .  @        @  @  +  .  .  .  .  .     +     .  .  .  +  .     .  .  @  @  .  @  .     .  .  +              +  .  @           +  @        +  @  @  +  .  .     @  @           @     @  @     @  +  .  @  +        .     .  @  .  @  @  .              @  .     +  @  @  .  +  @  +  +  @  +  .  @     +  @  +     +  .     .        .  .     @  +  +  .  .  .     .     +     @  +  .  .     +  +     @  .  @     +     .  +  +  +  +     +     @  .     +  +  +     @  +     .        .  +  @     .  @  .     @  .        .  @  .  @                 +     @  .     .        +  +  +     +     @     .  @  @  .  +        @        +  +  @     .     +  .  @  .  +  .  +  +  @  +     .  @     .  +     @  @  @  @  .  +  +  .     .  .     +        @     @  +  @  @  .     +     @  ",
"@  .  @  @  .              @  .     +  @  @  .  +  @  +  +  @  +  .  @     +  @  +     +  .     .        .  .     @  +  +  .  .  .     .     +     @  +  .  .     +  +     @  .  @     +     .  +  +  +  +     +     @  .     +  +  +     @  +     .        .  +  @     .  @  .     @  .        .  @  .  @                 +     @  .     .        +  +  +     +     @     .  @  @  .  +        @        +  +  @     .     +  .  @  .  +  .  +  +  @  +     .  @     .  +     @  @  @  @  .  +  +  .     .  .     +        @     @  +  @  @  .     +     @  +  @  @  .  @        @  @  +  .  .  .  .  .     +     .  .  .  +  .     .  .  @  @  .  @  .     .  .  +              +  .  @           +  @        +  @  @  +  .  .     @  @           @     @  @     @  +  .  @  +        .     .  @  .  @  @  .              @  .     +  @  @  .  +  @  +  +  @  +  .  @     +  @  +     +  .     .        .  .     @  +  +  .  .  .     .     +     @  +  .  .     +  +     @  .  @     +     .  +  +  +  +     +     @  .     +  +  +     @  +     .        .  +  @     .  @  .     @  .        .  @  .  @                 +     @  .     .        +  +  +     +     @     .  @  @  .  +        @        +  +  @     .     +  .  @  .  +  .  +  +  @  +     .  @     .  +     @  @  @  @  .  +  +  .     .  .     +        @     @  +  @  @  .     +     @  +  @  @  .  @        @  @  +  .  .  .  .  .     +     .  .  .  +  .     .  .  @  @  .  @  .     .  .  +              +  .  @           +  @        +  @  @  +  .  .     @  @           @     @  @     @  +  .  @  +        .     .  ",
"         +  @        +  @  @  +  .  .     @  @           @     @  @     @  +  .  @  +        .     .  @  .  @  @  .              @  .     +  @  @  .  +  @  +  +  @  +  .  @     +  @  +     +  .     .        .  .     @  +  +  .  .  .     .     +     @  +  .  .     +  +     @  .  @     +     .  +  +  +  +     +     @  .     +  +  +     @  +     .        .  +  @     .  @  .     @  .        .  @  .  @                 +     @  .     .        +  +  +     +     @     .  @  @  .  +        @        +  +  @     .     +  .  @  .  +  .  +  +  @  +     .  @     .  +     @  @  @  @  .  +  +  .     .  .     +        @     @  +  @  @  .     +     @  +  @  @  .  @        @  @  +  .  .  .  .  .     +     .  .  .  +  .     .  .  @  @  .  @  .     .  .  +              +  .  @           +  @        +  @  @  +  .  .     @  @           @     @  @     @  +  .  @  +        .     .  @  .  @  @  .              @  .     +  @  @  .  +  @  +  +  @  +  .  @     +  @  +     +  .     .        .  .     @  +  +  .  .  .     .     +     @  +  .  .     +  +     @  .  @     +     .  +  +  +  +     +     @  .     +  +  +     @  +     .        .  +  @     .  @  .     @  .        .  @  .  @                 +     @  .     .        +  +  +     +     @     .  @  @  .  +        @        +  +  @     .     +  .  @  .  +  .  +  +  @  +     .  @     .  +     @  @  @  @  .  +  +  .     .  .     +        @     @  +  @  @  .     +     @  +  @  @  .  @        @  @  +  .  .  .  .  .     +     .  .  .  +  .     .  .  @  @  .  @  .     .  .  +              +  .  @  ",
"+        .     .  @  .  @  @  .              @  .     +  @  @  .  +  @  +  +  @  +  .  @     +  @  +     +  .     .        .  .     @  +  +  .  .  .     .     +     @  +  .  .     +  +     @  .  @     +     .  +  +  +  +     +     @  .     +  +  +     @  +     .        .  +  @     .  @  .     @  .        .  @  .  @                 +     @  .     .        +  +  +     +     @     .  @  @  .  +        @        +  +  @     .     +  .  @  .  +  .  +  +  @  +     .  @     .  +     @  @  @  @  .  +  +  .     .  .     +        @     @  +  @  @  .     +     @  +  @  @  .  @        @  @  +  .  .  .  .  .     +     .  .  .  +  .     .  .  @  @  .  @  .     .  .  +              +  .  @           +  @        +  @  @  +  .  .     @  @           @     @  @     @  +  .  @  +        .     .  @  .  @  @  .              @  .     +  @  @  .  +  @  +  +  @  +  .  @     +  @  +     +  .     .        .  .     @  +  +  .  .  .     .     +     @  +  .  .     +  +     @  .  @     +     .  +  +  +  +     +     @  .     +  +  +     @  +     .        .  +  @     .  @  .     @  .        .  @  .  @                 +     @  .     .        +  +  +     +     @     .  @  @  .  +        @        +  +  @     .     +  .  @  .  +  .  +  +  @  +     .  @     .  +     @  @  @  @  .  +  +  .     .  .     +        @     @  +  @  @  .     +     @  +  @  @  .  @        @  @  +  .  .  .  .  .     +     .  .  .  +  .     .  .  @  @  .  @  .     .  .  +              +  .  @           +  @        +  @  @  +  .  .     @  @           @     @  @     @  +  .  @  ",
"@  .     +  +  +     @  +     .        .  +  @     .  @  .     @  .        .  @  .  @                 +     @  .     .        +  +  +     +     @     .  @  @  .  +        @        +  +  @     .     +  .  @  .  +  .  +  +  @  +     .  @     .  +     @  @  @  @  .  +  +  .     .  .     +        @     @  +  @  @  .     +     @  +  @  @  .  @        @  @  +  .  .  .  .  .     +     .  .  .  +  .     .  .  @  @  .  @  .     .  .  +              +  .  @           +  @        +  @  @  +  .  .     @  @           @     @  @     @  +  .  @  +        .     .  @  .  @  @  .              @  .     +  @  @  .  +  @  +  +  @  +  .  @     +  @  +     +  .     .        .  .     @  +  +  .  .  .     .     +     @  +  .  .     +  +     @  .  @     +     .  +  +  +  +     +     @  .     +  +  +     @  +     .        .  +  @     .  @  .     @  .        .  @  .  @                 +     @  .     .        +  +  +     +     @     .  @  @  .  +        @        +  +  @     .     +  .  @  .  +  .  +  +  @  +     .  @     .  +     @  @  @  @  .  +  +  .     .  .     +        @     @  +  @  @  .     +     @  +  @  @  .  @        @  @  +  .  .  .  .  .     +     .  .  .  +  .     .  .  @  @  .  @  .     .  .  +              +  .  @           +  @        +  @  @  +  .  .     @  @           @     @  @     @  +  .  @  +        .     .  @  .  @  @  .              @  .     +  @  @  .  +  @  +  +  @  +  .  @     +  @  +     +  .     .        .  .     @  +  +  .  .  .     .     +     @  +  .  .     +  +     @  .  @     +     .  +  +  +  +     +     ",
"@  @  .              @  .     +  @  @  .  +  @  +  +  @  +  .  @     +  @  +     +  .     .        .  .     @  +  +  .  .  .     .     +     @  +  .  .     +  +     @  .  @     +     .  +  +  +  +     +     @  .     +  +  +     @  +     .        .  +  @     .  @  .     @  .        .  @  .  @                 +     @  .     .        +  +  +     +     @     .  @  @  .  +        @        +  +  @     .     +  .  @  .  +  .  +  +  @  +     .  @     .  +     @  @  @  @  .  +  +  .     .  .     +        @     @  +  @  @  .     +     @  +  @  @  .  @        @  @  +  .  .  .  .  .     +     .  .  .  +  .     .  .  @  @  .  @  .     .  .  +              +  .  @           +  @        +  @  @  +  .  .     @  @           @     @  @     @  +  .  @  +        .     .  @  .  @  @  .              @  .     +  @  @  .  +  @  +  +  @  +  .  @     +  @  +     +  .     .        .  .     @  +  +  .  .  .     .     +     @  +  .  .     +  +     @  .  @     +     .  +  +  +  +     +     @  .     +  +  +     @  +     .        .  +  @     .  @  .     @  .        .  @  .  @                 +     @  .     .        +  +  +     +     @     .  @  @  .  +        @        +  +  @     .     +  .  @  .  +  .  +  +  @  +     .  @     .  +     @  @  @  @  .  +  +  .     .  .     +        @     @  +  @  @  .     +     @  +  @  @  .  @        @  @  +  .  .  .  .  .     +     .  .  .  +  .     .  .  @  @  .  @  .     .  .  +              +  .  @           +  @        +  @  @  +  .  .     @  @           @     @  @     @  +  .  @  +        .     .  @  .  ",
"@  @  .  @  .     .  .  +              +  .  @           +  @        +  @  @  +  .  .     @  @           @     @  @     @  +  .  @  +        .     .  @  .  @  @  .              @  .     +  @  @  .  +  @  +  +  @  +  .  @     +  @  +     +  .     .        .  .     @  +  +  .  .  .     .     +     @  +  .  .     +  +     @  .  @     +     .  +  +  +  +     +     @  .     +  +  +     @  +     .        .  +  @     .  @  .     @  .        .  @  .  @                 +     @  .     .        +  +  +     +     @     .  @  @  .  +        @        +  +  @     .     +  .  @  .  +  .  +  +  @  +     .  @     .  +     @  @  @  @  .  +  +  .     .  .     +        @     @  +  @  @  .     +     @  +  @  @  .  @        @  @  +  .  .  .  .  .     +     .  .  .  +  .     .  .  @  @  .  @  .     .  .  +              +  .  @           +  @        +  @  @  +  .  .     @  @           @     @  @     @  +  .  @  +        .     .  @  .  @  @  .              @  .     +  @  @  .  +  @  +  +  @  +  .  @     +  @  +     +  .     .        .  .     @  +  +  .  .  .     .     +     @  +  .  .     +  +     @  .  @     +     .  +  +  +  +     +     @  .     +  +  +     @  +     .        .  +  @     .  @  .     @  .        .  @  .  @                 +     @  .     .        +  +  +     +     @     .  @  @  .  +        @        +  +  @     .     +  .  @  .  +  .  +  +  @  +     .  @     .  +     @  @  @  @  .  +  +  .     .  .     +        @     @  +  @  @  .     +     @  +  @  @  .  @        @  @  +  .  .  .  .  .     +     .  .  .  +  .     .  .  ",
".  @  @  .  @  .     .  .  +              +  .  @           +  @        +  @  @  +  .  .     @  @           @     @  @     @  +  .  @  +        .     .  @  .  @  @  .              @  .     +  @  @  .  +  @  +  +  @  +  .  @     +  @  +     +  .     .        .  .     @  +  +  .  .  .     .     +     @  +  .  .     +  +     @  .  @     +     .  +  +  +  +     +     @  .     +  +  +     @  +     .        .  +  @     .  @  .     @  .        .  @  .  @                 +     @  .     .        +  +  +     +     @     .  @  @  .  +        @        +  +  @     .     +  .  @  .  +  .  +  +  @  +     .  @     .  +     @  @  @  @  .  +  +  .     .  .     +        @     @  +  @  @  .     +     @  +  @  @  .  @        @  @  +  .  .  .  .  .     +     .  .  .  +  .     .  .  @  @  .  @  .     .  .  +              +  .  @           +  @        +  @  @  +  .  .     @  @           @     @  @     @  +  .  @  +        .     .  @  .  @  @  .              @  .     +  @  @  .  +  @  +  +  @  +  .  @     +  @  +     +  .     .        .  .     @  +  +  .  .  .     .     +     @  +  .  .     +  +     @  .  @     +     .  +  +  +  +     +     @  .     +  +  +     @  +     .        .  +  @     .  @  .     @  .        .  @  .  @                 +     @  .     .        +  +  +     +     @     .  @  @  .  +        @        +  +  @     .     +  .  @  .  +  .  +  +  @  +     .  @     .  +     @  @  @  @  .  +  +  .     .  .     +        @     @  +  @  @  .     +     @  +  @  @  .  @        @  @  +  .  .  .  .  .     +     .  .  .  +  .     .  ",
".  +              +  .  @           +  @        +  @  @  +  .  .     @  @           @     @  @     @  +  .  @  +        .     .  @  .  @  @  .              @  .     +  @  @  .  +  @  +  +  @  +  .  @     +  @  +     +  .     .        .  .     @  +  +  .  .  .     .     +     @  +  .  .     +  +     @  .  @     +     .  +  +  +  +     +     @  .     +  +  +     @  +     .        .  +  @     .  @  .     @  .        .  @  .  @                 +     @  .     .        +  +  +     +     @     .  @  @  .  +        @        +  +  @     .     +  .  @  .  +  .  +  +  @  +     .  @     .  +     @  @  @  @  .  +  +  .     .  .     +        @     @  +  @  @  .     +     @  +  @  @  .  @        @  @  +  .  .  .  .  .     +     .  .  .  +  .     .  .  @  @  .  @  .     .  .  +              +  .  @           +  @        +  @  @  +  .  .     @  @           @     @  @     @  +  .  @  +        .     .  @  .  @  @  .              @  .     +  @  @  .  +  @  +  +  @  +  .  @     +  @  +     +  .     .        .  .     @  +  +  .  .  .     .     +     @  +  .  .     +  +     @  .  @     +     .  +  +  +  +     +     @  .     +  +  +     @  +     .        .  +  @     .  @  .     @  .        .  @  .  @                 +     @  .     .        +  +  +     +     @     .  @  @  .  +        @        +  +  @     .     +  .  @  .  +  .  +  +  @  +     .  @     .  +     @  @  @  @  .  +  +  .     .  .     +        @     @  +  @  @  .     +     @  +  @  @  .  @        @  @  +  .  .  .  .  .     +     .  .  .  +  .     .  .  @  @  .  @  .     .  ",
"         +     @  .     .        +  +  +     +     @     .  @  @  .  +        @        +  +  @     .     +  .  @  .  +  .  +  +  @  +     .  @     .  +     @  @  @  @  .  +  +  .     .  .     +        @     @  +  @  @  .     +     @  +  @  @  .  @        @  @  +  .  .  .  .  .     +     .  .  .  +  .     .  .  @  @  .  @  .     .  .  +              +  .  @           +  @        +  @  @  +  .  .     @  @           @     @  @     @  +  .  @  +        .     .  @  .  @  @  .              @  .     +  @  @  .  +  @  +  +  @  +  .  @     +  @  +     +  .     .        .  .     @  +  +  .  .  .     .     +     @  +  .  .     +  +     @  .  @     +     .  +  +  +  +     +     @  .     +  +  +     @  +     .        .  +  @     .  @  .     @  .        .  @  .  @                 +     @  .     .        +  +  +     +     @     .  @  @  .  +        @        +  +  @     .     +  .  @  .  +  .  +  +  @  +     .  @     .  +     @  @  @  @  .  +  +  .     .  .     +        @     @  +  @  @  .     +     @  +  @  @  .  @        @  @  +  .  .  .  .  .     +     .  .  .  +  .     .  .  @  @  .  @  .     .  .  +              +  .  @           +  @        +  @  @  +  .  .     @  @           @     @  @     @  +  .  @  +        .     .  @  .  @  @  .              @  .     +  @  @  .  +  @  +  +  @  +  .  @     +  @  +     +  .     .        .  .     @  +  +  .  .  .     .     +     @  +  .  .     +  +     @  .  @     +     .  +  +  +  +     +     @  .     +  +  +     @  +     .        .  +  @     .  @  .     @  .        .  @  .  @        ",
"+  +  +     +     @     .  @  @  .  +        @        +  +  @     .     +  .  @  .  +  .  +  +  @  +     .  @     .  +     @  @  @  @  .  +  +  .     .  .     +        @     @  +  @  @  .     +     @  +  @  @  .  @        @  @  +  .  .  .  .  .     +     .  .  .  +  .     .  .  @  @  .  @  .     .  .  +              +  .  @           +  @        +  @  @  +  .  .     @  @           @     @  @     @  +  .  @  +        .     .  @  .  @  @  .              @  .     +  @  @  .  +  @  +  +  @  +  .  @     +  @  +     +  .     .        .  .     @  +  +  .  .  .     .     +     @  +  .  .     +  +     @  .  @     +     .  +  +  +  +     +     @  .     +  +  +     @  +     .        .  +  @     .  @  .     @  .        .  @  .  @                 +     @  .     .        +  +  +     +     @     .  @  @  .  +        @        +  +  @     .     +  .  @  .  +  .  +  +  @  +     .  @     .  +     @  @  @  @  .  +  +  .     .  .     +        @     @  +  @  @  .     +     @  +  @  @  .  @        @  @  +  .  .  .  .  .     +     .  .  .  +  .     .  .  @  @  .  @  .     .  .  +              +  .  @           +  @        +  @  @  +  .  .     @  @           @     @  @     @  +  .  @  +        .     .  @  .  @  @  .              @  .     +  @  @  .  +  @  +  +  @  +  .  @     +  @  +     +  .     .        .  .     @  +  +  .  .  .     .     +     @  +  .  .     +  +     @  .  @     +     .  +  +  +  +     +     @  .     +  +  +     @  +     .        .  +  @     .  @  .     @  .        .  @  .  @                 +     @  .     .        ",
"   +  +  +     @  +     .        .  +  @     .  @  .     @  .        .  @  .  @                 +     @  .     .        +  +  +     +     @     .  @  @  .  +        @        +  +  @     .     +  .  @  .  +  .  +  +  @  +     .  @     .  +     @  @  @  @  .  +  +  .     .  .     +        @     @  +  @  @  .     +     @  +  @  @  .  @        @  @  +  .  .  .  .  .     +     .  .  .  +  .     .  .  @  @  .  @  .     .  .  +              +  .  @           +  @        +  @  @  +  .  .     @  @           @     @  @     @  +  .  @  +        .     .  @  .  @  @  .              @  .     +  @  @  .  +  @  +  +  @  +  .  @     +  @  +     +  .     .        .  .     @  +  +  .  .  .     .     +     @  +  .  .     +  +     @  .  @     +     .  +  +  +  +     +     @  .     +  +  +     @  +     .        .  +  @     .  @  .     @  .        .  @  .  @                 +     @  .     .        +  +  +     +     @     .  @  @  .  +        @        +  +  @     .     +  .  @  .  +  .  +  +  @  +     .  @     .  +     @  @  @  @  .  +  +  .     .  .     +        @     @  +  @  @  .     +     @  +  @  @  .  @        @  @  +  .  .  .  .  .     +     .  .  .  +  .     .  .  @  @  .  @  .     .  .  +              +  .  @           +  @        +  @  @  +  .  .     @  @           @     @  @     @  +  .  @  +        .     .  @  .  @  @  .              @  .     +  @  @  .  +  @  +  +  @  +  .  @     +  @  +     +  .     .        .  .     @  +  +  .  .  .     .     +     @  +  .  .     +  +     @  .  @     +     .  +  +  +  +     +     @  .  ",
".     .     +     @  +  .  .     +  +     @  .  @     +     .  +  +  +  +     +     @  .     +  +  +     @  +     .        .  +  @     .  @  .     @  .        .  @  .  @                 +     @  .     .        +  +  +     +     @     .  @  @  .  +        @        +  +  @     .     +  .  @  .  +  .  +  +  @  +     .  @     .  +     @  @  @  @  .  +  +  .     .  .     +        @     @  +  @  @  .     +     @  +  @  @  .  @        @  @  +  .  .  .  .  .     +     .  .  .  +  .     .  .  @  @  .  @  .     .  .  +              +  .  @           +  @        +  @  @  +  .  .     @  @           @     @  @     @  +  .  @  +        .     .  @  .  @  @  .              @  .     +  @  @  .  +  @  +  +  @  +  .  @     +  @  +     +  .     .        .  .     @  +  +  .  .  .     .     +     @  +  .  .     +  +     @  .  @     +     .  +  +  +  +     +     @  .     +  +  +     @  +     .        .  +  @     .  @  .     @  .        .  @  .  @                 +     @  .     .        +  +  +     +     @     .  @  @  .  +        @        +  +  @     .     +  .  @  .  +  .  +  +  @  +     .  @     .  +     @  @  @  @  .  +  +  .     .  .     +        @     @  +  @  @  .     +     @  +  @  @  .  @        @  @  +  .  .  .  .  .     +     .  .  .  +  .     .  .  @  @  .  @  .     .  .  +              +  .  @           +  @        +  @  @  +  .  .     @  @           @     @  @     @  +  .  @  +        .     .  @  .  @  @  .              @  .     +  @  @  .  +  @  +  +  @  +  .  @     +  @  +     +  .     .        .  .     @  +  +  .  .  ",
"@  @  .     +     @  +  @  @  .  @        @  @  +  .  .  .  .  .     +     .  .  .  +  .     .  .  @  @  .  @  .     .  .  +              +  .  @           +  @        +  @  @  +  .  .     @  @           @     @  @     @  +  .  @  +        .     .  @  .  @  @  .              @  .     +  @  @  .  +  @  +  +  @  +  .  @     +  @  +     +  .     .        .  .     @  +  +  .  .  .     .     +     @  +  .  .     +  +     @  .  @     +     .  +  +  +  +     +     @  .     +  +  +     @  +     .        .  +  @     .  @  .     @  .        .  @  .  @                 +     @  .     .        +  +  +     +     @     .  @  @  .  +        @        +  +  @     .     +  .  @  .  +  .  +  +  @  +     .  @     .  +     @  @  @  @  .  +  +  .     .  .     +        @     @  +  @  @  .     +     @  +  @  @  .  @        @  @  +  .  .  .  .  .     +     .  .  .  +  .     .  .  @  @  .  @  .     .  .  +              +  .  @           +  @        +  @  @  +  .  .     @  @           @     @  @     @  +  .  @  +        .     .  @  .  @  @  .              @  .     +  @  @  .  +  @  +  +  @  +  .  @     +  @  +     +  .     .        .  .     @  +  +  .  .  .     .     +     @  +  .  .     +  +     @  .  @     +     .  +  +  +  +     +     @  .     +  +  +     @  +     .        .  +  @     .  @  .     @  .        .  @  .  @                 +     @  .     .        +  +  +     +     @     .  @  @  .  +        @        +  +  @     .     +  .  @  .  +  .  +  +  @  +     .  @     .  +     @  @  @  @  .  +  +  .     .  .     +        @     @  +  ",
"+     .  .  .  +  .     .  .  @  @  .  @  .     .  .  +              +  .  @           +  @        +  @  @  +  .  .     @  @           @     @  @     @  +  .  @  +        .     .  @  .  @  @  .              @  .     +  @  @  .  +  @  +  +  @  +  .  @     +  @  +     +  .     .        .  .     @  +  +  .  .  .     .     +     @  +  .  .     +  +     @  .  @     +     .  +  +  +  +     +     @  .     +  +  +     @  +     .        .  +  @     .  @  .     @  .        .  @  .  @                 +     @  .     .        +  +  +     +     @     .  @  @  .  +        @        +  +  @     .     +  .  @  .  +  .  +  +  @  +     .  @     .  +     @  @  @  @  .  +  +  .     .  .     +        @     @  +  @  @  .     +     @  +  @  @  .  @        @  @  +  .  .  .  .  .     +     .  .  .  +  .     .  .  @  @  .  @  .     .  .  +              +  .  @           +  @        +  @  @  +  .  .     @  @           @     @  @     @  +  .  @  +        .     .  @  .  @  @  .              @  .     +  @  @  .  +  @  +  +  @  +  .  @     +  @  +     +  .     .        .  .     @  +  +  .  .  .     .     +     @  +  .  .     +  +     @  .  @     +     .  +  +  +  +     +     @  .     +  +  +     @  +     .        .  +  @     .  @  .     @  .        .  @  .  @                 +     @  .     .        +  +  +     +     @     .  @  @  .  +        @        +  +  @     .     +  .  @  .  +  .  +  +  @  +     .  @     .  +     @  @  @  @  .  +  +  .     .  .     +        @     @  +  @  @  .     +     @  +  @  @  .  @        @  @  +  .  .  .  .  .     ",
"   +  .  @           +  @        +  @  @  +  .  .     @  @           @     @  @     @  +  .  @  +        .     .  @  .  @  @  .              @  .     +  @  @  .  +  @  +  +  @  +  .  @     +  @  +     +  .     .        .  .     @  +  +  .  .  .     .     +     @  +  .  .     +  +     @  .  @     +     .  +  +  +  +     +     @  .     +  +  +     @  +     .        .  +  @     .  @  .     @  .        .  @  .  @                 +     @  .     .        +  +  +     +     @     .  @  @  .  +        @        +  +  @     .     +  .  @  .  +  .  +  +  @  +     .  @     .  +     @  @  @  @  .  +  +  .     .  .     +        @     @  +  @  @  .     +     @  +  @  @  .  @        @  @  +  .  .  .  .  .     +     .  .  .  +  .     .  .  @  @  .  @  .     .  .  +              +  .  @           +  @        +  @  @  +  .  .     @  @           @     @  @     @  +  .  @  +        .     .  @  .  @  @  .              @  .     +  @  @  .  +  @  +  +  @  +  .  @     +  @  +     +  .     .        .  .     @  +  +  .  .  .     .     +     @  +  .  .     +  +     @  .  @     +     .  +  +  +  +     +     @  .     +  +  +     @  +     .        .  +  @     .  @  .     @  .        .  @  .  @                 +     @  .     .        +  +  +     +     @     .  @  @  .  +        @        +  +  @     .     +  .  @  .  +  .  +  +  @  +     .  @     .  +     @  @  @  @  .  +  +  .     .  .     +        @     @  +  @  @  .     +     @  +  @  @  .  @        @  @  +  .  .  .  .  .     +     .  .  .  +  .     .  .  @  @  .  @  .     .  .  +           ",
".     .  .  +              +  .  @           +  @        +  @  @  +  .  .     @  @           @     @  @     @  +  .  @  +        .     .  @  .  @  @  .              @  .     +  @  @  .  +  @  +  +  @  +  .  @     +  @  +     +  .     .        .  .     @  +  +  .  .  .     .     +     @  +  .  .     +  +     @  .  @     +     .  +  +  +  +     +     @  .     +  +  +     @  +     .        .  +  @     .  @  .     @  .        .  @  .  @                 +     @  .     .        +  +  +     +     @     .  @  @  .  +        @        +  +  @     .     +  .  @  .  +  .  +  +  @  +     .  @     .  +     @  @  @  @  .  +  +  .     .  .     +        @     @  +  @  @  .     +     @  +  @  @  .  @        @  @  +  .  .  .  .  .     +     .  .  .  +  .     .  .  @  @  .  @  .     .  .  +              +  .  @           +  @        +  @  @  +  .  .     @  @           @     @  @     @  +  .  @  +        .     .  @  .  @  @  .              @  .     +  @  @  .  +  @  +  +  @  +  .  @     +  @  +     +  .     .        .  .     @  +  +  .  .  .     .     +     @  +  .  .     +  +     @  .  @     +     .  +  +  +  +     +     @  .     +  +  +     @  +     .        .  +  @     .  @  .     @  .        .  @  .  @                 +     @  .     .        +  +  +     +     @     .  @  @  .  +        @        +  +  @     .     +  .  @  .  +  .  +  +  @  +     .  @     .  +     @  @  @  @  .  +  +  .     .  .     +        @     @  +  @  @  .     +     @  +  @  @  .  @        @  @  +  .  .  .  .  .     +     .  .  .  +  .     .  .  @  @  .  @  ",
"+     .  +  +  +  +     +     @  .     +  +  +     @  +     .        .  +  @     .  @  .     @  .        .  @  .  @                 +     @  .     .        +  +  +     +     @     .  @  @  .  +        @        +  +  @     .     +  .  @  .  +  .  +  +  @  +     .  @     .  +     @  @  @  @  .  +  +  .     .  .     +        @     @  +  @  @  .     +     @  +  @  @  .  @        @  @  +  .  .  .  .  .     +     .  .  .  +  .     .  .  @  @  .  @  .     .  .  +              +  .  @           +  @        +  @  @  +  .  .     @  @           @     @  @     @  +  .  @  +        .     .  @  .  @  @  .              @  .     +  @  @  .  +  @  +  +  @  +  .  @     +  @  +     +  .     .        .  .     @  +  +  .  .  .     .     +     @  +  .  .     +  +     @  .  @     +     .  +  +  +  +     +     @  .     +  +  +     @  +     .        .  +  @     .  @  .     @  .        .  @  .  @                 +     @  .     .        +  +  +     +     @     .  @  @  .  +        @        +  +  @     .     +  .  @  .  +  .  +  +  @  +     .  @     .  +     @  @  @  @  .  +  +  .     .  .     +        @     @  +  @  @  .     +     @  +  @  @  .  @        @  @  +  .  .  .  .  .     +     .  .  .  +  .     .  .  @  @  .  @  .     .  .  +              +  .  @           +  @        +  @  @  +  .  .     @  @           @     @  @     @  +  .  @  +        .     .  @  .  @  @  .              @  .     +  @  @  .  +  @  +  +  @  +  .  @     +  @  +     +  .     .        .  .     @  +  +  .  .  .     .     +     @  +  .  .     +  +     @  .  @     ",
"   +        @     @  +  @  @  .     +     @  +  @  @  .  @        @  @  +  .  .  .  .  .     +     .  .  .  +  .     .  .  @  @  .  @  .     .  .  +              +  .  @           +  @        +  @  @  +  .  .     @  @           @     @  @     @  +  .  @  +        .     .  @  .  @  @  .              @  .     +  @  @  .  +  @  +  +  @  +  .  @     +  @  +     +  .     .        .  .     @  +  +  .  .  .     .     +     @  +  .  .     +  +     @  .  @     +     .  +  +  +  +     +     @  .     +  +  +     @  +     .        .  +  @     .  @  .     @  .        .  @  .  @                 +     @  .     .        +  +  +     +     @     .  @  @  .  +        @        +  +  @     .     +  .  @  .  +  .  +  +  @  +     .  @     .  +     @  @  @  @  .  +  +  .     .  .     +        @     @  +  @  @  .     +     @  +  @  @  .  @        @  @  +  .  .  .  .  .     +     .  .  .  +  .     .  .  @  @  .  @  .     .  .  +              +  .  @           +  @        +  @  @  +  .  .     @  @           @     @  @     @  +  .  @  +        .     .  @  .  @  @  .              @  .     +  @  @  .  +  @  +  +  @  +  .  @     +  @  +     +  .     .        .  .     @  +  +  .  .  .     .     +     @  +  .  .     +  +     @  .  @     +     .  +  +  +  +     +     @  .     +  +  +     @  +     .        .  +  @     .  @  .     @  .        .  @  .  @                 +     @  .     .        +  +  +     +     @     .  @  @  .  +        @        +  +  @     .     +  .  @  .  +  .  +  +  @  +     .  @     .  +     @  @  @  @  .  +  +  .     .  .  "};
