/* XPM */
static char * wall13_xpm[] = {
"64 64 2 1",
" 	c #8DF2DF",
".	c #A8F8F0",
"              ....                                              ",
"              ....                                              ",
"            ........                            ..              ",
"            ........                            ..              ",
"          ............                        ..  ..            ",
"          ............                        ..  ..            ",
"        ................                    ..  ..  ..          ",
"        ................                    ..  ..  ..          ",
"      ....................                ..  ..  ..  ..        ",
"      ....................                ..  ..  ..  ..        ",
"    ........................            ..  ..  ..  ..  ..      ",
"    ........................            ..  ..  ..  ..  ..      ",
"  ............................        ..  ..  ..  ..  ..  ..    ",
"  ............................        ..  ..  ..  ..  ..  ..    ",
"................................    ..  ..  ..  ..  ..  ..  ..  ",
"................................    ..  ..  ..  ..  ..  ..  ..  ",
"................................  ..  ..  ..  ..  ..  ..  ..  ..",
"................................  ..  ..  ..  ..  ..  ..  ..  ..",
"  ............................      ..  ..  ..  ..  ..  ..  ..  ",
"  ............................      ..  ..  ..  ..  ..  ..  ..  ",
"    ........................          ..  ..  ..  ..  ..  ..    ",
"    ........................          ..  ..  ..  ..  ..  ..    ",
"      ....................              ..  ..  ..  ..  ..      ",
"      ....................              ..  ..  ..  ..  ..      ",
"        ................                  ..  ..  ..  ..        ",
"        ................                  ..  ..  ..  ..        ",
"          ............                      ..  ..  ..          ",
"          ............                      ..  ..  ..          ",
"            ........                          ..  ..            ",
"            ........                          ..  ..            ",
"              ....                              ..              ",
"              ....                              ..              ",
"              ..                              ....              ",
"              ..                              ....              ",
"            ..  ..                          ........            ",
"            ..  ..                          ........            ",
"          ..  ..  ..                      ............          ",
"          ..  ..  ..                      ............          ",
"        ..  ..  ..  ..                  ................        ",
"        ..  ..  ..  ..                  ................        ",
"      ..  ..  ..  ..  ..              ....................      ",
"      ..  ..  ..  ..  ..              ....................      ",
"    ..  ..  ..  ..  ..  ..          ........................    ",
"    ..  ..  ..  ..  ..  ..          ........................    ",
"  ..  ..  ..  ..  ..  ..  ..      ............................  ",
"  ..  ..  ..  ..  ..  ..  ..      ............................  ",
"..  ..  ..  ..  ..  ..  ..  ..  ................................",
"..  ..  ..  ..  ..  ..  ..  ..  ................................",
"  ..  ..  ..  ..  ..  ..  ..    ................................",
"  ..  ..  ..  ..  ..  ..  ..    ................................",
"    ..  ..  ..  ..  ..  ..        ............................  ",
"    ..  ..  ..  ..  ..  ..        ............................  ",
"      ..  ..  ..  ..  ..            ........................    ",
"      ..  ..  ..  ..  ..            ........................    ",
"        ..  ..  ..  ..                ....................      ",
"        ..  ..  ..  ..                ....................      ",
"          ..  ..  ..                    ................        ",
"          ..  ..  ..                    ................        ",
"            ..  ..                        ............          ",
"            ..  ..                        ............          ",
"              ..                            ........            ",
"              ..                            ........            ",
"                                              ....              ",
"                                              ....              "};
