/* XPM */
static char * wall1_xpm[] = {
"64 64 3777 2",
"  	c #8587C4",
". 	c #8686C6",
"+ 	c #8C86CC",
"@ 	c #857DC6",
"# 	c #8881C7",
"$ 	c #A49FE1",
"% 	c #8384BD",
"& 	c #8689C0",
"* 	c #848AC4",
"= 	c #848AC6",
"- 	c #8088C9",
"; 	c #7881C2",
"> 	c #838FCB",
", 	c #93A3D6",
"' 	c #7486AC",
") 	c #7E93B0",
"! 	c #939FD9",
"~ 	c #96A5DE",
"{ 	c #738F9D",
"] 	c #709D80",
"^ 	c #578F60",
"/ 	c #4C9442",
"( 	c #439725",
"_ 	c #3E9729",
": 	c #3AA440",
"< 	c #3EA53A",
"[ 	c #41A531",
"} 	c #44A931",
"| 	c #3FA831",
"1 	c #41AC38",
"2 	c #2A9425",
"3 	c #31992A",
"4 	c #47A336",
"5 	c #419B43",
"6 	c #48A25C",
"7 	c #459F55",
"8 	c #358F35",
"9 	c #419935",
"0 	c #3B8E34",
"a 	c #459147",
"b 	c #3E9826",
"c 	c #3B9A26",
"d 	c #35962F",
"e 	c #3C9754",
"f 	c #3E8879",
"g 	c #5187A1",
"h 	c #5B7DAA",
"i 	c #6078A6",
"j 	c #557F7D",
"k 	c #488B6A",
"l 	c #3D9D55",
"m 	c #3EA549",
"n 	c #47A242",
"o 	c #3D912F",
"p 	c #40992D",
"q 	c #3B9E27",
"r 	c #2C993E",
"s 	c #2A9A2C",
"t 	c #37A52A",
"u 	c #46A63A",
"v 	c #488A4C",
"w 	c #557871",
"x 	c #656F92",
"y 	c #8585BB",
"z 	c #8285C8",
"A 	c #8180C6",
"B 	c #8985D1",
"C 	c #9087D6",
"D 	c #8178C7",
"E 	c #8A86D0",
"F 	c #8E8DD1",
"G 	c #979BD8",
"H 	c #8088B9",
"I 	c #8287BE",
"J 	c #8283C3",
"K 	c #A0A0E8",
"L 	c #9598DF",
"M 	c #7F8BBF",
"N 	c #7E94AC",
"O 	c #5D7A7E",
"P 	c #6E929E",
"Q 	c #7296A6",
"R 	c #769E9D",
"S 	c #58856E",
"T 	c #5D916B",
"U 	c #49844C",
"V 	c #569755",
"W 	c #509459",
"X 	c #429756",
"Y 	c #4D9F57",
"Z 	c #48994A",
"` 	c #469A42",
" .	c #47A245",
"..	c #3C9C3A",
"+.	c #43A43D",
"@.	c #3B9B30",
"#.	c #3D982F",
"$.	c #439A49",
"%.	c #56AC6F",
"&.	c #439C5C",
"*.	c #3A943D",
"=.	c #3C972E",
"-.	c #3A9128",
";.	c #368B26",
">.	c #449C34",
",.	c #3E9C2E",
"'.	c #35962B",
").	c #399444",
"!.	c #3D8C5D",
"~.	c #4E8D7C",
"{.	c #51807A",
"].	c #4B736B",
"^.	c #5B8A68",
"/.	c #478D57",
"(.	c #379847",
"_.	c #39A142",
":.	c #46A541",
"<.	c #409631",
"[.	c #429930",
"}.	c #3C9A2A",
"|.	c #42AA47",
"1.	c #42A940",
"2.	c #3B9C35",
"3.	c #479549",
"4.	c #558B69",
"5.	c #7C9AA4",
"6.	c #8492B9",
"7.	c #8186BD",
"8.	c #868AD4",
"9.	c #8483CF",
"0.	c #7B78C5",
"a.	c #8B83D6",
"b.	c #8B83D8",
"c.	c #8581D5",
"d.	c #8A89D5",
"e.	c #8286CD",
"f.	c #A3A9D9",
"g.	c #7C7EB1",
"h.	c #ABA5E5",
"i.	c #867BC9",
"j.	c #867FCF",
"k.	c #848DC6",
"l.	c #7894A2",
"m.	c #648D7B",
"n.	c #539766",
"o.	c #4F9153",
"p.	c #5B9660",
"q.	c #59876D",
"r.	c #73999C",
"s.	c #7897B3",
"t.	c #7796B5",
"u.	c #7192A1",
"v.	c #70A794",
"w.	c #65998C",
"x.	c #56887F",
"y.	c #68A097",
"z.	c #60A189",
"A.	c #4E9B67",
"B.	c #439742",
"C.	c #3B9229",
"D.	c #49A13B",
"E.	c #45994B",
"F.	c #5BB077",
"G.	c #48A064",
"H.	c #45A14C",
"I.	c #359325",
"J.	c #3A981E",
"K.	c #3F9A21",
"L.	c #389133",
"M.	c #3B9732",
"N.	c #3B982E",
"O.	c #3D9936",
"P.	c #3C8F3D",
"Q.	c #49924B",
"R.	c #4E8F4B",
"S.	c #4D8943",
"T.	c #548D40",
"U.	c #428C3D",
"V.	c #31933C",
"W.	c #339C3D",
"X.	c #41A33E",
"Y.	c #3D952D",
"Z.	c #3F962D",
"`.	c #3A922A",
" +	c #399B2E",
".+	c #40993B",
"++	c #509858",
"@+	c #70A58B",
"#+	c #70929E",
"$+	c #778DB4",
"%+	c #7A87BB",
"&+	c #7E89BF",
"*+	c #7B81CF",
"=+	c #969AE1",
"-+	c #898DCD",
";+	c #8283C6",
">+	c #8A8AD4",
",+	c #7F80D0",
"'+	c #7B7ECD",
")+	c #7C82CC",
"!+	c #8182C5",
"~+	c #9D98D8",
"{+	c #897DBF",
"]+	c #9784D3",
"^+	c #8D7FD4",
"/+	c #7D83C1",
"(+	c #7A96AB",
"_+	c #558376",
":+	c #41934B",
"<+	c #4C9742",
"[+	c #5B965E",
"}+	c #749894",
"|+	c #7D91B2",
"1+	c #7D85CE",
"2+	c #797DD4",
"3+	c #848DC8",
"4+	c #759AAC",
"5+	c #5B7F8F",
"6+	c #7195A3",
"7+	c #6A959B",
"8+	c #6AA392",
"9+	c #468E5E",
"0+	c #429140",
"a+	c #459830",
"b+	c #3F962E",
"c+	c #4BA04B",
"d+	c #5EB36F",
"e+	c #3E954E",
"f+	c #3C993E",
"g+	c #39992D",
"h+	c #42A02E",
"i+	c #379525",
"j+	c #3C9539",
"k+	c #409738",
"l+	c #459C3B",
"m+	c #479D3C",
"n+	c #419233",
"o+	c #419130",
"p+	c #46922E",
"q+	c #49942D",
"r+	c #4D8B26",
"s+	c #419132",
"t+	c #389B41",
"u+	c #3BA447",
"v+	c #42A741",
"w+	c #3B972C",
"x+	c #41982F",
"y+	c #409633",
"z+	c #41992B",
"A+	c #478F43",
"B+	c #619179",
"C+	c #7993AC",
"D+	c #7B8AC1",
"E+	c #808ECF",
"F+	c #7B89C6",
"G+	c #7687BD",
"H+	c #8187D3",
"I+	c #9DA7E2",
"J+	c #97A6CD",
"K+	c #7A8DAD",
"L+	c #7C8DB9",
"M+	c #828ECA",
"N+	c #838BD3",
"O+	c #9298E4",
"P+	c #7F7AD4",
"Q+	c #9990DF",
"R+	c #7669AF",
"S+	c #9080C7",
"T+	c #8B80CC",
"U+	c #7D82C2",
"V+	c #7993B8",
"W+	c #6F96A7",
"X+	c #51986C",
"Y+	c #5B9678",
"Z+	c #6D92A5",
"`+	c #7E90C0",
" @	c #959FC3",
".@	c #7F84AE",
"+@	c #888AC7",
"@@	c #8187BB",
"#@	c #6A90A7",
"$@	c #5E8887",
"%@	c #608F6B",
"&@	c #5B9751",
"*@	c #4B943A",
"=@	c #4FA13D",
"-@	c #449934",
";@	c #469A38",
">@	c #41982D",
",@	c #419837",
"'@	c #4BA44A",
")@	c #45A043",
"!@	c #44A33F",
"~@	c #36952F",
"{@	c #369436",
"]@	c #3A9641",
"^@	c #43983A",
"/@	c #3F923A",
"(@	c #489449",
"_@	c #529B52",
":@	c #529A4E",
"<@	c #46943E",
"[@	c #429334",
"}@	c #3E932E",
"|@	c #448B21",
"1@	c #3E8F30",
"2@	c #3B9941",
"3@	c #3DA147",
"4@	c #42A43F",
"5@	c #39952A",
"6@	c #419830",
"7@	c #429837",
"8@	c #40912B",
"9@	c #4D8850",
"0@	c #79949D",
"a@	c #7F85C1",
"b@	c #7F80D2",
"c@	c #7D84D2",
"d@	c #7C89CD",
"e@	c #8393CE",
"f@	c #8088D3",
"g@	c #7689B3",
"h@	c #719395",
"i@	c #5F897B",
"j@	c #5C8486",
"k@	c #7592B4",
"l@	c #7A8AC6",
"m@	c #8189D4",
"n@	c #8A80E0",
"o@	c #877DD3",
"p@	c #8B83CC",
"q@	c #8680C0",
"r@	c #8A8AC6",
"s@	c #7E87C0",
"t@	c #8094C7",
"u@	c #7691C0",
"v@	c #558086",
"w@	c #6E8EA5",
"x@	c #7F8EC7",
"y@	c #7F82C9",
"z@	c #8A8DC0",
"A@	c #707B9B",
"B@	c #7F94A9",
"C@	c #739098",
"D@	c #65A195",
"E@	c #55936E",
"F@	c #4A8C45",
"G@	c #448F2A",
"H@	c #50A530",
"I@	c #419C27",
"J@	c #49A536",
"K@	c #3F9729",
"L@	c #4AA339",
"M@	c #47A23B",
"N@	c #3A972F",
"O@	c #399830",
"P@	c #3E9C3B",
"Q@	c #3B9945",
"R@	c #35904A",
"S@	c #409230",
"T@	c #448D44",
"U@	c #58976C",
"V@	c #669F7F",
"W@	c #63A077",
"X@	c #50965A",
"Y@	c #449749",
"Z@	c #3D9740",
"`@	c #3E8E2D",
" #	c #378C2E",
".#	c #339133",
"+#	c #399938",
"@#	c #3F9E3A",
"##	c #37912D",
"$#	c #3D9433",
"%#	c #3D9436",
"&#	c #46913F",
"*#	c #538464",
"=#	c #7988A9",
"-#	c #8581CD",
";#	c #8F8BE2",
">#	c #868CDA",
",#	c #7882C7",
"'#	c #7883C5",
")#	c #6F88A6",
"!#	c #649578",
"~#	c #56975F",
"{#	c #4D8B66",
"]#	c #6E99A2",
"^#	c #778CC1",
"/#	c #8086D4",
"(#	c #8E83CF",
"_#	c #8680CA",
":#	c #8B8AD0",
"<#	c #8187C1",
"[#	c #6E7BA8",
"}#	c #7B8CB7",
"|#	c #7A8ABD",
"1#	c #7A88C5",
"2#	c #7F90BE",
"3#	c #8891C8",
"4#	c #8183BC",
"5#	c #8482C3",
"6#	c #858ACE",
"7#	c #7B93B9",
"8#	c #68988A",
"9#	c #519063",
"0#	c #409753",
"a#	c #41944C",
"b#	c #358637",
"c#	c #489C46",
"d#	c #3F983C",
"e#	c #379330",
"f#	c #3A972C",
"g#	c #48A533",
"h#	c #48A135",
"i#	c #419C33",
"j#	c #389230",
"k#	c #369131",
"l#	c #3A9633",
"m#	c #329030",
"n#	c #339238",
"o#	c #469237",
"p#	c #54955F",
"q#	c #6EA095",
"r#	c #75A0A9",
"s#	c #6D9B98",
"t#	c #52926D",
"u#	c #449753",
"v#	c #379443",
"w#	c #40963B",
"x#	c #3A9430",
"y#	c #3A962B",
"z#	c #409C2F",
"A#	c #47A13D",
"B#	c #3C9537",
"C#	c #3F9740",
"D#	c #3C963E",
"E#	c #40874B",
"F#	c #74A093",
"G#	c #848FBC",
"H#	c #8881CE",
"I#	c #7F7CC9",
"J#	c #8388CC",
"K#	c #838ACE",
"L#	c #8286CF",
"M#	c #8085D6",
"N#	c #7894AA",
"O#	c #559062",
"P#	c #449141",
"Q#	c #489257",
"R#	c #6EA39D",
"S#	c #758CBE",
"T#	c #8085D7",
"U#	c #8B82B7",
"V#	c #8C87C7",
"W#	c #7E83C5",
"X#	c #808FC6",
"Y#	c #788EB3",
"Z#	c #677B9C",
"`#	c #818FBC",
" $	c #848CCA",
".$	c #8583CC",
"+$	c #8680D8",
"@$	c #8980D1",
"#$	c #8683CA",
"$$	c #7F89C7",
"%$	c #6E949D",
"&$	c #539A5E",
"*$	c #49A24E",
"=$	c #369C39",
"-$	c #369835",
";$	c #3B9734",
">$	c #399434",
",$	c #379534",
"'$	c #3B9A34",
")$	c #379527",
"!$	c #4AA734",
"~$	c #45A136",
"{$	c #46A03E",
"]$	c #3F983E",
"^$	c #38923B",
"/$	c #419B41",
"($	c #389635",
"_$	c #399A33",
":$	c #3A9B34",
"<$	c #47913C",
"[$	c #569068",
"}$	c #6F97A3",
"|$	c #7293B4",
"1$	c #739AA9",
"2$	c #5F9B7F",
"3$	c #4EA05E",
"4$	c #36963F",
"5$	c #39963B",
"6$	c #3A972D",
"7$	c #419C23",
"8$	c #48A12B",
"9$	c #4BA23A",
"0$	c #3C923B",
"a$	c #3D9644",
"b$	c #3A9643",
"c$	c #448C5E",
"d$	c #719B99",
"e$	c #6670A1",
"f$	c #8D87D1",
"g$	c #8786CA",
"h$	c #7E84C0",
"i$	c #7F84C6",
"j$	c #8685D1",
"k$	c #8588CB",
"l$	c #7991A9",
"m$	c #4D845D",
"n$	c #4E9A4F",
"o$	c #6BA282",
"p$	c #738EA9",
"q$	c #828BD0",
"r$	c #9089CD",
"s$	c #8280C1",
"t$	c #8488C7",
"u$	c #848ECB",
"v$	c #737EBC",
"w$	c #8791D6",
"x$	c #7E86CF",
"y$	c #7F85D3",
"z$	c #8382BC",
"A$	c #8889C9",
"B$	c #8488CF",
"C$	c #7D88CA",
"D$	c #7A93BC",
"E$	c #6B9E97",
"F$	c #4B9D5B",
"G$	c #31982F",
"H$	c #3B9E44",
"I$	c #3D983B",
"J$	c #3C8C2D",
"K$	c #479138",
"L$	c #438D3E",
"M$	c #4FA054",
"N$	c #449B4D",
"O$	c #469F4D",
"P$	c #379340",
"Q$	c #45A342",
"R$	c #37982F",
"S$	c #389A35",
"T$	c #3A9B32",
"U$	c #3B9929",
"V$	c #3B9428",
"W$	c #3E9335",
"X$	c #53954E",
"Y$	c #5F8F79",
"Z$	c #788BAB",
"`$	c #7D97A4",
" %	c #5A8B78",
".%	c #459055",
"+%	c #3F9C41",
"@%	c #449747",
"#%	c #3A9343",
"$%	c #449F50",
"%%	c #499C4E",
"&%	c #509A4B",
"*%	c #3E8839",
"=%	c #3EA552",
"-%	c #4A9A5B",
";%	c #5FA37C",
">%	c #709F99",
",%	c #7490A5",
"'%	c #808DB0",
")%	c #888BB8",
"!%	c #8686BC",
"~%	c #8B87C4",
"{%	c #8487CE",
"]%	c #6070A1",
"^%	c #597E86",
"/%	c #4F8563",
"(%	c #4F8957",
"_%	c #5F8C75",
":%	c #7D95B7",
"<%	c #7C84D5",
"[%	c #8685CB",
"}%	c #8182C2",
"|%	c #8288C2",
"1%	c #888ECA",
"2%	c #797EC0",
"3%	c #8387D1",
"4%	c #8586D8",
"5%	c #8488D1",
"6%	c #7F84C8",
"7%	c #7D85C4",
"8%	c #98A3D9",
"9%	c #7A93B1",
"0%	c #518676",
"a%	c #34873F",
"b%	c #47B343",
"c%	c #42A538",
"d%	c #479D3A",
"e%	c #4D9043",
"f%	c #598F5D",
"g%	c #5B8E6F",
"h%	c #67A483",
"i%	c #59A36E",
"j%	c #499D52",
"k%	c #38943F",
"l%	c #41A13D",
"m%	c #34972B",
"n%	c #379A30",
"o%	c #37982D",
"p%	c #429636",
"q%	c #4E8C43",
"r%	c #76A190",
"s%	c #728AAE",
"t%	c #7F90BB",
"u%	c #7E9AA8",
"v%	c #51836A",
"w%	c #56A15E",
"x%	c #34932F",
"y%	c #429841",
"z%	c #3A933F",
"A%	c #459D51",
"B%	c #57A567",
"C%	c #6AAB75",
"D%	c #539859",
"E%	c #4A9F4A",
"F%	c #37A039",
"G%	c #3A8E40",
"H%	c #438E55",
"I%	c #4B866A",
"J%	c #577F81",
"K%	c #637B93",
"L%	c #868EBD",
"M%	c #7E7DBF",
"N%	c #8D86D6",
"O%	c #6B6EBF",
"P%	c #646ABE",
"Q%	c #6976BC",
"R%	c #7A91B0",
"S%	c #587772",
"T%	c #53716F",
"U%	c #7B90BB",
"V%	c #7782DB",
"W%	c #7E84CE",
"X%	c #A1A5EC",
"Y%	c #8586C7",
"Z%	c #8383C1",
"`%	c #8787C5",
" &	c #8D8AD9",
".&	c #817DD2",
"+&	c #8088DD",
"@&	c #7E84D0",
"#&	c #8187C3",
"$&	c #8189B8",
"%&	c #7C92AA",
"&&	c #5C8F7C",
"*&	c #439A4C",
"=&	c #36A82E",
"-&	c #45A736",
";&	c #43933A",
">&	c #588B62",
",&	c #76909D",
"'&	c #798EBB",
")&	c #7395B8",
"!&	c #639C95",
"~&	c #509C6E",
"{&	c #3D9B43",
"]&	c #3FA13A",
"^&	c #349A2A",
"/&	c #379D30",
"(&	c #35972A",
"_&	c #3C9926",
":&	c #409629",
"<&	c #449133",
"[&	c #598C53",
"}&	c #709395",
"|&	c #7C92C4",
"1&	c #7B90BF",
"2&	c #739499",
"3&	c #5B926A",
"4&	c #4B9846",
"5&	c #3C9A2C",
"6&	c #49A244",
"7&	c #47A547",
"8&	c #3E9546",
"9&	c #69AE7F",
"0&	c #6AA088",
"a&	c #6AA181",
"b&	c #479348",
"c&	c #3B9E2A",
"d&	c #4AA643",
"e&	c #3F943F",
"f&	c #428E50",
"g&	c #3F7A5A",
"h&	c #77A0A2",
"i&	c #748AB1",
"j&	c #868AD3",
"k&	c #7069C9",
"l&	c #6A6FCB",
"m&	c #5253BD",
"n&	c #6C69D2",
"o&	c #6A69B9",
"p&	c #838AB8",
"q&	c #8695B4",
"r&	c #7E92C4",
"s&	c #7488D1",
"t&	c #7A90C1",
"u&	c #7787BB",
"v&	c #818AC5",
"w&	c #8687C8",
"x&	c #8480CA",
"y&	c #8E87D7",
"z&	c #645EB4",
"A&	c #8383DD",
"B&	c #8281D1",
"C&	c #8C89CE",
"D&	c #7D7EB7",
"E&	c #7E8EB0",
"F&	c #57897D",
"G&	c #46A154",
"H&	c #37AD33",
"I&	c #42A433",
"J&	c #54A24C",
"K&	c #709F7D",
"L&	c #8091AD",
"M&	c #7E85CB",
"N&	c #7E90CE",
"O&	c #6E9EA8",
"P&	c #478F69",
"Q&	c #419D46",
"R&	c #3DA036",
"S&	c #359C29",
"T&	c #3AA032",
"U&	c #369829",
"V&	c #3F9928",
"W&	c #44922C",
"X&	c #478D37",
"Y&	c #658E7C",
"Z&	c #708EAA",
"`&	c #778DC7",
" *	c #7996B6",
".*	c #6B9883",
"+*	c #559654",
"@*	c #4A9B3E",
"#*	c #45A13E",
"$*	c #3F9E36",
"%*	c #449A41",
"&*	c #4E9062",
"**	c #6F9998",
"=*	c #5F8787",
"-*	c #548F61",
";*	c #409132",
">*	c #38952A",
",*	c #37942C",
"'*	c #369036",
")*	c #489755",
"!*	c #478463",
"~*	c #7098A4",
"{*	c #5C6DA3",
"]*	c #6C6FC0",
"^*	c #5A65BE",
"/*	c #6E72D3",
"(*	c #6964CA",
"_*	c #716AC9",
":*	c #6C6CB6",
"<*	c #808BC1",
"[*	c #728EB3",
"}*	c #769BB8",
"|*	c #6E9A9D",
"1*	c #6F93A3",
"2*	c #7B93B5",
"3*	c #7E8BC0",
"4*	c #7E82C9",
"5*	c #7170C0",
"6*	c #6D6BBF",
"7*	c #7876CA",
"8*	c #8D80D0",
"9*	c #8E83D2",
"0*	c #8C83D2",
"a*	c #8C8BD1",
"b*	c #778AB5",
"c*	c #588B84",
"d*	c #3E9852",
"e*	c #3AAF3D",
"f*	c #46A434",
"g*	c #459A33",
"h*	c #5A9751",
"i*	c #779989",
"j*	c #7C8DAB",
"k*	c #748BAA",
"l*	c #6D9D8F",
"m*	c #539A60",
"n*	c #409A43",
"o*	c #399A31",
"p*	c #339A27",
"q*	c #36952D",
"r*	c #439831",
"s*	c #4A933A",
"t*	c #54914C",
"u*	c #7595AE",
"v*	c #7490C0",
"w*	c #7192BF",
"x*	c #6B9796",
"y*	c #5C995E",
"z*	c #509A41",
"A*	c #499F3C",
"B*	c #4AA53E",
"C*	c #389333",
"D*	c #389928",
"E*	c #468751",
"F*	c #759AA3",
"G*	c #738CAB",
"H*	c #729996",
"I*	c #589164",
"J*	c #3A952E",
"K*	c #3D9D32",
"L*	c #38992E",
"M*	c #3C9A3A",
"N*	c #41924F",
"O*	c #498468",
"P*	c #5F858E",
"Q*	c #637C9B",
"R*	c #7C93C9",
"S*	c #7384BC",
"T*	c #828CCA",
"U*	c #6B6FB8",
"V*	c #6971B9",
"W*	c #758BBA",
"X*	c #5C8589",
"Y*	c #568D70",
"Z*	c #4A8D61",
"`*	c #53906F",
" =	c #4E8074",
".=	c #779DA8",
"+=	c #7A92B4",
"@=	c #6272A5",
"#=	c #6D77B5",
"$=	c #6067AD",
"%=	c #9180C6",
"&=	c #8F83CF",
"*=	c #8683D4",
"==	c #7D88C8",
"-=	c #7695B1",
";=	c #639D85",
">=	c #489E57",
",=	c #47994D",
"'=	c #4EA348",
")=	c #4B9A41",
"!=	c #538F5B",
"~=	c #5F8683",
"{=	c #7898A3",
"]=	c #79A692",
"^=	c #528F56",
"/=	c #459944",
"(=	c #349627",
"_=	c #369831",
":=	c #379233",
"<=	c #45953C",
"[=	c #4D8F48",
"}=	c #609567",
"|=	c #7697C2",
"1=	c #7093BD",
"2=	c #6997A4",
"3=	c #529164",
"4=	c #459536",
"5=	c #479E35",
"6=	c #46A03C",
"7=	c #419C3C",
"8=	c #3B9233",
"9=	c #409E2C",
"0=	c #3B942A",
"a=	c #50915B",
"b=	c #7495A4",
"c=	c #97A4D9",
"d=	c #90A4C9",
"e=	c #79989D",
"f=	c #4B9F49",
"g=	c #358F2F",
"h=	c #3D9F32",
"i=	c #2F9226",
"j=	c #369338",
"k=	c #44904F",
"l=	c #468359",
"m=	c #4E8063",
"n=	c #729899",
"o=	c #789B9F",
"p=	c #6F8C9C",
"q=	c #7D95B9",
"r=	c #7490B7",
"s=	c #69939F",
"t=	c #5A946C",
"u=	c #478E3E",
"v=	c #429648",
"w=	c #419347",
"x=	c #428F49",
"y=	c #40834D",
"z=	c #457A5C",
"A=	c #7AA2A2",
"B=	c #758EAC",
"C=	c #8092C2",
"D=	c #8D83C2",
"E=	c #817FC8",
"F=	c #7C8BD0",
"G=	c #7193B9",
"H=	c #6CA094",
"I=	c #50945B",
"J=	c #4A9948",
"K=	c #4CA04A",
"L=	c #65A487",
"M=	c #60AE70",
"N=	c #459E4A",
"O=	c #4C9D62",
"P=	c #569084",
"Q=	c #6F96A5",
"R=	c #719895",
"S=	c #5A8766",
"T=	c #479645",
"U=	c #419736",
"V=	c #38982D",
"W=	c #3C9541",
"X=	c #4A964C",
"Y=	c #518B58",
"Z=	c #6A987E",
"`=	c #6C94AE",
" -	c #6A9AA6",
".-	c #519073",
"+-	c #439540",
"@-	c #3E9D29",
"#-	c #359527",
"$-	c #4DAD49",
"%-	c #419535",
"&-	c #3B972A",
"*-	c #3B9533",
"=-	c #44875B",
"--	c #7696AF",
";-	c #939BDC",
">-	c #9FA4DE",
",-	c #828CB0",
"'-	c #448F4A",
")-	c #3F913D",
"!-	c #3D9E35",
"~-	c #389834",
"{-	c #379137",
"]-	c #449642",
"^-	c #489341",
"/-	c #52825A",
"(-	c #5F8C6D",
"_-	c #5F897D",
":-	c #6B939B",
"<-	c #729EA7",
"[-	c #4C8370",
"}-	c #478D47",
"|-	c #449425",
"1-	c #359438",
"2-	c #3B992B",
"3-	c #4A9342",
"4-	c #4B825A",
"5-	c #5F8588",
"6-	c #7590AE",
"7-	c #8685C1",
"8-	c #838DD2",
"9-	c #6C8CC5",
"0-	c #669CA8",
"a-	c #509465",
"b-	c #4E9841",
"c-	c #489137",
"d-	c #549B4D",
"e-	c #578A7B",
"f-	c #5FAA71",
"g-	c #3EA147",
"h-	c #3E9E56",
"i-	c #4A8F7A",
"j-	c #719DA8",
"k-	c #7B9B9A",
"l-	c #648769",
"m-	c #438D40",
"n-	c #3D9A32",
"o-	c #469D4F",
"p-	c #539B5B",
"q-	c #568D66",
"r-	c #729C90",
"s-	c #6D9DA1",
"t-	c #4E8778",
"u-	c #529D62",
"v-	c #3BA026",
"w-	c #3FA537",
"x-	c #40A23F",
"y-	c #42A23E",
"z-	c #439330",
"A-	c #3F972F",
"B-	c #3E963F",
"C-	c #509370",
"D-	c #7492B4",
"E-	c #969AE3",
"F-	c #9E9BDE",
"G-	c #8586B4",
"H-	c #51965D",
"I-	c #408C42",
"J-	c #3B9136",
"K-	c #3A9933",
"L-	c #339530",
"M-	c #3C9C38",
"N-	c #39962E",
"O-	c #3C9529",
"P-	c #448C40",
"Q-	c #3F893C",
"R-	c #439145",
"S-	c #3F9147",
"T-	c #3E944B",
"U-	c #378D42",
"V-	c #3E9642",
"W-	c #3A9C2F",
"X-	c #3C963C",
"Y-	c #41953F",
"Z-	c #3E903C",
"`-	c #3E903E",
" ;	c #45943B",
".;	c #539653",
"+;	c #689D8D",
"@;	c #858BA5",
"#;	c #8290BD",
"$;	c #6F9AAB",
"%;	c #4F9974",
"&;	c #40A059",
"*;	c #32953A",
"=;	c #3F9733",
"-;	c #469039",
";;	c #46963F",
">;	c #3F9937",
",;	c #4F995E",
"';	c #6E9B94",
");	c #768FAE",
"!;	c #768BB6",
"~;	c #7A92B8",
"{;	c #5B897C",
"];	c #59916C",
"^;	c #4F9364",
"/;	c #4B9B5C",
"(;	c #4CA04B",
"_;	c #529756",
":;	c #709A82",
"<;	c #7A948B",
"[;	c #489B67",
"};	c #3F9E4C",
"|;	c #329B32",
"1;	c #34962F",
"2;	c #3F9532",
"3;	c #44972F",
"4;	c #429E31",
"5;	c #42A73F",
"6;	c #3E9F2C",
"7;	c #3D8F3D",
"8;	c #518E65",
"9;	c #759B9C",
"0;	c #788BB6",
"a;	c #9C9CD8",
"b;	c #8386A7",
"c;	c #779498",
"d;	c #5E8D6D",
"e;	c #499042",
"f;	c #3D9638",
"g;	c #3A943C",
"h;	c #3C9738",
"i;	c #3A9A2E",
"j;	c #439533",
"k;	c #3F9333",
"l;	c #42963E",
"m;	c #39913D",
"n;	c #3B9440",
"o;	c #45A23A",
"p;	c #36962B",
"q;	c #38923A",
"r;	c #3E943D",
"s;	c #3B933C",
"t;	c #3C943D",
"u;	c #3E9932",
"v;	c #42953D",
"w;	c #51986E",
"x;	c #7A9BA4",
"y;	c #6C93A4",
"z;	c #518C78",
"A;	c #398D40",
"B;	c #389A37",
"C;	c #3E9A2B",
"D;	c #41932F",
"E;	c #409135",
"F;	c #419537",
"G;	c #429239",
"H;	c #468C46",
"I;	c #5C906C",
"J;	c #6E9193",
"K;	c #809AB5",
"L;	c #748BB4",
"M;	c #7494A1",
"N;	c #729D93",
"O;	c #629C84",
"P;	c #61AA7C",
"Q;	c #469A4C",
"R;	c #509B58",
"S;	c #568D6D",
"T;	c #709A86",
"U;	c #489D5C",
"V;	c #41A147",
"W;	c #36A032",
"X;	c #389A33",
"Y;	c #409635",
"Z;	c #42932D",
"`;	c #40922C",
" >	c #3F9939",
".>	c #45954E",
"+>	c #4A8D64",
"@>	c #5C8A87",
"#>	c #7A95B0",
"$>	c #7F8BC5",
"%>	c #7E81D0",
"&>	c #898BD6",
"*>	c #8388C0",
"=>	c #728BA9",
"->	c #5F8B7C",
";>	c #498F49",
">>	c #3D932E",
",>	c #38932C",
"'>	c #3A9536",
")>	c #3D9839",
"!>	c #3C9833",
"~>	c #3F9A23",
"{>	c #399624",
"]>	c #3B9830",
"^>	c #369433",
"/>	c #399834",
"(>	c #3B9D2E",
"_>	c #44A82C",
":>	c #44A822",
"<>	c #44A139",
"[>	c #40993F",
"}>	c #3E973D",
"|>	c #3A9538",
"1>	c #3A9E2A",
"2>	c #3B9B2F",
"3>	c #489D59",
"4>	c #639A95",
"5>	c #588F8C",
"6>	c #509264",
"7>	c #3F9B30",
"8>	c #3D9D2F",
"9>	c #399B24",
"0>	c #409D2B",
"a>	c #3C9334",
"b>	c #4C9D40",
"c>	c #3F8A2D",
"d>	c #438C33",
"e>	c #589C53",
"f>	c #579266",
"g>	c #69978D",
"h>	c #7394A5",
"i>	c #7288BA",
"j>	c #7291AD",
"k>	c #709FA7",
"l>	c #4B8D71",
"m>	c #3F9145",
"n>	c #3F9240",
"o>	c #468C4E",
"p>	c #548F57",
"q>	c #3A9143",
"r>	c #379936",
"s>	c #319B2C",
"t>	c #349931",
"u>	c #409736",
"v>	c #469431",
"w>	c #479233",
"x>	c #4B973F",
"y>	c #589075",
"z>	c #6B969C",
"A>	c #7790B8",
"B>	c #7C87BF",
"C>	c #8285CA",
"D>	c #8384D6",
"E>	c #8083D4",
"F>	c #7D84CA",
"G>	c #7D94C6",
"H>	c #6D999A",
"I>	c #569C5E",
"J>	c #429A34",
"K>	c #3A9828",
"L>	c #3C9634",
"M>	c #3A9C25",
"N>	c #369724",
"O>	c #3C9D32",
"P>	c #3A9C2B",
"Q>	c #379A23",
"R>	c #3DA123",
"S>	c #41A624",
"T>	c #43A038",
"U>	c #3D9338",
"V>	c #379032",
"W>	c #379535",
"X>	c #399A27",
"Y>	c #3C9927",
"Z>	c #66969A",
"`>	c #759FAB",
" ,	c #588372",
".,	c #609561",
"+,	c #589760",
"@,	c #398640",
"#,	c #47A33E",
"$,	c #379825",
"%,	c #39983E",
"&,	c #3F9029",
"*,	c #459B2E",
"=,	c #3C9931",
"-,	c #37903C",
";,	c #519B5E",
">,	c #7397AD",
",,	c #76A1A8",
"',	c #6D9F9E",
"),	c #4F8F74",
"!,	c #449247",
"~,	c #489744",
"{,	c #468B4C",
"],	c #49844A",
"^,	c #3D913C",
"/,	c #399832",
"(,	c #339B2C",
"_,	c #339933",
":,	c #399736",
"<,	c #3F942F",
"[,	c #439334",
"},	c #4B9644",
"|,	c #71948E",
"1,	c #8195B6",
"2,	c #878CD0",
"3,	c #807CC9",
"4,	c #867FCC",
"5,	c #8C88D5",
"6,	c #8284CE",
"7,	c #7F87C6",
"8,	c #679396",
"9,	c #4F965E",
"0,	c #3F9635",
"a,	c #3D9A2F",
"b,	c #3D9B3A",
"c,	c #419F3F",
"d,	c #42A13B",
"e,	c #399A29",
"f,	c #3B9C2B",
"g,	c #3C9C30",
"h,	c #3B962D",
"i,	c #40953A",
"j,	c #41972C",
"k,	c #42932C",
"l,	c #4F954F",
"m,	c #7B94AA",
"n,	c #7C8AB9",
"o,	c #8089B4",
"p,	c #7E8EA8",
"q,	c #7796AB",
"r,	c #6A9D96",
"s,	c #509A5F",
"t,	c #499F46",
"u,	c #34904F",
"v,	c #47A14A",
"w,	c #3F9D2F",
"x,	c #2F9621",
"y,	c #31A133",
"z,	c #35A43E",
"A,	c #369635",
"B,	c #459733",
"C,	c #4F9654",
"D,	c #488D4E",
"E,	c #53946A",
"F,	c #4A8D62",
"G,	c #5EA561",
"H,	c #448648",
"I,	c #588E6C",
"J,	c #59866F",
"K,	c #41903D",
"L,	c #3D9733",
"M,	c #399A2F",
"N,	c #359936",
"O,	c #3A9631",
"P,	c #3F933B",
"Q,	c #46964F",
"R,	c #83959F",
"S,	c #7E86B7",
"T,	c #8681D5",
"U,	c #8C82DB",
"V,	c #8B81D7",
"W,	c #877FD2",
"X,	c #8482CB",
"Y,	c #898DCA",
"Z,	c #738AB3",
"`,	c #638C8E",
" '	c #488C5B",
".'	c #3A9039",
"+'	c #3B982D",
"@'	c #3C9829",
"#'	c #429C2A",
"$'	c #3B9234",
"%'	c #459A47",
"&'	c #4A9E53",
"*'	c #499B4F",
"='	c #449B3D",
"-'	c #429C3C",
";'	c #3D963A",
">'	c #3E9A35",
",'	c #419533",
"''	c #41963B",
")'	c #40952E",
"!'	c #439030",
"~'	c #519355",
"{'	c #8095AA",
"]'	c #878DC9",
"^'	c #8886CF",
"/'	c #8685C7",
"('	c #7D86C7",
"_'	c #5D8B81",
":'	c #578F6C",
"<'	c #5B9F88",
"['	c #4B9A63",
"}'	c #3F9E40",
"|'	c #34A134",
"1'	c #2B9E37",
"2'	c #3DA74B",
"3'	c #409530",
"4'	c #489C3A",
"5'	c #53A04E",
"6'	c #519365",
"7'	c #6BA984",
"8'	c #549658",
"9'	c #4C8D4B",
"0'	c #4C8457",
"a'	c #50835A",
"b'	c #3C8F37",
"c'	c #3E942F",
"d'	c #3B9636",
"e'	c #3B993B",
"f'	c #3F9149",
"g'	c #479063",
"h'	c #8290AB",
"i'	c #7F86BD",
"j'	c #8486D1",
"k'	c #8B8AD8",
"l'	c #8582D3",
"m'	c #827ED5",
"n'	c #8382C8",
"o'	c #7E8EC1",
"p'	c #6C90A0",
"q'	c #4D8C6D",
"r'	c #3D8E49",
"s'	c #3C973A",
"t'	c #399226",
"u'	c #409A29",
"v'	c #489547",
"w'	c #4E9664",
"x'	c #569D73",
"y'	c #4E9762",
"z'	c #4D9A52",
"A'	c #44973F",
"B'	c #3F9437",
"C'	c #3F9A3B",
"D'	c #3E9739",
"E'	c #40992F",
"F'	c #389733",
"G'	c #379729",
"H'	c #37922B",
"I'	c #449550",
"J'	c #6C9897",
"K'	c #708EB4",
"L'	c #7B8DBF",
"M'	c #7988AF",
"N'	c #7E8DB8",
"O'	c #90A1BB",
"P'	c #9CADC9",
"Q'	c #7B94B2",
"R'	c #679990",
"S'	c #3E8F54",
"T'	c #35993F",
"U'	c #3C9F45",
"V'	c #459B52",
"W'	c #4B905A",
"X'	c #59966A",
"Y'	c #509658",
"Z'	c #56956A",
"`'	c #659A92",
" )	c #699E94",
".)	c #529359",
"+)	c #48923D",
"@)	c #49953D",
"#)	c #438E2F",
"$)	c #3E9836",
"%)	c #42992E",
"&)	c #40962B",
"*)	c #45953E",
"=)	c #489148",
"-)	c #4B8C62",
";)	c #538A84",
">)	c #7B8DB1",
",)	c #8093BD",
"')	c #768CB3",
"))	c #778BAE",
"!)	c #7A8ABB",
"~)	c #8187D1",
"{)	c #8583D7",
"])	c #736EBE",
"^)	c #686EC6",
"/)	c #627CAD",
"()	c #4C837D",
"_)	c #3C8951",
":)	c #3D953F",
"<)	c #3C9636",
"[)	c #3A9132",
"})	c #53A131",
"|)	c #4C9546",
"1)	c #539370",
"2)	c #6BA898",
"3)	c #60A183",
"4)	c #50975B",
"5)	c #3F8E35",
"6)	c #38953C",
"7)	c #409E30",
"8)	c #3FA32F",
"9)	c #3DA739",
"0)	c #3AA730",
"a)	c #35A02E",
"b)	c #3E9F50",
"c)	c #4A927A",
"d)	c #649EA9",
"e)	c #5A8691",
"f)	c #7B9F9B",
"g)	c #90A9AE",
"h)	c #96A5BC",
"i)	c #9FA0CE",
"j)	c #8A7EC6",
"k)	c #8A84C4",
"l)	c #7D97B0",
"m)	c #4D9071",
"n)	c #429952",
"o)	c #429545",
"p)	c #709C8D",
"q)	c #7094A2",
"r)	c #6CA280",
"s)	c #5D8C7C",
"t)	c #6F95A8",
"u)	c #6D9CA6",
"v)	c #4E9060",
"w)	c #419438",
"x)	c #39962B",
"y)	c #3A9C21",
"z)	c #39992B",
"A)	c #3D9725",
"B)	c #409224",
"C)	c #479034",
"D)	c #529747",
"E)	c #5D9A5F",
"F)	c #689986",
"G)	c #7498AE",
"H)	c #7893B1",
"I)	c #7495A8",
"J)	c #5B827F",
"K)	c #628C7E",
"L)	c #7D8EC2",
"M)	c #7E81CE",
"N)	c #6E6BB8",
"O)	c #5752D0",
"P)	c #5E6FBF",
"Q)	c #50828D",
"R)	c #3F8B5A",
"S)	c #419945",
"T)	c #419A3E",
"U)	c #3E9342",
"V)	c #49A035",
"W)	c #479C3E",
"X)	c #469951",
"Y)	c #57A979",
"Z)	c #59AB85",
"`)	c #3F9764",
" !	c #409F4D",
".!	c #33992C",
"+!	c #2E9C2C",
"@!	c #2FA130",
"#!	c #35AA37",
"$!	c #2B9E29",
"%!	c #38A532",
"&!	c #32982B",
"*!	c #399B36",
"=!	c #379837",
"-!	c #549750",
";!	c #4F994A",
">!	c #4B9C50",
",!	c #479460",
"'!	c #529176",
")!	c #90BAB8",
"!!	c #7A8CB2",
"~!	c #8585CF",
"{!	c #7898A7",
"]!	c #7394A7",
"^!	c #7497AA",
"/!	c #65888A",
"(!	c #608176",
"_!	c #6B8481",
":!	c #838EAA",
"<!	c #8182BB",
"[!	c #7399A4",
"}!	c #708F94",
"|!	c #76959A",
"1!	c #6CA28A",
"2!	c #439C48",
"3!	c #339F32",
"4!	c #339935",
"5!	c #3C9632",
"6!	c #3D922B",
"7!	c #379B38",
"8!	c #419758",
"9!	c #779E9B",
"0!	c #7D8FB3",
"a!	c #7B92BC",
"b!	c #798BB3",
"c!	c #7B91BA",
"d!	c #6E9897",
"e!	c #53986B",
"f!	c #429C52",
"g!	c #429A4C",
"h!	c #5A976E",
"i!	c #7A8AAE",
"j!	c #7966D1",
"k!	c #7669D5",
"l!	c #6773AD",
"m!	c #528777",
"n!	c #378E3D",
"o!	c #3C9F32",
"p!	c #499E40",
"q!	c #5C935C",
"r!	c #6B8872",
"s!	c #4CA052",
"t!	c #4DA050",
"u!	c #419446",
"v!	c #489954",
"w!	c #489859",
"x!	c #4D9E59",
"y!	c #4CA24B",
"z!	c #3E9630",
"A!	c #3A9935",
"B!	c #399B2A",
"C!	c #3EA32D",
"D!	c #3B9A36",
"E!	c #51A25D",
"F!	c #519765",
"G!	c #539862",
"H!	c #4C9152",
"I!	c #559B53",
"J!	c #48943C",
"K!	c #45993B",
"L!	c #4C9D4E",
"M!	c #4A8F56",
"N!	c #6C9982",
"O!	c #8195AE",
"P!	c #8383C9",
"Q!	c #6A8399",
"R!	c #607892",
"S!	c #7791AC",
"T!	c #7A94AD",
"U!	c #7794A4",
"V!	c #7795A0",
"W!	c #73909E",
"X!	c #7E9BAD",
"Y!	c #6C9F8C",
"Z!	c #5E8E74",
"`!	c #5D8D77",
" ~	c #52936B",
".~	c #4CA257",
"+~	c #388F48",
"@~	c #3F865C",
"#~	c #518869",
"$~	c #478458",
"%~	c #468C43",
"&~	c #43A342",
"*~	c #449E58",
"=~	c #6D9A95",
"-~	c #708AAB",
";~	c #7594B0",
">~	c #7A96A1",
",~	c #709A98",
"'~	c #59936B",
")~	c #3F9041",
"!~	c #3B9B37",
"~~	c #49954A",
"{~	c #6E9884",
"]~	c #8190AF",
"^~	c #7D85C3",
"/~	c #788FAF",
"(~	c #4D7B70",
"_~	c #4A8E5B",
":~	c #4B9757",
"<~	c #529466",
"[~	c #709A8C",
"}~	c #758B98",
"|~	c #57A677",
"1~	c #449553",
"2~	c #499B46",
"3~	c #3B8A2E",
"4~	c #509F44",
"5~	c #418D35",
"6~	c #4E9A3F",
"7~	c #4B9D2F",
"8~	c #49A222",
"9~	c #4DA628",
"0~	c #4F9849",
"a~	c #689B94",
"b~	c #7995BA",
"c~	c #7693A1",
"d~	c #4E915C",
"e~	c #4F9C4C",
"f~	c #439934",
"g~	c #39912D",
"h~	c #459540",
"i~	c #589260",
"j~	c #7C9BA0",
"k~	c #7C89C0",
"l~	c #8390C4",
"m~	c #7D88BE",
"n~	c #808AC5",
"o~	c #7E8BC2",
"p~	c #768EB4",
"q~	c #6D959D",
"r~	c #548C6F",
"s~	c #51965F",
"t~	c #488B56",
"u~	c #519655",
"v~	c #42884A",
"w~	c #4A9958",
"x~	c #3E914D",
"y~	c #488B6C",
"z~	c #527591",
"A~	c #808DC2",
"B~	c #7190A5",
"C~	c #5E906D",
"D~	c #449D43",
"E~	c #3D9C4A",
"F~	c #69A38D",
"G~	c #709AA8",
"H~	c #689995",
"I~	c #608D6C",
"J~	c #53966A",
"K~	c #3C952B",
"L~	c #3B9F2D",
"M~	c #3BA131",
"N~	c #429F37",
"O~	c #549D4C",
"P~	c #59925D",
"Q~	c #799CAF",
"R~	c #779BAB",
"S~	c #5C828F",
"T~	c #7499AC",
"U~	c #718FB1",
"V~	c #8094C9",
"W~	c #808ACF",
"X~	c #5FA88B",
"Y~	c #4E9961",
"Z~	c #4D9B45",
"`~	c #4D9B36",
" {	c #4E9C39",
".{	c #459438",
"+{	c #459637",
"@{	c #479C34",
"#{	c #4EA437",
"${	c #3D9618",
"%{	c #3E961E",
"&{	c #559A5B",
"*{	c #729BAD",
"={	c #6F83C8",
"-{	c #7583CA",
";{	c #8491C5",
">{	c #68A289",
",{	c #41884E",
"'{	c #439942",
"){	c #31902C",
"!{	c #47A042",
"~{	c #509C54",
"{{	c #50866E",
"]{	c #769AB0",
"^{	c #7383B7",
"/{	c #7E88C6",
"({	c #8387D0",
"_{	c #8287CB",
":{	c #7A8DB7",
"<{	c #729C9B",
"[{	c #509368",
"}{	c #4C9F59",
"|{	c #44884B",
"1{	c #499743",
"2{	c #3A9037",
"3{	c #36923D",
"4{	c #41944E",
"5{	c #51867C",
"6{	c #6072B0",
"7{	c #746FCD",
"8{	c #8590C6",
"9{	c #71958B",
"0{	c #4BA04D",
"a{	c #359939",
"b{	c #509660",
"c{	c #559072",
"d{	c #4E9263",
"e{	c #4B8B41",
"f{	c #489A5C",
"g{	c #459B42",
"h{	c #3C982D",
"i{	c #33942B",
"j{	c #309431",
"k{	c #389B31",
"l{	c #43A035",
"m{	c #479D38",
"n{	c #4D876E",
"o{	c #618D8C",
"p{	c #7990AF",
"q{	c #7C87BD",
"r{	c #8186CA",
"s{	c #8389D3",
"t{	c #7E83D4",
"u{	c #7F84D8",
"v{	c #629F8D",
"w{	c #51944F",
"x{	c #4F9648",
"y{	c #4B944B",
"z{	c #4E9E55",
"A{	c #469E48",
"B{	c #439F3A",
"C{	c #349136",
"D{	c #3C9D34",
"E{	c #3C9B33",
"F{	c #3C8C45",
"G{	c #59927F",
"H{	c #7297A9",
"I{	c #7692A8",
"J{	c #67838F",
"K{	c #699E8C",
"L{	c #559767",
"M{	c #3C9140",
"N{	c #399A3B",
"O{	c #379934",
"P{	c #3A9337",
"Q{	c #58A267",
"R{	c #4B876E",
"S{	c #8097A9",
"T{	c #7786AD",
"U{	c #888ECC",
"V{	c #7D8CB3",
"W{	c #7D9FAB",
"X{	c #4E807F",
"Y{	c #609D98",
"Z{	c #4F8762",
"`{	c #499249",
" ]	c #38943D",
".]	c #3D8D46",
"+]	c #4E8276",
"@]	c #637AAE",
"#]	c #636BB6",
"$]	c #7D8DB1",
"%]	c #709689",
"&]	c #4DA153",
"*]	c #32992E",
"=]	c #418B3C",
"-]	c #378E47",
";]	c #399234",
">]	c #419931",
",]	c #419C3D",
"']	c #369634",
")]	c #3C992F",
"!]	c #4AA23A",
"~]	c #569963",
"{]	c #55826D",
"]]	c #8496AE",
"^]	c #A09DD2",
"/]	c #9E96D2",
"(]	c #A09DD6",
"_]	c #7D80B5",
":]	c #9FA5D9",
"<]	c #6F979F",
"[]	c #5D897C",
"}]	c #5B8A6A",
"|]	c #6AA287",
"1]	c #5D9E7E",
"2]	c #509F66",
"3]	c #3C9344",
"4]	c #3A9842",
"5]	c #349633",
"6]	c #36972E",
"7]	c #569A61",
"8]	c #5F8F75",
"9]	c #6F978E",
"0]	c #84A9A2",
"a]	c #6BA17D",
"b]	c #438849",
"c]	c #43973F",
"d]	c #35982E",
"e]	c #3B9531",
"f]	c #3C8840",
"g]	c #599772",
"h]	c #677D92",
"i]	c #8998C3",
"j]	c #7F87C5",
"k]	c #858BC7",
"l]	c #7A86B0",
"m]	c #667997",
"n]	c #7690B5",
"o]	c #7B99CB",
"p]	c #70959B",
"q]	c #629B78",
"r]	c #4D995B",
"s]	c #52A15F",
"t]	c #42864B",
"u]	c #588777",
"v]	c #7294AD",
"w]	c #7596B5",
"x]	c #6D9690",
"y]	c #609672",
"z]	c #3F9B48",
"A]	c #329A29",
"B]	c #469829",
"C]	c #49982D",
"D]	c #419740",
"E]	c #3E962E",
"F]	c #3C9527",
"G]	c #358F2B",
"H]	c #389334",
"I]	c #3E9838",
"J]	c #429539",
"K]	c #4E9849",
"L]	c #57896E",
"M]	c #799B9D",
"N]	c #858EB5",
"O]	c #9A95CD",
"P]	c #A69FD5",
"Q]	c #9E9DC9",
"R]	c #9C9FCA",
"S]	c #8488B7",
"T]	c #8191C5",
"U]	c #778AAA",
"V]	c #6B818E",
"W]	c #859DA9",
"X]	c #88A7BB",
"Y]	c #82AAB6",
"Z]	c #6A9F8F",
"`]	c #4F8E63",
" ^	c #49975D",
".^	c #409345",
"+^	c #57915E",
"@^	c #60887D",
"#^	c #7895A3",
"$^	c #98B2CB",
"%^	c #559060",
"&^	c #4F974D",
"*^	c #469C3B",
"=^	c #35912C",
"-^	c #3A9335",
";^	c #479146",
">^	c #548A68",
",^	c #6F949C",
"'^	c #7B80C0",
")^	c #8488D2",
"!^	c #787FC7",
"~^	c #838BCA",
"{^	c #898FCD",
"]^	c #6C71B5",
"^^	c #6669B8",
"/^	c #62898E",
"(^	c #599178",
"_^	c #4D8665",
":^	c #5D8A69",
"<^	c #577B71",
"[^	c #70979E",
"}^	c #558883",
"|^	c #4D9565",
"1^	c #4A9655",
"2^	c #379B3B",
"3^	c #459325",
"4^	c #439026",
"5^	c #33962C",
"6^	c #349A36",
"7^	c #3C9231",
"8^	c #3F982A",
"9^	c #3F9C29",
"0^	c #359529",
"a^	c #448946",
"b^	c #4B815D",
"c^	c #7892A9",
"d^	c #7C8BB6",
"e^	c #797ABA",
"f^	c #A3A0E3",
"g^	c #A2A1DB",
"h^	c #9C9DD3",
"i^	c #8486C3",
"j^	c #8886D1",
"k^	c #8282DC",
"l^	c #8488C8",
"m^	c #8489B3",
"n^	c #8287AF",
"o^	c #99A3D4",
"p^	c #91A2CD",
"q^	c #90ADBB",
"r^	c #608979",
"s^	c #679D9F",
"t^	c #528E72",
"u^	c #488A4D",
"v^	c #5C985C",
"w^	c #6E9A7F",
"x^	c #7C8EB6",
"y^	c #92A0CF",
"z^	c #569966",
"A^	c #4D994E",
"B^	c #459C3E",
"C^	c #449246",
"D^	c #478057",
"E^	c #7F8ACA",
"F^	c #8580C2",
"G^	c #8A89CB",
"H^	c #858ADB",
"I^	c #8387E2",
"J^	c #6260C5",
"K^	c #7168D1",
"L^	c #7366D0",
"M^	c #676FB8",
"N^	c #6E8CA8",
"O^	c #719D9E",
"P^	c #739C94",
"Q^	c #7B998F",
"R^	c #769091",
"S^	c #789EA1",
"T^	c #538D77",
"U^	c #419C57",
"V^	c #419A48",
"W^	c #319A31",
"X^	c #379B2B",
"Y^	c #4B932F",
"Z^	c #489135",
"`^	c #369738",
" /	c #369F40",
"./	c #3E9C2C",
"+/	c #379A2E",
"@/	c #369730",
"#/	c #3A8C37",
"$/	c #4C865D",
"%/	c #759B9E",
"&/	c #7E89B6",
"*/	c #868BC5",
"=/	c #8788CB",
"-/	c #959BCD",
";/	c #9CA4D5",
">/	c #9898DE",
",/	c #8682D9",
"'/	c #887FD8",
")/	c #8680D6",
"!/	c #8881CF",
"~/	c #8A83C6",
"{/	c #8F86BB",
"]/	c #A49ECC",
"^/	c #9899C5",
"//	c #858CBA",
"(/	c #7997B1",
"_/	c #70909F",
":/	c #688291",
"</	c #71829E",
"[/	c #7C89B3",
"}/	c #7D8CC3",
"|/	c #788BC6",
"1/	c #6F8FB8",
"2/	c #76A3A9",
"3/	c #458549",
"4/	c #518D47",
"5/	c #61877A",
"6/	c #788CA7",
"7/	c #8493B4",
"8/	c #7F8BBB",
"9/	c #7C7FB6",
"0/	c #888DCF",
"a/	c #7E80D5",
"b/	c #867EE1",
"c/	c #8776DC",
"d/	c #7765CB",
"e/	c #6055BD",
"f/	c #6663CE",
"g/	c #6F6DC0",
"h/	c #8689CC",
"i/	c #8188BC",
"j/	c #8187B9",
"k/	c #838ABE",
"l/	c #7D89BB",
"m/	c #6F92A5",
"n/	c #448B47",
"o/	c #429543",
"p/	c #31912D",
"q/	c #3C9E2D",
"r/	c #3A9422",
"s/	c #44972B",
"t/	c #429430",
"u/	c #42973A",
"v/	c #418D29",
"w/	c #439823",
"x/	c #429B2F",
"y/	c #498D40",
"z/	c #5D7C7F",
"A/	c #6D73AF",
"B/	c #6271C4",
"C/	c #8389D5",
"D/	c #8B83CE",
"E/	c #8C7EC9",
"F/	c #8C81D0",
"G/	c #8A87D4",
"H/	c #7C81C5",
"I/	c #838DC8",
"J/	c #8585DF",
"K/	c #8384DE",
"L/	c #8486DB",
"M/	c #8584D0",
"N/	c #807BBE",
"O/	c #8B85C1",
"P/	c #8885BE",
"Q/	c #9C9DD6",
"R/	c #8192CA",
"S/	c #7C8EBE",
"T/	c #7C8FB7",
"U/	c #7C8CB0",
"V/	c #7F8BB5",
"W/	c #989FD3",
"X/	c #9AA7DE",
"Y/	c #7687BF",
"Z/	c #7B90C7",
"`/	c #708FAE",
" (	c #5C8974",
".(	c #5D8966",
"+(	c #7D969D",
"@(	c #9CA6C9",
"#(	c #979CC4",
"$(	c #9C9FD6",
"%(	c #9DA2D9",
"&(	c #7C84C2",
"*(	c #848AD4",
"=(	c #8787DF",
"-(	c #8F85E8",
";(	c #7166CE",
">(	c #514CB3",
",(	c #6E72D6",
"'(	c #6F6BCA",
")(	c #7F82C7",
"!(	c #888BCE",
"~(	c #7F89C4",
"{(	c #7198A9",
"](	c #519E56",
"^(	c #409841",
"/(	c #379630",
"((	c #499741",
"_(	c #478D45",
":(	c #458A47",
"<(	c #438E4B",
"[(	c #3F9043",
"}(	c #409834",
"|(	c #339435",
"1(	c #399333",
"2(	c #4C8D57",
"3(	c #7992B0",
"4(	c #8481D8",
"5(	c #6B74C3",
"6(	c #8888BE",
"7(	c #8389BB",
"8(	c #7E88C5",
"9(	c #7F8CD2",
"0(	c #7B87D3",
"a(	c #8285D6",
"b(	c #646CBF",
"c(	c #5F69C0",
"d(	c #6B73C6",
"e(	c #676AB7",
"f(	c #8885CC",
"g(	c #8E89CC",
"h(	c #9B94D7",
"i(	c #979DD9",
"j(	c #97A1D6",
"k(	c #98A3D1",
"l(	c #97A0CB",
"m(	c #99A0CA",
"n(	c #949EC2",
"o(	c #8E9FBB",
"p(	c #96AFC5",
"q(	c #7790A6",
"r(	c #7E949F",
"s(	c #99A4C0",
"t(	c #9D9FC8",
"u(	c #A09DCC",
"v(	c #A19BDB",
"w(	c #9AA0DA",
"x(	c #7A83BC",
"y(	c #7D7BDE",
"z(	c #6967D4",
"A(	c #4F52B9",
"B(	c #6872D1",
"C(	c #7270D3",
"D(	c #7E7BD4",
"E(	c #8584D4",
"F(	c #8A87D6",
"G(	c #807FCB",
"H(	c #7C86C3",
"I(	c #7997B3",
"J(	c #5C888B",
"K(	c #419839",
"L(	c #438D42",
"M(	c #407853",
"N(	c #709B91",
"O(	c #75A49A",
"P(	c #49806B",
"Q(	c #448E5D",
"R(	c #3F933E",
"S(	c #3C9E3B",
"T(	c #448751",
"U(	c #7593AD",
"V(	c #7C7FCC",
"W(	c #7D88C0",
"X(	c #7D8BB0",
"Y(	c #7A8D9B",
"Z(	c #84A19F",
"`(	c #75989A",
" _	c #7193AE",
"._	c #7690CB",
"+_	c #778AD9",
"@_	c #8887C9",
"#_	c #636FC1",
"$_	c #6372C7",
"%_	c #676FC0",
"&_	c #7F81CC",
"*_	c #8882CA",
"=_	c #A19AE0",
"-_	c #9C9BDD",
";_	c #9B9DDA",
">_	c #8388BF",
",_	c #979DCF",
"'_	c #9DA5CC",
")_	c #96A4BE",
"!_	c #95B1B4",
"~_	c #5F8377",
"{_	c #8196A9",
"]_	c #7C8FAF",
"^_	c #6C7EA4",
"/_	c #7B89AE",
"(_	c #9BA3CA",
"__	c #9DA0C9",
":_	c #9D98DB",
"<_	c #9A9BDB",
"[_	c #9CA1D9",
"}_	c #858BC5",
"|_	c #878DD7",
"1_	c #6466CA",
"2_	c #5356C7",
"3_	c #4B52BC",
"4_	c #4C59B5",
"5_	c #6D6CC9",
"6_	c #8484DA",
"7_	c #8988D8",
"8_	c #8784D3",
"9_	c #8986D3",
"0_	c #848DC4",
"a_	c #59847B",
"b_	c #458F5A",
"c_	c #558B67",
"d_	c #627E93",
"e_	c #6273AB",
"f_	c #5A6FA4",
"g_	c #7896B8",
"h_	c #6A9A9E",
"i_	c #57946A",
"j_	c #499650",
"k_	c #429C45",
"l_	c #418C47",
"m_	c #6A9895",
"n_	c #7F97BD",
"o_	c #77999B",
"p_	c #658D82",
"q_	c #5D8E70",
"r_	c #4F8D5C",
"s_	c #4D8F61",
"t_	c #55907E",
"u_	c #6993AB",
"v_	c #7492C8",
"w_	c #887FBE",
"x_	c #8484CC",
"y_	c #6A75C7",
"z_	c #606DC9",
"A_	c #4B54B1",
"B_	c #6B6CC6",
"C_	c #8985DA",
"D_	c #817CCE",
"E_	c #8483D1",
"F_	c #8789D3",
"G_	c #858ACC",
"H_	c #7E88BD",
"I_	c #8093B1",
"J_	c #749898",
"K_	c #598874",
"L_	c #5B8168",
"M_	c #658486",
"N_	c #7B8FB4",
"O_	c #7C89BD",
"P_	c #7E8BB5",
"Q_	c #838FB7",
"R_	c #7D82BA",
"S_	c #9D9EE1",
"T_	c #9F99DF",
"U_	c #9E9CDB",
"V_	c #7B7BB7",
"W_	c #8688D3",
"X_	c #676BCE",
"Y_	c #5256C4",
"Z_	c #565DC7",
"`_	c #4D56B5",
" :	c #6B69CA",
".:	c #6A6AC2",
"+:	c #7D7ED0",
"@:	c #8B89DC",
"#:	c #807FCF",
"$:	c #828AC9",
"%:	c #8097B7",
"&:	c #608389",
"*:	c #48826C",
"=:	c #4D8761",
"-:	c #487F57",
";:	c #4F7172",
">:	c #6F77B8",
",:	c #6E6CD1",
"':	c #696CCB",
"):	c #6472BB",
"!:	c #679787",
"~:	c #4E9366",
"{:	c #459846",
"]:	c #3D9042",
"^:	c #438462",
"/:	c #528684",
"(:	c #438152",
"_:	c #498C59",
"::	c #66B075",
"<:	c #48935A",
"[:	c #5E9582",
"}:	c #7197A2",
"|:	c #908DC6",
"1:	c #8184C7",
"2:	c #5E69BB",
"3:	c #5F6CCA",
"4:	c #6870D3",
"5:	c #6D70D1",
"6:	c #7D79DA",
"7:	c #8A84E4",
"8:	c #8686D0",
"9:	c #7E81C8",
"0:	c #7880BE",
"a:	c #7D8BBA",
"b:	c #718C9F",
"c:	c #4C7A6D",
"d:	c #5B9471",
"e:	c #5A8E67",
"f:	c #719991",
"g:	c #7D92C1",
"h:	c #808DD3",
"i:	c #7E8EC2",
"j:	c #7E8CBD",
"k:	c #808AC8",
"l:	c #969BDD",
"m:	c #A197DC",
"n:	c #A79EE1",
"o:	c #A39CDF",
"p:	c #8B88D5",
"q:	c #696FC7",
"r:	c #4A52B5",
"s:	c #6167C9",
"t:	c #6C6FCE",
"u:	c #6B69CE",
"v:	c #6569C2",
"w:	c #6B72C2",
"x:	c #7C81D2",
"y:	c #8486D9",
"z:	c #7F82D1",
"A:	c #7B85C0",
"B:	c #7D8EB9",
"C:	c #7799A5",
"D:	c #6D948F",
"E:	c #7BA098",
"F:	c #879DB5",
"G:	c #6063B0",
"H:	c #726CDA",
"I:	c #6A6CD3",
"J:	c #616DC1",
"K:	c #8091BF",
"L:	c #7D97A8",
"M:	c #7A9D9F",
"N:	c #4E846A",
"O:	c #439735",
"P:	c #3D8A46",
"Q:	c #478B62",
"R:	c #4A905A",
"S:	c #408858",
"T:	c #418A5C",
"U:	c #3B894D",
"V:	c #429347",
"W:	c #519A55",
"X:	c #548D64",
"Y:	c #6E988A",
"Z:	c #7B8AA7",
"`:	c #7E94CD",
" <	c #6276BD",
".<	c #606BBB",
"+<	c #8183D8",
"@<	c #918DE4",
"#<	c #827CD4",
"$<	c #8181BD",
"%<	c #8A8CC7",
"&<	c #8892C5",
"*<	c #64828A",
"=<	c #5D8F76",
"-<	c #407F52",
";<	c #4B7E75",
"><	c #6876C1",
",<	c #6569CD",
"'<	c #666DBB",
")<	c #5F6AAC",
"!<	c #898FD9",
"~<	c #9A9EDE",
"{<	c #A89FDE",
"]<	c #A297D9",
"^<	c #A399DE",
"/<	c #818AD5",
"(<	c #7B88D7",
"_<	c #838BE0",
":<	c #7F80DC",
"<<	c #6D75BE",
"[<	c #7383BE",
"}<	c #8291CC",
"|<	c #7F87CF",
"1<	c #8284D1",
"2<	c #8A8BCC",
"3<	c #7A8AAC",
"4<	c #94AEBD",
"5<	c #5C7A82",
"6<	c #7E96B2",
"7<	c #6972B3",
"8<	c #6165BE",
"9<	c #717BD0",
"0<	c #5B6FB6",
"a<	c #4F7E6A",
"b<	c #5C8972",
"c<	c #6F9A93",
"d<	c #5B8C77",
"e<	c #4F9245",
"f<	c #4C9730",
"g<	c #479041",
"h<	c #448752",
"i<	c #4B8475",
"j<	c #568984",
"k<	c #568783",
"l<	c #699E84",
"m<	c #4A8451",
"n<	c #508A50",
"o<	c #598B68",
"p<	c #779F96",
"q<	c #759892",
"r<	c #5C8189",
"s<	c #7397AF",
"t<	c #728FB7",
"u<	c #7F8FC3",
"v<	c #8387C4",
"w<	c #8380C3",
"x<	c #9D9ADF",
"y<	c #8283C4",
"z<	c #7A80BC",
"A<	c #8491BE",
"B<	c #7793A8",
"C<	c #4D7D71",
"D<	c #6FAC8B",
"E<	c #4C7A94",
"F<	c #5E7AAA",
"G<	c #6368D0",
"H<	c #5750D1",
"I<	c #6C6CCE",
"J<	c #6C71C3",
"K<	c #8081D3",
"L<	c #8684C5",
"M<	c #9D98CE",
"N<	c #A39AD9",
"O<	c #898ACD",
"P<	c #7D8BC8",
"Q<	c #7486C6",
"R<	c #7E87D2",
"S<	c #8383DB",
"T<	c #7A91B1",
"U<	c #7891B0",
"V<	c #7D8BBC",
"W<	c #8882C8",
"X<	c #8982C6",
"Y<	c #9BA4CD",
"Z<	c #7589A2",
"`<	c #809CA8",
" [	c #557187",
".[	c #6173A5",
"+[	c #6B7ABD",
"@[	c #576CAB",
"#[	c #5E7DB3",
"$[	c #438F51",
"%[	c #4C9061",
"&[	c #699E98",
"*[	c #6C9D99",
"=[	c #5B965C",
"-[	c #4D8D39",
";[	c #538E56",
">[	c #4D8268",
",[	c #597C9A",
"'[	c #617DA4",
")[	c #61799B",
"![	c #5F7C80",
"~[	c #598061",
"{[	c #5A875E",
"][	c #769F8D",
"^[	c #5E8089",
"/[	c #489853",
"([	c #3D8C4B",
"_[	c #509662",
":[	c #4D8465",
"<[	c #94A2BD",
"[[	c #9898CA",
"}[	c #A39DDB",
"|[	c #9E9CDD",
"1[	c #8989D1",
"2[	c #8283D5",
"3[	c #8687D9",
"4[	c #8385CF",
"5[	c #818FBE",
"6[	c #798FB6",
"7[	c #5F67AF",
"8[	c #6A6BC8",
"9[	c #736ED5",
"0[	c #6C65CC",
"a[	c #6E6AC8",
"b[	c #8F91E6",
"c[	c #787DD1",
"d[	c #8B80CE",
"e[	c #9289C8",
"f[	c #8181B7",
"g[	c #7E8ABC",
"h[	c #64819F",
"i[	c #5E838B",
"j[	c #607D8B",
"k[	c #7F91B9",
"l[	c #788CC1",
"m[	c #739C9E",
"n[	c #53886C",
"o[	c #638D89",
"p[	c #7B95A6",
"q[	c #808AAE",
"r[	c #8583CE",
"s[	c #97A3DF",
"t[	c #748DAC",
"u[	c #6D9A93",
"v[	c #4F8764",
"w[	c #4A8559",
"x[	c #559074",
"y[	c #39993F",
"z[	c #448A68",
"A[	c #769CB3",
"B[	c #738EAB",
"C[	c #6F938F",
"D[	c #5C8678",
"E[	c #799CB0",
"F[	c #5B70AF",
"G[	c #636FC3",
"H[	c #7176B8",
"I[	c #898AB6",
"J[	c #6D7395",
"K[	c #7387A8",
"L[	c #7895B3",
"M[	c #91ACBF",
"N[	c #667D85",
"O[	c #469B4A",
"P[	c #419645",
"Q[	c #409047",
"R[	c #45844D",
"S[	c #568068",
"T[	c #677B84",
"U[	c #ABB0D6",
"V[	c #9898CE",
"W[	c #7E82BF",
"X[	c #8589D0",
"Y[	c #8487D8",
"Z[	c #8380D7",
"`[	c #8580D4",
" }	c #8480CC",
".}	c #8083C6",
"+}	c #8088C6",
"@}	c #7E87C8",
"#}	c #7076C4",
"$}	c #6F6ECB",
"%}	c #6B65C7",
"&}	c #6F68C7",
"*}	c #8783D8",
"=}	c #807ED1",
"-}	c #8788DA",
";}	c #8580C0",
">}	c #8E8ECA",
",}	c #7C86C1",
"'}	c #728AB6",
")}	c #7292AB",
"!}	c #7991B3",
"~}	c #7988BF",
"{}	c #848BD3",
"]}	c #728BB3",
"^}	c #599071",
"/}	c #498F47",
"(}	c #46874F",
"_}	c #558965",
":}	c #7CA092",
"<}	c #768FA3",
"[}	c #71969E",
"}}	c #69998D",
"|}	c #529369",
"1}	c #428C4F",
"2}	c #418C49",
"3}	c #478F4D",
"4}	c #488F53",
"5}	c #418E48",
"6}	c #5D937C",
"7}	c #6984A1",
"8}	c #70899D",
"9}	c #74919F",
"0}	c #828CD4",
"a}	c #5D6BC4",
"b}	c #7E87CC",
"c}	c #878CB6",
"d}	c #74829F",
"e}	c #8299B8",
"f}	c #84A0C5",
"g}	c #849CC2",
"h}	c #8292B4",
"i}	c #5AB663",
"j}	c #46A34A",
"k}	c #3C9237",
"l}	c #4A9246",
"m}	c #508154",
"n}	c #7E9696",
"o}	c #A0A8CD",
"p}	c #9293CC",
"q}	c #848FC5",
"r}	c #8481DA",
"s}	c #887FDA",
"t}	c #9086DF",
"u}	c #9189DF",
"v}	c #837FD3",
"w}	c #7F85D1",
"x}	c #8386D7",
"y}	c #6C6CC2",
"z}	c #706CC1",
"A}	c #8D88D8",
"B}	c #8480CD",
"C}	c #8885D4",
"D}	c #827FD0",
"E}	c #8582CF",
"F}	c #8A89CD",
"G}	c #8485C6",
"H}	c #7D84C8",
"I}	c #7C8CC7",
"J}	c #7E94C5",
"K}	c #808AD1",
"L}	c #5B7E91",
"M}	c #519854",
"N}	c #3E9C24",
"O}	c #499A3E",
"P}	c #52984F",
"Q}	c #56925E",
"R}	c #4D9067",
"S}	c #509D67",
"T}	c #3B924D",
"U}	c #3A9546",
"V}	c #3C9543",
"W}	c #3F9441",
"X}	c #3C903A",
"Y}	c #489C44",
"Z}	c #57925C",
"`}	c #729B89",
" |	c #7D93AB",
".|	c #7785B6",
"+|	c #7E8BBF",
"@|	c #8287C7",
"#|	c #817ECD",
"$|	c #7E8BDA",
"%|	c #7A84C1",
"&|	c #727FA1",
"*|	c #7F91A5",
"=|	c #5F7C8E",
"-|	c #7998B5",
";|	c #7A8BB9",
">|	c #3C934C",
",|	c #4AA44D",
"'|	c #49A03F",
")|	c #458F3A",
"!|	c #588A59",
"~|	c #7E9899",
"{|	c #757CA8",
"]|	c #A4A3E7",
"^|	c #7B88BD",
"/|	c #838ECC",
"(|	c #817FD3",
"_|	c #9087E0",
":|	c #877FD5",
"<|	c #7B77CB",
"[|	c #8889DB",
"}|	c #8288D2",
"||	c #7B82CA",
"1|	c #8A8FD3",
"2|	c #7B7FBF",
"3|	c #8788C9",
"4|	c #8382C6",
"5|	c #8987D2",
"6|	c #8481D0",
"7|	c #8382D2",
"8|	c #7E7CC7",
"9|	c #8085C9",
"0|	c #7B83C4",
"a|	c #8589D2",
"b|	c #7E8EC9",
"c|	c #709A99",
"d|	c #449342",
"e|	c #369C1C",
"f|	c #35A01E",
"g|	c #2F9321",
"h|	c #409D33",
"i|	c #459E4E",
"j|	c #3E9C44",
"k|	c #359639",
"l|	c #3A9A39",
"m|	c #3B9637",
"n|	c #399031",
"o|	c #479F3B",
"p|	c #47A338",
"q|	c #559656",
"r|	c #6FA47A",
"s|	c #7D83CD",
"t|	c #8481CE",
"u|	c #9085D3",
"v|	c #888DDE",
"w|	c #797DC4",
"x|	c #8289C0",
"y|	c #7A89B4",
"z|	c #7A93BB",
"A|	c #7491BB",
"B|	c #7A95C4",
"C|	c #7A91C3",
"D|	c #63B271",
"E|	c #479B46",
"F|	c #428B31",
"G|	c #5A8C59",
"H|	c #799394",
"I|	c #9FA6D2",
"J|	c #8D8CCE",
"K|	c #868FC6",
"L|	c #8084CD",
"M|	c #8786D2",
"N|	c #8484CA",
"O|	c #818ACD",
"P|	c #7D8CCD",
"Q|	c #7F88C3",
"R|	c #848EC3",
"S|	c #8087BE",
"T|	c #9499D9",
"U|	c #9598DD",
"V|	c #8D8DD7",
"W|	c #8785D9",
"X|	c #807CD0",
"Y|	c #8883D3",
"Z|	c #8A84CE",
"`|	c #8780C6",
" 1	c #8B85CB",
".1	c #A5A4E6",
"+1	c #7B80BA",
"@1	c #7089A8",
"#1	c #70A090",
"$1	c #509D55",
"%1	c #45A63D",
"&1	c #3CA435",
"*1	c #30952F",
"=1	c #389938",
"-1	c #389930",
";1	c #40A138",
">1	c #40A035",
",1	c #359029",
"'1	c #499D3B",
")1	c #428E33",
"!1	c #469335",
"~1	c #469931",
"{1	c #46A02F",
"]1	c #469C43",
"^1	c #408D3F",
"/1	c #539162",
"(1	c #778EBA",
"_1	c #7D87CC",
":1	c #8687CA",
"<1	c #8986BF",
"[1	c #7D7FD6",
"}1	c #8A89E6",
"|1	c #8888EA",
"11	c #8085E3",
"21	c #6271C2",
"31	c #5970B4",
"41	c #5673AB",
"51	c #6C8CBF",
"61	c #43894D",
"71	c #4E9947",
"81	c #54A23F",
"91	c #51973F",
"01	c #669867",
"a1	c #769293",
"b1	c #94A0C6",
"c1	c #7D82B9",
"d1	c #797DBA",
"e1	c #8588CF",
"f1	c #8B8BD3",
"g1	c #9E9DE1",
"h1	c #9A9EDB",
"i1	c #818EC5",
"j1	c #7287BC",
"k1	c #9CA0DD",
"l1	c #9AA1D8",
"m1	c #8D97CA",
"n1	c #96A2D6",
"o1	c #98A2DD",
"p1	c #858ACA",
"q1	c #8084C3",
"r1	c #9899E9",
"s1	c #8889DC",
"t1	c #8582D1",
"u1	c #8B84C8",
"v1	c #8A7DC2",
"w1	c #8F83CB",
"x1	c #A19FDE",
"y1	c #7F88B3",
"z1	c #6E978F",
"A1	c #548E65",
"B1	c #4E9A59",
"C1	c #349232",
"D1	c #439F48",
"E1	c #3E994A",
"F1	c #38963E",
"G1	c #378F3B",
"H1	c #3A8A41",
"I1	c #559561",
"J1	c #4B7C5C",
"K1	c #75A188",
"L1	c #4D7F5A",
"M1	c #4D9154",
"N1	c #3E9141",
"O1	c #319B2F",
"P1	c #379733",
"Q1	c #419245",
"R1	c #5C9575",
"S1	c #7D94BE",
"T1	c #7486AA",
"U1	c #7D8FA5",
"V1	c #7E93BE",
"W1	c #7887C8",
"X1	c #686FC7",
"Y1	c #6066C4",
"Z1	c #6B76C5",
"`1	c #647BAF",
" 2	c #5F82A0",
".2	c #537E91",
"+2	c #4B885F",
"@2	c #498D50",
"#2	c #539B4F",
"$2	c #529454",
"%2	c #56886F",
"&2	c #7998AA",
"*2	c #91A2D0",
"=2	c #949ED9",
"-2	c #8887D3",
";2	c #8179C2",
">2	c #8987C8",
",2	c #9197D5",
"'2	c #8695D0",
")2	c #8E88CE",
"!2	c #8582C5",
"~2	c #A1A2E2",
"{2	c #959ADC",
"]2	c #9CA0E7",
"^2	c #7E83BD",
"/2	c #9B9FCF",
"(2	c #969EE6",
"_2	c #8E96E1",
":2	c #8A85C5",
"<2	c #8B80C4",
"[2	c #8493BA",
"}2	c #4D8B5A",
"|2	c #478F46",
"12	c #3F8D41",
"22	c #4FA34E",
"32	c #489D35",
"42	c #4A9F42",
"52	c #4DA05A",
"62	c #368D46",
"72	c #408A59",
"82	c #4C8574",
"92	c #587A96",
"02	c #6772B4",
"a2	c #6C72BC",
"b2	c #6379A8",
"c2	c #487C78",
"d2	c #418D66",
"e2	c #35A038",
"f2	c #339832",
"g2	c #3F933D",
"h2	c #468451",
"i2	c #59847A",
"j2	c #7597A1",
"k2	c #789E9F",
"l2	c #719C8B",
"m2	c #528D71",
"n2	c #70A0A2",
"o2	c #597A9D",
"p2	c #687AAA",
"q2	c #667698",
"r2	c #617A81",
"s2	c #51776C",
"t2	c #50816C",
"u2	c #669C8C",
"v2	c #4F8F6C",
"w2	c #4F9563",
"x2	c #52926F",
"y2	c #6C9E9F",
"z2	c #7191BA",
"A2	c #7C90CF",
"B2	c #7889CF",
"C2	c #8082CD",
"D2	c #8E85D6",
"E2	c #9183D2",
"F2	c #8884CE",
"G2	c #8082CC",
"H2	c #8C7DD0",
"I2	c #8F84D2",
"J2	c #8682CE",
"K2	c #8584D2",
"L2	c #8182D2",
"M2	c #8686CE",
"N2	c #8D8EC4",
"O2	c #8688AF",
"P2	c #7C8CC8",
"Q2	c #7988CD",
"R2	c #98A1E4",
"S2	c #8888C4",
"T2	c #8E85C8",
"U2	c #7E86C7",
"V2	c #428E43",
"W2	c #439437",
"X2	c #499C42",
"Y2	c #489A38",
"Z2	c #44981C",
"`2	c #4FA135",
" 3	c #469850",
".3	c #5DB26F",
"+3	c #65A87F",
"@3	c #4F7F83",
"#3	c #6877BC",
"$3	c #5A4FC9",
"%3	c #5C4CD0",
"&3	c #5057AF",
"*3	c #538296",
"=3	c #428D6E",
"-3	c #309338",
";3	c #3C9A3C",
">3	c #3F8E3B",
",3	c #4E8B52",
"'3	c #5D8972",
")3	c #6E988C",
"!3	c #568771",
"~3	c #57946B",
"{3	c #469C5B",
"]3	c #3F8968",
"^3	c #4C7D81",
"/3	c #678496",
"(3	c #5C7077",
"_3	c #627A6D",
":3	c #7FA58C",
"<3	c #58896C",
"[3	c #748CB0",
"}3	c #7E92B7",
"|3	c #8593BA",
"13	c #8289B7",
"23	c #8083B8",
"33	c #9A9CD5",
"43	c #989DD4",
"53	c #848BBF",
"63	c #8394CC",
"73	c #787FC3",
"83	c #8683D2",
"93	c #8D83CC",
"03	c #8086DE",
"a3	c #5F68CD",
"b3	c #6E6ABE",
"c3	c #736CD3",
"d3	c #6B66CA",
"e3	c #8784DF",
"f3	c #7F80D3",
"g3	c #8492BF",
"h3	c #618585",
"i3	c #57877B",
"j3	c #8085C5",
"k3	c #9A9EE8",
"l3	c #807DCE",
"m3	c #9284D9",
"n3	c #8E76D6",
"o3	c #7C67CC",
"p3	c #6D6CBC",
"q3	c #7C8CC0",
"r3	c #3D8D52",
"s3	c #449B2A",
"t3	c #499E36",
"u3	c #4A9C3A",
"v3	c #489C2A",
"w3	c #459C27",
"x3	c #469C31",
"y3	c #469752",
"z3	c #478669",
"A3	c #5D8396",
"B3	c #676DC3",
"C3	c #5A49CD",
"D3	c #5847CB",
"E3	c #565EAF",
"F3	c #527E89",
"G3	c #42865D",
"H3	c #3B904F",
"I3	c #3C944A",
"J3	c #588860",
"K3	c #778AA8",
"L3	c #7C96AF",
"M3	c #4B8F60",
"N3	c #2B962E",
"O3	c #51A243",
"P3	c #489047",
"Q3	c #4A8358",
"R3	c #73A389",
"S3	c #6A8286",
"T3	c #8C93AF",
"U3	c #8784B1",
"V3	c #818ED4",
"W3	c #757EBF",
"X3	c #888CC9",
"Y3	c #8686C2",
"Z3	c #8681C3",
"`3	c #A6A3E6",
" 4	c #9D9DDD",
".4	c #999BD8",
"+4	c #7A7DC2",
"@4	c #8D8CD8",
"#4	c #8480D4",
"$4	c #8E8BD8",
"%4	c #817FD2",
"&4	c #6969CB",
"*4	c #5858C8",
"=4	c #5A52B9",
"-4	c #5851C1",
";4	c #5653BA",
">4	c #6B6AC7",
",4	c #8688DD",
"'4	c #7686B9",
")4	c #5A7B84",
"!4	c #6F9997",
"~4	c #7B8BBC",
"{4	c #808ECD",
"]4	c #888EDC",
"^4	c #827CD2",
"/4	c #786ACB",
"(4	c #746ACB",
"_4	c #656FB6",
":4	c #5E7AA1",
"<4	c #3C975E",
"[4	c #348B2C",
"}4	c #49904E",
"|4	c #4D894D",
"14	c #478E40",
"24	c #50A444",
"34	c #4AA150",
"44	c #3E846A",
"54	c #588491",
"64	c #6655C8",
"74	c #7967DF",
"84	c #626CB4",
"94	c #578988",
"04	c #428F59",
"a4	c #349335",
"b4	c #5CA458",
"c4	c #709B80",
"d4	c #7C8EB4",
"e4	c #839BBD",
"f4	c #4A8567",
"g4	c #3B9649",
"h4	c #4C9B42",
"i4	c #469045",
"j4	c #4B8F56",
"k4	c #66A27E",
"l4	c #558879",
"m4	c #71939D",
"n4	c #8191B5",
"o4	c #9B9CD4",
"p4	c #8887D5",
"q4	c #8580C3",
"r4	c #8C86C2",
"s4	c #9088C4",
"t4	c #9993CF",
"u4	c #9F9ED8",
"v4	c #9E9FD7",
"w4	c #8E85D4",
"x4	c #8A82D5",
"y4	c #8884D8",
"z4	c #8283D3",
"A4	c #6E70C5",
"B4	c #6C66D0",
"C4	c #5850C9",
"D4	c #564BC1",
"E4	c #5B56CE",
"F4	c #5052B6",
"G4	c #656BBF",
"H4	c #7C82D6",
"I4	c #7E8DC8",
"J4	c #607A91",
"K4	c #7A9BAA",
"L4	c #778DB2",
"M4	c #788DC4",
"N4	c #7583CC",
"O4	c #8287DB",
"P4	c #706CCB",
"Q4	c #6A6DCA",
"R4	c #6176B5",
"S4	c #547E96",
"T4	c #358D67",
"U4	c #429054",
"V4	c #6C9B93",
"W4	c #8099B7",
"X4	c #7A95A6",
"Y4	c #5D8978",
"Z4	c #4B924E",
"`4	c #4D9A6E",
" 5	c #477B77",
".5	c #6474AF",
"+5	c #6F68D0",
"@5	c #726BD3",
"#5	c #768ABD",
"$5	c #4B8668",
"%5	c #378D34",
"&5	c #3CA030",
"*5	c #479B45",
"=5	c #528D53",
"-5	c #63827D",
";5	c #6F83B5",
">5	c #719D9C",
",5	c #569576",
"'5	c #4B9256",
")5	c #559D5D",
"!5	c #4A9753",
"~5	c #3E8B55",
"{5	c #68A991",
"]5	c #588894",
"^5	c #778FBD",
"/5	c #8683DE",
"(5	c #A39FF3",
"_5	c #8680C8",
":5	c #8D84C5",
"<5	c #9188C9",
"[5	c #847FC1",
"}5	c #8384C4",
"|5	c #A19AE7",
"15	c #847DCB",
"25	c #857ECB",
"35	c #8987D0",
"45	c #8280D3",
"55	c #6866C9",
"65	c #726FE0",
"75	c #706AD8",
"85	c #696BD0",
"95	c #6571B9",
"05	c #6578B2",
"a5	c #818FD8",
"b5	c #7B89CA",
"c5	c #788BB5",
"d5	c #8191C2",
"e5	c #7988C9",
"f5	c #8592E0",
"g5	c #7172CE",
"h5	c #696EC9",
"i5	c #5A72AE",
"j5	c #4D7A91",
"k5	c #65A09C",
"l5	c #5C8C7E",
"m5	c #7489B6",
"n5	c #8081D4",
"o5	c #7F81CB",
"p5	c #7B91B6",
"q5	c #76A791",
"r5	c #4F925D",
"s5	c #4D916A",
"t5	c #6A9F99",
"u5	c #7192B5",
"v5	c #7B8EC9",
"w5	c #788DBA",
"x5	c #689092",
"y5	c #4A875B",
"z5	c #4A9749",
"A5	c #368E3A",
"B5	c #559865",
"C5	c #779C8A",
"D5	c #8998AF",
"E5	c #8186C8",
"F5	c #7194A7",
"G5	c #6BA39A",
"H5	c #529270",
"I5	c #4B9556",
"J5	c #3B8C49",
"K5	c #49956E",
"L5	c #669DA0",
"M5	c #7D8BCA",
"N5	c #7F80DA",
"O5	c #8686DC",
"P5	c #817DD1",
"Q5	c #8183DA",
"R5	c #8389DD",
"S5	c #999EDE",
"T5	c #A0A0E0",
"U5	c #A39ADB",
"V5	c #8E7FC0",
"W5	c #887CBE",
"X5	c #8489DA",
"Y5	c #7985DB",
"Z5	c #7B89C8",
"`5	c #537189",
" 6	c #7293A4",
".6	c #818FCE",
"+6	c #7E87C2",
"@6	c #8388CA",
"#6	c #8186DA",
"$6	c #5F63BC",
"%6	c #6A6CC1",
"&6	c #6D6AC3",
"*6	c #686CC3",
"=6	c #798FC9",
"-6	c #729AB4",
";6	c #677D94",
">6	c #8394A6",
",6	c #8C8ED8",
"'6	c #827ADF",
")6	c #8884DB",
"!6	c #7C84C5",
"~6	c #768EA6",
"{6	c #7B9EA0",
"]6	c #6B9B9F",
"^6	c #51808A",
"/6	c #6D9CA4",
"(6	c #4E8075",
"_6	c #588F68",
":6	c #5F976A",
"<6	c #5B8D70",
"[6	c #57867C",
"}6	c #599281",
"|6	c #7197A0",
"16	c #95A6C0",
"26	c #8284B5",
"36	c #777CBE",
"46	c #8092BA",
"56	c #758DB3",
"66	c #678EB5",
"76	c #66979B",
"86	c #599770",
"96	c #50975D",
"06	c #509568",
"a6	c #68A095",
"b6	c #5D7F98",
"c6	c #7C8EBC",
"d6	c #8185CC",
"e6	c #8C8DDF",
"f6	c #696DC8",
"g6	c #7D85D8",
"h6	c #7886D1",
"i6	c #9BA0D8",
"j6	c #A096D2",
"k6	c #AC9AD6",
"l6	c #AF9FDD",
"m6	c #817BBB",
"n6	c #7B85C3",
"o6	c #798DCA",
"p6	c #7D8EBC",
"q6	c #7796AA",
"r6	c #4F7F65",
"s6	c #4F8466",
"t6	c #7194A8",
"u6	c #798AC2",
"v6	c #8586C9",
"w6	c #8982D2",
"x6	c #867CDC",
"y6	c #6C65CD",
"z6	c #726FD6",
"A6	c #6D6CCA",
"B6	c #7572CD",
"C6	c #676CBD",
"D6	c #748CBC",
"E6	c #5C8692",
"F6	c #81919E",
"G6	c #8390A0",
"H6	c #8285CC",
"I6	c #8387C7",
"J6	c #7E87BE",
"K6	c #748EB1",
"L6	c #7799B4",
"M6	c #69949B",
"N6	c #497D66",
"O6	c #599164",
"P6	c #5B8A66",
"Q6	c #729694",
"R6	c #7E97B5",
"S6	c #778EB7",
"T6	c #959AD4",
"U6	c #9C97D7",
"V6	c #8F87D4",
"W6	c #868BC3",
"X6	c #7993A4",
"Y6	c #60858D",
"Z6	c #799EC8",
"`6	c #6C92A7",
" 7	c #5B8D74",
".7	c #598E74",
"+7	c #538176",
"@7	c #799CA2",
"#7	c #7590A1",
"$7	c #6A818F",
"%7	c #7E8FAB",
"&7	c #7B85B8",
"*7	c #6668BD",
"=7	c #646BBB",
"-7	c #8593D2",
";7	c #798DBF",
">7	c #828CC7",
",7	c #8085BF",
"'7	c #8783BE",
")7	c #A096D3",
"!7	c #A69CDB",
"~7	c #9E9DD9",
"{7	c #9CA3DA",
"]7	c #7C8ABB",
"^7	c #7590A5",
"/7	c #6A9488",
"(7	c #478846",
"_7	c #458845",
":7	c #5D8A85",
"<7	c #7F91BF",
"[7	c #8D7DD5",
"}7	c #7166C6",
"|7	c #7068D7",
"17	c #5554C9",
"27	c #4F4FBD",
"37	c #4C4EB2",
"47	c #6571BD",
"57	c #7998B4",
"67	c #5A8E78",
"77	c #5D8A6B",
"87	c #729889",
"97	c #768BBA",
"07	c #828DC3",
"a7	c #848EB1",
"b7	c #868EBF",
"c7	c #7A82C1",
"d7	c #848BDC",
"e7	c #788BB3",
"f7	c #778FA7",
"g7	c #738D9A",
"h7	c #728C99",
"i7	c #849AB1",
"j7	c #7B8EAE",
"k7	c #7887AE",
"l7	c #817FC0",
"m7	c #9CA1E5",
"n7	c #8889CC",
"o7	c #8983CD",
"p7	c #5A856A",
"q7	c #52965D",
"r7	c #679497",
"s7	c #6C929F",
"t7	c #7F9BB1",
"u7	c #728CA3",
"v7	c #7996A4",
"w7	c #7B9F9F",
"x7	c #6B9088",
"y7	c #749A8F",
"z7	c #647D84",
"A7	c #8094AD",
"B7	c #6A6CBF",
"C7	c #8687C7",
"D7	c #8989C7",
"E7	c #9796D8",
"F7	c #A4A6E3",
"G7	c #7F82B7",
"H7	c #47795E",
"I7	c #4A923E",
"J7	c #5D917B",
"K7	c #788CB1",
"L7	c #8883C5",
"M7	c #937FD6",
"N7	c #6F69C1",
"O7	c #5854C2",
"P7	c #4E4FCD",
"Q7	c #5256D1",
"R7	c #646BD6",
"S7	c #5E70B8",
"T7	c #577F87",
"U7	c #65A372",
"V7	c #3F9044",
"W7	c #58996E",
"X7	c #6B90AB",
"Y7	c #7C90B3",
"Z7	c #6E7E8B",
"`7	c #828CAF",
" 8	c #7F89C6",
".8	c #7983DC",
"+8	c #7883D5",
"@8	c #848FC7",
"#8	c #848DAC",
"$8	c #8285A4",
"%8	c #8989BD",
"&8	c #8F80C1",
"*8	c #7C85C8",
"=8	c #8493A8",
"-8	c #558F52",
";8	c #45A134",
">8	c #578F68",
",8	c #778AB2",
"'8	c #8490CA",
")8	c #7889B5",
"!8	c #638C7E",
"~8	c #5B896C",
"{8	c #7E8DAA",
"]8	c #7C8DB8",
"^8	c #5E71AC",
"/8	c #6C7BC0",
"(8	c #6570B2",
"_8	c #7F8CC3",
":8	c #8689D6",
"<8	c #8485DF",
"[8	c #8080D6",
"}8	c #8986D7",
"|8	c #877ECD",
"18	c #7D87BA",
"28	c #577A76",
"38	c #488653",
"48	c #498964",
"58	c #6A93AF",
"68	c #7D87DC",
"78	c #837CDB",
"88	c #9285D5",
"98	c #6A67CE",
"08	c #5356C9",
"a8	c #474FCE",
"b8	c #4D59CF",
"c8	c #6077C3",
"d8	c #6D99A4",
"e8	c #458E56",
"f8	c #459429",
"g8	c #519D52",
"h8	c #4E976A",
"i8	c #529874",
"j8	c #63A07F",
"k8	c #55827D",
"l8	c #6075AA",
"m8	c #656AD0",
"n8	c #6770BF",
"o8	c #7990C6",
"p8	c #6E90B6",
"q8	c #6E95B6",
"r8	c #7094B4",
"s8	c #5B7E9A",
"t8	c #7898B1",
"u8	c #8583B4",
"v8	c #888FD5",
"w8	c #7785DE",
"x8	c #767EE0",
"y8	c #888DE1",
"z8	c #748BAD",
"A8	c #478C56",
"B8	c #36A120",
"C8	c #4C9A4E",
"D8	c #569367",
"E8	c #6C978D",
"F8	c #759A93",
"G8	c #6E9B7C",
"H8	c #5E995F",
"I8	c #4D944E",
"J8	c #4C9955",
"K8	c #557F7B",
"L8	c #587B8F",
"M8	c #647EAF",
"N8	c #6170B1",
"O8	c #7983C0",
"P8	c #5F868D",
"Q8	c #7896B0",
"R8	c #7A86C0",
"S8	c #8483C5",
"T8	c #8486BF",
"U8	c #8A90C0",
"V8	c #888FBD",
"W8	c #7692A0",
"X8	c #5E8E82",
"Y8	c #659796",
"Z8	c #56769F",
"`8	c #686FBF",
" 9	c #796ECC",
".9	c #705DB9",
"+9	c #6B69D4",
"@9	c #5255C6",
"#9	c #4E58CB",
"$9	c #5F6DCE",
"%9	c #7089C1",
"&9	c #507D7A",
"*9	c #448A4C",
"=9	c #41951C",
"-9	c #44943D",
";9	c #4F9767",
">9	c #5E9F7F",
",9	c #4A816A",
"'9	c #5B8184",
")9	c #6272A6",
"!9	c #6D6ECB",
"~9	c #736DDB",
"{9	c #696AC7",
"]9	c #6A74BB",
"^9	c #7A90BF",
"/9	c #7491B1",
"(9	c #607E98",
"_9	c #67839B",
":9	c #708CA4",
"<9	c #6670C5",
"[9	c #676EC6",
"}9	c #797ECF",
"|9	c #7B8FC1",
"19	c #538878",
"29	c #43963E",
"39	c #4A914D",
"49	c #5A9368",
"59	c #5D946C",
"69	c #579661",
"79	c #4D964D",
"89	c #429440",
"99	c #449840",
"09	c #3F8958",
"a9	c #478472",
"b9	c #567F95",
"c9	c #6379AA",
"d9	c #8091BC",
"e9	c #76949F",
"f9	c #5C9175",
"g9	c #4F945E",
"h9	c #4C8C69",
"i9	c #598E7A",
"j9	c #75989E",
"k9	c #6B73A2",
"l9	c #808BB8",
"m9	c #8494B5",
"n9	c #61778C",
"o9	c #9D9ECC",
"p9	c #7F8CB6",
"q9	c #6985AA",
"r9	c #7B98C0",
"s9	c #7B8EC6",
"t9	c #6365B0",
"u9	c #7162C1",
"v9	c #816AD4",
"w9	c #666AC5",
"x9	c #6970CA",
"y9	c #6873C3",
"z9	c #758F9E",
"A9	c #5D8668",
"B9	c #53904B",
"C9	c #469037",
"D9	c #448953",
"E9	c #417D73",
"F9	c #73A4B3",
"G9	c #547994",
"H9	c #5E75A1",
"I9	c #646AB6",
"J9	c #726DD3",
"K9	c #6B5FDD",
"L9	c #6C63D6",
"M9	c #8281DE",
"N9	c #868ECF",
"O9	c #65749F",
"P9	c #8193B7",
"Q9	c #8194BC",
"R9	c #7789B9",
"S9	c #8086D2",
"T9	c #8083D2",
"U9	c #8390D6",
"V9	c #758FB2",
"W9	c #729B95",
"X9	c #46993D",
"Y9	c #46963D",
"Z9	c #4B9943",
"`9	c #469544",
" 0	c #409542",
".0	c #3B983D",
"+0	c #3C9843",
"@0	c #3D8C53",
"#0	c #498374",
"$0	c #577F8B",
"%0	c #7696A3",
"&0	c #5C867A",
"*0	c #54925F",
"=0	c #449143",
"-0	c #4CA053",
";0	c #509D59",
">0	c #4E8D5E",
",0	c #71A090",
"'0	c #7496A2",
")0	c #748DAB",
"!0	c #6F87A3",
"~0	c #93ACC2",
"{0	c #9E99D3",
"]0	c #9EA0DB",
"^0	c #9BA5E0",
"/0	c #7988C1",
"(0	c #838DCA",
"_0	c #8C8CD4",
":0	c #8A7DD9",
"<0	c #8872DF",
"[0	c #8084DB",
"}0	c #656ABB",
"|0	c #6F74B6",
"10	c #818AB3",
"20	c #7D8E98",
"30	c #7A9A85",
"40	c #558259",
"50	c #538957",
"60	c #57915F",
"70	c #4D806D",
"80	c #6F98AC",
"90	c #5978A6",
"00	c #6178AE",
"a0	c #6A7BB3",
"b0	c #6A74B2",
"c0	c #666DB3",
"d0	c #7173C8",
"e0	c #8489CB",
"f0	c #828AB9",
"g0	c #828FAF",
"h0	c #7C8BAA",
"i0	c #7684B3",
"j0	c #8290CD",
"k0	c #7F86CA",
"l0	c #8681D1",
"m0	c #6F6ABA",
"n0	c #827FD6",
"o0	c #8182DC",
"p0	c #838DB1",
"q0	c #4B9C4D",
"r0	c #489B3F",
"s0	c #469F35",
"t0	c #3A9A2F",
"u0	c #349836",
"v0	c #369B3B",
"w0	c #359929",
"x0	c #3A9A1C",
"y0	c #338E2E",
"z0	c #3E9244",
"A0	c #478C5D",
"B0	c #6EA38F",
"C0	c #527D74",
"D0	c #5D897A",
"E0	c #6AA07C",
"F0	c #4E8D58",
"G0	c #449946",
"H0	c #3A8D3B",
"I0	c #4B965E",
"J0	c #669E95",
"K0	c #7C9FBB",
"L0	c #798CB7",
"M0	c #838BBA",
"N0	c #9792D2",
"O0	c #9D9ED4",
"P0	c #98A0CF",
"Q0	c #7884B6",
"R0	c #8783D7",
"S0	c #626CC1",
"T0	c #868BDD",
"U0	c #8A8CC5",
"V0	c #687D90",
"W0	c #809EA9",
"X0	c #608985",
"Y0	c #7899AC",
"Z0	c #7991C1",
"`0	c #6174B6",
" a	c #6172B7",
".a	c #5D70A8",
"+a	c #647EA3",
"@a	c #5E7C94",
"#a	c #7AA095",
"$a	c #55796F",
"%a	c #76988A",
"&a	c #5E7D6E",
"*a	c #7B968D",
"=a	c #8299A1",
"-a	c #7B8EAF",
";a	c #6A7AAD",
">a	c #8288C4",
",a	c #8D8BD4",
"'a	c #7067B8",
")a	c #918BE3",
"!a	c #8A87E0",
"~a	c #7F80C1",
"{a	c #8C92B2",
"]a	c #46965B",
"^a	c #439644",
"/a	c #409C31",
"(a	c #349838",
"_a	c #389B40",
":a	c #389A2D",
"<a	c #3D9C1C",
"[a	c #48964A",
"}a	c #3E814C",
"|a	c #52836D",
"1a	c #7FA3A3",
"2a	c #76949E",
"3a	c #76999D",
"4a	c #5D8783",
"5a	c #509A5B",
"6a	c #3A8C3A",
"7a	c #459B44",
"8a	c #449457",
"9a	c #4A837A",
"0a	c #6989B0",
"aa	c #9EA4E2",
"ba	c #9D96D9",
"ca	c #A19BE1",
"da	c #A49FD9",
"ea	c #9AA2C6",
"fa	c #8396B6",
"ga	c #758FA6",
"ha	c #7B9EBA",
"ia	c #718BB0",
"ja	c #7A88B5",
"ka	c #7C91AE",
"la	c #7293A2",
"ma	c #6D969C",
"na	c #729E9F",
"oa	c #749CA4",
"pa	c #678A9E",
"qa	c #7A8FC4",
"ra	c #5D74AA",
"sa	c #5E7FA0",
"ta	c #4E7C7C",
"ua	c #508770",
"va	c #438B41",
"wa	c #478E42",
"xa	c #488A43",
"ya	c #5F9865",
"za	c #66917E",
"Aa	c #5A7787",
"Ba	c #7D90BB",
"Ca	c #838FC9",
"Da	c #8181C9",
"Ea	c #8783CD",
"Fa	c #7D8DAE",
"Ga	c #75938B",
"Ha	c #3D975A",
"Ia	c #409832",
"Ja	c #3D952F",
"Ka	c #399532",
"La	c #3C9924",
"Ma	c #479951",
"Na	c #458A51",
"Oa	c #5D8E6E",
"Pa	c #7F989C",
"Qa	c #7A82A6",
"Ra	c #7D84B8",
"Sa	c #6F8FB6",
"Ta	c #52956C",
"Ua	c #458B4F",
"Va	c #3F8443",
"Wa	c #7399A6",
"Xa	c #96A3DA",
"Ya	c #A5A0E3",
"Za	c #A494D3",
"`a	c #9B9DD0",
" b	c #A5A3D5",
".b	c #9997C6",
"+b	c #7F89AC",
"@b	c #578779",
"#b	c #4D8953",
"$b	c #479259",
"%b	c #599571",
"&b	c #6C9A8D",
"*b	c #769F9B",
"=b	c #689A8E",
"-b	c #67A687",
";b	c #4B915F",
">b	c #4B955A",
",b	c #4E915E",
"'b	c #73AE7E",
")b	c #699B78",
"!b	c #4E7966",
"~b	c #79A598",
"{b	c #50876A",
"]b	c #418749",
"^b	c #3E9135",
"/b	c #38973B",
"(b	c #3A9838",
"_b	c #379036",
":b	c #509B63",
"<b	c #4E827E",
"[b	c #7898C1",
"}b	c #7D8BCC",
"|b	c #6A6EB5",
"1b	c #898CCF",
"2b	c #7A83C8",
"3b	c #6F7DBA",
"4b	c #858FC2",
"5b	c #7A81AF",
"6b	c #739D91",
"7b	c #54985F",
"8b	c #37A04B",
"9b	c #43962E",
"0b	c #409339",
"ab	c #3E9340",
"bb	c #399435",
"cb	c #3E9B30",
"db	c #469A5F",
"eb	c #63A47A",
"fb	c #799A91",
"gb	c #8989AB",
"hb	c #A495DA",
"ib	c #A89CEE",
"jb	c #7A84CC",
"kb	c #7693CF",
"lb	c #65A38A",
"mb	c #68A57B",
"nb	c #5F9468",
"ob	c #789C8E",
"pb	c #7E8CAF",
"qb	c #9F93D3",
"rb	c #A999CA",
"sb	c #9AA0C0",
"tb	c #9E9CCB",
"ub	c #A29FD6",
"vb	c #8591B9",
"wb	c #597F80",
"xb	c #589667",
"yb	c #4B9D31",
"zb	c #40A53F",
"Ab	c #499D50",
"Bb	c #4B8A6F",
"Cb	c #509775",
"Db	c #44995E",
"Eb	c #3D9B45",
"Fb	c #3E9E3A",
"Gb	c #469F45",
"Hb	c #4A9A41",
"Ib	c #519646",
"Jb	c #5C965B",
"Kb	c #458650",
"Lb	c #449641",
"Mb	c #3B9927",
"Nb	c #309C37",
"Ob	c #329E2F",
"Pb	c #339A31",
"Qb	c #439958",
"Rb	c #66A2A0",
"Sb	c #7292C1",
"Tb	c #6873B3",
"Ub	c #6E6FAF",
"Vb	c #7D8ED3",
"Wb	c #718BBE",
"Xb	c #8291A4",
"Yb	c #60797D",
"Zb	c #48875C",
"`b	c #3F9F46",
" c	c #2DA537",
".c	c #2F9C27",
"+c	c #3E9922",
"@c	c #46952A",
"#c	c #41933E",
"  . + @ # $ % & * = - ; > , ' ) ! ~ { ] ^ / ( _ : < [ } | 1 2 3 4 5 6 7 8 9 0 a b c d e f g h i j k l m n o p q r s t u v w x y ",
"z A B C D E F G H I J K L M N O P Q R S T U V W X Y Z `  ...+.@.#.$.%.&.*.=.-.;.>.,.'.).!.~.{.].^./.(._.:.<.[.}.|.1.2.3.4.5.6.7.",
"8.9.0.a.b.c.d.e.f.g.h.i.j.k.l.m.n.o.p.q.r.s.t.u.v.w.x.y.z.A.B.C.D.E.F.G.H.I.J.K.L.M.N.O.P.Q.R.S.T.U.V.W.X.Y.Z.`. +.+++@+#+$+%+&+",
"*+=+-+;+>+,+'+)+!+~+{+]+^+/+(+_+:+<+[+}+|+1+2+3+4+5+6+7+8+9+0+a+b+c+d+e+f+g+h+i+j+k+l+m+n+o+p+q+r+s+t+u+v+w+x+y+z+A+B+C+D+E+F+G+",
"H+I+J+K+L+M+N+O+P+Q+R+S+T+U+V+W+X+Y+Z+`+ @.@+@@@#@$@%@&@*@=@-@;@>@,@'@)@!@~@{@]@^@/@(@_@:@<@[@}@|@1@2@3@4@5@6@7@8@9@0@a@b@c@d@e@",
"f@g@h@i@j@k@l@m@n@o@p@q@r@s@t@u@v@w@x@y@z@A@B@C@D@E@F@G@H@I@J@`.K@L@M@N@O@P@Q@R@S@T@U@V@W@X@Y@Z@`@ #.#+#@###$#%#&#*#=#-#;#>#,#'#",
"H+)#!#~#{#]#^#/#(#_#:#<#[#}#|#1#2#3#4#5#6#7#8#9#0#a#b#c#d#e#f#g#h#i#j#k#l#m#n#Q@o#p#q#r#s#t#u#v#w#x#y#z#A#B#C#D#E#F#G#H#I#J#K#L#",
"M#N#O#P#Q#R#S#T#U#V#W#X#Y#Z#`# $.$+$@$#$$$%$&$*$=$-$;$>$,$'$)$!$~${$]$^$/$($_$:$<$[$}$|$1$2$3$4$5$6$7$8$9$0$a$b$c$d$e$f$g$h$i$j$",
"k$l$m$U.n$o$p$q$r$s$t$u$v$w$x$y$z$A$B$C$D$E$F$G$H$I$J$K$L$M$N$O$P$Q$R$S$T$U$V$W$X$Y$N#Z$`$ %.%+%@%#%$%%%&%*%O$=%-%;%>%,%'%)%!%~%",
"{%]%^%/%(%_%:%<%-#[%}%|%1%2%3%4%5%6%7%8%9%0%a%b%c%d%e%f%g%h%i%j%k%l%m%n%o%c K@p%q%r%s%t%u%v%w%x%y%z%A%B%C%D%E%F%G%H%I%J%K%L%M%N%",
"O%P%Q%R%S%T%U%V%W%X%Y%Z%`%:# &.&+&@&#&$&%&&&*&=&-&;&>&,&'&)&!&~&{&]&^&/&(&_&:&<&[&}&|&1&2&3&4&5&6&7&8&9&0&a&b&c&d&e&f&g&h&i&j&k&",
"l&m&n&o&p&q&r&s&t&u&v&w&x&y&z&+$A&B&C&D&E&F&G&H&I&J&K&L&M&N&O&P&Q&R&S&T&U&V&W&X&Y&Z&`& *.*+*@*4 #*$*%*&***=*-*;*>*,*'*)*!*~*{*]*",
"^*/*(*_*:*<*[*}*|*1*2*3*4*5*6*7*8*9*0*a*b*c*d*e*f*g*h*i*j*k*l*m*n*o*p*/&q*r*s*t*u*v*w*x*y*z*A*B*C*D*>.E*F*G*H*I*J*K*L*M*N*O*P*Q*",
"R*S*T*U*V*W*X*Y*Z*`* =.=+=@=#=$=%=&=*===-=;=>==$,='=)=!=~={=]=^=/=M.(=_=:=<=[=}=|=1=2=3=4=5=6=7=8=9=0=a=b=c=d=e=f=g=h=i=j=k=l=m=",
"n=o=p=q=r=s=t=u=v=w=x=y=z=A=B=C=D=E=F=G=H=I=J=K=L=M=N=O=P=Q=R=S=T=U=V=+#W=X=Y=Z=`= -.-+-@-#-$-,$%-&-*-=---;->-,-'-)-O.!-~-{-]-^-",
"/-(-_-:-<-[-}-|-1-:$2-[.3-4-5-6-7-8-9-0-a-b-c-d-e-f-g-h-i-j-k-l-m-%-n-+%o-p-q-r-s-t-u->*v-w-x-y-z-A-B-C-D-E-F-G-H-I-J-K-L-M-N-O-",
"P-Q-R-S-T-U-V-]$W-X-Y-Z-`- ;.;+;@;#;$;%;&;*;=;-;;;>; .,;';);!;~;{;];^;/;(;_;:;<;[;};|;1;2;3;4;5;6;7;8;9;0;B$a;b;c;d;e;U=f;g;h;i;",
"j;k;l;m;n;X-o;h+p;q;r;s;t;u;v;w;x;y;z;A;B;m%C;D;E;F;G;H;I;J;K;L;M;N;O;P;Q;R;S;T;U;V;W;X;Y;Z;`; >.>+>@>#>$>%>&>*>=>->;>>>,>'>)>!>",
"~>{>]>^>/>(>_>:><>[>}>|>+#1>2>3>4>5>6>;*7>8>9>0>a>b>c>d>e>f>g>h>i>j>k>l>m>n>o>p>q>r>s>t>u>v>w>x>y>z>A>B>C>D>E>F>G>H>I>J>K>]>L>e#",
"M>N> +O>P>Q>R>S>T>w#U>V>W>X>Y>%%Z>`> ,.,+,@,#,$,%,a>&,*,=,-,;,f>>,,,',),!,~,{,],^,/,(,_,:,<,[,},|,1,2,3,4,5,6,7,S#8,9,0,U$a,#.w+",
"'$b,c,d,i;e,f,g,h,8=k;W$i,j,k,l,m,n,o,p,q,r,s,t,u,v,w,x,y,z,A,B,C,D,E,F,G,H,I,J,K,L,M,N,B;O,P,Q,R,S,T,U,V,W,X,Y,Z,`, '.']>+'@'#'",
"$'%'&'*'e&='-';'>'k+-@,''')'!'~'{']'^'/'('[*_':'<'['}'|'1'2'}'3'4'5'6'7'8'9'0'a'b'c'h,d'e'j+f'g'h'i'j'k'l'm'c.n'o'p'q'r's'J*t'u'",
"D;v'w'x'y'z'A'B'C'D'E'&-F'G'H'I'J'K'L'M'N'J+O'P'Q'R'S'T'U'V'W'X'Y'Z'`' ).)+)@)#)$)%)&)[@*)=)-);)>),)')))!)~){)])^)/)()_):)<)[)k+",
"})|)1)2)3)4)5)`;6)|>7)8)9)0)a)b)c)d)e)f)g)h)i)j)k)l)m)n)o)+,p)q)r)s)t)u)v)w)x)y)z)A)B)C)D)E)F)G)H)I)J)K){=L)M)N)O)P)Q)R)S)T)0$U)",
"V)W)X)Y)Z)`) !.!+!@!#!$!%!&!*!=!-!;!>!,!'!)!!!~!{!]!^!/!(!_!:!<![!}!|!1!2!3!4!5!;@6!7!8!9!0!a!b!c!d!e!f!g!h!i!j!k!l!m!n!o!p!q!r!",
"s!t!u!v!w!x!y!z!A!B!C!D!E!F!G!H!I!J!K!L!M!N!O!P!Q!R!S!T!U!V!W!X!Y!Z!`! ~.~+~@~#~$~%~&~*~=~-~;~>~,~'~)~M-!~~~{~]~^~/~(~_~:~<~[~}~",
"|~1~2~3~4~5~6~8@7~8~9~0~a~G=b~c~d~e~f~g~h~i~j~k~l~m~n~o~p~q~r~s~t~u~v~w~x~y~z~A~B~C~D~E~F~G~H~I~J~b&K~L~M~N~O~P~Q~1*R~S~T~U~V~W~",
"X~Y~Z~`~ {.{+{@{#{${%{&{*{={-{;{>{,{'{){!{~{{{]{^{/{({_{:{<{[{}{|{1{2{3{4{5{6{7{8{9{0{a{b{c{d{e{f{g{h{i{j{k{l{m{n{o{p{q{r{s{t{u{",
"v{U@w{x{y{z{A{B{C{D{E{F{G{H{I{J{K{L{M{N{O{P{Q{R{S{T{U{a@V{W{X{Y{Z{`{t; ].]+]@]#]$]%]&]*]E;=]P,j;-];]>],]2@'])]!]~]{]]]^]/](]_]:]",
"<][]}]I;|]1]2]3]4]5]6]%*7]8]9]0]a]b]c]M-d]e]f]g]h]i]j]k]l]m]n]o]p]q]r]s]t]u]v]w]x]y]z]A]B]C]i;N@D]E]F]G]H]I]J]K]L]M]N]O]P]Q]R]S]",
"T]U]V]W]X]Y]Z]`] ^.^W$<++^@^#^$^%^&^*^=^-^;^>^,^i''^)^!^~^{^]^^^`+/^(^_^:^<^[^}^|^1^2^^&3^4^5^6^7^8^9^0^E{W)a^b^c^d^e^f^g^h^i^j^",
"k^l^m^n^o^p^q^r^s^t^u^v^w^{ x^y^z^A^U=B^C^D^#^E^F^G^y@H^I^J^K^L^M^N^O^P^Q^R^S^T^U^V^W^X^Y^Z^`^ /%-K~./+/@/#/$/%/&/*/=/  -/;/>/,/",
"'/)/!/~/{/]/^///[*(/_/:/</[/}/|/1/2/3/4/5/6/7/8/9/0/a/b/c/d/e/f/g/h/i/j/k/l/2*m/n/o/p/q/r/s/t/u/v/w/x/,*u'y/z/A/B/C/D/E/F/G/H/I/",
"J/K/L/M/N/O/P/Q/R/S/T/U/V/W/X/Y/Z/`/ (.(+(@(#($(%(&(*(=(-(;(>(,('(4%)(;+!(~(V+{(](^(/(u;((_(:(<([(}(/>|(1(2(3(4(5(C>6(G-7(8(9(0(",
"a(b(c(d(e(f(g(h(i(j(k(l(m(n(o(p(A~C=q(r(s(t(u(v(w(x($$y$y(z(A(B(C(D(E(F(G(H(I(J(:+t;K(L(M(N(O(P(Q(R(:,S(F'T(U(V(W(X(Y(Z(`( _._+_",
"@_W%#_$_%_&_*_=_-_;_>_,_'_)_!_~_{_]_^_/_(___^]:_<_[_}_|_1_2_3_4_5_6_7_8_9_0_,%a_b_x=`{c_d_e_f_g_h_i_j_k_O.l_m_n_o_p_q_r_s_t_u_v_",
"w_x_y_z_A_B_C_D_*=E_F_G_H_I_J_K_L_M_N_O_P_Q_R_S_T_U_V_W_X_Y_Z_`_ :.:+:@:#:$:%:&:*:=:-:;:>:,:':):l@p=!:~:{:]:^:/:(:_::::+j%<:[:}:",
"|:1:2:3:4:5:6:7:8:9:_{0:a:b:c:d:e:f:g:h:i:j:k:l:m:n:o:p:q:r:s:t:u:v:w:x:y:z:A:B:C:D:E:F:G:H:I:J:K:L:M:N:L$O:P:Q:R:S:T:U:V:W:X:Y:",
"Z:T/`: <.<+<@<#<$<%<i'&<E&*<=<-<;<m/><,<'<)<!<~<{<]<^<E=/<(<_<:<k^<<[<}<|<1<>+2<3<4<5<6<7<8<9<0<a<b<c<d<e<f<g<h<i<j<k<l<m<n<o<p<",
"q<r<s<t<u<v<w<T_x<y<l^z<A<B<C<D<E<F<G<H<I<J<K<L<M<N<=_O<P<Q<R<S<J#O_T<U<V<Y%W<X<Y<Z<`< [.[+[@[#[$[%[&[*[=[-[;[>[,['[)[![~[{[][^[",
"/[([_[:[k-<[[[}[|[1[2[3[4[#&5[6[T]7[8[9[0[a[b[c[d[e[f[g[h[i[j[k[_{l[m[n[o[p[q[r[s[t[u[v[w[=:x[*:y[z[A[B[C[D[E[F[G[H[I[J[K[L[M[N[",
"O[P[Q[R[S[T[U[V[W[X[Y[Z[`[ }.}+}@}#}$}%}&}*}=}-}4,;}>},}'})}!}~}{}]}^}/}(}_}:}<}[}}}|}1}2}3}v~4}5}6}7}k[8}9}$+0}a}b}c}d}e}f}g}h}",
"i}j}k}l}m}n}o}p}q}('t{r}s}t}u}v}w}x}y}z}A}B}C}D}E}F}G}H}I}J}S*K}K}L}M}N}{>O}P}Q}R}S}T}U}V}W}X}Y}Z}`} |A<.|+|@|#|$|%|&|*|=|-|A>;|",
">|,|'|)|!|~|{|]|^|/|@&(|_|:|<|[|}|||1|2|3|4|5|6|7|p:8|4[9|$:0|a|b|c|d|e|f|g|h|m+i|j|k|l|m|n|o|p|q|r|q<Z#> s|t|u|v|w|x|y|z|A|B|C|",
"D|E|-@F|G|H|I|J|K|7%L|M|r[N|O|P|$:Q|K|R|S|T|U|V|W|X|Y|Z|`| 1.1+1@1#1$1%1&1*1=1-1;1>1,1'1)1!1~1{1]1^1/1d!(1_1:1<1[1}1|11121314151",
"6171819101a1b1c1d1G_e1f1g1h1i1j1k1l1m1n1o1$:p1q1r1s1t1u1v1w1x1y1z1A1B1$.C1D1E1F1G1H1I1J1K1L1M1N1O1P1Q1R1Q S1T1U1V1W1X1Y1Z1`1 2.2",
"+2@2#2$2%2&2*2=2k${%-24,;2>2,2'2)2!2~2{2]26%^2/2(2_25%:2<2T+}%[2}2|212223242526272829202a2b2c2d2e2f2g2h2i2j2k2l2m2n2o2p2q2r2s2t2",
"u2v2w2x2y2z2A2B2B$C2l'D2E2&=F2G2H2I2J2K2L2M2N2O2P2Q2R2S2T2@$U2~;V2W2X2Y2Z2`2 3.3+3@3#3$3%3&3*3=3-3;3>3,3'3)3!3~3{3]3^3/3(3_3:3<3",
"[3}3|31323334353637383F/935|03a3b3c3d3e3f3g3h3i3j3k3l3m3n3o3p3q3r3s3t3u3v3w3x3y3z3A3B3C3D3E3F3G3H3I3K,J3K3L3M3N3O3P3Q3R3%]S3T3U3",
"V3W3X3Y3Z3`3 4.4+4@4#4l'$4%4&4*4=4-4;4>4,4'4)4!4~4{4]4^4/4(4_4:4<4[4}4f>|41424344454V*6474849404a4D#b4c4d4e4f4g4h4i4j4k4l4m4n4o4",
"a/p4q4r4s4t4u4v4w4x4y4z4e(A4B4C4D4E4F4G4H4I4J4K4L4M4N4O4P4Q4R4S4T4U4V4W4X4Y4Z4m;`4 5.5+5@5#5$5%5&5*5=5-53*;5>5,5'5)5!5~5{5]5^5U2",
"/5(5_5:5<5[5. }5|51525E 3545556575859505a5b5}#c5d5e5f5G4g5h5i5j5k5l5m5n5o5p5q5r5s5t5u5v5w5x5y5z5A5B5C5D5E5/|H)F5G5H5I5J5K5L5z2M5",
"N5O5P5`[+$e3Q5R5S5T5U5V5W5f(X5Y5a(Z5`5 6S#.6+6@6j'#6$6%6&6*6=6-6;6>6,6'6)6!6~6{6]6^6/6(6_6:6<6[6}6|61626 }3646566676869606a6b6c6",
"i1,}d6e6$}f6g6h6k~i6j6k6l6m6n6o6p6q6r6s6t6u6v6w6x6y6z6A6B6C6D6E6F6G6H6{)I6@6J6m~K6L6M6N6O6P6Q6R6S6~ T6U6V6W6X6Y6Z6`6c< 7.7+7@7#7",
"$7%7&75%*7=7-7;7>7,7'7)7!7~7{7]7^7/7(7_7:7<7w<[7}7|717273747576777879707a7b7c7d7L)e7f7g7h7i7j7k7l7j'm7n7o7,-p7q7r7s7t7u7v7w7x7y7",
"z7A7&+B78[R5P<b*y<C7D7. E7F7G713{=H7I7-;J7K7L7M7N7O7P7Q7R7S7T7U7V7W7X7Y7Z7`7 8.8+8@8#8$8%8!+~^+|&8^'*89|[%=8-8;8>89!,8'8)8c~!8~8",
"{8]8^8/8(88(B>_89|:8L/<8[8}8!/|818283848586878889808a8b8c8d8e8F'f8g8h8i8j8k8l8m8I<n8o8p8q8r8s8t8u8v8w8x8y8z8A8B8C8D8E8F8G8H8I8J8",
"K8L8M8N8O8x^(+P8Q856R8e15|S8T8U8V8W8X8Y8Z8`8 9.9+9@9#9$9%9&9*9k+=9-9;9>9,9'9)9!9~9{9]9^9/9(9_9:9Y3}|<9[9}9|919>!2939495969798999",
"09a9b9c9d9e9f9g9h9i9j9]_k9l9m9n9o9p9q9r9s9t9u9v9w9x9y9}/z9A9B9C9@)D9E9F9G9H9I9J9K9L9M9N9O9P9Q9R99|S9Y[T9z:U9V9W9X9Y9Z9`9 0.0q*K>",
"+0@0#0$0%0&0*0=0-0;0>0,0'0)0!0~0{0]0^0/0(0_0:0<0[0}0|010203040506070809000a0b0c0d0T9e0f0g0h0i0j0k0&_l0m0n0o0H}p0q0r0s0t0u0v0w0x0",
"y0z0A0B0C0D0E0F0G0g{H0I0J0K0L0M0=_N0O0P0Q0+}G2R0S0T08:U0p0V0W0^%X0Y0Z0`0 a.a+a@a#a$a%a&a*a=a-a;a>a,a!/'a)a!a~a{a]a^a/aV=(a_a:a<a",
"c][a}a|a1a2a3a4a5a6a7a8a9a0aaabacadaQ]eafa)0#>gahaiajaP_kalamanaoapaV+qarasatauavawaxayazaAaBaCa,7P!DaEaJ2n7FaGaHaV}IaJag;]@KaLa",
"MaNaOaPaQaRaC=SaTaUaVa=:WaXaYaZa`a b.b+bV!@b[$#b$b%b&b*b=b-b;b>b,b'b)b!b~b{b]b^b/b(b_b:b<b[b}b|b1b2b3b4b5bh06b7b8bB;p 9b0babbbcb",
"dbebfbgbhbibjbkblbmbnbobpbF-qbrbsbtbubvbwbxbZ~ybzbAbJ~BbCbDbEbFbGbHbIbJb0'KbLbMbNbObPbQbRbSbTbUbe(VbWbR%XbYbZb`b c.c+c@co##cI$+."};
