/* XPM */
static char * wall10_xpm[] = {
"128 128 4873 2",
"  	c #5859E7",
". 	c #5A52E3",
"+ 	c #6148E1",
"@ 	c #6C43E1",
"# 	c #7B3DE6",
"$ 	c #843CE8",
"% 	c #8639E9",
"& 	c #8339E8",
"* 	c #7F3BE8",
"= 	c #7841E7",
"- 	c #7841E4",
"; 	c #7941E4",
"> 	c #7D3FE2",
", 	c #803CDF",
"' 	c #823BE1",
") 	c #803BE3",
"! 	c #7F3CE4",
"~ 	c #823DE6",
"{ 	c #803DE5",
"] 	c #7F3BE6",
"^ 	c #7B3CE5",
"/ 	c #7B3BE7",
"( 	c #7B3DE8",
"_ 	c #793EE8",
": 	c #783DE5",
"< 	c #7C3EE7",
"[ 	c #7B3CE2",
"} 	c #7C3BDD",
"| 	c #813EDC",
"1 	c #8540DB",
"2 	c #843ED5",
"3 	c #9247E0",
"4 	c #A75CF4",
"5 	c #5A63EE",
"6 	c #5B5CEA",
"7 	c #6252E6",
"8 	c #6B49E5",
"9 	c #7844E7",
"0 	c #8240EA",
"a 	c #863DEC",
"b 	c #853CEB",
"c 	c #823EEB",
"d 	c #7E40EB",
"e 	c #7B42E9",
"f 	c #7C43E8",
"g 	c #7D43E7",
"h 	c #8042E5",
"i 	c #833FE4",
"j 	c #823FE7",
"k 	c #813FE7",
"l 	c #8340E8",
"m 	c #803EE8",
"n 	c #7F3FEB",
"o 	c #7E40ED",
"p 	c #7C41EB",
"q 	c #7D3FE8",
"r 	c #8243E9",
"s 	c #8544E6",
"t 	c #8643E0",
"u 	c #8A45DE",
"v 	c #904ADE",
"w 	c #A45AED",
"x 	c #B86EFF",
"y 	c #5370F2",
"z 	c #566AEF",
"A 	c #5D60ED",
"B 	c #6555EB",
"C 	c #714CEA",
"D 	c #7A46E9",
"E 	c #8243EC",
"F 	c #8541EC",
"G 	c #8440ED",
"H 	c #8341ED",
"I 	c #8042EB",
"J 	c #7F44EA",
"K 	c #8144EA",
"L 	c #8142E8",
"M 	c #8342E8",
"N 	c #8441E8",
"O 	c #8341E9",
"P 	c #8142EB",
"Q 	c #8341EB",
"R 	c #8441E6",
"S 	c #8141EF",
"T 	c #8041F0",
"U 	c #8040EC",
"V 	c #8546ED",
"W 	c #8747E6",
"X 	c #8946E1",
"Y 	c #9450E3",
"Z 	c #A25EE9",
"` 	c #B56DF5",
" .	c #C37BFF",
"..	c #4876F0",
"+.	c #4C72EF",
"@.	c #546BEF",
"#.	c #5E61EE",
"$.	c #6855EC",
"%.	c #704CEA",
"&.	c #7A47EA",
"*.	c #8244ED",
"=.	c #8043E9",
"-.	c #8142E9",
";.	c #8342E6",
">.	c #8443E9",
",.	c #8442EC",
"'.	c #8141F0",
").	c #8041F2",
"!.	c #8142F1",
"~.	c #8444F0",
"{.	c #8645EB",
"].	c #8644E2",
"^.	c #8F4DE2",
"/.	c #A461EC",
"(.	c #B370F3",
"_.	c #BB76F3",
":.	c #C17BF5",
"<.	c #3B7DEE",
"[.	c #427BEF",
"}.	c #4C76EF",
"|.	c #546DEE",
"1.	c #6F4BE9",
"2.	c #7946EB",
"3.	c #7F44EE",
"4.	c #8442EE",
"5.	c #8141ED",
"6.	c #7F41EA",
"7.	c #7D42EA",
"8.	c #7E43EB",
"9.	c #8143E4",
"0.	c #8244E5",
"a.	c #8344EA",
"b.	c #8040EF",
"c.	c #8140F2",
"d.	c #8242F1",
"e.	c #8846F2",
"f.	c #8847EB",
"g.	c #8E4DE5",
"h.	c #A05FED",
"i.	c #B574F6",
"j.	c #BC7BF3",
"k.	c #BE7BEC",
"l.	c #C280EC",
"m.	c #3781EC",
"n.	c #3B81F0",
"o.	c #467FF2",
"p.	c #4E78F1",
"q.	c #556CF0",
"r.	c #5C5FEC",
"s.	c #6653EA",
"t.	c #7B48ED",
"u.	c #8045EF",
"v.	c #8543EF",
"w.	c #8242EE",
"x.	c #7E43ED",
"y.	c #7E44EE",
"z.	c #7D46EC",
"A.	c #7E45EC",
"B.	c #7F44EC",
"C.	c #8245E8",
"D.	c #8346E9",
"E.	c #8346EB",
"F.	c #8242F0",
"G.	c #8343F1",
"H.	c #8545F1",
"I.	c #8746EC",
"J.	c #914FED",
"K.	c #9F5EF0",
"L.	c #B270F6",
"M.	c #BD7BF6",
"N.	c #BB7BEB",
"O.	c #BD7CE4",
"P.	c #C584E8",
"Q.	c #3582EA",
"R.	c #3A83EC",
"S.	c #4082F0",
"T.	c #477EF2",
"U.	c #4E76F0",
"V.	c #556CEE",
"W.	c #5F60EE",
"X.	c #6956ED",
"Y.	c #734FEF",
"Z.	c #7A4AEE",
"`.	c #8146F0",
" +	c #8343EF",
".+	c #8143F0",
"++	c #7E44F0",
"@+	c #7E46F1",
"#+	c #7C47EF",
"$+	c #7F45EF",
"%+	c #7F46ED",
"&+	c #8045EB",
"*+	c #8147EB",
"=+	c #8247ED",
"-+	c #8146EC",
";+	c #8143EC",
">+	c #8245EB",
",+	c #8748EF",
"'+	c #8A4CED",
")+	c #9050EC",
"!+	c #A060F4",
"~+	c #AE6EF8",
"{+	c #B978F6",
"]+	c #BE7DF1",
"^+	c #BC7DE8",
"/+	c #BC7EE1",
"(+	c #C285E4",
"_+	c #367FE6",
":+	c #3980E8",
"<+	c #3D81EC",
"[+	c #4280EF",
"}+	c #487DF1",
"|+	c #4F75F0",
"1+	c #586CF1",
"2+	c #6263F1",
"3+	c #6855ED",
"4+	c #7E46EF",
"5+	c #7F45F1",
"6+	c #7C47F1",
"7+	c #7B48EF",
"8+	c #7E47ED",
"9+	c #7F48EE",
"0+	c #7F46EB",
"a+	c #7F45E9",
"b+	c #8347E7",
"c+	c #884BE7",
"d+	c #8E4FE6",
"e+	c #9F5FF1",
"f+	c #AF6FF9",
"g+	c #B978F8",
"h+	c #BA7AF2",
"i+	c #BF7FEF",
"j+	c #C182EA",
"k+	c #BF81E2",
"l+	c #BF82E1",
"m+	c #3E7DE6",
"n+	c #3E7EE8",
"o+	c #3D80E9",
"p+	c #4080EC",
"q+	c #417DED",
"r+	c #4679EE",
"s+	c #5073F1",
"t+	c #5C6EF4",
"u+	c #6563F4",
"v+	c #6C59F1",
"w+	c #714FEE",
"x+	c #774AED",
"y+	c #7B4AF1",
"z+	c #7E4BF2",
"A+	c #7C49F0",
"B+	c #7D4AEF",
"C+	c #7E4AED",
"D+	c #7E49EF",
"E+	c #7A49F2",
"F+	c #804CEE",
"G+	c #814AE6",
"H+	c #834BE2",
"I+	c #9056E8",
"J+	c #A164EF",
"K+	c #AF72F4",
"L+	c #B476F3",
"M+	c #BB7BF3",
"N+	c #BD7EF0",
"O+	c #BE7FEA",
"P+	c #BD7EE6",
"Q+	c #BE80E5",
"R+	c #BF81E4",
"S+	c #457BE7",
"T+	c #447DE8",
"U+	c #4180EA",
"V+	c #4080EA",
"W+	c #3E81EC",
"X+	c #497AF1",
"Y+	c #5375F3",
"Z+	c #5C6CF5",
"`+	c #7354F0",
" @	c #7A52F3",
".@	c #7E51F4",
"+@	c #7D50F3",
"@@	c #7D4EF2",
"#@	c #7E50F1",
"$@	c #7E50F0",
"%@	c #7F4FF1",
"&@	c #7E4FF3",
"*@	c #7C51F8",
"=@	c #7B50F8",
"-@	c #7F52F5",
";@	c #8354F2",
">@	c #8755EC",
",@	c #8E59E7",
"'@	c #9E66ED",
")@	c #AE73F3",
"!@	c #B479F1",
"~@	c #B87CEE",
"{@	c #BE80EF",
"]@	c #BF81EC",
"^@	c #BF80E9",
"/@	c #BE7FE7",
"(@	c #BF80E8",
"_@	c #C081E9",
":@	c #4979E5",
"<@	c #487BE6",
"[@	c #467FEA",
"}@	c #4281EB",
"|@	c #3F82ED",
"1@	c #3F81EF",
"2@	c #457EF1",
"3@	c #4D7BF3",
"4@	c #5774F4",
"5@	c #616FF6",
"6@	c #6B68F7",
"7@	c #7161F7",
"8@	c #785DF8",
"9@	c #7C5AF7",
"0@	c #7E59F7",
"a@	c #7F57F6",
"b@	c #8058F6",
"c@	c #8059F4",
"d@	c #8158F6",
"e@	c #8058F7",
"f@	c #7E59FE",
"g@	c #7D58FD",
"h@	c #8159F8",
"i@	c #885DF5",
"j@	c #8E61F0",
"k@	c #9967EE",
"l@	c #A773F1",
"m@	c #B57EF5",
"n@	c #B97FF0",
"o@	c #BC81ED",
"p@	c #C082ED",
"q@	c #C182EB",
"r@	c #BE7FE8",
"s@	c #BE81E9",
"t@	c #BF82EA",
"u@	c #4978E4",
"v@	c #457EE9",
"w@	c #4281EA",
"x@	c #3F82EB",
"y@	c #3E82ED",
"z@	c #4282F0",
"A@	c #4A7FF3",
"B@	c #527AF4",
"C@	c #5E77F8",
"D@	c #6972FB",
"E@	c #716EFB",
"F@	c #7767FB",
"G@	c #7C64FA",
"H@	c #8063FD",
"I@	c #8361FD",
"J@	c #8362FB",
"K@	c #8362F9",
"L@	c #8162FD",
"M@	c #8163FF",
"N@	c #8062FE",
"O@	c #8463FA",
"P@	c #8C66F7",
"Q@	c #966CF6",
"R@	c #A071F3",
"S@	c #AC7AF3",
"T@	c #B781F3",
"U@	c #BB81EF",
"V@	c #BC81EB",
"W@	c #C081EA",
"X@	c #BE80EB",
"Y@	c #457AE4",
"Z@	c #437CE5",
"`@	c #447EE9",
" #	c #4282EE",
".#	c #4780F1",
"+#	c #4D7CF0",
"@#	c #587CF6",
"##	c #657AFA",
"$#	c #6D77FB",
"%#	c #7572FD",
"&#	c #7A6FFC",
"*#	c #7F6DFF",
"=#	c #836DFF",
"-#	c #836BFF",
";#	c #836BFD",
">#	c #846EFF",
",#	c #856DFF",
"'#	c #8A6FFE",
")#	c #9372FD",
"!#	c #9D78FC",
"~#	c #A67CFA",
"{#	c #B17FF8",
"]#	c #B782F6",
"^#	c #BA80F0",
"/#	c #3E7CE3",
"(#	c #3F7EE5",
"_#	c #4081E9",
":#	c #4182EA",
"<#	c #4181ED",
"[#	c #4480EE",
"}#	c #4A7EEE",
"|#	c #537DF3",
"1#	c #607EF8",
"2#	c #697CFC",
"3#	c #717AFD",
"4#	c #7977FF",
"5#	c #7E76FF",
"6#	c #8275FF",
"7#	c #8172FF",
"8#	c #8274FD",
"9#	c #8575FC",
"0#	c #8C76FC",
"a#	c #967BFE",
"b#	c #A17EFE",
"c#	c #A981FC",
"d#	c #B282FA",
"e#	c #B782F8",
"f#	c #BA80F1",
"g#	c #BB80EE",
"h#	c #BF7FED",
"i#	c #C083EA",
"j#	c #3880E6",
"k#	c #3981E7",
"l#	c #3D82E9",
"m#	c #3E83EA",
"n#	c #3F82EA",
"o#	c #4680EC",
"p#	c #4A80ED",
"q#	c #517EF1",
"r#	c #5B80F5",
"s#	c #6680FB",
"t#	c #6F7EFD",
"u#	c #767DFF",
"v#	c #7C7CFF",
"w#	c #7E7AFF",
"x#	c #7F78FF",
"y#	c #8078FF",
"z#	c #8279FA",
"A#	c #867AF8",
"B#	c #8F7CFA",
"C#	c #967DFC",
"D#	c #9F7FFC",
"E#	c #A781FB",
"F#	c #AE80FA",
"G#	c #B57FF7",
"H#	c #BA7FF5",
"I#	c #BB7FF1",
"J#	c #BE7EEE",
"K#	c #BF80EB",
"L#	c #C084E8",
"M#	c #BF83E7",
"N#	c #3881E7",
"O#	c #3A82E8",
"P#	c #4181EB",
"Q#	c #4380EB",
"R#	c #4B80F0",
"S#	c #5180F2",
"T#	c #5980F5",
"U#	c #6381F9",
"V#	c #6D81FE",
"W#	c #7380FF",
"X#	c #7A7FFF",
"Y#	c #7D7DFF",
"Z#	c #7E7CFF",
"`#	c #7F7CFF",
" $	c #7F7BFF",
".$	c #857FFD",
"+$	c #8A80FB",
"@$	c #9080FC",
"#$	c #9680FC",
"$$	c #9E80FA",
"%$	c #B47EF6",
"&$	c #B87FF4",
"*$	c #BA7EF0",
"=$	c #BD7FEE",
"-$	c #BF81E6",
";$	c #BE82E6",
">$	c #3C7FE7",
",$	c #3D80E8",
"'$	c #437FED",
")$	c #477FEE",
"!$	c #4B80F2",
"~$	c #5180F4",
"{$	c #5881F7",
"]$	c #6181FA",
"^$	c #6C81FE",
"/$	c #7B80FF",
"($	c #7E7EFF",
"_$	c #7F80FF",
":$	c #807FFF",
"<$	c #817EFF",
"[$	c #7F7DFF",
"}$	c #807EFF",
"|$	c #837EFF",
"1$	c #827DFE",
"2$	c #807DFE",
"3$	c #7F7EFF",
"4$	c #807DFF",
"5$	c #8580FF",
"6$	c #8980FD",
"7$	c #8E7FFC",
"8$	c #9F7FFA",
"9$	c #A881F8",
"0$	c #B181F7",
"a$	c #B681F5",
"b$	c #B981F0",
"c$	c #BC81EF",
"d$	c #3E7FE7",
"e$	c #3F80E8",
"f$	c #4180E9",
"g$	c #467FF0",
"h$	c #477FF0",
"i$	c #7981FF",
"j$	c #7C80FE",
"k$	c #7F80FE",
"l$	c #807FFE",
"m$	c #817FFE",
"n$	c #7F7EFE",
"o$	c #837EFE",
"p$	c #827DFD",
"q$	c #807EFD",
"r$	c #7E7FFE",
"s$	c #8980FF",
"t$	c #8E7FFE",
"u$	c #A17FFA",
"v$	c #A980F8",
"w$	c #B182F6",
"x$	c #B681F3",
"y$	c #B981EE",
"z$	c #BB82EB",
"A$	c #BC82E9",
"B$	c #C17FE9",
"C$	c #C280EA",
"D$	c #8080FC",
"E$	c #8180FF",
"F$	c #8080FA",
"G$	c #8280FF",
"H$	c #8181FD",
"I$	c #827FFF",
"J$	c #8280FD",
"K$	c #7C7FFF",
"L$	c #817FFC",
"M$	c #4A7FF1",
"N$	c #507FF3",
"O$	c #5780F6",
"P$	c #6B80FD",
"Q$	c #7880FF",
"R$	c #7F7FFB",
"S$	c #8482FF",
"T$	c #7A78F3",
"U$	c #7F7DFA",
"V$	c #7E7EFA",
"W$	c #7E7DFC",
"X$	c #7F7EFD",
"Y$	c #8383FF",
"Z$	c #7B7BF5",
"`$	c #8282FE",
" %	c #7E7CF9",
".%	c #7D7EFC",
"+%	c #8081FF",
"@%	c #8283FF",
"#%	c #8686FF",
"$%	c #7676F2",
"%%	c #8585FF",
"&%	c #8282FC",
"*%	c #7876F1",
"=%	c #8E8DFF",
"-%	c #7B7AF2",
";%	c #807EF9",
">%	c #8383FD",
",%	c #7E7EF6",
"'%	c #7E7EF8",
")%	c #8484FF",
"!%	c #7878F2",
"~%	c #8A8AFF",
"{%	c #7F7FF9",
"]%	c #8684FF",
"^%	c #7D7CF4",
"/%	c #7979F3",
"(%	c #8385FF",
"_%	c #7B7CFB",
":%	c #7F7FFF",
"<%	c #7B7BF7",
"[%	c #8989FF",
"}%	c #7D7DF5",
"|%	c #7A7BF1",
"1%	c #8786FD",
"2%	c #7C7BF2",
"3%	c #7F7EF5",
"4%	c #8483FB",
"5%	c #7B7CF2",
"6%	c #7F80F4",
"7%	c #8283F9",
"8%	c #8181F9",
"9%	c #7D7FF8",
"0%	c #7C7EF9",
"a%	c #7E7FFD",
"b%	c #8182FF",
"c%	c #8484FC",
"d%	c #7778EE",
"e%	c #8384FA",
"f%	c #8081F7",
"g%	c #8686FE",
"h%	c #7D7CF3",
"i%	c #8180F5",
"j%	c #7C7EF7",
"k%	c #7B7DF8",
"l%	c #7D81FE",
"m%	c #8185FF",
"n%	c #7E7FF5",
"o%	c #8788FC",
"p%	c #8787F9",
"q%	c #7F7FF1",
"r%	c #8686F8",
"s%	c #8284F5",
"t%	c #8283F7",
"u%	c #8385F6",
"v%	c #8384F8",
"w%	c #8485F9",
"x%	c #8486F7",
"y%	c #8082F3",
"z%	c #8183F4",
"A%	c #7E7FF3",
"B%	c #7E80F7",
"C%	c #8789FF",
"D%	c #7778F6",
"E%	c #8080F8",
"F%	c #8485FB",
"G%	c #7879EF",
"H%	c #8A8BFF",
"I%	c #8080F2",
"J%	c #8484F6",
"K%	c #7C7DF3",
"L%	c #7D7FF6",
"M%	c #8486FF",
"N%	c #797DFA",
"O%	c #7B7BF3",
"P%	c #8788FE",
"Q%	c #7779EA",
"R%	c #9292FF",
"S%	c #9191FF",
"T%	c #9F9FFF",
"U%	c #9697FF",
"V%	c #979AFF",
"W%	c #979BFE",
"X%	c #989CFF",
"Y%	c #999DFF",
"Z%	c #989BFF",
"`%	c #9C9DFF",
" &	c #9999FF",
".&	c #9092FF",
"+&	c #7A7DF0",
"@&	c #7A7DF2",
"#&	c #7D82FA",
"$&	c #8084FF",
"%&	c #817FFA",
"&&	c #8180F8",
"*&	c #8281F6",
"=&	c #8988FD",
"-&	c #7777E9",
";&	c #9797FF",
">&	c #9798FF",
",&	c #999CFF",
"'&	c #9D9EFF",
")&	c #9898FF",
"!&	c #8D8FFE",
"~&	c #7C7FF2",
"{&	c #7D80F5",
"]&	c #7C81F9",
"^&	c #7A80FA",
"/&	c #7C82FE",
"(&	c #847FFD",
"_&	c #7F80F6",
":&	c #7C7EEF",
"<&	c #A4A6FF",
"[&	c #9A9AFF",
"}&	c #5455C1",
"|&	c #6566D2",
"1&	c #6465CF",
"2&	c #5D60C7",
"3&	c #5D61C5",
"4&	c #5E62C6",
"5&	c #5F63C7",
"6&	c #5E61C8",
"7&	c #5C5DC7",
"8&	c #797BE8",
"9&	c #8C8EFD",
"0&	c #898CFD",
"a&	c #777CF2",
"b&	c #8085FD",
"c&	c #7D81FC",
"d&	c #8180F7",
"e&	c #7D7CF1",
"f&	c #7979EB",
"g&	c #A8A8FF",
"h&	c #9D9DFF",
"i&	c #5051BD",
"j&	c #696AD6",
"k&	c #6061CB",
"l&	c #5F62C9",
"m&	c #5D5BC6",
"n&	c #6465D1",
"o&	c #7A7AE8",
"p&	c #8B8EFF",
"q&	c #7A80F2",
"r&	c #757CF1",
"s&	c #7C82FA",
"t&	c #7C82FC",
"u&	c #9496FF",
"v&	c #494AB6",
"w&	c #8283ED",
"x&	c #8182EC",
"y&	c #7879E5",
"z&	c #8081F5",
"A&	c #7F7FF7",
"B&	c #8889F5",
"C&	c #7779E0",
"D&	c #6C6FDA",
"E&	c #7577E4",
"F&	c #8285F6",
"G&	c #8689FC",
"H&	c #8186FC",
"I&	c #7E83FB",
"J&	c #8A89FE",
"K&	c #8181F3",
"L&	c #9494FF",
"M&	c #4849B5",
"N&	c #8586F0",
"O&	c #7E7FE9",
"P&	c #797AE6",
"Q&	c #8182F6",
"R&	c #8886F3",
"S&	c #797BE2",
"T&	c #7374E0",
"U&	c #8187F9",
"V&	c #7F86FB",
"W&	c #7F85FD",
"X&	c #837FF8",
"Y&	c #8380F5",
"Z&	c #7E80F1",
"`&	c #9698FF",
" *	c #5959C9",
".*	c #8181EF",
"+*	c #8487F0",
"@*	c #7C81E5",
"#*	c #888DF3",
"$*	c #8086F4",
"%*	c #7F86F8",
"&*	c #7E85F9",
"**	c #7E85FA",
"=*	c #7E82FD",
"-*	c #8381FF",
";*	c #8281FF",
">*	c #7F84FC",
",*	c #7D86FD",
"'*	c #8086FE",
")*	c #8189F8",
"!*	c #7984ED",
"~*	c #8089F0",
"{*	c #8282F0",
"]*	c #7B78EB",
"^*	c #7A79EE",
"/*	c #8184F7",
"(*	c #8088F7",
"_*	c #7980F2",
":*	c #7F81FA",
"<*	c #7F81FC",
"[*	c #8181F1",
"}*	c #5858CA",
"|*	c #7F7FED",
"1*	c #7E82E6",
"2*	c #898EF4",
"3*	c #7F87F4",
"4*	c #7F84FA",
"5*	c #8082FD",
"6*	c #7E83F9",
"7*	c #7F85FF",
"8*	c #8087FB",
"9*	c #7C88EE",
"0*	c #7F81F0",
"a*	c #7A77EA",
"b*	c #7C79EC",
"c*	c #7F87F6",
"d*	c #747EEF",
"e*	c #7D82F8",
"f*	c #7A82FE",
"g*	c #847FFF",
"h*	c #857EFF",
"i*	c #3E7FE5",
"j*	c #3F80E6",
"k*	c #4680EE",
"l*	c #6282FB",
"m*	c #6C82FC",
"n*	c #7381FE",
"o*	c #7B7EFF",
"p*	c #7D80FF",
"q*	c #7C7DFC",
"r*	c #8883FF",
"s*	c #8583FE",
"t*	c #7A7EF9",
"u*	c #897FF9",
"v*	c #8A81F4",
"w*	c #8689F2",
"x*	c #9598FF",
"y*	c #5B56CA",
"z*	c #8179F0",
"A*	c #8483F8",
"B*	c #7B82ED",
"C*	c #8E9BF9",
"D*	c #7F90E8",
"E*	c #8094EA",
"F*	c #859DF3",
"G*	c #849CF4",
"H*	c #8296F7",
"I*	c #7C88F8",
"J*	c #847CF6",
"K*	c #897FFA",
"L*	c #8284FD",
"M*	c #8290F9",
"N*	c #7B93F7",
"O*	c #7B94FB",
"P*	c #8299FF",
"Q*	c #8396F5",
"R*	c #8095F2",
"S*	c #7694F4",
"T*	c #8297FF",
"U*	c #7C7BF3",
"V*	c #897DFD",
"W*	c #7D74F3",
"X*	c #8090F0",
"Y*	c #7484E6",
"Z*	c #837FFA",
"`*	c #807BFC",
" =	c #7881FA",
".=	c #7A86FC",
"+=	c #7E84FF",
"@=	c #7F7CFD",
"#=	c #7E7DFF",
"$=	c #8381EE",
"%=	c #8685EB",
"&=	c #8C8EF3",
"*=	c #9596FF",
"==	c #5E5AD3",
"-=	c #7C78F3",
";=	c #8480F8",
">=	c #8284F1",
",=	c #8E98F7",
"'=	c #8496EC",
")=	c #7D96E8",
"!=	c #839DF1",
"~=	c #7E93F0",
"{=	c #8796FB",
"]=	c #8389F9",
"^=	c #817BF5",
"/=	c #857FFB",
"(=	c #8491F7",
"_=	c #7E90F2",
":=	c #7E90FE",
"<=	c #8499FF",
"[=	c #7B95EC",
"}=	c #7497F1",
"|=	c #7B94F9",
"1=	c #7E80F9",
"2=	c #8370EE",
"3=	c #8077EC",
"4=	c #8692F8",
"5=	c #7281E8",
"6=	c #7F82F5",
"7=	c #7681FD",
"8=	c #7787FF",
"9=	c #7B87FF",
"0=	c #7E82FF",
"a=	c #867CFF",
"b=	c #8B7DFF",
"c=	c #867FFF",
"d=	c #8682FB",
"e=	c #817DF6",
"f=	c #7A7FF7",
"g=	c #8277EF",
"h=	c #8B7EF0",
"i=	c #A9ACFF",
"j=	c #5D62CA",
"k=	c #7F77EE",
"l=	c #8B83FD",
"m=	c #8A8EFA",
"n=	c #9CA5FF",
"o=	c #99ACF9",
"p=	c #97B8FF",
"q=	c #85ADF3",
"r=	c #81AFFC",
"s=	c #89B0FF",
"t=	c #6A80EF",
"u=	c #757BF3",
"v=	c #8B83FC",
"w=	c #867BF3",
"x=	c #827CF8",
"y=	c #8182F8",
"z=	c #8894FA",
"A=	c #8CA3FF",
"B=	c #87A8FF",
"C=	c #80A3FF",
"D=	c #85A0F7",
"E=	c #8CAAFF",
"F=	c #80A9FF",
"G=	c #6E8BF3",
"H=	c #877AFE",
"I=	c #847AFD",
"J=	c #7687E3",
"K=	c #7B8AE7",
"L=	c #8581FA",
"M=	c #7982F9",
"N=	c #7884FA",
"O=	c #7D83FF",
"P=	c #8383FB",
"Q=	c #7D7AE3",
"R=	c #8F8DF0",
"S=	c #A6A9FF",
"T=	c #5B5CC8",
"U=	c #7D79F4",
"V=	c #8984FF",
"W=	c #847EF8",
"X=	c #9290FE",
"Y=	c #9EA5FF",
"Z=	c #9AADFA",
"`=	c #8AB0F1",
" -	c #92BFFF",
".-	c #84ADFF",
"+-	c #83A4FF",
"@-	c #7384F0",
"#-	c #7A7FF4",
"$-	c #8784F9",
"%-	c #817CF4",
"&-	c #8184F9",
"*-	c #8E98F9",
"=-	c #93A4FF",
"--	c #8EA7FF",
";-	c #88A5FF",
">-	c #81A1F4",
",-	c #8AAFFF",
"'-	c #7CACFF",
")-	c #698CF2",
"!-	c #7D81FF",
"~-	c #8B7BFF",
"{-	c #8B74F6",
"]-	c #8374EB",
"^-	c #7B83E8",
"/-	c #7A88EB",
"(-	c #8083F4",
"_-	c #7583FE",
":-	c #7486FF",
"<-	c #7785FF",
"[-	c #887CFF",
"}-	c #8C7BFF",
"|-	c #887EFF",
"1-	c #8382FF",
"2-	c #7E7DF4",
"3-	c #8888FF",
"4-	c #867BF1",
"5-	c #9A90FF",
"6-	c #8285EE",
"7-	c #5B5FCA",
"8-	c #807AF4",
"9-	c #8C8AF5",
"0-	c #A49FF9",
"a-	c #9EA7F4",
"b-	c #85AEF0",
"c-	c #78B5F8",
"d-	c #76BAFF",
"e-	c #5A95F9",
"f-	c #577BED",
"g-	c #7282FB",
"h-	c #8584FC",
"i-	c #8880F7",
"j-	c #8782FA",
"k-	c #837EF4",
"l-	c #968EFB",
"m-	c #9DA2FF",
"n-	c #87A4FF",
"o-	c #81A7FF",
"p-	c #8AACFF",
"q-	c #7FA3FB",
"r-	c #7FAAFF",
"s-	c #5879E2",
"t-	c #8586FF",
"u-	c #8177FC",
"v-	c #8681FF",
"w-	c #777AEF",
"x-	c #767FDE",
"y-	c #8089E8",
"z-	c #8282FA",
"A-	c #7A83FA",
"B-	c #7881F8",
"C-	c #7F7EF6",
"D-	c #817EE7",
"E-	c #9795F8",
"F-	c #8183E8",
"G-	c #5E60CD",
"H-	c #8381FE",
"I-	c #8984FC",
"J-	c #9189F6",
"K-	c #A7A1FB",
"L-	c #99A5EF",
"M-	c #7FADEB",
"N-	c #7BBAFD",
"O-	c #77B7FF",
"P-	c #5C91F9",
"Q-	c #5B78ED",
"R-	c #7581F9",
"S-	c #7D7AEF",
"T-	c #978EFB",
"U-	c #9E9DFF",
"V-	c #889FFF",
"W-	c #84A8FF",
"X-	c #84A9FF",
"Y-	c #7AA4F8",
"Z-	c #78AAFF",
"`-	c #577EE5",
" ;	c #7C84FF",
".;	c #847AFF",
"+;	c #8C7BFD",
"@;	c #8679EF",
"#;	c #7678DF",
"$;	c #7F87EC",
"%;	c #7C84F3",
"&;	c #7B86FC",
"*;	c #7A85FF",
"=;	c #7781FC",
"-;	c #7C80FD",
";;	c #877DFF",
">;	c #8A7CFF",
",;	c #8588FD",
"';	c #7C7DF1",
");	c #9388FE",
"!;	c #A298FF",
"~;	c #5759C6",
"{;	c #8187F5",
"];	c #807CF5",
"^;	c #8A85FB",
"/;	c #9289F2",
"(;	c #A995EE",
"_;	c #A7A6E8",
":;	c #8EBFE7",
"<;	c #7BCAF3",
"[;	c #71C9FF",
"};	c #317EDA",
"|;	c #5282F0",
"1;	c #748DFF",
"2;	c #777CF4",
"3;	c #8680FA",
"4;	c #8781FB",
"5;	c #8C81F7",
"6;	c #9C84F4",
"7;	c #A195FB",
"8;	c #8CA4FC",
"9;	c #7EAAF5",
"0;	c #7FAFED",
"a;	c #7AADEE",
"b;	c #6193EA",
"c;	c #4B70DA",
"d;	c #8189FF",
"e;	c #7A77FA",
"f;	c #7E81F6",
"g;	c #8082E6",
"h;	c #7F81E5",
"i;	c #7B80F5",
"j;	c #7E84FE",
"k;	c #7E84FC",
"l;	c #7B80F8",
"m;	c #8280FB",
"n;	c #7E7DFD",
"o;	c #807FF4",
"p;	c #9390F9",
"q;	c #9391F6",
"r;	c #5B5DC4",
"s;	c #8B8DFC",
"t;	c #8F87FE",
"u;	c #9484EF",
"v;	c #B099F1",
"w;	c #A5A6E6",
"x;	c #8FC5E9",
"y;	c #73C5EB",
"z;	c #70C4FF",
"A;	c #397FE1",
"B;	c #547DF1",
"C;	c #7589FF",
"D;	c #7781F4",
"E;	c #A287FC",
"F;	c #A794FF",
"G;	c #92A4F8",
"H;	c #7EB1F0",
"I;	c #79B2F5",
"J;	c #5A92E5",
"K;	c #4B76DE",
"L;	c #7A88FF",
"M;	c #8B80FF",
"N;	c #8B80F8",
"O;	c #807AE6",
"P;	c #7E80E7",
"Q;	c #7581EF",
"R;	c #7887FA",
"S;	c #7C86FF",
"T;	c #7981FE",
"U;	c #777FFB",
"V;	c #817FFF",
"W;	c #8386F7",
"X;	c #7474E4",
"Y;	c #9C92FF",
"Z;	c #867CEF",
"`;	c #6C6EDD",
" >	c #7F85F7",
".>	c #857DF4",
"+>	c #9C89F4",
"@>	c #AF89E0",
"#>	c #BBADDE",
"$>	c #AAE3DA",
"%>	c #7EE0D1",
"&>	c #4EB6D9",
"*>	c #2B88CE",
"=>	c #4A84E7",
"->	c #6988FC",
";>	c #757FFB",
">>	c #7E79F7",
",>	c #9586FB",
"'>	c #A37DEC",
")>	c #AA90E9",
"!>	c #A6B2EC",
"~>	c #8BBAD6",
"{>	c #79C2C8",
"]>	c #7DCADE",
"^>	c #4483CA",
"/>	c #4C75DF",
"(>	c #7B80FE",
"_>	c #8082F9",
":>	c #8B84EC",
"<>	c #827DE4",
"[>	c #757CEE",
"}>	c #7984FA",
"|>	c #8085FB",
"1>	c #817CFC",
"2>	c #7E80FB",
"3>	c #7D7AEB",
"4>	c #A19EFF",
"5>	c #7D7AE1",
"6>	c #6C6DD9",
"7>	c #8586FA",
"8>	c #777DF9",
"9>	c #867DF2",
"0>	c #9B84EC",
"a>	c #B88EE4",
"b>	c #BCB0DE",
"c>	c #A7E5D8",
"d>	c #82E7D7",
"e>	c #4DB4D7",
"f>	c #297FCC",
"g>	c #5386EF",
"h>	c #748EFF",
"i>	c #717EF1",
"j>	c #7779F4",
"k>	c #8C80FC",
"l>	c #A279F1",
"m>	c #AB89E8",
"n>	c #A6AEDD",
"o>	c #8CBACA",
"p>	c #73BEC4",
"q>	c #77C9E1",
"r>	c #4083CA",
"s>	c #4978E0",
"t>	c #7488FF",
"u>	c #7679FC",
"v>	c #8980F7",
"w>	c #8C80F0",
"x>	c #827CE8",
"y>	c #717FEA",
"z>	c #7587F7",
"A>	c #7D86FF",
"B>	c #7C80FB",
"C>	c #8380FF",
"D>	c #8385F2",
"E>	c #8280ED",
"F>	c #A097FF",
"G>	c #6960D5",
"H>	c #7D7FF0",
"I>	c #797EF3",
"J>	c #797DF8",
"K>	c #7D7DF7",
"L>	c #887FF6",
"M>	c #9D82EB",
"N>	c #BB84D8",
"O>	c #BA9EC6",
"P>	c #A6DBBD",
"Q>	c #90F2CC",
"R>	c #1F8A9C",
"S>	c #2684C2",
"T>	c #4683E0",
"U>	c #6788FB",
"V>	c #7984FF",
"W>	c #8282FF",
"X>	c #807EFB",
"Y>	c #8F7EF1",
"Z>	c #AD7FEC",
"`>	c #B992E3",
" ,	c #ADA8D0",
".,	c #AFD7D9",
"+,	c #94ECD4",
"@,	c #4CAFAC",
"#,	c #3A84C5",
"$,	c #507FEB",
"%,	c #6E80FC",
"&,	c #7E83FF",
"*,	c #7B7DF4",
"=,	c #8980ED",
"-,	c #8881EB",
";,	c #757BEB",
">,	c #7681F5",
",,	c #827DFB",
"',	c #8284FF",
"),	c #8282F4",
"!,	c #7F7CE7",
"~,	c #9C9BFF",
"{,	c #6867CF",
"],	c #7D7DED",
"^,	c #757DF9",
"/,	c #8B81F2",
"(,	c #9F81E5",
"_,	c #BF85D9",
":,	c #BA9EC4",
"<,	c #AAE3C0",
"[,	c #89EEC6",
"},	c #1C859B",
"|,	c #2A81C6",
"1,	c #4D82E8",
"2,	c #6D8AFF",
"3,	c #7384F8",
"4,	c #7C85FC",
"5,	c #7F83FF",
"6,	c #8D7DFA",
"7,	c #B381FA",
"8,	c #BF91E9",
"9,	c #B4ACC4",
"0,	c #B7DDD2",
"a,	c #94EDD9",
"b,	c #4CB3B8",
"c,	c #3984C7",
"d,	c #4D80E9",
"e,	c #6C84FF",
"f,	c #787FFF",
"g,	c #8584FF",
"h,	c #8179F2",
"i,	c #8D7FF1",
"j,	c #877FEC",
"k,	c #727FE8",
"l,	c #7284F2",
"m,	c #8183FE",
"n,	c #8481FF",
"o,	c #908EF9",
"p,	c #948DFD",
"q,	c #6964D8",
"r,	c #868BFF",
"s,	c #787EF8",
"t,	c #7C7CF6",
"u,	c #9188FD",
"v,	c #A07FE8",
"w,	c #D28ADE",
"x,	c #BD8DB7",
"y,	c #A9C9B2",
"z,	c #94E4C7",
"A,	c #1A798F",
"B,	c #267EBE",
"C,	c #5086E6",
"D,	c #6C8BFF",
"E,	c #7582FF",
"F,	c #8785FF",
"G,	c #8B78EB",
"H,	c #B080ED",
"I,	c #C28EE0",
"J,	c #B193B5",
"K,	c #C1D3D3",
"L,	c #93F1D9",
"M,	c #128484",
"N,	c #3484C9",
"O,	c #5184F1",
"P,	c #6D82FF",
"Q,	c #7D85FF",
"R,	c #857DEC",
"S,	c #8981EE",
"T,	c #7D7FEE",
"U,	c #7B7FFD",
"V,	c #8186FE",
"W,	c #8482F0",
"X,	c #8A87EE",
"Y,	c #888AF1",
"Z,	c #676AD5",
"`,	c #7F7EF3",
" '	c #8B8BFF",
".'	c #7B83FF",
"+'	c #968AFA",
"@'	c #A781E4",
"#'	c #D188DA",
"$'	c #BC8CB4",
"%'	c #B2D6BA",
"&'	c #81D5B4",
"*'	c #1A7594",
"='	c #3584CF",
"-'	c #507FE7",
";'	c #6C87FC",
">'	c #7586FA",
",'	c #8474F1",
"''	c #B27FF8",
")'	c #C68CE1",
"!'	c #B594A9",
"~'	c #C4D6C8",
"{'	c #8EEDD9",
"]'	c #0D828B",
"^'	c #3387CD",
"/'	c #4E84F0",
"('	c #6985FF",
"_'	c #7881FF",
":'	c #887EEF",
"<'	c #8983EF",
"['	c #7981EC",
"}'	c #837DFF",
"|'	c #7D7CE4",
"1'	c #908DF4",
"2'	c #7E7AE9",
"3'	c #7875EA",
"4'	c #857AF2",
"5'	c #A37CE7",
"6'	c #D987DC",
"7'	c #CE8ABD",
"8'	c #B3B7BA",
"9'	c #669D9A",
"0'	c #1F7294",
"a'	c #3083C7",
"b'	c #5586EC",
"c'	c #6A84FD",
"d'	c #7983FF",
"e'	c #827EF6",
"f'	c #9581F2",
"g'	c #AB7BE8",
"h'	c #C388DC",
"i'	c #CC95BD",
"j'	c #B6B0BA",
"k'	c #6EBEBD",
"l'	c #138295",
"m'	c #2B7ECA",
"n'	c #4F85F2",
"o'	c #7287FF",
"p'	c #7178FA",
"q'	c #8287FF",
"r'	c #817EEF",
"s'	c #8480EE",
"t'	c #8783F1",
"u'	c #7E7EEE",
"v'	c #797DFB",
"w'	c #8481EC",
"x'	c #9792F8",
"y'	c #787BE2",
"z'	c #7478E4",
"A'	c #8281F9",
"B'	c #7A79F8",
"C'	c #7B85FF",
"D'	c #867AEA",
"E'	c #AA80E4",
"F'	c #D883D8",
"G'	c #D18DBE",
"H'	c #AFB8B3",
"I'	c #669F99",
"J'	c #2A78A8",
"K'	c #327CD1",
"L'	c #5680EC",
"M'	c #7389FF",
"N'	c #7887FC",
"O'	c #917EFB",
"P'	c #B17BF3",
"Q'	c #C987DE",
"R'	c #D196B2",
"S'	c #BBB3B1",
"T'	c #67BBBD",
"U'	c #0E809B",
"V'	c #2B81CE",
"W'	c #4C84F1",
"X'	c #6C88FF",
"Y'	c #767FFF",
"Z'	c #8983FF",
"`'	c #8480F1",
" )	c #8482EF",
".)	c #8083EE",
"+)	c #7B7FED",
"@)	c #7C7CF4",
"#)	c #8381FC",
"$)	c #8580FE",
"%)	c #3D7EE4",
"&)	c #4382EB",
"*)	c #4880EF",
"=)	c #6B81FB",
"-)	c #8380E9",
";)	c #9691F8",
">)	c #7575E3",
",)	c #7B7DF6",
"')	c #8C81FB",
"))	c #A97FED",
"!)	c #D77FD6",
"~)	c #DC85C9",
"{)	c #B897C4",
"])	c #697CA6",
"^)	c #236AA0",
"/)	c #3685D2",
"()	c #5682ED",
"_)	c #6F83FF",
":)	c #7C80FF",
"<)	c #847DF1",
"[)	c #9781F0",
"})	c #AF7DEC",
"|)	c #D08EE8",
"1)	c #D386BC",
"2)	c #BD9ABB",
"3)	c #578BB2",
"4)	c #1B76AD",
"5)	c #3383DA",
"6)	c #457DEC",
"7)	c #7186FF",
"8)	c #8183F0",
"9)	c #9087F4",
"0)	c #746CDC",
"a)	c #787CF7",
"b)	c #8483FF",
"c)	c #837CFD",
"d)	c #797EF4",
"e)	c #8982EC",
"f)	c #9B95F9",
"g)	c #656CD4",
"h)	c #7A82F1",
"i)	c #7D7AFB",
"j)	c #7E86FF",
"k)	c #7D82F7",
"l)	c #9183F4",
"m)	c #A97AE0",
"n)	c #D87AD2",
"o)	c #E08ACB",
"p)	c #B195BB",
"q)	c #657BA2",
"r)	c #2568AF",
"s)	c #3B81E1",
"t)	c #5A80EF",
"u)	c #6F82F8",
"v)	c #8B75F3",
"w)	c #B27DF3",
"x)	c #D38AE4",
"y)	c #DB89B7",
"z)	c #BC95B2",
"A)	c #4E85AE",
"B)	c #1B79B7",
"C)	c #3180DC",
"D)	c #6F89FF",
"E)	c #827EF9",
"F)	c #7F82F3",
"G)	c #8084EF",
"H)	c #8C88F6",
"I)	c #746DDD",
"J)	c #807FF6",
"K)	c #8186FF",
"L)	c #787CF9",
"M)	c #8480FB",
"N)	c #8780EA",
"O)	c #9590F7",
"P)	c #6D71DF",
"Q)	c #787FF4",
"R)	c #7D7DF9",
"S)	c #8B81FC",
"T)	c #A47CEE",
"U)	c #D67DD7",
"V)	c #E281D0",
"W)	c #C98BD8",
"X)	c #6C65AB",
"Y)	c #3070B0",
"Z)	c #2D7FCB",
"`)	c #547EEA",
" !	c #7082FF",
".!	c #8881FF",
"+!	c #9176E7",
"@!	c #AE7CEB",
"#!	c #C67FDD",
"$!	c #D882BF",
"%!	c #CE95CA",
"&!	c #4D60A4",
"*!	c #2865B8",
"=!	c #457DEE",
"-!	c #7386FF",
";!	c #7B86F9",
">!	c #7D83F1",
",!	c #9185F1",
"'!	c #7F71E0",
")!	c #787EFA",
"!!	c #847EFC",
"~!	c #7D82FF",
"{!	c #7C7EF5",
"]!	c #8D82EB",
"^!	c #9A92F7",
"/!	c #656ED7",
"(!	c #7883F6",
"_!	c #827CFF",
":!	c #8086FF",
"<!	c #7B7EF1",
"[!	c #9082F3",
"}!	c #B081EB",
"|!	c #DC7DD9",
"1!	c #DD7ACA",
"2!	c #C88FD3",
"3!	c #6B66A9",
"4!	c #2F69BB",
"5!	c #2D75D7",
"6!	c #577BE9",
"7!	c #7685FA",
"8!	c #7D83FB",
"9!	c #9077F6",
"0!	c #B780F5",
"a!	c #C87CD7",
"b!	c #DD82BB",
"c!	c #CD91C4",
"d!	c #5064AD",
"e!	c #2565BD",
"f!	c #377CE1",
"g!	c #7088FF",
"h!	c #7A84F5",
"i!	c #7D85F0",
"j!	c #8F86F3",
"k!	c #7D70E2",
"l!	c #807CF4",
"m!	c #8085FF",
"n!	c #787DFB",
"o!	c #8B82ED",
"p!	c #968FF9",
"q!	c #646CDB",
"r!	c #7883F9",
"s!	c #7E7CF7",
"t!	c #8385FC",
"u!	c #8A80FD",
"v!	c #A07BEF",
"w!	c #D47EDF",
"x!	c #E37FD7",
"y!	c #B25EBC",
"z!	c #55398E",
"A!	c #306DAC",
"B!	c #277EC3",
"C!	c #5582E9",
"D!	c #7585FF",
"E!	c #7A7AFE",
"F!	c #8A80FF",
"G!	c #8E7EFA",
"H!	c #9376EA",
"I!	c #B985F4",
"J!	c #C57EDC",
"K!	c #D780C4",
"L!	c #A962A4",
"M!	c #423086",
"N!	c #3D55B9",
"O!	c #447AE4",
"P!	c #477CF0",
"Q!	c #7685FF",
"R!	c #7986F9",
"S!	c #7C84F1",
"T!	c #9083ED",
"U!	c #8979E6",
"V!	c #7B7EF3",
"W!	c #767EFA",
"X!	c #7F82FF",
"Y!	c #9282ED",
"Z!	c #988DF3",
"`!	c #6270D9",
" ~	c #7586F8",
".~	c #837CFF",
"+~	c #8E81F5",
"@~	c #AB7FEE",
"#~	c #DB81E3",
"$~	c #E27BD6",
"%~	c #A95BAF",
"&~	c #533A8D",
"*~	c #346DBE",
"=~	c #2D7AD2",
"-~	c #5B82E9",
";~	c #7B8BFC",
">~	c #797FF7",
",~	c #867AFF",
"'~	c #9476F8",
")~	c #BC83F4",
"!~	c #CF83DE",
"~~	c #DF83C4",
"{~	c #A0589A",
"]~	c #44348D",
"^~	c #3F5AC3",
"/~	c #4177E3",
"(~	c #497EF0",
"_~	c #7885F5",
":~	c #7A87F0",
"<~	c #9084F2",
"[~	c #8877E9",
"}~	c #7C78F0",
"|~	c #7D84FF",
"1~	c #797EFE",
"2~	c #8484FE",
"3~	c #8480F9",
"4~	c #7E7DF5",
"5~	c #9284F3",
"6~	c #5F6ADD",
"7~	c #7988FD",
"8~	c #817DF8",
"9~	c #8483FA",
"0~	c #9C7AF3",
"a~	c #D183E8",
"b~	c #DF7EDF",
"c~	c #9C40AF",
"d~	c #50258E",
"e~	c #3364B1",
"f~	c #2E7DC8",
"g~	c #517CE4",
"h~	c #7184FC",
"i~	c #7B7BFD",
"j~	c #8C82FF",
"k~	c #8778F7",
"l~	c #967AF1",
"m~	c #B783F2",
"n~	c #CE86EA",
"o~	c #D37FD4",
"p~	c #72287F",
"q~	c #4C218D",
"r~	c #4E49BF",
"s~	c #4C75E7",
"t~	c #4A7BF1",
"u~	c #7784FF",
"v~	c #7985FB",
"w~	c #7B83F2",
"x~	c #8F84EC",
"y~	c #8C7FE8",
"z~	c #777FFC",
"A~	c #7E81FF",
"B~	c #8181FB",
"C~	c #8581FC",
"D~	c #9482EE",
"E~	c #958AF0",
"F~	c #6173DF",
"G~	c #7287FC",
"H~	c #8177FA",
"I~	c #8282F2",
"J~	c #8A7FF5",
"K~	c #9E77EA",
"L~	c #D582EA",
"M~	c #E984EA",
"N~	c #8E359F",
"O~	c #50278F",
"P~	c #3C69C4",
"Q~	c #377EDA",
"R~	c #577CE4",
"S~	c #7686F7",
"T~	c #797FF9",
"U~	c #8379FF",
"V~	c #9378F9",
"W~	c #B87FF0",
"X~	c #D789EC",
"Y~	c #D97FD6",
"Z~	c #6A1B76",
"`~	c #4A2090",
" {	c #5251C9",
".{	c #4972E6",
"+{	c #4D7CF2",
"@{	c #7387FF",
"#{	c #7D7EFD",
"${	c #7885F7",
"%{	c #7A86F2",
"&{	c #8E85F0",
"*{	c #8C7BEB",
"={	c #7B76EC",
"-{	c #7F7AF8",
";{	c #9584F7",
">{	c #948AFA",
",{	c #5E6DE0",
"'{	c #758AFF",
"){	c #8082FB",
"!{	c #827DF5",
"~{	c #8681F5",
"{{	c #8580F8",
"]{	c #997CFA",
"^{	c #CC89F2",
"/{	c #D279E5",
"({	c #701499",
"_{	c #4B169A",
":{	c #364EB8",
"<{	c #467EDF",
"[{	c #577DEA",
"}{	c #6F84FB",
"|{	c #7B7FFC",
"1{	c #8680FE",
"2{	c #9580F9",
"3{	c #AA78EB",
"4{	c #C882F2",
"5{	c #B669D9",
"6{	c #5F1890",
"7{	c #581EA8",
"8{	c #4830BA",
"9{	c #5371ED",
"0{	c #4F79F1",
"a{	c #7D83FD",
"b{	c #7E81F4",
"c{	c #8E88EC",
"d{	c #8580E4",
"e{	c #7679EE",
"f{	c #7A7FFD",
"g{	c #807FF7",
"h{	c #8382FA",
"i{	c #9781EE",
"j{	c #9386EF",
"k{	c #6278E5",
"l{	c #6F88FE",
"m{	c #8477FB",
"n{	c #827FF2",
"o{	c #8583F1",
"p{	c #8A81F8",
"q{	c #9A78F0",
"r{	c #CE84F3",
"s{	c #D77AED",
"t{	c #6A1396",
"u{	c #4C1A9D",
"v{	c #3A4FC2",
"w{	c #4777E3",
"x{	c #5878E7",
"y{	c #7485F9",
"z{	c #9481FF",
"A{	c #B17AF1",
"B{	c #C87BED",
"C{	c #B15ED2",
"D{	c #631793",
"E{	c #561DA8",
"F{	c #4732BD",
"G{	c #506EEA",
"H{	c #507AF2",
"I{	c #7A84F7",
"J{	c #7D85F2",
"K{	c #8C89F2",
"L{	c #837CE6",
"M{	c #7C77ED",
"N{	c #8080FF",
"O{	c #8079FA",
"P{	c #9580F7",
"Q{	c #9184F6",
"R{	c #6276E9",
"S{	c #887FF2",
"T{	c #877FF6",
"U{	c #857FFF",
"V{	c #957EFF",
"W{	c #C388F6",
"X{	c #BA6ADD",
"Y{	c #630E9F",
"Z{	c #5B20B6",
"`{	c #4441C4",
" ]	c #5872E9",
".]	c #5D7BED",
"+]	c #6F84F9",
"@]	c #7C7BFA",
"#]	c #7879F8",
"$]	c #8C7EF9",
"%]	c #AD7EF2",
"&]	c #C584FC",
"*]	c #A460E9",
"=]	c #9251E3",
"-]	c #8C4FE8",
";]	c #795BED",
">]	c #566FEE",
",]	c #5077F0",
"']	c #7A83FF",
")]	c #8E8EEE",
"!]	c #787BDC",
"~]	c #767BF0",
"{]	c #8281F8",
"]]	c #837DF9",
"^]	c #977FED",
"/]	c #9383EE",
"(]	c #657DEB",
"_]	c #6A87FD",
":]	c #8A7AFE",
"<]	c #867FEF",
"[]	c #837FED",
"}]	c #8B81FB",
"|]	c #A082FE",
"1]	c #C584FA",
"2]	c #AE5CDA",
"3]	c #6412A5",
"4]	c #5A22B9",
"5]	c #433DC3",
"6]	c #596DEA",
"7]	c #6379F1",
"8]	c #7588FF",
"9]	c #7E87FF",
"0]	c #767CF8",
"a]	c #887EFB",
"b]	c #B17EF7",
"c]	c #C67EFC",
"d]	c #A157E2",
"e]	c #9A54EA",
"f]	c #864AE6",
"g]	c #7B5EF4",
"h]	c #546BED",
"i]	c #5478F2",
"j]	c #7F81F8",
"k]	c #8084F2",
"l]	c #8C90F4",
"m]	c #7375DC",
"n]	c #7E7BF0",
"o]	c #7D7FFF",
"p]	c #8379FC",
"q]	c #967EF8",
"r]	c #6A7FF4",
"s]	c #6B86FB",
"t]	c #897FF0",
"u]	c #847EFF",
"v]	c #927EFF",
"w]	c #9B56CB",
"x]	c #8E44D9",
"y]	c #884AEB",
"z]	c #6A49E2",
"A]	c #625BE7",
"B]	c #5F72EB",
"C]	c #6A81F3",
"D]	c #8089FF",
"E]	c #7583FF",
"F]	c #B088FB",
"G]	c #AD70EF",
"H]	c #884CE8",
"I]	c #884FF4",
"J]	c #7F4BEB",
"K]	c #7058EA",
"L]	c #566DED",
"M]	c #5375F0",
"N]	c #7B82FF",
"O]	c #887FFF",
"P]	c #847FF5",
"Q]	c #8C95F2",
"R]	c #6873CF",
"S]	c #817DFF",
"T]	c #807AFF",
"U]	c #847BF8",
"V]	c #987DEE",
"W]	c #6781F0",
"X]	c #6886FE",
"Y]	c #877FEF",
"Z]	c #857FED",
"`]	c #8A82FC",
" ^	c #9C83FF",
".^	c #B97FF8",
"+^	c #9047CA",
"@^	c #8C45E1",
"#^	c #8349EB",
"$^	c #6A46DE",
"%^	c #685BE9",
"&^	c #6973F6",
"*^	c #6E82FD",
"=^	c #7C88FF",
"-^	c #7783FD",
";^	c #778BFF",
">^	c #AE80FC",
",^	c #B571F8",
"'^	c #8C4AE8",
")^	c #8C4FF5",
"!^	c #7747E8",
"~^	c #745DF3",
"{^	c #576AED",
"]^	c #5777F2",
"^^	c #8D97F9",
"/^	c #636DCF",
"(^	c #827FF4",
"_^	c #807CFF",
":^	c #7980F5",
"<^	c #857CFD",
"[^	c #947EFA",
"}^	c #7286F9",
"|^	c #6C83F7",
"1^	c #8881F3",
"2^	c #827EFF",
"3^	c #8D7DFF",
"4^	c #A77DF9",
"5^	c #7F48C8",
"6^	c #8146DE",
"7^	c #834CEF",
"8^	c #794DEC",
"9^	c #6A54E5",
"0^	c #727CF7",
"a^	c #7289F9",
"b^	c #7C89FB",
"c^	c #7380F3",
"d^	c #7489FF",
"e^	c #A184F8",
"f^	c #9061E3",
"g^	c #8A5BF9",
"h^	c #7B4DF6",
"i^	c #8058F9",
"j^	c #735FF4",
"k^	c #5C6AF1",
"l^	c #5A71F1",
"m^	c #887FFC",
"n^	c #8580F4",
"o^	c #8E96F8",
"p^	c #5F6CCC",
"q^	c #7C81F6",
"r^	c #7D7AFD",
"s^	c #847AF7",
"t^	c #957CF1",
"u^	c #9082F1",
"v^	c #6B82F2",
"w^	c #6984F9",
"x^	c #877BFB",
"y^	c #837FF0",
"z^	c #8582F3",
"A^	c #8781FF",
"B^	c #8F7AFD",
"C^	c #A879FB",
"D^	c #8248D2",
"E^	c #7E49E2",
"F^	c #7F4DEE",
"G^	c #7D4DEE",
"H^	c #7153E9",
"I^	c #7375FC",
"J^	c #6D7FFB",
"K^	c #7786FB",
"L^	c #6A85F8",
"M^	c #808BFF",
"N^	c #9E7EF9",
"O^	c #9461EA",
"P^	c #8856F5",
"Q^	c #7C4EF6",
"R^	c #865BFF",
"S^	c #735CF5",
"T^	c #5D66EF",
"U^	c #5F72F2",
"V^	c #7A84FF",
"W^	c #867EF7",
"X^	c #8481F2",
"Y^	c #9099FE",
"Z^	c #5965CB",
"`^	c #8382F7",
" /	c #7982FB",
"./	c #857BF8",
"+/	c #8B7BF5",
"@/	c #8982F6",
"#/	c #7984F7",
"$/	c #707DEF",
"%/	c #7D87FA",
"&/	c #7A84FD",
"*/	c #7D60EC",
"=/	c #7855E5",
"-/	c #7A51ED",
";/	c #7C54F2",
">/	c #7B5AEF",
",/	c #6654DC",
"'/	c #6E73E9",
")/	c #7A8CF8",
"!/	c #6A7FE8",
"~/	c #778EF6",
"{/	c #738AF4",
"]/	c #818BFA",
"^/	c #8A7DF1",
"//	c #7D62E3",
"(/	c #7D5EFA",
"_/	c #7859FC",
":/	c #7763FF",
"</	c #7270FF",
"[/	c #6468F0",
"}/	c #7C7AFF",
"|/	c #8683FF",
"1/	c #8481F4",
"2/	c #8A88F6",
"3/	c #9195FF",
"4/	c #6064CF",
"5/	c #8689FE",
"6/	c #7C7AF9",
"7/	c #877BF7",
"8/	c #8E7AF3",
"9/	c #8B81F4",
"0/	c #7784F4",
"a/	c #6E80F0",
"b/	c #7F7AF2",
"c/	c #8A78FF",
"d/	c #805FEE",
"e/	c #7C56E7",
"f/	c #6C4FDF",
"g/	c #7B5DF1",
"h/	c #7950EE",
"i/	c #7253EC",
"j/	c #7672FA",
"k/	c #7783FB",
"l/	c #7586F0",
"m/	c #748CF0",
"n/	c #6D8DF0",
"o/	c #778CF7",
"p/	c #745DDF",
"q/	c #7761F0",
"r/	c #7A5FFA",
"s/	c #8059FF",
"t/	c #7C5BFF",
"u/	c #7169FD",
"v/	c #686AF3",
"w/	c #827FF0",
"x/	c #8888F6",
"y/	c #8C90FB",
"z/	c #6569D5",
"A/	c #7A79F9",
"B/	c #8384FF",
"C/	c #827CF6",
"D/	c #877DF7",
"E/	c #8981F8",
"F/	c #787BEC",
"G/	c #8481F6",
"H/	c #7A85FB",
"I/	c #877BFF",
"J/	c #8370FF",
"K/	c #826AFE",
"L/	c #8E76FF",
"M/	c #846BFA",
"N/	c #8574F6",
"O/	c #7B77E6",
"P/	c #7C89E5",
"Q/	c #8BA9F2",
"R/	c #84ADED",
"S/	c #80ADEE",
"T/	c #7498E4",
"U/	c #7884E8",
"V/	c #7E79F1",
"W/	c #8775FF",
"X/	c #8A73FF",
"Y/	c #8679FF",
"Z/	c #7B77FF",
"`/	c #7E7EF0",
" (	c #8686F4",
".(	c #7E80EF",
"+(	c #6B6DDE",
"@(	c #8687FD",
"#(	c #867CF7",
"$(	c #8A7CF7",
"%(	c #8A81F6",
"&(	c #7F81F2",
"*(	c #767CEA",
"=(	c #7C87FB",
"-(	c #897BFF",
";(	c #876FFF",
">(	c #836CFB",
",(	c #887AFF",
"'(	c #8170FA",
")(	c #8D6CFF",
"!(	c #8E70FF",
"~(	c #7E73F3",
"{(	c #8088ED",
"](	c #8FA5EE",
"^(	c #88AFEA",
"/(	c #77AFE8",
"((	c #699BE2",
"_(	c #768AED",
":(	c #7777F1",
"<(	c #857BFF",
"[(	c #8674FF",
"}(	c #8A6EFF",
"|(	c #8C72FF",
"1(	c #7E70FF",
"2(	c #807BFB",
"3(	c #8581F9",
"4(	c #807DF0",
"5(	c #8585F3",
"6(	c #8A8AF8",
"7(	c #7A7CEB",
"8(	c #7072E3",
"9(	c #7D7FFA",
"0(	c #847FF7",
"a(	c #8B7CF3",
"b(	c #8079ED",
"c(	c #7884F2",
"d(	c #7989F8",
"e(	c #817CFA",
"f(	c #8B7AFF",
"g(	c #8076F9",
"h(	c #8B76FF",
"i(	c #957FFE",
"j(	c #9483E9",
"k(	c #A4A8E8",
"l(	c #B0D9EB",
"m(	c #99DFD7",
"n(	c #84DED2",
"o(	c #68BCC7",
"p(	c #6E9EDC",
"q(	c #7D8BF4",
"r(	c #8B77FF",
"s(	c #817BFF",
"t(	c #8482FD",
"u(	c #8888FA",
"v(	c #8080EE",
"w(	c #9595FF",
"x(	c #6A6CDB",
"y(	c #7778EC",
"z(	c #7C7BFB",
"A(	c #837DF7",
"B(	c #8881F5",
"C(	c #8A7DF3",
"D(	c #8079EB",
"E(	c #7983F2",
"F(	c #7888F7",
"G(	c #7B82F7",
"H(	c #8579FF",
"I(	c #8D7AFF",
"J(	c #8978FF",
"K(	c #7D76F8",
"L(	c #8E77FF",
"M(	c #937AFF",
"N(	c #907FEF",
"O(	c #A4A7EC",
"P(	c #B5D5E4",
"Q(	c #A0DFD4",
"R(	c #79DFD2",
"S(	c #5DBFCC",
"T(	c #70A2E9",
"U(	c #7C89F9",
"V(	c #8975FF",
"W(	c #837AFF",
"X(	c #817AFF",
"Y(	c #6567D6",
"Z(	c #837FF7",
"`(	c #8A7FF7",
" _	c #8F7AF3",
"._	c #8578EE",
"+_	c #7182EE",
"@_	c #817DF5",
"#_	c #8880FA",
"$_	c #8B81FF",
"%_	c #847DFF",
"&_	c #797EF6",
"*_	c #9282FF",
"=_	c #9177F6",
"-_	c #A383E8",
";_	c #BFADEB",
">_	c #BAC7D0",
",_	c #B5E9D3",
"'_	c #74D9B7",
")_	c #43ACA5",
"!_	c #5192C8",
"~_	c #6F8CF0",
"{_	c #7D7CFC",
"]_	c #7D7BF8",
"^_	c #7F7FEF",
"/_	c #8B8BFB",
"(_	c #9090FF",
"__	c #6769DA",
":_	c #7D7CFB",
"<_	c #8679ED",
"[_	c #7482EF",
"}_	c #768BF6",
"|_	c #837EFC",
"1_	c #8079FB",
"2_	c #8278FB",
"3_	c #8E77FB",
"4_	c #A486EA",
"5_	c #BCA9E1",
"6_	c #C3CDCE",
"7_	c #B6E8CD",
"8_	c #6DD9B9",
"9_	c #3DAEAC",
"0_	c #5094D1",
"a_	c #6E8AF5",
"b_	c #827AFF",
"c_	c #8877FF",
"d_	c #8888F8",
"e_	c #8E8EFE",
"f_	c #6365D6",
"g_	c #7C81FF",
"h_	c #8879F0",
"i_	c #757DEA",
"j_	c #7A88F5",
"k_	c #7D80F3",
"l_	c #778DFC",
"m_	c #7181F2",
"n_	c #8E83FF",
"o_	c #9676F5",
"p_	c #A977E6",
"q_	c #C68FE3",
"r_	c #D09ACC",
"s_	c #C9C0D5",
"t_	c #5BA7A7",
"u_	c #197E90",
"v_	c #3277BC",
"w_	c #658BF6",
"x_	c #7987FF",
"y_	c #8A8AFC",
"z_	c #7676E6",
"A_	c #9C9CFF",
"B_	c #6F6FE1",
"C_	c #7475EB",
"D_	c #8786FF",
"E_	c #8879EE",
"F_	c #7583EE",
"G_	c #7D80F1",
"H_	c #7F7DF8",
"I_	c #7E7AF5",
"J_	c #818BFC",
"K_	c #7983F4",
"L_	c #917CF1",
"M_	c #B17FE0",
"N_	c #CC93D7",
"O_	c #D1A6C2",
"P_	c #C2C2CA",
"Q_	c #5FA6AA",
"R_	c #1E7E96",
"S_	c #2D77BE",
"T_	c #618CF4",
"U_	c #7D84EE",
"V_	c #7E87EE",
"W_	c #8B86FF",
"X_	c #7E7AF3",
"Y_	c #807DF2",
"Z_	c #8C8CFE",
"`_	c #6D6DDF",
" :	c #7071E7",
".:	c #7A82FF",
"+:	c #857FF9",
"@:	c #887EF8",
"#:	c #8A7CF5",
"$:	c #7E7BEC",
"%:	c #7F83F1",
"&:	c #7C83F5",
"*:	c #7982F7",
"=:	c #6F85F4",
"-:	c #7183F3",
";:	c #9A7AF5",
">:	c #B177E8",
",:	c #D785E9",
"':	c #E683D6",
"):	c #A165A5",
"!:	c #3A5D87",
"~:	c #196394",
"{:	c #417BCF",
"]:	c #628CFA",
"^:	c #807CEB",
"/:	c #8683F8",
"(:	c #8382F9",
"_:	c #7D7DEF",
"::	c #6463D8",
"<:	c #8887FF",
"[:	c #7B7AF9",
"}:	c #877EF5",
"|:	c #867DF0",
"1:	c #7D81EF",
"2:	c #7B86F2",
"3:	c #7B81F1",
"4:	c #7E81F2",
"5:	c #717CEF",
"6:	c #8288FA",
"7:	c #927FEB",
"8:	c #B67ADA",
"9:	c #E493E2",
"0:	c #D785C3",
"a:	c #96679B",
"b:	c #445B8D",
"c:	c #23619E",
"d:	c #3A7BCF",
"e:	c #5E8FF6",
"f:	c #6F80F2",
"g:	c #7E85ED",
"h:	c #7A7FE7",
"i:	c #8585F7",
"j:	c #7C7DFB",
"k:	c #7982FF",
"l:	c #867DFC",
"m:	c #8677EC",
"n:	c #857BEE",
"o:	c #7C87F3",
"p:	c #7886F3",
"q:	c #8582F7",
"r:	c #7F82F7",
"s:	c #7D84F9",
"t:	c #7983FC",
"u:	c #7E87FE",
"v:	c #917EEA",
"w:	c #B479E5",
"x:	c #D777E3",
"y:	c #CD4EBF",
"z:	c #75107A",
"A:	c #351E78",
"B:	c #284096",
"C:	c #4B71D2",
"D:	c #6187F2",
"E:	c #6982F6",
"F:	c #7B87FD",
"G:	c #8786FB",
"H:	c #8484F4",
"I:	c #8383F3",
"J:	c #6A69DE",
"K:	c #7473EA",
"L:	c #8E7BF9",
"M:	c #7D83F5",
"N:	c #7D83F3",
"O:	c #8477EB",
"P:	c #847AED",
"Q:	c #7C7FF0",
"R:	c #7F84FF",
"S:	c #878AFF",
"T:	c #8F7CE7",
"U:	c #B678DB",
"V:	c #DD82E2",
"W:	c #BA4BB1",
"X:	c #6C117A",
"Y:	c #3A1982",
"Z:	c #323DA7",
"`:	c #4A71DA",
" <	c #5F8BF4",
".<	c #6681EC",
"+<	c #7F8CFC",
"@<	c #8486FD",
"#<	c #9E9EFF",
"$<	c #6867DC",
"%<	c #7675EC",
"&<	c #897DFB",
"*<	c #867EF8",
"=<	c #8674EC",
"-<	c #8576EB",
";<	c #8389F7",
"><	c #7987F2",
",<	c #7C82F2",
"'<	c #7A7DEE",
")<	c #877BE7",
"!<	c #AD7BEA",
"~<	c #B461D7",
"{<	c #8E1B9E",
"]<	c #760F94",
"^<	c #501F9C",
"/<	c #2C249B",
"(<	c #3F50C4",
"_<	c #6580F5",
":<	c #788BFF",
"<<	c #797CF1",
"[<	c #8484F2",
"}<	c #6C6BE0",
"|<	c #7D7CFE",
"1<	c #7C7CF8",
"2<	c #8C7BFB",
"3<	c #887CF8",
"4<	c #7D85F4",
"5<	c #858DFA",
"6<	c #798AF4",
"7<	c #7B83F0",
"8<	c #8286F4",
"9<	c #8C7CE7",
"0<	c #B17CE6",
"a<	c #B260CE",
"b<	c #871F9C",
"c<	c #711199",
"d<	c #5118A5",
"e<	c #3422AA",
"f<	c #3E51CA",
"g<	c #6789F7",
"h<	c #728DF8",
"i<	c #7677F5",
"j<	c #7C7BF0",
"k<	c #8787F5",
"l<	c #6C6CDE",
"m<	c #7776F8",
"n<	c #887CFC",
"o<	c #877DF8",
"p<	c #8075EB",
"q<	c #7C78E9",
"r<	c #8387F5",
"s<	c #7E8AF6",
"t<	c #737FEB",
"u<	c #777DEB",
"v<	c #8884FC",
"w<	c #897CFF",
"x<	c #887BFF",
"y<	c #8B71EC",
"z<	c #9566E6",
"A<	c #7936C3",
"B<	c #7130C2",
"C<	c #6034C7",
"D<	c #5840D2",
"E<	c #645FEF",
"F<	c #7A7DFF",
"G<	c #7681F7",
"H<	c #7882F3",
"I<	c #7D7DEB",
"J<	c #5F5FD1",
"K<	c #7B79F4",
"L<	c #847DFE",
"M<	c #847EFA",
"N<	c #8883F9",
"O<	c #7B76EA",
"P<	c #7B78E9",
"Q<	c #8589F7",
"R<	c #7F8DF6",
"S<	c #7381EA",
"T<	c #787FEA",
"U<	c #888AFB",
"V<	c #807BF9",
"W<	c #9170E5",
"X<	c #9462DD",
"Y<	c #7E3EC6",
"Z<	c #7333C7",
"`<	c #6233CF",
" [	c #593FD6",
".[	c #6163EA",
"+[	c #7181FA",
"@[	c #7587F5",
"#[	c #7F83FE",
"$[	c #7B7BEB",
"%[	c #5C5CCE",
"&[	c #867DFA",
"*[	c #7F7CF1",
"=[	c #7E7BEE",
"-[	c #7F7CED",
";[	c #818DF9",
">[	c #8795FF",
",[	c #858BF9",
"'[	c #8D7FFA",
")[	c #918AFA",
"![	c #8674EA",
"~[	c #9F81FD",
"{[	c #8B67EB",
"][	c #896AF3",
"^[	c #8D75FF",
"/[	c #8F7EFF",
"([	c #857DFF",
"_[	c #808CFA",
":[	c #818EF7",
"<[	c #8084F0",
"[[	c #A2A2FF",
"}[	c #5E5ECE",
"|[	c #7070E2",
"1[	c #8584FB",
"2[	c #7B7CF0",
"3[	c #7D78EC",
"4[	c #8792FE",
"5[	c #8B99FF",
"6[	c #868EF9",
"7[	c #7D7FEC",
"8[	c #8784F7",
"9[	c #8885F8",
"0[	c #7877EC",
"a[	c #8C85F9",
"b[	c #9683F6",
"c[	c #9377EE",
"d[	c #8F6CEC",
"e[	c #9571F7",
"f[	c #9574FF",
"g[	c #8972FF",
"h[	c #8289FB",
"i[	c #7D86EF",
"j[	c #7E86F1",
"k[	c #8587FE",
"l[	c #7E7EEC",
"m[	c #A5A5FF",
"n[	c #5C5CCC",
"o[	c #7B7BED",
"p[	c #887CFA",
"q[	c #8285FA",
"r[	c #7F7AF0",
"s[	c #736CE0",
"t[	c #7376E7",
"u[	c #878FFE",
"v[	c #989EFF",
"w[	c #9C9EFF",
"x[	c #A4A1FF",
"y[	c #A59EFF",
"z[	c #A39FFF",
"A[	c #ABACFF",
"B[	c #939BEE",
"C[	c #9CA3F4",
"D[	c #9D99EE",
"E[	c #A097F0",
"F[	c #A49BF8",
"G[	c #A296F8",
"H[	c #A596FD",
"I[	c #A69BFF",
"J[	c #A0A0FF",
"K[	c #9BA1FF",
"L[	c #9AA0FE",
"M[	c #9AA0FF",
"N[	c #A0A3FF",
"O[	c #7575E5",
"P[	c #5959CB",
"Q[	c #7978F0",
"R[	c #8583FF",
"S[	c #877CFC",
"T[	c #7B7AEF",
"U[	c #7171E3",
"V[	c #787AE9",
"W[	c #8E92FE",
"X[	c #979FFF",
"Y[	c #969FFF",
"Z[	c #999EFF",
"`[	c #A8ACFF",
" }	c #9A9FFF",
".}	c #ACA1FF",
"+}	c #AC9DFF",
"@}	c #9A8EF0",
"#}	c #A498FC",
"$}	c #A398FF",
"%}	c #9F98FF",
"&}	c #9BA5FE",
"*}	c #9DA1FC",
"=}	c #A1A1FF",
"-}	c #9B97FF",
";}	c #B2B2FF",
">}	c #6A6ADA",
",}	c #5454C6",
"'}	c #8685FA",
")}	c #877DFA",
"!}	c #8887FE",
"~}	c #7572E7",
"{}	c #6968DD",
"]}	c #6369DB",
"^}	c #6369D7",
"/}	c #6164CB",
"(}	c #6464C6",
"_}	c #6260C1",
":}	c #6869C6",
"<}	c #616BC2",
"[}	c #5A64BB",
"}}	c #6C6DC7",
"|}	c #726DC9",
"1}	c #7469C7",
"2}	c #7062C3",
"3}	c #6D5DBF",
"4}	c #6E62C4",
"5}	c #6A6BC8",
"6}	c #6368C6",
"7}	c #6363C5",
"8}	c #6867CD",
"9}	c #6B6ADF",
"0}	c #6261D6",
"a}	c #7271E8",
"b}	c #8C8BFF",
"c}	c #7876F3",
"d}	c #877CFE",
"e}	c #7A7AF6",
"f}	c #7772E6",
"g}	c #6C69DA",
"h}	c #6167D5",
"i}	c #5D68D1",
"j}	c #5E66C8",
"k}	c #5961C3",
"l}	c #6063CE",
"m}	c #635AC5",
"n}	c #7568D2",
"o}	c #6F67CC",
"p}	c #776FD4",
"q}	c #6F62CC",
"r}	c #6F67CE",
"s}	c #676AC7",
"t}	c #6066BE",
"u}	c #6161BB",
"v}	c #6964C8",
"w}	c #6D66D8",
"x}	c #6863DB",
"y}	c #5F5ED3",
"z}	c #6362D7",
"A}	c #6665DA",
"B}	c #8887FC",
"C}	c #7574EB",
"D}	c #8F8EFF",
"E}	c #7977F4",
"F}	c #847AF4",
"G}	c #7C7FF4",
"H}	c #7B81F3",
"I}	c #8285F8",
"J}	c #7C7AF5",
"K}	c #928BFF",
"L}	c #6254DD",
"M}	c #5F48D4",
"N}	c #7F5CEA",
"O}	c #9573FB",
"P}	c #9680FE",
"Q}	c #887DF3",
"R}	c #827EF7",
"S}	c #8685FD",
"T}	c #7978EF",
"U}	c #847CF5",
"V}	c #807BF1",
"W}	c #7E86F3",
"X}	c #828DF7",
"Y}	c #7580F6",
"Z}	c #9588FF",
"`}	c #7C66ED",
" |	c #624CD3",
".|	c #6F57DF",
"+|	c #8968F5",
"@|	c #9175FD",
"#|	c #8A82FB",
"$|	c #817EE9",
"%|	c #857EEE",
"&|	c #857DF7",
"*|	c #817BF9",
"=|	c #8B81FE",
"-|	c #8D83FE",
";|	c #7577FF",
">|	c #2924B4",
",|	c #705DF5",
"'|	c #9A7BFF",
")|	c #6D45DC",
"!|	c #8A60F0",
"~|	c #9373FA",
"{|	c #8D78F7",
"]|	c #8882FC",
"^|	c #8B89FF",
"/|	c #837DFB",
"(|	c #877FF9",
"_|	c #8883FB",
":|	c #777EF2",
"<|	c #4A43D1",
"[|	c #4132C1",
"}|	c #7E66F2",
"||	c #784CE1",
"1|	c #8C60F3",
"2|	c #8D76FC",
"3|	c #8A7EFA",
"4|	c #8B83FA",
"5|	c #8782F8",
"6|	c #7276FC",
"7|	c #4F62E5",
"8|	c #525EE4",
"9|	c #9075FA",
"0|	c #876AE8",
"a|	c #9672EC",
"b|	c #9E6DEB",
"c|	c #966FEC",
"d|	c #747CFB",
"e|	c #8087FF",
"f|	c #7B79F8",
"g|	c #7B79F6",
"h|	c #7E78FE",
"i|	c #8780FF",
"j|	c #827BFC",
"k|	c #7F7BF6",
"l|	c #817EF3",
"m|	c #8B88FB",
"n|	c #757BFF",
"o|	c #6C73FF",
"p|	c #4850D7",
"q|	c #5D65E4",
"r|	c #9CA3FF",
"s|	c #6E64D5",
"t|	c #9667E9",
"u|	c #A76DF5",
"v|	c #9D71F8",
"w|	c #8E73F6",
"x|	c #7783F9",
"y|	c #7C8BFF",
"z|	c #7877F6",
"A|	c #7878F0",
"B|	c #7E88FF",
"C|	c #4165E0",
"D|	c #5475E9",
"E|	c #8F7BEE",
"F|	c #7B6BD6",
"G|	c #9C85F1",
"H|	c #AC83F9",
"I|	c #9D77F1",
"J|	c #8C7EF7",
"K|	c #7680FC",
"L|	c #7977F2",
"M|	c #7A81FF",
"N|	c #837BFF",
"O|	c #878BFF",
"P|	c #5F6DF2",
"Q|	c #4E66E4",
"R|	c #637EEF",
"S|	c #7C90F1",
"T|	c #7F7BDA",
"U|	c #A279E3",
"V|	c #B17AEF",
"W|	c #A379F5",
"X|	c #9479FA",
"Y|	c #7281F6",
"Z|	c #7788FA",
"`|	c #9880FC",
" 1	c #B281F6",
".1	c #867DFE",
"+1	c #7779F0",
"@1	c #787BFE",
"#1	c #4D83F0",
"$1	c #4F83E6",
"%1	c #8993F5",
"&1	c #8881E1",
"*1	c #7F7DDE",
"=1	c #918FF4",
"-1	c #B2A1FF",
";1	c #8C79EF",
">1	c #8878F2",
",1	c #8D85FF",
"'1	c #777EFF",
")1	c #8285FF",
"!1	c #7B79FE",
"~1	c #7F79FD",
"{1	c #667DF1",
"]1	c #5682EF",
"^1	c #608BF1",
"/1	c #889BF9",
"(1	c #716DC2",
"_1	c #9E86D4",
":1	c #BEA1F5",
"<1	c #9B88F1",
"[1	c #8278F2",
"}1	c #787CFF",
"|1	c #7F85F5",
"11	c #7B84F9",
"21	c #847BFC",
"31	c #877EFD",
"41	c #AB7FF8",
"51	c #B380F6",
"61	c #BA80EE",
"71	c #7276F3",
"81	c #7F88FF",
"91	c #7B84FB",
"01	c #7279EE",
"a1	c #8C8FFF",
"b1	c #7E7AF2",
"c1	c #6E87FE",
"d1	c #558FF2",
"e1	c #659DF2",
"f1	c #8FA4F7",
"g1	c #7C81D3",
"h1	c #757FD4",
"i1	c #B3BAFF",
"j1	c #A7A6FF",
"k1	c #8981F1",
"l1	c #857AF0",
"m1	c #7A7FF5",
"n1	c #867EF5",
"o1	c #887DF5",
"p1	c #7C85FF",
"q1	c #747BFD",
"r1	c #7A7AF2",
"s1	c #8183FC",
"t1	c #7983F6",
"u1	c #6F87F3",
"v1	c #6094F9",
"w1	c #689AF9",
"x1	c #8DA0FC",
"y1	c #7977CA",
"z1	c #AFA5EA",
"A1	c #B8ACF6",
"B1	c #928CEC",
"C1	c #868AFF",
"D1	c #7B7DEC",
"E1	c #7F89FA",
"F1	c #B980F3",
"G1	c #7C7AF7",
"H1	c #888AFF",
"I1	c #767DF2",
"J1	c #8388FD",
"K1	c #7979F5",
"L1	c #757DFA",
"M1	c #7086F6",
"N1	c #6E99F5",
"O1	c #7EACFA",
"P1	c #91ACF3",
"Q1	c #798AD0",
"R1	c #99A7F0",
"S1	c #ABB3FF",
"T1	c #7F7FDF",
"U1	c #8585F5",
"V1	c #7D84F8",
"W1	c #7C83F8",
"X1	c #7A83FC",
"Y1	c #7983FE",
"Z1	c #7F87FF",
"`1	c #7D78F6",
" 2	c #7B77F0",
".2	c #858AFF",
"+2	c #787FF3",
"@2	c #7E88FB",
"#2	c #7B85F8",
"$2	c #747EED",
"%2	c #738AF2",
"&2	c #74A2FF",
"*2	c #77A6FF",
"=2	c #899DF6",
"-2	c #7177CB",
";2	c #BCBEFF",
">2	c #AFADFF",
",2	c #8786EE",
"'2	c #777BFF",
")2	c #747BED",
"!2	c #7C81F7",
"~2	c #8882FF",
"{2	c #8B8AFF",
"]2	c #8588F9",
"^2	c #7885ED",
"/2	c #6B84DE",
"(2	c #6F8CDC",
"_2	c #8CA2ED",
":2	c #9EAEF9",
"<2	c #A2ADFC",
"[2	c #8488DF",
"}2	c #807FDD",
"|2	c #8C8AEF",
"12	c #8081EB",
"22	c #8083F6",
"32	c #8386F9",
"42	c #747EF1",
"52	c #8D89FF",
"62	c #777DF7",
"72	c #7479F1",
"82	c #757FF0",
"92	c #7E8CF7",
"02	c #7284EA",
"a2	c #7D8CF1",
"b2	c #7986EC",
"c2	c #7088E8",
"d2	c #6692E9",
"e2	c #6D9AED",
"f2	c #91AAFA",
"g2	c #A0B0FE",
"h2	c #8898E6",
"i2	c #838FE5",
"j2	c #7880E3",
"k2	c #767FF4",
"l2	c #7A88F3",
"m2	c #828AF9",
"n2	c #848AFC",
"o2	c #7F7BF4",
"p2	c #7878EA",
"q2	c #9394FF",
"r2	c #9192FF",
"s2	c #9592FF",
"t2	c #A094FF",
"u2	c #9F93F9",
"v2	c #9690F0",
"w2	c #9C9DF7",
"x2	c #A4A8FF",
"y2	c #9CA1FC",
"z2	c #9499F7",
"A2	c #9396F7",
"B2	c #A09EFF",
"C2	c #918AF1",
"D2	c #ACA4FF",
"E2	c #A39BFF",
"F2	c #9792F6",
"G2	c #9D9BFC",
"H2	c #9A9AFA",
"I2	c #979AFB",
"J2	c #9B99FF",
"K2	c #989AFF",
"L2	c #8A96FF",
"M2	c #7D87F8",
"N2	c #827AF4",
"O2	c #8186FB",
"P2	c #8784F5",
"Q2	c #8787F7",
"R2	c #8E94FF",
"S2	c #7482ED",
"T2	c #7A90F5",
"U2	c #7892E9",
"V2	c #7D98E9",
"W2	c #7B8FE6",
"X2	c #7C96EA",
"Y2	c #74A3E9",
"Z2	c #6F9FE1",
"`2	c #7194D4",
" 3	c #708DCF",
".3	c #7495DC",
"+3	c #7794E0",
"@3	c #7F93EA",
"#3	c #8695F0",
"$3	c #8091ED",
"%3	c #7D91EA",
"&3	c #7E9AED",
"*3	c #7C94EC",
"=3	c #7E87F0",
"-3	c #8689FA",
";3	c #8789FA",
">3	c #817FED",
",3	c #7E7CEA",
"'3	c #A6A3FF",
")3	c #999BFF",
"!3	c #5255C8",
"~3	c #6265DA",
"{3	c #6262D4",
"]3	c #665AC8",
"^3	c #6E5FC6",
"/3	c #6762BE",
"(3	c #5E5EB6",
"_3	c #5C5BB8",
":3	c #5B59BC",
"<3	c #5F5BC9",
"[3	c #6962D6",
"}3	c #6259CE",
"|3	c #675ED1",
"13	c #655FCD",
"23	c #5852BC",
"33	c #6962CA",
"43	c #6863C7",
"53	c #6164C3",
"63	c #575DBD",
"73	c #565AC5",
"83	c #6367D5",
"93	c #777DED",
"03	c #8D8AFF",
"a3	c #7D79F1",
"b3	c #8A8BF7",
"c3	c #7B79E6",
"d3	c #8C8AF7",
"e3	c #9B9DFF",
"f3	c #959DFF",
"g3	c #99ACFF",
"h3	c #8BA3FF",
"i3	c #8EA2FF",
"j3	c #97A8FF",
"k3	c #97A1FF",
"l3	c #95A2FF",
"m3	c #85A4F6",
"n3	c #87A9F3",
"o3	c #90AAF5",
"p3	c #9DB4FF",
"q3	c #94AEFF",
"r3	c #93ABFF",
"s3	c #97A4FF",
"t3	c #959EFD",
"u3	c #909BF5",
"v3	c #92A2F9",
"w3	c #92A7FA",
"x3	c #8EA2FB",
"y3	c #7A81F5",
"z3	c #7F84F9",
"A3	c #8987F4",
"B3	c #8683EE",
"C3	c #9894FF",
"D3	c #9694FF",
"E3	c #4648B9",
"F3	c #7B82F4",
"G3	c #7578ED",
"H3	c #7D85E8",
"I3	c #7A86EA",
"J3	c #8188F3",
"K3	c #8679FD",
"L3	c #817AFC",
"M3	c #8682FA",
"N3	c #7F8DFA",
"O3	c #7A8BF5",
"P3	c #717CE6",
"Q3	c #756CDF",
"R3	c #7D72E8",
"S3	c #878DFF",
"T3	c #797CE7",
"U3	c #8887EF",
"V3	c #8986F1",
"W3	c #A5A3FF",
"X3	c #4B56C2",
"Y3	c #6174DD",
"Z3	c #6373E2",
"`3	c #6D6FEA",
" 4	c #7066E9",
".4	c #715DE2",
"+4	c #7564E4",
"@4	c #6F73E1",
"#4	c #6865D6",
"$4	c #6461D4",
"%4	c #6662DB",
"&4	c #6A64E0",
"*4	c #7465E2",
"=4	c #7666E0",
"-4	c #756DDD",
";4	c #7670DC",
">4	c #716BD9",
",4	c #6B67D5",
"'4	c #6668D5",
")4	c #6C6EDB",
"!4	c #8890FF",
"~4	c #828CFD",
"{4	c #7C82F4",
"]4	c #757CF0",
"^4	c #7984F8",
"/4	c #7F7DE8",
"(4	c #9897FF",
"_4	c #9591FF",
":4	c #5A58C6",
"<4	c #777FEA",
"[4	c #858DFC",
"}4	c #8387FF",
"|4	c #7C8AF5",
"14	c #788CEF",
"24	c #6D89EC",
"34	c #7385F1",
"44	c #797CFD",
"54	c #838EFF",
"64	c #7185F6",
"74	c #7087F1",
"84	c #7E8CF5",
"94	c #8073E7",
"04	c #8588FB",
"a4	c #797FF1",
"b4	c #7C83F7",
"c4	c #8485EF",
"d4	c #7D7CE2",
"e4	c #807EEB",
"f4	c #5A5CCB",
"g4	c #737EF1",
"h4	c #8578FF",
"i4	c #917CFF",
"j4	c #7E77F8",
"k4	c #897EFF",
"l4	c #897DFF",
"m4	c #8F79FF",
"n4	c #8B78F8",
"o4	c #837EF6",
"p4	c #817EF1",
"q4	c #8178ED",
"r4	c #867FF3",
"s4	c #8385F4",
"t4	c #797DE9",
"u4	c #7E84F4",
"v4	c #7C86F5",
"w4	c #7D84F6",
"x4	c #7C86F7",
"y4	c #898BF2",
"z4	c #5C5AC8",
"A4	c #7C80EC",
"B4	c #9398FE",
"C4	c #828EF2",
"D4	c #798CF5",
"E4	c #869FFF",
"F4	c #7996F4",
"G4	c #6C98F1",
"H4	c #6F8FF4",
"I4	c #8A7AFF",
"J4	c #7F7AFB",
"K4	c #838AFC",
"L4	c #7D8AF3",
"M4	c #8193F9",
"N4	c #8396FC",
"O4	c #7F90FC",
"P4	c #8193FF",
"Q4	c #788FF7",
"R4	c #8396FF",
"S4	c #7C82F0",
"T4	c #827EEF",
"U4	c #847BEE",
"V4	c #858FFE",
"W4	c #7080EF",
"X4	c #8981FB",
"Y4	c #7978F8",
"Z4	c #8083F8",
"`4	c #8486F3",
" 5	c #9D9AFF",
".5	c #6461D2",
"+5	c #8189F4",
"@5	c #7E88F7",
"#5	c #7584F9",
"$5	c #808CFF",
"%5	c #8587FF",
"&5	c #7A7CF3",
"*5	c #778AFF",
"=5	c #7781FD",
"-5	c #8A84FF",
";5	c #7C8EFC",
">5	c #778EF8",
",5	c #7883EF",
"'5	c #7D88F4",
")5	c #7F8AF6",
"!5	c #7478E6",
"~5	c #7878E8",
"{5	c #7787F6",
"]5	c #7B82F6",
"^5	c #8181FF",
"/5	c #7F79FF",
"(5	c #8985FE",
"_5	c #7B7BE9",
":5	c #8184EB",
"<5	c #A7AAFF",
"[5	c #5D60C9",
"}5	c #787AEB",
"|5	c #8584F9",
"15	c #8C8DF7",
"25	c #A4A4FF",
"35	c #9FAAFF",
"45	c #94B2FF",
"55	c #88B0FF",
"65	c #80A8FF",
"75	c #86B2FF",
"85	c #5E91EA",
"95	c #6187EA",
"05	c #8879FA",
"a5	c #9993FF",
"b5	c #A1A5FF",
"c5	c #89A3FA",
"d5	c #82A2F9",
"e5	c #8DA3FF",
"f5	c #8FA2FF",
"g5	c #87A2FF",
"h5	c #728AF4",
"i5	c #7985F3",
"j5	c #8A78EE",
"k5	c #7882F1",
"l5	c #7687F3",
"m5	c #8083FF",
"n5	c #8286FF",
"o5	c #7D7EE8",
"p5	c #9291F7",
"q5	c #9291F9",
"r5	c #5A57C8",
"s5	c #7A79F0",
"t5	c #8683F6",
"u5	c #8C94F9",
"v5	c #86A0FF",
"w5	c #7B9CFB",
"x5	c #89A1FF",
"y5	c #869DFF",
"z5	c #7495FF",
"A5	c #6E8CFE",
"B5	c #7184FD",
"C5	c #8F92FF",
"D5	c #809DFF",
"E5	c #779DFF",
"F5	c #819AFF",
"G5	c #8194FB",
"H5	c #8095FE",
"I5	c #7A86F4",
"J5	c #817DEE",
"K5	c #7788F4",
"L5	c #887BFE",
"M5	c #8278FD",
"N5	c #807EE9",
"O5	c #9195F9",
"P5	c #8186EE",
"Q5	c #5960CB",
"R5	c #827DF1",
"S5	c #8E87EF",
"T5	c #A79DF6",
"U5	c #A0A6F4",
"V5	c #85AAF1",
"W5	c #82B3FF",
"X5	c #7FB1FF",
"Y5	c #6192EE",
"Z5	c #5284E3",
"`5	c #678AF0",
" 6	c #8386FB",
".6	c #8A7FF9",
"+6	c #897AF1",
"@6	c #A288F6",
"#6	c #A79CFC",
"$6	c #89A6F2",
"%6	c #7FA9F5",
"&6	c #8EA5FF",
"*6	c #879DFF",
"=6	c #84A5FF",
"-6	c #5C7BE7",
";6	c #7B88F8",
">6	c #877EF3",
",6	c #847BF0",
"'6	c #7A83F8",
")6	c #877AFD",
"!6	c #887DFF",
"~6	c #7B81FD",
"{6	c #9F9EFF",
"]6	c #5F5DCA",
"^6	c #8681F9",
"/6	c #958CFF",
"(6	c #A393FE",
"_6	c #90B3F5",
":6	c #7EB0EB",
"<6	c #82AFF3",
"[6	c #84AEFF",
"}6	c #5882E4",
"|6	c #6A8EFC",
"16	c #8C83F8",
"26	c #9588FC",
"36	c #9B9BFF",
"46	c #85A2FF",
"56	c #7BA6FF",
"66	c #8BAEFF",
"76	c #708CF9",
"86	c #7986F6",
"96	c #7673E6",
"06	c #817AFE",
"a6	c #8D8CF4",
"b6	c #9A9EFF",
"c6	c #565DC7",
"d6	c #9685ED",
"e6	c #AA94E7",
"f6	c #A7A5E4",
"g6	c #90BBE5",
"h6	c #83C6F0",
"i6	c #80C1FF",
"j6	c #3C78CE",
"k6	c #5284E5",
"l6	c #6E8FFA",
"m6	c #9687FE",
"n6	c #A781EE",
"o6	c #A992EA",
"p6	c #93B0E8",
"q6	c #82B2E3",
"r6	c #84ABEC",
"s6	c #6591F2",
"t6	c #4C72DF",
"u6	c #7A8BFD",
"v6	c #8580F6",
"w6	c #8980F5",
"x6	c #7C7CEE",
"y6	c #7683F3",
"z6	c #7789F7",
"A6	c #7C86F9",
"B6	c #7882FD",
"C6	c #8381EC",
"D6	c #6D6DDB",
"E6	c #9B8AFC",
"F6	c #A78DF2",
"G6	c #B1A9F6",
"H6	c #8EB6DA",
"I6	c #80C0DB",
"J6	c #7DB9EB",
"K6	c #619AE1",
"L6	c #4B79D7",
"M6	c #688AF8",
"N6	c #8681F7",
"O6	c #9E87F9",
"P6	c #A499FF",
"Q6	c #8FA4FF",
"R6	c #80A9F9",
"S6	c #82AEF9",
"T6	c #80AFFF",
"U6	c #78A8FF",
"V6	c #5177E4",
"W6	c #7A89FC",
"X6	c #7985F5",
"Y6	c #8C81F9",
"Z6	c #7971E0",
"`6	c #9898FC",
" 7	c #8084E7",
".7	c #666ED9",
"+7	c #8C7AF4",
"@7	c #A387EE",
"#7	c #B18ADB",
"$7	c #BDB2DD",
"%7	c #ADE4DE",
"&7	c #85DCD3",
"*7	c #5BB4D6",
"=7	c #3885CB",
"-7	c #4D83E3",
";7	c #6B8BFC",
">7	c #7381FB",
",7	c #777CFE",
"'7	c #A17CE5",
")7	c #AD93DC",
"!7	c #99B0CF",
"~7	c #82B8C2",
"{7	c #7CBFCF",
"]7	c #79BEE5",
"^7	c #4683D6",
"/7	c #4775E4",
"(7	c #728BFF",
"_7	c #767FF6",
":7	c #8880F9",
"<7	c #897BF4",
"[7	c #8E81F7",
"}7	c #7D7AED",
"|7	c #6C81EC",
"17	c #7388F5",
"27	c #847BFA",
"37	c #8A87F2",
"47	c #9A97FE",
"57	c #5D5EC8",
"67	c #7377F4",
"77	c #8A88FF",
"87	c #9C82F0",
"97	c #B991F1",
"07	c #B6A4E0",
"a7	c #98C5CB",
"b7	c #88D3CF",
"c7	c #77C1E4",
"d7	c #3F80C4",
"e7	c #5A88EA",
"f7	c #6680F7",
"g7	c #7D77F5",
"h7	c #867CF6",
"i7	c #8D7AED",
"j7	c #AB85F4",
"k7	c #AF91F3",
"l7	c #A2A5F2",
"m7	c #91B1EC",
"n7	c #77ADDC",
"o7	c #75B6EE",
"p7	c #5898F0",
"q7	c #4171DF",
"r7	c #798AFF",
"s7	c #8C83FA",
"t7	c #817AEE",
"u7	c #7486F4",
"v7	c #8B80F6",
"w7	c #9F9DFE",
"x7	c #6369CB",
"y7	c #7580EC",
"z7	c #757EF7",
"A7	c #797BFF",
"B7	c #8378FF",
"C7	c #9278F7",
"D7	c #A47DE7",
"E7	c #BA85D3",
"F7	c #B6A1C2",
"G7	c #A8DFBF",
"H7	c #90F0CB",
"I7	c #288BA0",
"J7	c #2F82C4",
"K7	c #4C7CE2",
"L7	c #6E86FF",
"M7	c #7B84FF",
"N7	c #AA86EA",
"O7	c #BC99DD",
"P7	c #ABADC2",
"Q7	c #B0DBD4",
"R7	c #9BEFE2",
"S7	c #50B0C0",
"T7	c #3B84D1",
"U7	c #4A7EEC",
"V7	c #8274EF",
"W7	c #6E7FEB",
"X7	c #7A7BFA",
"Y7	c #8986F9",
"Z7	c #948EF8",
"`7	c #817CE3",
" 8	c #7172DE",
".8	c #777AED",
"+8	c #8489FF",
"@8	c #8F7FF9",
"#8	c #9E7EEB",
"$8	c #C08EE7",
"%8	c #B59DCD",
"&8	c #ADDDCD",
"*8	c #94ECD3",
"=8	c #4DA7BF",
"-8	c #327FC3",
";8	c #5281EB",
">8	c #6E83FF",
",8	c #8F7DED",
"'8	c #AE81EA",
")8	c #B28AE2",
"!8	c #AEA6DF",
"~8	c #A7C4E4",
"{8	c #88CBDB",
"]8	c #71C4E4",
"^8	c #3784D4",
"/8	c #467EEB",
"(8	c #7187FE",
"_8	c #8577F2",
":8	c #7284F0",
"<8	c #7381FC",
"[8	c #7B86FF",
"}8	c #8880F0",
"|8	c #958EF6",
"18	c #9493F1",
"28	c #656BCB",
"38	c #7480EE",
"48	c #838DFF",
"58	c #7A7BFF",
"68	c #8477FF",
"78	c #9F7EFF",
"88	c #A978E3",
"98	c #CD8AD9",
"08	c #B390AE",
"a8	c #A3D1AD",
"b8	c #89E3BF",
"c8	c #1D7D96",
"d8	c #2C7BC6",
"e8	c #567AEA",
"f8	c #827BFD",
"g8	c #837CFE",
"h8	c #A880E3",
"i8	c #BA8BCF",
"j8	c #B799B5",
"k8	c #C4D4D4",
"l8	c #8FE9DD",
"m8	c #178994",
"n8	c #2E86D0",
"o8	c #4C86F4",
"p8	c #6B85FC",
"q8	c #8B7FFD",
"r8	c #8378F2",
"s8	c #7E7DF2",
"t8	c #7A80F0",
"u8	c #8A85F9",
"v8	c #9992FC",
"w8	c #6C67CE",
"x8	c #7E80ED",
"y8	c #8085FA",
"z8	c #8F7DF5",
"A8	c #A07BE4",
"B8	c #C78CE0",
"C8	c #B397BD",
"D8	c #ABE3C0",
"E8	c #8DF2CA",
"F8	c #1E879C",
"G8	c #2C84CC",
"H8	c #4377E7",
"I8	c #7187FF",
"J8	c #7979FF",
"K8	c #8B84FF",
"L8	c #A97BDD",
"M8	c #B98BD4",
"N8	c #B0A2C5",
"O8	c #B0CFD2",
"P8	c #97ECD9",
"Q8	c #4BB4B7",
"R8	c #2880C7",
"S8	c #4987F4",
"T8	c #6885FB",
"U8	c #8E7BFB",
"V8	c #8973F1",
"W8	c #8C84FB",
"X8	c #7381EE",
"Y8	c #7A86FF",
"Z8	c #8478E8",
"`8	c #968DF6",
" 9	c #7A80E2",
".9	c #6F7BDF",
"+9	c #7783F3",
"@9	c #8D7FFF",
"#9	c #9475F6",
"$9	c #AD79E5",
"%9	c #D68CD9",
"&9	c #C692B8",
"*9	c #ADC2B3",
"=9	c #5A9C90",
"-9	c #2378A1",
";9	c #357FD4",
">9	c #5A7BEF",
",9	c #797DFF",
"'9	c #857CF9",
")9	c #8A82F9",
"!9	c #A981E4",
"~9	c #C88ED8",
"{9	c #CE91BA",
"]9	c #BBADBE",
"^9	c #73C1C5",
"/9	c #12829A",
"(9	c #277ECE",
"_9	c #4B87F7",
":9	c #6D87FE",
"<9	c #887FFE",
"[9	c #8087F9",
"}9	c #807EEC",
"|9	c #7B7DEE",
"19	c #7981FD",
"29	c #837CEC",
"39	c #9693FE",
"49	c #6667D1",
"59	c #8589FF",
"69	c #9081F8",
"79	c #A580E7",
"89	c #C884D7",
"99	c #C198C0",
"09	c #A0CAB2",
"a9	c #7DD6BA",
"b9	c #177F9A",
"c9	c #237FC8",
"d9	c #5186F8",
"e9	c #6D85FF",
"f9	c #9385F4",
"g9	c #AA7ADD",
"h9	c #C691D7",
"i9	c #BA99B8",
"j9	c #B5C3C3",
"k9	c #94E9D2",
"l9	c #108081",
"m9	c #2B86CC",
"n9	c #4484F0",
"o9	c #6685FA",
"p9	c #897AFB",
"q9	c #9380FE",
"r9	c #7881EA",
"s9	c #9079EB",
"t9	c #9C8EFD",
"u9	c #6B7CE8",
"v9	c #6D85F3",
"w9	c #8576F7",
"x9	c #927EF9",
"y9	c #AA81EB",
"z9	c #D182D1",
"A9	c #D48BC2",
"B9	c #B49CBC",
"C9	c #6880A2",
"D9	c #2364A4",
"E9	c #357CD8",
"F9	c #5A81F6",
"G9	c #7284FF",
"H9	c #A882E9",
"I9	c #CA8ADE",
"J9	c #DB83BF",
"K9	c #C393BD",
"L9	c #5D8DB3",
"M9	c #1C76AB",
"N9	c #3680DF",
"O9	c #6E8BFF",
"P9	c #7882FB",
"Q9	c #8A86F4",
"R9	c #7471DA",
"S9	c #7F83EE",
"T9	c #7F89FF",
"U9	c #757DFC",
"V9	c #8385FE",
"W9	c #7A7CF5",
"X9	c #8B7FEF",
"Y9	c #8F88F2",
"Z9	c #7C83ED",
"`9	c #6A76E6",
" 0	c #7977FE",
".0	c #8981FF",
"+0	c #9B7FE6",
"@0	c #CC82D7",
"#0	c #CC8DC6",
"$0	c #B2B5C8",
"%0	c #669AA7",
"&0	c #186B95",
"*0	c #378BD4",
"=0	c #467AE7",
"-0	c #6C85FF",
";0	c #867CF9",
">0	c #9178EE",
",0	c #B17EE7",
"'0	c #C889DA",
")0	c #CD8BB9",
"!0	c #C4AEC3",
"~0	c #67ABAE",
"{0	c #177D93",
"]0	c #2F85CE",
"^0	c #4380EA",
"/0	c #6986FC",
"(0	c #8E87EE",
"_0	c #716FD2",
":0	c #8088F5",
"<0	c #897EF6",
"[0	c #927AEC",
"}0	c #9A8CFD",
"|0	c #6175E5",
"10	c #6984F7",
"20	c #8778F5",
"30	c #8E80F9",
"40	c #A480EA",
"50	c #D182D5",
"60	c #CB91CE",
"70	c #6A609F",
"80	c #3368B4",
"90	c #3379D8",
"00	c #517AEE",
"a0	c #6E84FE",
"b0	c #8A7BF2",
"c0	c #A881EB",
"d0	c #C782DD",
"e0	c #E27CC8",
"f0	c #DA8FD0",
"g0	c #4D609B",
"h0	c #2666AD",
"i0	c #3D7DE1",
"j0	c #487BF0",
"k0	c #8B85F1",
"l0	c #7A78DD",
"m0	c #7C81E9",
"n0	c #7781F0",
"o0	c #7B89FF",
"p0	c #757EFF",
"q0	c #8E7EE9",
"r0	c #928AF1",
"s0	c #717EE7",
"t0	c #6A7BED",
"u0	c #8A7EFF",
"v0	c #8479FB",
"w0	c #9D84EA",
"x0	c #D084DC",
"y0	c #D787CC",
"z0	c #BD9BCD",
"A0	c #6674A1",
"B0	c #256AA1",
"C0	c #3281CC",
"D0	c #497EE8",
"E0	c #6D89FF",
"F0	c #8B82FF",
"G0	c #937BF3",
"H0	c #AD7DEB",
"I0	c #C47FDA",
"J0	c #DF89C8",
"K0	c #CC9CC4",
"L0	c #5A829C",
"M0	c #1D6F97",
"N0	c #3582D2",
"O0	c #6C84FE",
"P0	c #847CFF",
"Q0	c #9283E8",
"R0	c #7972D1",
"S0	c #7B81EF",
"T0	c #867BF5",
"U0	c #937CF0",
"V0	c #988CFA",
"W0	c #5C6EDC",
"X0	c #6D87F8",
"Y0	c #7E7CFB",
"Z0	c #8B7FFF",
"`0	c #8A7BFA",
" a	c #8E80FB",
".a	c #9F7DEB",
"+a	c #CF83DD",
"@a	c #E082CE",
"#a	c #B966AE",
"$a	c #553179",
"%a	c #396AB7",
"&a	c #347FDA",
"*a	c #547CEE",
"=a	c #8C7AF0",
"-a	c #AE87F2",
";a	c #CA84E6",
">a	c #E375D4",
",a	c #BA61B5",
"'a	c #3F3277",
")a	c #3A5CA6",
"!a	c #4579DF",
"~a	c #497AF0",
"{a	c #708BFF",
"]a	c #8A84F0",
"^a	c #827FE6",
"/a	c #797EE6",
"(a	c #8D7DEA",
"_a	c #958DF4",
":a	c #6675DC",
"<a	c #6E83F0",
"[a	c #8178F5",
"}a	c #9F86EC",
"|a	c #D185DD",
"1a	c #DC81CE",
"2a	c #D089CF",
"3a	c #6B5697",
"4a	c #3874B2",
"5a	c #2D80CC",
"6a	c #4E82F2",
"7a	c #6E8AFF",
"8a	c #8D85F5",
"9a	c #A67BEE",
"0a	c #C47DE3",
"aa	c #D97DC8",
"ba	c #CA89C3",
"ca	c #4E5484",
"da	c #32639D",
"ea	c #3F7DD4",
"fa	c #487EEA",
"ga	c #7880FD",
"ha	c #9185E9",
"ia	c #827CDC",
"ja	c #7B85FE",
"ka	c #8478F6",
"la	c #9780F5",
"ma	c #998DFB",
"na	c #5C6DD7",
"oa	c #748CFA",
"pa	c #7B84FD",
"qa	c #7E7BFC",
"ra	c #8B7CFD",
"sa	c #8B80FA",
"ta	c #9D7CED",
"ua	c #D086E7",
"va	c #DF80DA",
"wa	c #A443A0",
"xa	c #53207C",
"ya	c #3963B9",
"za	c #367FDD",
"Aa	c #5179EA",
"Ba	c #8E7DF0",
"Ca	c #AB86EF",
"Da	c #DD75E6",
"Ea	c #82228E",
"Fa	c #4B247D",
"Ga	c #4B50AB",
"Ha	c #4F73E1",
"Ia	c #4E78F0",
"Ja	c #8B85F3",
"Ka	c #8683EA",
"La	c #777CE4",
"Ma	c #7985FF",
"Na	c #8E7EEB",
"Oa	c #968EF5",
"Pa	c #5E6DD2",
"Qa	c #7489F2",
"Ra	c #8B87F8",
"Sa	c #9C81E8",
"Ta	c #CD83DC",
"Ua	c #DF7DD4",
"Va	c #B450B0",
"Wa	c #5E2985",
"Xa	c #335FAA",
"Ya	c #2A78CB",
"Za	c #497DED",
"`a	c #6E87FF",
" b	c #7880ED",
".b	c #AE86F8",
"+b	c #CB86F1",
"@b	c #DD7CD9",
"#b	c #A654A6",
"$b	c #4A327E",
"%b	c #4557A9",
"&b	c #4777D9",
"*b	c #4A7CEB",
"=b	c #9186EC",
"-b	c #8882E4",
";b	c #7379E9",
">b	c #8781FD",
",b	c #8277F9",
"'b	c #9981F9",
")b	c #9789F8",
"!b	c #5E70D6",
"~b	c #768DF7",
"{b	c #9C7DF2",
"]b	c #CD88F3",
"^b	c #D178E6",
"/b	c #72128D",
"(b	c #4E178F",
"_b	c #314DB8",
":b	c #3F7DE2",
"<b	c #5480ED",
"[b	c #6E84FC",
"}b	c #7B7BFF",
"|b	c #8F86F1",
"1b	c #A282E7",
"2b	c #BD83F1",
"3b	c #BB64E7",
"4b	c #650D95",
"5b	c #591E96",
"6b	c #462FA3",
"7b	c #586EE6",
"8b	c #5276F0",
"9b	c #8D87F5",
"0b	c #8281E9",
"ab	c #777BE6",
"bb	c #8F7EEE",
"cb	c #5B6ECD",
"db	c #758DF1",
"eb	c #8C85F7",
"fb	c #987BE5",
"gb	c #CE84E3",
"hb	c #E57FE3",
"ib	c #A931AC",
"jb	c #71239D",
"kb	c #3E56B6",
"lb	c #4283DF",
"mb	c #517FEE",
"nb	c #6D86FC",
"ob	c #847CEC",
"pb	c #8C8BF3",
"qb	c #7E73DB",
"rb	c #B187F5",
"sb	c #C884F3",
"tb	c #DC7AE9",
"ub	c #711582",
"vb	c #4E1A88",
"wb	c #463DAA",
"xb	c #5072E0",
"yb	c #4F7AED",
"zb	c #6F82FF",
"Ab	c #8F87EE",
"Bb	c #8580E6",
"Cb	c #7076E8",
"Db	c #977FF9",
"Eb	c #9483F3",
"Fb	c #6476D8",
"Gb	c #7188EE",
"Hb	c #817CFD",
"Ib	c #9B7EF5",
"Jb	c #C586FB",
"Kb	c #B868E5",
"Lb	c #600B9C",
"Mb	c #5A25B5",
"Nb	c #3A44C0",
"Ob	c #4974E5",
"Pb	c #6986FB",
"Qb	c #8979FE",
"Rb	c #817CF0",
"Sb	c #8C80EC",
"Tb	c #A887F0",
"Ub	c #B984FA",
"Vb	c #A961F3",
"Wb	c #9449E4",
"Xb	c #8F4FE3",
"Yb	c #7B59E3",
"Zb	c #5D6AEC",
"`b	c #5674F0",
" c	c #7786FF",
".c	c #8680FC",
"+c	c #908CFB",
"@c	c #7876E1",
"#c	c #7A7EEA",
"$c	c #907FF1",
"%c	c #928BF3",
"&c	c #6073D2",
"*c	c #748AED",
"=c	c #9978E9",
"-c	c #CF88F0",
";c	c #DC7AEB",
">c	c #750291",
",c	c #5C0D9C",
"'c	c #333AAF",
")c	c #4576DF",
"!c	c #4F79E7",
"~c	c #6C87FA",
"{c	c #8C82F2",
"]c	c #8876E2",
"^c	c #A680EF",
"/c	c #C386FB",
"(c	c #B963E2",
"_c	c #7A23A8",
":c	c #6A2EB4",
"<c	c #513ABC",
"[c	c #576DE5",
"}c	c #5377EF",
"|c	c #918AF4",
"1c	c #7E7BE4",
"2c	c #7378ED",
"3c	c #8179FF",
"4c	c #967EFA",
"5c	c #6D80DF",
"6c	c #6E86E8",
"7c	c #897FFC",
"8c	c #9A7EF9",
"9c	c #B781FD",
"0c	c #9854DF",
"ac	c #8845EA",
"bc	c #7C4DF3",
"cc	c #5C50E0",
"dc	c #5264E2",
"ec	c #4F79E9",
"fc	c #6384F5",
"gc	c #927CFF",
"hc	c #8979F3",
"ic	c #9480F3",
"jc	c #B188FE",
"kc	c #A671F5",
"lc	c #884FEA",
"mc	c #8950F7",
"nc	c #7F4CF3",
"oc	c #7456F2",
"pc	c #6068F1",
"qc	c #5A72F0",
"rc	c #857CFB",
"sc	c #9490FF",
"tc	c #6B6BD9",
"uc	c #7E82F0",
"vc	c #7A81F3",
"wc	c #7A80F8",
"xc	c #9082F4",
"yc	c #687BDA",
"zc	c #7387E8",
"Ac	c #8284F3",
"Bc	c #9A7BF3",
"Cc	c #CB88FC",
"Dc	c #B863E2",
"Ec	c #7722BD",
"Fc	c #692DCB",
"Gc	c #4945CD",
"Hc	c #526EE9",
"Ic	c #527AEB",
"Jc	c #698AFD",
"Kc	c #8A7AF7",
"Lc	c #9A81F9",
"Mc	c #A584F9",
"Nc	c #B88AFF",
"Oc	c #9956E4",
"Pc	c #9452E8",
"Qc	c #8253ED",
"Rc	c #6A57E7",
"Sc	c #596BE9",
"Tc	c #5874EF",
"Uc	c #928FFA",
"Vc	c #7475E1",
"Wc	c #8E80F1",
"Xc	c #7988E7",
"Yc	c #7286E5",
"Zc	c #AB7CFF",
"`c	c #7F45D7",
" d	c #7D48F0",
".d	c #7246F1",
"+d	c #6D52ED",
"@d	c #605EE6",
"#d	c #5C7AF2",
"$d	c #6687FA",
"%d	c #8687FF",
"&d	c #7D71F1",
"*d	c #887DF7",
"=d	c #907AF6",
"-d	c #A57DFF",
";d	c #9463F2",
">d	c #8858F9",
",d	c #7E50F9",
"'d	c #7B55FF",
")d	c #715DFD",
"!d	c #6167F3",
"~d	c #606FF0",
"{d	c #9693FF",
"]d	c #6264D3",
"^d	c #8184F5",
"/d	c #9083F7",
"(d	c #8D85F2",
"_d	c #717FE0",
":d	c #7183E5",
"<d	c #8082EF",
"[d	c #9D7EFF",
"}d	c #C083FF",
"|d	c #934BD3",
"1d	c #8848E7",
"2d	c #7849ED",
"3d	c #6551E6",
"4d	c #5D61E9",
"5d	c #5C74F0",
"6d	c #6E88FF",
"7d	c #7580FF",
"8d	c #8D7CFE",
"9d	c #8A6FF0",
"0d	c #A384FF",
"ad	c #A076FE",
"bd	c #9057F2",
"cd	c #7D45E8",
"dd	c #7B52F6",
"ed	c #7360F8",
"fd	c #5E68EC",
"gd	c #5D72EF",
"hd	c #757FFF",
"id	c #918FFC",
"jd	c #7B80F6",
"kd	c #7A80FC",
"ld	c #857AFF",
"md	c #8A80F3",
"nd	c #7E84E6",
"od	c #7581E3",
"pd	c #8782FF",
"qd	c #8979F6",
"rd	c #8862EB",
"sd	c #804EE1",
"td	c #7E4CEB",
"ud	c #7B4EEF",
"vd	c #805BF8",
"wd	c #6957E9",
"xd	c #6372F3",
"yd	c #738DFF",
"zd	c #7081F3",
"Ad	c #9777FF",
"Bd	c #8256F3",
"Cd	c #865AF9",
"Dd	c #7F5BF9",
"Ed	c #735FFC",
"Fd	c #6965F8",
"Gd	c #696FF7",
"Hd	c #6069EA",
"Id	c #827AF1",
"Jd	c #8D88FC",
"Kd	c #6063D6",
"Ld	c #8A82F1",
"Md	c #7C85EA",
"Nd	c #7280E3",
"Od	c #8880FF",
"Pd	c #9A80FF",
"Qd	c #9D69F2",
"Rd	c #8A4CDD",
"Sd	c #7E4CE9",
"Td	c #764CEC",
"Ud	c #724AE8",
"Vd	c #6F55EC",
"Wd	c #706DFC",
"Xd	c #747CFF",
"Yd	c #9E7BFF",
"Zd	c #8B5EF9",
"`d	c #8851F5",
" e	c #804BF3",
".e	c #7C53F9",
"+e	c #745DF6",
"@e	c #6064EA",
"#e	c #616EEE",
"$e	c #7A7EFF",
"%e	c #7C75E9",
"&e	c #8D89F8",
"*e	c #9696FF",
"=e	c #5F62D3",
"-e	c #8284FB",
";e	c #8488FF",
">e	c #8380E7",
",e	c #7B7FE2",
"'e	c #8D6EF8",
")e	c #8E64F6",
"!e	c #936BFF",
"~e	c #956EFF",
"{e	c #8A68FD",
"]e	c #826DF8",
"^e	c #7A7AF4",
"/e	c #7789EB",
"(e	c #84A1E7",
"_e	c #88ACE8",
":e	c #82AAEF",
"<e	c #7792ED",
"[e	c #836DFC",
"}e	c #9073FF",
"|e	c #8A71FF",
"1e	c #7C75FF",
"2e	c #787BFF",
"3e	c #7679FE",
"4e	c #7679FA",
"5e	c #867FF1",
"6e	c #8C88F9",
"7e	c #686DE2",
"8e	c #8982F4",
"9e	c #7F84EA",
"0e	c #777FE4",
"ae	c #8182EE",
"be	c #7B7FFF",
"ce	c #8F63F4",
"de	c #8555E9",
"ee	c #7D5BF0",
"fe	c #7D5FF5",
"ge	c #7C58EC",
"he	c #7656E8",
"ie	c #7567F8",
"je	c #788AEE",
"ke	c #6F89DE",
"le	c #748CE2",
"me	c #7A85EE",
"ne	c #8476FF",
"oe	c #7A5BF7",
"pe	c #8961FF",
"qe	c #8860FE",
"re	c #7C5DF9",
"se	c #7563F7",
"te	c #7270F7",
"ue	c #6972F1",
"ve	c #7780FF",
"we	c #837BF5",
"xe	c #8C85F5",
"ye	c #8E90FF",
"ze	c #696CE1",
"Ae	c #7B7CFA",
"Be	c #8A7CEB",
"Ce	c #837CE4",
"De	c #7688EC",
"Ee	c #7688F4",
"Fe	c #8D78FF",
"Ge	c #9575FF",
"He	c #9275FF",
"Ie	c #8971F9",
"Je	c #8C78FE",
"Ke	c #9083F9",
"Le	c #8D84DF",
"Me	c #A2AADB",
"Ne	c #B8DBD5",
"Oe	c #9BDEBF",
"Pe	c #80E4CC",
"Qe	c #62BFC7",
"Re	c #6FA0E5",
"Se	c #7987F0",
"Te	c #877BF9",
"Ue	c #7F7BF3",
"Ve	c #8E8AFB",
"We	c #817AEA",
"Xe	c #9795FF",
"Ye	c #6A6DE2",
"Ze	c #7479EF",
"`e	c #8783FC",
" f	c #7D7BFA",
".f	c #7E7DE5",
"+f	c #8384F0",
"@f	c #8D6BFE",
"#f	c #8E6BFD",
"$f	c #8573FD",
"%f	c #8176F9",
"&f	c #7D89EF",
"*f	c #83ACDA",
"=f	c #8ECFE1",
"-f	c #6FC2D4",
";f	c #6BB3E3",
">f	c #7695FF",
",f	c #8979FF",
"'f	c #7F74FE",
")f	c #7579F7",
"!f	c #797EFF",
"~f	c #8B85EF",
"{f	c #8D8CF2",
"]f	c #797FEF",
"^f	c #7075ED",
"/f	c #867BFD",
"(f	c #8E7BEF",
"_f	c #877CE5",
":f	c #7386E5",
"<f	c #7289EF",
"[f	c #8E79FF",
"}f	c #8E7EFF",
"|f	c #8D86FF",
"1f	c #8A80F1",
"2f	c #9983D6",
"3f	c #C0B1D8",
"4f	c #C4D3BC",
"5f	c #B3EDBA",
"6f	c #6DE3B3",
"7f	c #38B5A7",
"8f	c #4A97CB",
"9f	c #688FEC",
"0f	c #7984F0",
"af	c #8581F0",
"bf	c #8C86F2",
"cf	c #6469DE",
"df	c #887EEE",
"ef	c #8083EC",
"ff	c #947CFF",
"gf	c #7C7EEB",
"hf	c #8E86F6",
"if	c #AAADFE",
"jf	c #B1D5E5",
"kf	c #9FE4D1",
"lf	c #79E6CF",
"mf	c #59C3D0",
"nf	c #649EF2",
"of	c #6E89FE",
"pf	c #807BE1",
"qf	c #646BDD",
"rf	c #747AF4",
"sf	c #867BFB",
"tf	c #887BE7",
"uf	c #7484E3",
"vf	c #738AEA",
"wf	c #8177F1",
"xf	c #A680E3",
"yf	c #C598D9",
"zf	c #C2A2B7",
"Af	c #BFCFCC",
"Bf	c #50B0AC",
"Cf	c #0F889B",
"Df	c #287CC4",
"Ef	c #5B90F6",
"Ff	c #758AFD",
"Gf	c #7A78E5",
"Hf	c #9C99FF",
"If	c #7077EC",
"Jf	c #8B7BE8",
"Kf	c #7F82E9",
"Lf	c #7A85F1",
"Mf	c #7B80E6",
"Nf	c #9482E5",
"Of	c #BAA7E9",
"Pf	c #CDCED3",
"Qf	c #B7DFC5",
"Rf	c #76D9BA",
"Sf	c #37A5A4",
"Tf	c #4289C9",
"Uf	c #658DEF",
"Vf	c #7584EB",
"Wf	c #887EF1",
"Xf	c #908CED",
"Yf	c #8E91F0",
"Zf	c #6168DA",
"`f	c #8D7BF5",
" g	c #887CEA",
".g	c #7885E1",
"+g	c #7689E7",
"@g	c #7E84F6",
"#g	c #797FFB",
"$g	c #7880FC",
"%g	c #7980FF",
"&g	c #897DF9",
"*g	c #AD78E2",
"=g	c #D58BE0",
"-g	c #D88DC8",
";g	c #926C9D",
">g	c #34608D",
",g	c #1666A1",
"'g	c #377CD7",
")g	c #5C8EFD",
"!g	c #6D80F9",
"~g	c #877EFB",
"{g	c #787DF5",
"]g	c #8784ED",
"^g	c #6667D3",
"/g	c #9179F1",
"(g	c #907AE7",
"_g	c #7C80E4",
":g	c #7986EE",
"<g	c #7483F8",
"[g	c #837AFB",
"}g	c #9091FB",
"|g	c #A485E3",
"1g	c #B588CB",
"2g	c #CEA2BD",
"3g	c #C7BEC3",
"4g	c #5C9C9C",
"5g	c #217C8F",
"6g	c #377EBE",
"7g	c #6695EF",
"8g	c #7486EA",
"9g	c #8486F5",
"0g	c #837AF7",
"ag	c #A5A1FF",
"bg	c #6B6ECB",
"cg	c #6C76E9",
"dg	c #857FEB",
"eg	c #7C81DD",
"fg	c #7B86E2",
"gg	c #7987F4",
"hg	c #9480F9",
"ig	c #B472DC",
"jg	c #DC78DA",
"kg	c #D159BB",
"lg	c #710C72",
"mg	c #3E1781",
"ng	c #363AA5",
"og	c #4D6BD9",
"pg	c #6784F9",
"qg	c #7576F5",
"rg	c #8C83FF",
"sg	c #8279F6",
"tg	c #7B81F9",
"ug	c #A4A3FF",
"vg	c #6966CD",
"wg	c #7576E2",
"xg	c #7883FF",
"yg	c #9478F1",
"zg	c #957BE9",
"Ag	c #7A7EDF",
"Bg	c #7787E9",
"Cg	c #7E83F8",
"Dg	c #887AF5",
"Eg	c #A979DF",
"Fg	c #D485DE",
"Gg	c #D972C3",
"Hg	c #9B4F99",
"Ig	c #40478D",
"Jg	c #23559E",
"Kg	c #3A74C6",
"Lg	c #628EED",
"Mg	c #7C78FF",
"Ng	c #8B7CFB",
"Og	c #887EF9",
"Pg	c #7B81FB",
"Qg	c #998DFD",
"Rg	c #8E8BE6",
"Sg	c #6368C3",
"Tg	c #837FEE",
"Ug	c #7C7CE0",
"Vg	c #7E82E5",
"Wg	c #7B87F5",
"Xg	c #7A85F9",
"Yg	c #8773EE",
"Zg	c #B87EEF",
"`g	c #BD63D5",
" h	c #8C1C98",
".h	c #7C1296",
"+h	c #5B19A1",
"@h	c #3D1FA5",
"#h	c #4549C6",
"$h	c #727DF9",
"%h	c #767AF5",
"&h	c #9FA1FF",
"*h	c #6A68D3",
"=h	c #8184FF",
"-h	c #8A81FE",
";h	c #9179F3",
">h	c #927BED",
",h	c #7C7EE3",
"'h	c #7884EA",
")h	c #7785F0",
"!h	c #7482EB",
"~h	c #9079FD",
"{h	c #AE75EA",
"]h	c #D076E7",
"^h	c #C44AC1",
"/h	c #771086",
"(h	c #3B168A",
"_h	c #373DAB",
":h	c #4661CA",
"<h	c #637EE9",
"[h	c #7A78FF",
"}h	c #867AF6",
"|h	c #8D84FB",
"1h	c #5E5CBD",
"2h	c #767ADB",
"3h	c #7E87FC",
"4h	c #747CF9",
"5h	c #8783F4",
"6h	c #7C7AE8",
"7h	c #797BEC",
"8h	c #9374F6",
"9h	c #8C5EE4",
"0h	c #7943CC",
"ah	c #6631BD",
"bh	c #5932BF",
"ch	c #5941CB",
"dh	c #685CE4",
"eh	c #7E7BFE",
"fh	c #797BEA",
"gh	c #5D5DCF",
"hh	c #7877EF",
"ih	c #7A7AEC",
"jh	c #817CF2",
"kh	c #8688F7",
"lh	c #7F81EE",
"mh	c #7881F6",
"nh	c #9173F9",
"oh	c #B278FF",
"ph	c #AE5DE6",
"qh	c #7D1CA9",
"rh	c #6D129E",
"sh	c #5515A1",
"th	c #40169C",
"uh	c #5C46C5",
"vh	c #7E79ED",
"wh	c #8884F3",
"xh	c #716EE1",
"yh	c #6262D0",
"zh	c #8688F9",
"Ah	c #837BF4",
"Bh	c #807DEE",
"Ch	c #8A8AFA",
"Dh	c #888AF7",
"Eh	c #8A77F7",
"Fh	c #8570F1",
"Gh	c #816CED",
"Hh	c #8772F5",
"Ih	c #8673F3",
"Jh	c #7D7EF4",
"Kh	c #8689F4",
"Lh	c #7B7CE6",
"Mh	c #A3A4FF",
"Nh	c #8886FF",
"Oh	c #8C84FE",
"Ph	c #7D75EE",
"Qh	c #7B73EA",
"Rh	c #827EED",
"Sh	c #7682F2",
"Th	c #8D74F3",
"Uh	c #A176FB",
"Vh	c #A169F2",
"Wh	c #8344D0",
"Xh	c #8447D2",
"Yh	c #7D47D0",
"Zh	c #7146CB",
"`h	c #7D60E0",
" i	c #8C7CF8",
".i	c #7F86FA",
"+i	c #7F7BE9",
"@i	c #8987F5",
"#i	c #7E79EF",
"$i	c #7777E7",
"%i	c #8F8FFF",
"&i	c #9A9DFF",
"*i	c #9B9FFF",
"=i	c #9DA0FF",
"-i	c #9F9DFF",
";i	c #A19BFF",
">i	c #A59AFF",
",i	c #A89BFF",
"'i	c #A99CFF",
")i	c #A598FF",
"!i	c #A29AFF",
"~i	c #A29BFF",
"{i	c #A19FFF",
"]i	c #9EA1FF",
"^i	c #99A3FF",
"/i	c #9CA6FF",
"(i	c #A3A6FF",
"_i	c #A2A3FF",
":i	c #5454C4",
"<i	c #7775F0",
"[i	c #7D78EE",
"}i	c #837EF2",
"|i	c #8F8BFC",
"1i	c #908DFE",
"2i	c #828BF4",
"3i	c #818AF3",
"4i	c #8B8CF8",
"5i	c #8882F0",
"6i	c #8F81F2",
"7i	c #9582F5",
"8i	c #8978EA",
"9i	c #9084F4",
"0i	c #8283EF",
"ai	c #838AF4",
"bi	c #818CF5",
"ci	c #7E89F2",
"di	c #838CF5",
"ei	c #878EF8",
"fi	c #8487F2",
"gi	c #908EFB",
"hi	c #8A86F5",
"ii	c #A8A5FF",
"ji	c #6D6ADD",
"ki	c #7E78F2",
"li	c #8A86FE",
"mi	c #7474E6",
"ni	c #6B6BDD",
"oi	c #6668D9",
"pi	c #6568D3",
"qi	c #6165C8",
"ri	c #6669C8",
"si	c #6868C8",
"ti	c #6765C8",
"ui	c #6762C6",
"vi	c #6861C8",
"wi	c #655EC5",
"xi	c #6664C7",
"yi	c #6467C6",
"zi	c #6469C7",
"Ai	c #616AC7",
"Bi	c #5E69C5",
"Ci	c #5B65C6",
"Di	c #575AC3",
"Ei	c #6C6CDA",
"Fi	c #6161D1",
"Gi	c #7675ED",
"Hi	c #8A84FE",
"Ii	c #7A75EB",
"Ji	c #7671E7",
"Ki	c #7F79E7",
"Li	c #8179E9",
"Mi	c #8680EE",
"Ni	c #7E82ED",
"Oi	c #7580EA",
"Pi	c #7786ED",
"Qi	c #7485ED",
"Ri	c #7382E9",
"Si	c #7880EB",
"Ti	c #7F82ED",
"Ui	c #817DEC",
"Vi	c #7D79EA",
"Wi	c #6564D9",
"Xi	c #8787FF",
"Yi	c #7D7EF2",
"Zi	c #797AEE",
"`i	c #706CE4",
" j	c #6D69E1",
".j	c #736EE6",
"+j	c #796AE9",
"@j	c #7562E2",
"#j	c #7A65E8",
"$j	c #7B64E6",
"%j	c #7962E6",
"&j	c #7C67E8",
"*j	c #7766E8",
"=j	c #7064E2",
"-j	c #6D67E5",
";j	c #6E6CE7",
">j	c #6C6AE7",
",j	c #6D69E4",
"'j	c #756AEA",
")j	c #7766E6",
"!j	c #7760E4",
"~j	c #7964E5",
"{j	c #756BE5",
"]j	c #6D6ADF",
"^j	c #6B68DD",
"/j	c #8783FE",
"(j	c #877CFF",
"_j	c #907BFF",
":j	c #917BFF",
"<j	c #8B79FF",
"[j	c #8D77FF",
"}j	c #907CFF",
"|j	c #7C73F0",
"1j	c #8F8BFF",
"2j	c #7B7FFA",
"3j	c #7373ED",
"4j	c #8578FC",
"5j	c #7675F4",
"6j	c #8788FF",
"7j	c #7F7DFC",
"8j	c #7576F4",
"9j	c #7280FD",
"0j	c #4B7EF3",
"aj	c #5180F6",
"bj	c #5980F9",
"cj	c #6381FB",
"dj	c #7180FD",
"ej	c #C27FE9",
"fj	c #C380EA",
"gj	c #3E82E5",
"hj	c #3F83E8",
"ij	c #4280ED",
"jj	c #4480F0",
"kj	c #4A7EF4",
"lj	c #4A7BF4",
"mj	c #557EFA",
"nj	c #5F81FD",
"oj	c #6480FE",
"pj	c #6C81FF",
"qj	c #7385FF",
"rj	c #8D81FF",
"sj	c #9781FD",
"tj	c #A080FB",
"uj	c #B07FF4",
"vj	c #B57FEF",
"wj	c #B880ED",
"xj	c #BA81EA",
"yj	c #BB80EA",
"zj	c #C57DE9",
"Aj	c #C67CEB",
"Bj	c #3C80E3",
"Cj	c #3D81E6",
"Dj	c #3E81E9",
"Ej	c #437FEF",
"Fj	c #467FF3",
"Gj	c #4E7CF6",
"Hj	c #547EF7",
"Ij	c #5C7EFA",
"Jj	c #637FFC",
"Kj	c #6A82FE",
"Lj	c #7286FF",
"Mj	c #7989FF",
"Nj	c #7D89FF",
"Oj	c #9482FC",
"Pj	c #9E81F8",
"Qj	c #A881F6",
"Rj	c #B182F4",
"Sj	c #B682F1",
"Tj	c #C37EE9",
"Uj	c #3B7FE4",
"Vj	c #3C80E5",
"Wj	c #4F81F4",
"Xj	c #547EF4",
"Yj	c #5A7FF2",
"Zj	c #6382F6",
"`j	c #748BFD",
" k	c #7A8EFF",
".k	c #7F91FF",
"+k	c #7E8EFD",
"@k	c #7F8CFE",
"#k	c #828CFF",
"$k	c #8889FD",
"%k	c #8F86F9",
"&k	c #9884F7",
"*k	c #A382F3",
"=k	c #AF83F4",
"-k	c #BE80ED",
";k	c #3B7EE6",
">k	c #4282EC",
",k	c #4382EC",
"'k	c #5083F0",
")k	c #5382EE",
"!k	c #5B84F0",
"~k	c #678CF6",
"{k	c #7291FB",
"]k	c #7792FB",
"^k	c #7C95FC",
"/k	c #7F96FC",
"(k	c #7E96FA",
"_k	c #7D94FA",
":k	c #8792FC",
"<k	c #8D8EF8",
"[k	c #9589F5",
"}k	c #9E87F3",
"|k	c #AC86F5",
"1k	c #B686F4",
"2k	c #BA82EF",
"3k	c #BE7EEC",
"4k	c #BB82E9",
"5k	c #3B7EE7",
"6k	c #3E81EA",
"7k	c #4680EB",
"8k	c #4881E8",
"9k	c #5486E9",
"0k	c #618DEE",
"ak	c #6F97F6",
"bk	c #799DFB",
"ck	c #7D9FF9",
"dk	c #7F9EF8",
"ek	c #7EA0F7",
"fk	c #7EA0F9",
"gk	c #7B9EF8",
"hk	c #809FFA",
"ik	c #859CFA",
"jk	c #8C99F9",
"kk	c #9393F5",
"lk	c #9B8FF5",
"mk	c #A689F3",
"nk	c #B086F2",
"ok	c #B782EE",
"pk	c #BB80EC",
"qk	c #BD80E8",
"rk	c #BA83E9",
"sk	c #B885EA",
"tk	c #3B7DEB",
"uk	c #3D7FED",
"vk	c #4180E7",
"wk	c #4681E7",
"xk	c #4F86E3",
"yk	c #5B8EE9",
"zk	c #6A99F1",
"Ak	c #74A2F7",
"Bk	c #7DA7F9",
"Ck	c #81AAF9",
"Dk	c #82A9F8",
"Ek	c #80A7F4",
"Fk	c #80AAF6",
"Gk	c #7FAAF8",
"Hk	c #7EA9F7",
"Ik	c #7FA8F8",
"Jk	c #84A7F9",
"Kk	c #8AA4F9",
"Lk	c #919FF8",
"Mk	c #999AF7",
"Nk	c #A292F4",
"Ok	c #AB8AF2",
"Pk	c #B285EE",
"Qk	c #B981EC",
"Rk	c #BD7FEC",
"Sk	c #BB84EA",
"Tk	c #3B7DED",
"Uk	c #3E80F0",
"Vk	c #4383E7",
"Wk	c #4985E7",
"Xk	c #4E89E5",
"Yk	c #5891E8",
"Zk	c #679EF1",
"`k	c #75A8F7",
" l	c #7AABF7",
".l	c #7EAEF6",
"+l	c #84B3F7",
"@l	c #86B3F7",
"#l	c #82AFF2",
"$l	c #82B1F5",
"%l	c #81B2F5",
"&l	c #80B1F4",
"*l	c #83AFF6",
"=l	c #88AEF7",
"-l	c #8FACFA",
";l	c #96A7F9",
">l	c #9E9EF8",
",l	c #A695F5",
"'l	c #AE8BEF",
")l	c #B687EF",
"!l	c #BB83EE",
"~l	c #BC82E8",
"{l	c #BC84E9",
"]l	c #3C7EEF",
"^l	c #3F81F1",
"/l	c #4383F1",
"(l	c #4383ED",
"_l	c #4483EA",
":l	c #4685E6",
"<l	c #4D8AE5",
"[l	c #538FE5",
"}l	c #65A0F0",
"|l	c #74AEF8",
"1l	c #80B6FE",
"2l	c #7EB3F7",
"3l	c #7FB2F3",
"4l	c #85B9F5",
"5l	c #87B9F4",
"6l	c #82B4EF",
"7l	c #84B8F4",
"8l	c #82B8F4",
"9l	c #83BAF3",
"0l	c #80B6F2",
"al	c #81B5F1",
"bl	c #84B4F4",
"cl	c #8CB4F9",
"dl	c #93B1FA",
"el	c #98A7F8",
"fl	c #9F9FF5",
"gl	c #A794F0",
"hl	c #B08EEF",
"il	c #B787ED",
"jl	c #BC83EA",
"kl	c #C180E8",
"ll	c #3E80F1",
"ml	c #3C7EEE",
"nl	c #4384EC",
"ol	c #4484E6",
"pl	c #4685E2",
"ql	c #5391E8",
"rl	c #619EEF",
"sl	c #74B0F9",
"tl	c #79B4F8",
"ul	c #7EB8F8",
"vl	c #81B9F6",
"wl	c #80B8F1",
"xl	c #80B7EF",
"yl	c #81B8EE",
"zl	c #82B9EF",
"Al	c #82B9F1",
"Bl	c #81BAF1",
"Cl	c #82BAED",
"Dl	c #81BAEF",
"El	c #84B8F2",
"Fl	c #89B5F4",
"Gl	c #90B1F6",
"Hl	c #9AACF8",
"Il	c #A4A2F6",
"Jl	c #A895EF",
"Kl	c #AD89E9",
"Ll	c #B785E8",
"Ml	c #BF82E9",
"Nl	c #C47FE9",
"Ol	c #C67DE8",
"Pl	c #C97EE7",
"Ql	c #397BEB",
"Rl	c #4585EF",
"Sl	c #4485E9",
"Tl	c #4786E5",
"Ul	c #5191E8",
"Vl	c #64A1F2",
"Wl	c #71AFFA",
"Xl	c #7CB8F6",
"Yl	c #7FBCF5",
"Zl	c #80BCF2",
"`l	c #7FBBEF",
" m	c #7EBAEC",
".m	c #80BAEC",
"+m	c #82BCEE",
"@m	c #81BBED",
"#m	c #81BBE9",
"$m	c #7FBCEB",
"%m	c #88B6F2",
"&m	c #90B1F4",
"*m	c #9AAAF5",
"=m	c #A2A1F1",
"-m	c #A995EC",
";m	c #B28DEA",
">m	c #BC86E8",
",m	c #C27FE6",
"'m	c #CE7FEA",
")m	c #377CE4",
"!m	c #4586EA",
"~m	c #4688E6",
"{m	c #4F8FE6",
"]m	c #60A1F1",
"^m	c #72B0FB",
"/m	c #79B8FB",
"(m	c #7DBBF8",
"_m	c #80BDF6",
":m	c #81BEF4",
"<m	c #80BEEF",
"[m	c #7FBDEC",
"}m	c #7EBCEB",
"|m	c #80BDEC",
"1m	c #81BEED",
"2m	c #80BCEE",
"3m	c #80BDE9",
"4m	c #7FBEE9",
"5m	c #83BAF0",
"6m	c #89B8F0",
"7m	c #91B3F2",
"8m	c #9AADF2",
"9m	c #A5A4F0",
"0m	c #AC98ED",
"am	c #B58CE8",
"bm	c #BC82E6",
"cm	c #C780E8",
"dm	c #CE81EB",
"em	c #3D83E3",
"fm	c #4087E3",
"gm	c #4689E4",
"hm	c #4F91E7",
"im	c #60A2F0",
"jm	c #72B2FA",
"km	c #78B6F1",
"lm	c #80BDF4",
"mm	c #81BFF2",
"nm	c #81BFEE",
"om	c #80BFEB",
"pm	c #7FBEEA",
"qm	c #81C0EC",
"rm	c #82BFEC",
"sm	c #81C0EB",
"tm	c #81C0E9",
"um	c #84BEEE",
"vm	c #89BBF0",
"wm	c #92B6F0",
"xm	c #9BAEF2",
"ym	c #A4A4EE",
"zm	c #AD95E9",
"Am	c #B68BE7",
"Bm	c #C084E6",
"Cm	c #C682E9",
"Dm	c #3F87DC",
"Em	c #428ADC",
"Fm	c #4E92E3",
"Gm	c #5FA3EE",
"Hm	c #70B3F9",
"Im	c #7ABCF9",
"Jm	c #7BBCF4",
"Km	c #7AB9EC",
"Lm	c #80BEED",
"Mm	c #81BEEA",
"Nm	c #80BFEA",
"Om	c #7FBEE7",
"Pm	c #7EBFE7",
"Qm	c #7EBFE9",
"Rm	c #7FC0EA",
"Sm	c #80C1EB",
"Tm	c #7FC0E8",
"Um	c #80C0E6",
"Vm	c #81BFE6",
"Wm	c #81BFE8",
"Xm	c #80BFE8",
"Ym	c #81BEEB",
"Zm	c #86BCEB",
"`m	c #8EB5EE",
" n	c #98ADEE",
".n	c #A5A3EE",
"+n	c #AD97EA",
"@n	c #B48BE7",
"#n	c #B785E4",
"$n	c #3D87D2",
"%n	c #4993DC",
"&n	c #5DA3E9",
"*n	c #6EB3F6",
"=n	c #76BAF7",
"-n	c #7ABBF3",
";n	c #7DBDED",
">n	c #80C0E4",
",n	c #80C1E9",
"'n	c #7FC0E6",
")n	c #7DC1E8",
"!n	c #83BEE6",
"~n	c #84BEE6",
"{n	c #83BFE4",
"]n	c #7DC1E6",
"^n	c #7CC1E8",
"/n	c #83BBEA",
"(n	c #8EB5EC",
"_n	c #9CAEF0",
":n	c #A7A5F0",
"<n	c #AD8CE5",
"[n	c #4994D8",
"}n	c #5AA5E8",
"|n	c #6EB5F5",
"1n	c #76BCF7",
"2n	c #78BEF2",
"3n	c #7CBEEE",
"4n	c #82C2E8",
"5n	c #82C1E4",
"6n	c #82C1E2",
"7n	c #81C1E4",
"8n	c #82C2E6",
"9n	c #81C2E8",
"0n	c #81C2EA",
"an	c #7EC2E9",
"bn	c #7EC2E7",
"cn	c #7EC2E5",
"dn	c #80C1E7",
"en	c #7BC3E9",
"fn	c #7DC2E9",
"gn	c #81C1E7",
"hn	c #85BFE7",
"in	c #88BDE5",
"jn	c #87BFE4",
"kn	c #7EC3E4",
"ln	c #7AC5E5",
"mn	c #7AC6E8",
"nn	c #7DC2EB",
"on	c #85BDEC",
"pn	c #95B8F2",
"qn	c #A2B1F6",
"rn	c #A9A5F2",
"sn	c #A89BED",
"tn	c #5DA8E9",
"un	c #6DB9F7",
"vn	c #7BC3FE",
"wn	c #7BC2F8",
"xn	c #7BC1F4",
"yn	c #83C6F1",
"zn	c #86C7EF",
"An	c #84C3E4",
"Bn	c #83C2E1",
"Cn	c #83C2E3",
"Dn	c #83C3E7",
"En	c #82C4E7",
"Fn	c #80C4E9",
"Gn	c #80C4E7",
"Hn	c #7FC5E7",
"In	c #7CC6EB",
"Jn	c #7DC5EB",
"Kn	c #83C3E9",
"Ln	c #87C1E7",
"Mn	c #8BBFE7",
"Nn	c #8AC0E6",
"On	c #86C2E4",
"Pn	c #80C5E4",
"Qn	c #79C8E6",
"Rn	c #79CAE8",
"Sn	c #7CC8EC",
"Tn	c #82C2EE",
"Un	c #92BDF4",
"Vn	c #9EB7F9",
"Wn	c #A9ADF7",
"Xn	c #A9A4F4",
"  . + @ # $ % & * # = - ; > , ' ) ! ! ! ! ! ! ! ! ! ! ! ! ! ! ! ! ! ! ! ! ! ! ! ! ! ! ! ! ! ! ! ! ! ! ! ! ! ! ! ! ! ! ! ! ! ! ! ! ! ! ! ! ! ! ! ! ! ! ! ! ! ! ! ! ! ! ! ! ! ! ! ! ! ! ! ! ! ! ! ! ! ! ! ! ! ! ! ! ! ! ! ! ! ! ! ~ { ] ^ / ( _ : < [ } | 1 2 3 4 ",
"5 6 7 8 9 0 a b c d e f g h i i j k j k j k j k j k j k j k j k j k j k j k j k j k j k j k j k j k j k j k j k j k j k j k j k j k j k j k j k j k j k j k j k j k j k j k j k j k j k j k j k j k j k j k j k j k j k j k j j l j k m n o o p q r s t u v w x ",
"y z A B C D E F G H I J K L M N O P Q P Q P Q P Q P Q P Q P Q P Q P Q P Q P Q P Q P Q P Q P Q P Q P Q P Q P Q P Q P Q P Q P Q P Q P Q P Q P Q P Q P Q P Q P Q P Q P Q P Q P Q P Q P Q P Q P Q P Q P Q P Q P Q P Q P Q P Q P Q O N R O Q S T T T U V W X Y Z `  .",
"..+.@.#.$.%.&.*.H H P P I =.-.-.P I P I P I P I P I P I P I P I P I P I P I P I P I P I P I P I P I P I P I P I P I P I P I P I P I P I P I P I P I P I P I P I P I P I P I P I P I P I P I P I P I P I P I P I P I P I P I P -.;.;.>.,.S '.).!.~.{.].^./.(._.:.",
"<.[.}.|.A B 1.2.3.4.G H 5.6.7.7.8.8.I 8.I 8.I 8.I 8.I 8.I 8.I 8.I 8.I 8.I 8.I 8.I 8.I 8.I 8.I 8.I 8.I 8.I 8.I 8.I 8.I 8.I 8.I 8.I 8.I 8.I 8.I 8.I 8.I 8.I 8.I 8.I 8.I 8.I 8.I 8.I 8.I 8.I 8.I 8.I 8.I 8.I 8.I 8.I 8.I 8.I 8.I =.9.0.a.E S b.c.d.e.f.g.h.i.j.k.l.",
"m.n.o.p.q.r.s.1.t.u.v.4.w.x.y.z.A.B.B.B.B.B.B.B.B.B.B.B.B.B.B.B.B.B.B.B.B.B.B.B.B.B.B.B.B.B.B.B.B.B.B.B.B.B.B.B.B.B.B.B.B.B.B.B.B.B.B.B.B.B.B.B.B.B.B.B.B.B.B.B.B.B.B.B.B.B.B.B.B.B.B.B.B.B.B.B.B.B.B.B.B.B.B.B.B.B.B.B.B.B.B.J C.D.E.*.w.F.G.H.I.J.K.L.M.N.O.P.",
"Q.R.S.T.U.V.W.X.Y.Z.`. +.+++@+#+$+$+$+$+$+$+$+$+$+$+$+$+$+$+$+$+$+$+$+$+$+$+$+$+$+$+$+$+$+$+$+$+$+$+$+$+$+$+$+$+$+$+$+$+$+$+$+$+$+$+$+$+$+$+$+$+$+$+$+$+$+$+$+$+$+$+$+$+$+$+$+$+$+$+$+$+$+$+$+$+$+$+$+$+$+$+$+$+$+$+$+$+$+$+$+%+&+*+=+-+;+>+,+'+)+!+~+{+]+^+/+(+",
"_+:+<+[+}+|+1+2+3+Y.Z.4+5+@+6+7+4+8+4+8+4+8+4+8+4+8+4+8+4+8+4+8+4+8+4+8+4+8+4+8+4+8+4+8+4+8+4+8+4+8+4+8+4+8+4+8+4+8+4+8+4+8+4+8+4+8+4+8+4+8+4+8+4+8+4+8+4+8+4+8+4+8+4+8+4+8+4+8+4+8+4+8+4+8+4+8+4+8+4+8+4+8+4+8+4+8+4+8+4+8+4+8+z.8+9+0+a+b+c+d+e+f+g+h+i+j+k+l+",
"m+n+o+p+q+r+s+t+u+v+w+x+y+z+z+A+B+C+D+C+D+C+D+C+D+C+D+C+D+C+D+C+D+C+D+C+D+C+D+C+D+C+D+C+D+C+D+C+D+C+D+C+D+C+D+C+D+C+D+C+D+C+D+C+D+C+D+C+D+C+D+C+D+C+D+C+D+C+D+C+D+C+D+C+D+C+D+C+D+C+D+C+D+C+D+C+D+C+D+C+D+C+D+C+D+C+D+C+D+C+D+B+E+E+z+F+G+H+I+J+K+L+M+N+O+P+Q+R+",
"S+T+U+V+W+q+X+Y+Z+u+v+`+ @.@+@@@#@$@%@$@%@$@%@$@%@$@%@$@%@$@%@$@%@$@%@$@%@$@%@$@%@$@%@$@%@$@%@$@%@$@%@$@%@$@%@$@%@$@%@$@%@$@%@$@%@$@%@$@%@$@%@$@%@$@%@$@%@$@%@$@%@$@%@$@%@$@%@$@%@$@%@$@%@$@%@$@%@$@%@$@%@$@%@$@%@$@%@$@%@$@%@&@*@=@-@;@>@,@'@)@!@~@{@]@^@/@(@_@",
":@<@[@}@|@1@2@3@4@5@6@7@8@9@0@a@b@c@d@c@d@c@d@c@d@c@d@c@d@c@d@c@d@c@d@c@d@c@d@c@d@c@d@c@d@c@d@c@d@c@d@c@d@c@d@c@d@c@d@c@d@c@d@c@d@c@d@c@d@c@d@c@d@c@d@c@d@c@d@c@d@c@d@c@d@c@d@c@d@c@d@c@d@c@d@c@d@c@d@c@d@c@d@c@d@c@d@c@d@c@d@e@f@g@h@i@j@k@l@m@n@o@p@q@^@r@s@t@",
"u@<@v@w@x@y@z@A@B@C@D@E@F@G@H@I@J@K@J@K@J@K@J@K@J@K@J@K@J@K@J@K@J@K@J@K@J@K@J@K@J@K@J@K@J@K@J@K@J@K@J@K@J@K@J@K@J@K@J@K@J@K@J@K@J@K@J@K@J@K@J@K@J@K@J@K@J@K@J@K@J@K@J@K@J@K@J@K@J@K@J@K@J@K@J@K@J@K@J@K@J@K@J@K@J@K@J@K@J@K@J@L@M@N@O@P@Q@R@S@T@U@V@W@_@r@r@X@]@",
"Y@Z@`@w@x@y@ #.#+#@###$#%#&#*#=#-#;#-#;#-#;#-#;#-#;#-#;#-#;#-#;#-#;#-#;#-#;#-#;#-#;#-#;#-#;#-#;#-#;#-#;#-#;#-#;#-#;#-#;#-#;#-#;#-#;#-#;#-#;#-#;#-#;#-#;#-#;#-#;#-#;#-#;#-#;#-#;#-#;#-#;#-#;#-#;#-#;#-#;#-#;#-#;#-#;#-#;#-#;#-#-#>#,#'#)#!#~#{#]#^#o@^@^@r@^@s@t@",
"/#(#_#:#x@x@<#[#}#|#1#2#3#4#5#6#7#7#7#7#7#7#7#7#7#7#7#7#7#7#7#7#7#7#7#7#7#7#7#7#7#7#7#7#7#7#7#7#7#7#7#7#7#7#7#7#7#7#7#7#7#7#7#7#7#7#7#7#7#7#7#7#7#7#7#7#7#7#7#7#7#7#7#7#7#7#7#7#7#7#7#7#7#7#7#7#7#7#7#7#7#7#7#7#7#7#7#7#7#7#7#7#8#9#0#a#b#c#d#e#f#g#h#^@W@W@i#i#",
"j#k#l#m#n#n#}@o#p#q#r#s#t#u#v#w#x#y#y#y#y#y#y#y#y#y#y#y#y#y#y#y#y#y#y#y#y#y#y#y#y#y#y#y#y#y#y#y#y#y#y#y#y#y#y#y#y#y#y#y#y#y#y#y#y#y#y#y#y#y#y#y#y#y#y#y#y#y#y#y#y#y#y#y#y#y#y#y#y#y#y#y#y#y#y#y#y#y#y#y#y#y#y#y#y#y#y#y#y#y#y#y#z#A#B#C#D#E#F#G#H#I#J#K#W@j+L#M#",
"N#O#m#m#n#P#Q#o#R#S#T#U#V#W#X#Y#Z#Z#`#`#`#`#`#`#`#`#`#`#`#`#`#`# $ $ $ $ $ $ $ $ $ $ $ $ $ $ $ $`#`#`#`#`#`#`#`#`#`#`#`#`#`#`#`#`#`# $`#`#`#`#`#`#`#`#`#`#`#`#`# $ $ $ $ $ $ $ $ $ $ $ $ $ $ $ $`#`#`#`#`#`#`#`#`#`#`#`#`#`#`#`#.$+$@$#$$$E#F#%$&$*$=$K#W@_@-$;$",
">$,$_#:#}@'$[#)$!$~${$]$^$W#/$($_$_$:$:$:$:$:$:$:$:$:$:$<$<$<$<$[$[$[$[$[$[$[$[$}$}$}$}$}$}$}$}$:$:$:$:$<$<$|$|$1$1$2$2$3$3$3$3$<$<$<$<$<$<$<$<$4$4$2$2$2$2$2$4$[$[$[$[$[$[$[$[$}$}$}$}$}$}$}$}$:$:$<$<$<$<$<$<$2$2$2$2$4$4$:$<$5$6$7$#$8$9$0$a$b$c$V@s@^@^@(@_@",
"d$e$f$w@'$'$g$h$!$~${$]$^$W#i$j$_$k$k$k$l$l$l$l$l$l$l$l$m$m$m$<$n$3$3$3$3$3$3$3$:$:$:$:$:$:$:$:$_$k$l$l$m$m$o$o$p$p$q$q$n$n$r$r$<$<$<$<$<$<$<$<$2$2$q$q$q$q$q$q$n$3$3$3$3$3$3$3$:$:$:$:$:$:$:$:$:$l$m$m$m$m$m$m$q$q$q$q$2$<$:$:$5$s$t$#$u$v$w$x$y$z$V@A$^@^@B$C$",
"d$e$f$w@'$'$g$h$!$~${$]$^$W#i$j$_$k$k$k$l$l$l$l$l$l$:$:$<$<$<$m$l$D$D$D$D$D$D$D$D$D$D$D$D$D$D$l$k$_$:$:$m$m$o$o$o$o$m$m$l$l$k$_$<$<$<$<$<$<$<$<$<$<$<$<$m$m$m$m$D$D$D$D$D$D$D$D$D$D$D$D$D$D$D$l$l$:$<$<$m$m$m$m$m$m$q$q$m$m$l$E$5$s$t$#$u$v$w$x$y$z$V@A$^@^@B$C$",
"d$e$f$w@'$'$g$h$!$~${$]$^$W#i$j$_$k$k$k$l$l$l$l$l$l$:$:$<$<$<$m$D$F$D$F$D$F$D$F$D$F$D$F$D$F$D$D$k$_$:$:$m$m$o$o$o$o$m$m$l$l$k$l$:$<$<$<$<$<$<$<$<$<$<$<$m$m$m$m$D$F$D$F$D$F$D$F$D$F$D$F$D$F$D$D$l$:$<$<$m$m$m$m$m$m$m$m$m$G$E$G$5$s$t$#$u$v$w$x$y$z$V@A$^@^@B$C$",
"d$e$f$w@'$'$g$h$!$~${$]$^$W#i$j$_$k$k$k$l$l$l$l$:$:$:$:$<$<$<$<$E$H$E$H$E$H$E$H$l$D$l$D$l$D$l$l$:$:$:$:$<$<$<$<$I$I$G$G$E$E$E$E$:$:$:$:$:$:$:$:$E$E$E$E$E$E$E$E$E$H$E$H$E$H$E$H$l$D$l$D$l$D$l$l$<$<$:$:$:$:$:$:$:$:$l$l$l$E$G$G$5$s$t$#$u$v$w$x$y$z$V@A$^@^@B$C$",
"d$e$f$w@'$'$g$h$!$~${$]$^$W#i$j$_$k$k$k$l$l$l$l$:$:$:$:$<$<$<$m$l$D$l$D$l$D$l$D$l$D$l$D$l$D$l$l$l$:$:$:$<$<$<$<$<$<$m$m$l$l$l$l$:$:$:$:$:$:$:$:$:$:$:$:$:$:$:$l$l$D$l$D$l$D$l$D$l$D$l$D$l$D$l$l$m$<$:$:$:$:$:$:$:$:$l$l$l$E$G$G$5$s$t$#$u$v$w$x$y$z$V@A$^@^@B$C$",
"d$e$f$w@'$'$g$h$!$~${$]$^$W#i$j$_$k$k$k$l$l$l$l$l$l$l$l$m$m$m$m$D$F$D$F$D$F$D$F$D$F$D$F$D$F$D$D$l$l$l$l$:$:$:$:$:$:$l$l$l$l$D$l$:$:$:$:$:$:$:$:$l$l$l$l$l$l$l$l$D$F$D$F$D$F$D$F$D$F$D$F$D$F$D$D$m$m$l$l$:$:$_$_$_$_$l$l$l$l$J$J$5$s$t$#$u$v$w$x$y$z$V@A$^@^@B$C$",
"d$e$f$w@'$'$g$h$!$~${$]$^$W#i$K$_$k$k$k$l$l$l$l$l$l$l$l$m$L$m$L$D$D$D$D$D$D$D$D$D$D$D$D$D$D$D$D$D$l$l$l$:$:$:$:$:$:$l$l$l$l$D$D$:$:$:$:$:$:$:$l$l$l$l$l$l$D$l$D$D$D$D$D$D$D$D$D$D$D$D$D$D$D$D$D$L$m$l$l$:$:$_$_$_$_$l$l$l$l$J$J$5$s$t$#$u$v$w$x$y$z$V@A$^@^@B$C$",
"d$e$f$w@'$'$g$h$M$N$O$]$P$W#Q$K$_$_$_$_$l$l$l$l$R$H$H$D$S$T$S$U$n$3$3$:$:$:$E$E$:$:$:$:$:$:$:$:$R$R$R$V$W$X$E$E$:$:$l$l$D$D$D$D$:$:$l$l$l$l$l$l$X$R$H$D$Y$Z$`$R$:$:$:$:$:$:$3$3$3$3$:$:$:$:$:$:$ %L$`$D$.%.%+%@%_$_$k$k$D$H$J$J$5$s$t$#$u$v$w$x$y$z$V@A$^@^@B$C$",
"d$e$f$w@'$'$g$h$M$N$O$]$P$W#Q$K$_$_$_$_$l$l$l$D$#%$%%%&%*%=%-%;%:$:$:$:$:$:$:$:$E$E$:$:$:$:$:$:$>%,%'%`$)%E$W$n$:$:$l$l$D$D$D$D$:$:$l$l$l$l$l$D$%%!%&%>%!%~%,%{%:$:$:$:$:$:$:$:$:$:$:$:$E$E$E$E$]%^%/%V$(%@%.%_%_$_$k$k$D$H$J$J$5$s$t$#$u$v$w$x$y$z$V@A$^@^@B$C$",
"d$e$f$w@'$'$g$h$M$N$O$]$P$W#Q$K$:%:%_$_$l$l$D$D$<%[%}%|%1%2%3%4%{%R$R$R$R$V$V$V$D$D$R$R$R$R$V$'%5%6%7%8%9%0%a%b%k$k$k$k$D$D$D$D$:$:$l$l$D$D$D$F$'%c%8%d%e%f%|%g%'%V$V$R$R$R$R$R$D$D$D$D$D$R$R${%h%i%e%8%j%k%l%m%l%l%k$k$D$H$J$J$5$s$t$#$u$v$w$x$y$z$V@A$^@^@B$C$",
"d$e$f$w@'$'$g$h$M$N$O$]$P$W#Q$K$:%:%:%_$l$l$D$F$F$,%n%o%i%p%q%r%s%s%t%u%v%u%v%u%w%x%v%u%v%s%t%s%y%z%A%|%B%C%(%D%k$k$k$k$D$D$D$D$:$:$l$l$D$D$F$E%,%F%G%H%v%y%x%s%s%s%t%u%v%u%v%u%w%x%w%u%v%u%v%u%I%J%t%K%L%M%m%N%l%l%k$k$D$H$J$J$5$s$t$#$u$v$w$x$y$z$V@A$^@^@B$C$",
"d$e$f$w@'$'$g$h$M$N$O$]$P$W#Q$K$:%:%:%_$l$l$D$F$O%P%t%Q%R%S%T%U%V%W%X%X%Y%Y%Y%Y%Y%Y%X%X%X%X%X%Z%`% &.&x%+&@&#&$&l%l%k$k$D$D$L$L$<$<$m$m$L$L$%&&&h%*&=&-&S%;& &>&Z%X%X%X%X%X%X%X%Y%Y%Y%Y%Y%Y%Y%,&'&)&!&s%~&{&]&^&/&l%k$k$D$H$J$(&5$s$t$#$u$v$w$x$y$z$V@A$^@^@B$C$",
"d$e$f$w@'$'$g$h$M$N$O$]$P$W#Q$K$:%:%:%_$:$D$F$E%_&A%:&<&[&}&|&1&2&3&3&4&4&4&5&5&4&4&4&4&4&4&4&6&7&|&8&9&0&~&a&b&c&l%k$k$D$D$L$L$<$<$m$m$L$%&&&d&e&J%f&g&h&i&j&k&l&4&4&4&4&4&3&3&3&3&3&4&4&4&4&6&m&n&o&!&p&q&r&s&t&/&l%k$D$H$(&(&5$s$t$#$u$v$w$x$y$z$V@A$^@^@B$C$",
"d$e$f$w@'$'$g$h$M$N$O$]$P$W#Q$K$:%:%:%_$:$D$F$E%P%t%u&u&v&w&x&y&z&E%E%E%E%A&A&A&E%E%E%8%8%8%8%t%B&C&D&E&F&G&H&I&c&c&k$k$D$D$L$L$<$<$m$m$L$%&&&d&J&K& &L&M&N&O&P&Q&8%E%E%A&A&,%,%A&A&A&E%E%8%8%Q&R&S&T&8&F&U&V&W&t&t&l%k$D$H$(&(&5$s$t$#$u$v$w$x$y$z$V@A$^@^@B$C$",
"d$e$f$w@Q#'$g$h$M$N$O$]$P$W#Q$K$:%:%:$l$k$D$X&Y&Z&`&R% *.*+*@*#*$*%*&***=*l$q$p$-*;*>*W&,*'*H&)*!*~*{*]*^*/*(*_*:*l$c&c&<*l$m$m$L$L$m$m$l$%&i%[*.* &S%}*|*w&1*2*3*%*&*4*5*D$m$q$:$+%6*4*7*7*8*(*9*~*0*a*b*u%c*d*e*c&f*f*c&H$g*h*5$s$t$#$u$v$w$x$y$z$V@A$^@^@B$C$",
"i*j*f$w@Q#Q#k*)$!$~${$l*m*n*Q$o*p*q*r*s*t*V$u*v*w*x*y*z*A*B*C*D*E*F*G*H*I*M%J*K*.$L*M*N*O*P*Q*R*S*T*U*V*W*A%X*Y*Z*`* =.=+=r$@=G$8%E%G$#=Y#F$$=%=&=*===-=;=>=,='=)=!=~={=]=_&^=/=E$6*(=_=:=<=~=[=}=|=1=V*2=3=4=5=6=0%7=8=9=0=a=b=c=s$t$#$u$v$w$x$y$z$V@A$^@^@B$C$",
"i*j*f$w@Q#Q#k*)$!$~${$l*m*n*Q$o*p*;*d=e=f=%%g=h=i=j=k=l=3%m=n=o=p=q=r=s=t=u=v=w=x=y=z=A=B=C=D=E=F=G=L$H=I=G%J=K=L=1$M=N=O=_$4$m$n%f%E$:$:%P=Q=R=S=T=U=V=W=X=Y=Z=`= -.-+-@-#-$-%-D$&-*-=---;->-,-'-)-!-~-{-]-^-/-(-]&_-:-<-/&[-}-|-s$t$#$u$v$w$x$y$z$V@A$^@^@B$C$",
"i*j*f$w@Q#Q#k*)$!$~${$l*m*n*Q$o*($1-e=2-4*3-4-5-6-7-;=8-Y&9-0-a-b-c-d-e-f-g-h-i-j-k-l-m-n-o-p-q-r-s-t-u-v-w-x-y-z-b%A-B-a%E$E$X$C-8%:$E$+%F%D-E-F-G-H-g*I-J-K-L-M-N-O-P-Q-R-G&I%z-S-T-U-V-W-X-Y-Z-`- ;.;+;@;#;$;%;&;*;_-=;-;;;>;c=s$t$#$u$v$w$x$y$z$V@A$^@^@B$C$",
"i*j*f$w@Q#Q#k*)$!$~${$l*m*n*Q$Y#}$I$^%t%,;';);!;~;{;C-];^;/;(;_;:;<;[;};|;1;2;3;4;5;6;7;8;9;0;a;b;c;d;e;b%f;g;h;i;j;k;l;W$I$E$X$m;m;n;:$D$o;p;q;r;s;0%m$t;u;v;w;x;y;z;A;B;C;D;Z&g%v=E;F;G;q=H;I;J;K;L;e;M;N;O;P;Q;R;S;T;U;k$c=|-c=s$t$#$u$v$w$x$y$z$V@A$^@^@B$C$",
"i*j*f$w@Q#Q#k*)$!$~${$l*m*n*Q$Y#V;<$^%v%W;X;Y;Z;`; >:*]%.>+>@>#>$>%>&>*>=>->;>I$>>,>'>)>!>~>{>]>^>/><-Y#(>_>:><>[>}>|>F$1><$+%2>H-J$n;+%d&3>4>5>6>7>8>M%9>0>a>b>c>d>e>f>g>h>i>e*j>k>l>m>n>o>p>q>r>s>t>u>V=v>w>x>y>z>A>l%B>5*v-h*5$s$t$#$u$v$w$x$y$z$V@A$^@^@B$C$",
"i*j*f$w@Q#Q#k*)$!$~${$l*m*n*Q$Y# $C>,%y%D>E>F>G>H>I>J>K>L>M>N>O>P>Q>R>S>T>U>V>W>X>Y>Z>`> ,.,+,@,#,$,%,&,i$*,=,-,;,>,6*m;p$q$c&<*,,g*r$',),!,~,{,],,%^,B>/,(,_,:,<,[,},|,1,2,3,4,5,6,7,8,9,0,a,b,c,d,e,f,g,h,i,j,k,l,I&E$5*m,H-g*5$s$t$#$u$v$w$x$y$z$V@A$^@^@B$C$",
"i*j*f$w@Q#Q#k*)$!$~${$l*m*n*Q$Y#w#n,{%(-x&o,p,q,|%r,s,t,u,v,w,x,y,z,A,B,C,D,E,($F,G,H,I,J,K,L,M,N,O,P,f,Q,9%R,S,T,q&L%J$g*m$]&1=1>v-U,V,W,X,Y,Z,`, '.']&+'@'#'$'%'&'*'='-';'>'B-m%,''')'!'~'{']'^'/'('_';*^=:'<'['Q;9%H$b%5*L$H-5$s$t$#$u$v$w$x$y$z$V@A$^@^@B$C$",
"i*j*f$w@Q#Q#k*)$!$~${$l*m*n*Q$Y#}'n,9%W;|'1'2'3'A&l;^&L*4'5'6'7'8'9'0'a'b'c'd'($e'f'g'h'i'j'k'l'm'n'o'p'q'M%r's't'u'O%D$S$G$1=1=1>r*v'4*w'x'y'z'A'B'C'4*D'E'F'G'H'I'J'K'L'M'N'A-.%O'P'Q'R'S'T'U'V'W'X'Y'n;Z'`' ).)+)@)D$5,-;{%#)$)s$t$#$u$v$w$x$y$z$V@A$^@^@B$C$",
"%)j*w@&)Q#Q#k**)M$N$O$]$=)n*Q$($I$<$<*F&-);)>)|%F$0%7*,)')))!)~){)])^)/)()_):)2$<)[)})|)1)2)3)4)5)6)7)K$+%:* >8)9)0)e%a)b)W$}%8%c)v-&,d)e)f)g)h)L$i)j)k)l)m)n)o)p)q)r)s)t)u)}>l;]%v)w)x)y)z)A)B)C)k*D)f,5$E)F)G)H)I)J)2>K)L)>%M)$)s$t$#$u$v$w$x$y$z$V@A$^@^@B$C$",
"%)j*w@&)Q#Q#k**)M$N$O$]$=)n*Q$($I$@=c&z&N)O)P)Q):*R)V,'%S)T)U)V)W)X)Y)Z)`) !K$.!5;+!@!#!$!%!&!*!A;=!-!($E$1=;!>!,!'!f%)!@%W$,%A'!!5$~!{!]!^!/!(!2$_!:!<![!}!|!1!2!3!4!5!6!7!8!)%h*9!0!a!b!c!d!e!f!h$g!X#c=,,h!i!j!k!l!B>m!n!>%M)$)s$t$#$u$v$w$x$y$z$V@A$^@^@B$C$",
"%)j*w@&)Q#Q#k**)M$N$O$]$=)n*Q$r$;*W$+%3%o!p!q!r!<*s!t!E%u!v!w!x!y!z!A!B!C!D!E!F!G!H!I!J!K!L!M!N!O!P!Q!4$I$1=R!S!T!U!V!W!X!n${%&&.$m$!-,%Y!Z!`! ~I$.~|>H>+~@~#~$~%~&~*~=~-~;~>~q$,~'~)~!~~~{~]~^~/~(~o'Y#c=,,_~:~<~[~}~l%|~1~2~3~$)s$t$#$u$v$w$x$y$z$V@A$^@^@B$C$",
"%)j*w@&)Q#Q#k**)M$N$O$]$=)n*Q$r$Y$V$@%4~5~T-6~7~5*8~9~A's$0~a~b~c~d~e~f~g~h~i~j~k~l~m~n~o~p~q~r~s~t~u~4$g*1=v~w~x~y~w-z~A~n$B~&&C~U$j$&&D~E~F~G~n,H~f%I~J~K~L~M~N~O~P~Q~R~S~T~n,U~V~W~X~Y~Z~`~ {.{+{@{#{c=X>${%{&{*{={k$!-/$2~3~$)s$t$#$u$v$w$x$y$z$V@A$^@^@B$C$",
"%)j*w@&)Q#Q#k**)M$N$O$]$=)n*Q$j$L*1=@%-{;{>{,{'{){!{~{{{c=]{^{/{({_{:{<{[{}{|{p$1{2{3{4{5{6{7{8{9{0{d'_!G${%a{b{c{d{e{f{:%3$`$g{h{K>_$Z*i{j{k{l{C>m{n{o{p{q{r{s{t{u{v{w{x{y{a{+%;*z{A{B{C{D{E{F{G{H{Q!#{5$X>I{J{K{L{M{l$p*p*)%A'$)s$t$#$u$v$w$x$y$z$V@A$^@^@B$C$",
"%)j*w@&)Q#Q#k**)M$N$O$]$=)n*Q$-;e*B%N{O{P{Q{R{l{:*.>S{T{U{V{W{X{Y{Z{`{ ].]+]a{@]#]$]%]&]*]=]-];]>],]']4$J${%E$i%)]!]~]K$}$`#Y$A&{],%+%]]^]/](]_]4$:]<][]}]|]1]2]3]4]5]6]7]8]9]0]Q$a]b]c]d]e]f]g]h]i]<-.%C>q$j]k]l]m]n]G$#=o]Y$A'$)s$t$#$u$v$w$x$y$z$V@A$^@^@B$C$",
"%)j*w@&)Q#Q#k**)M$N$O$]$=)n*Q$-;i;6*:%p]q]+~r]s]1=L>t]L>u]v]x$w]x]y]z]A]B]C]D]:!E]F,F]G]H]I]J]K]L]M]N]4$5*{%O]P]Q]R]#-:%S]T]Y$f;z&n%b%U]V]Y!W]X]4$}-Y]Z]`] ^.^+^@^#^$^%^&^*^=^-^;^)%>^,^'^)^!^~^{^]^<-|{b%q$X&I~^^/^(^h*_^3$@%B~H-s$t$#$u$v$w$x$y$z$V@A$^@^@B$C$",
"%)j*w@&)Q#Q#k**)M$N$O$]$=)n*Q$-;:^V&:$<^[^J~}^|^,%v>1^;=2^3^4^5^6^7^8^9^0^a^b^c^d^e*e^f^g^h^i^j^k^l^:)2$){E%m^n^o^p^q^:$}'r^Y$L%_&_&1-s^t^u^v^w^<$x^y^z^A^B^C^D^E^F^G^H^I^J^K^ ~L^M^N^O^P^Q^R^S^T^U^V^.%b%;%W^X^Y^Z^`^c=_^}$b%B~-*s$t$#$u$v$w$x$y$z$V@A$^@^@B$C$",
"i*j*f$w@Q#Q#k*)$M$N$O$]$=)n*Q$(> /a{L$./+/@/#/$/P]h,%/&/C>}-*/=/-/;/>/,/'/)/!/~/{/]/^///;](/_/:/</[/}/|/,%i%1/2/3/4/5/B~6/n;b)X$2>&%(&7/8/9/0/a/e'b/8*s&<$c/d/e/f/g/h/i/j/k/l/m/n/o/L>p/q/r/s/t/u/v/[$S$s!o;w/x/y/z/t%>%A/N{B/l$-*s$t$#$u$v$w$x$y$z$V@A$^@^@B$C$",
"i*j*f$w@Q#Q#k*)$M$N$O$]$=)n*Q$/$T;O=D$C/D/E/y%F/G/_&H/=;3$I/J/K/L/,#M/N/O/P/Q/R/S/T/U/V/W/X/J/Y/5#Z/<$m$9~`/ (x/.(+(@(,%V$E$:$:$a%H-.$#($(%(&(*(s%6==(f*<$-(;(>(,('()(!(~({(](^(/(((_(:(<([(}(|(1(x#}'2(3(4(5(6(7(8(&-B%9(@%_$:$-*s$t$#$u$v$w$x$y$z$V@A$^@^@B$C$",
"i*j*f$w@Q#Q#k*)$M$N$O$]$=)n*Q$K$(>/&c&,%0(p{a(b(c(d(g{e(q*Z#b=f(h*g(h(i(j(k(l(m(n(o(p(q(,(r(s(($[$_^<$t(2%u(v(w(x(y(P=K>H$1-z(E$l$J$.$A(0(B(C(D(E(F(G(R$1$H(I(J(v-K(L(M(N(O(P(Q(R(S(T(U([-V(W( $X(u]1$E)2%u(|*;&Y(';E%K>5*B/q*E$-*s$t$#$u$v$w$x$y$z$V@A$^@^@B$C$",
"i*j*f$w@Q#Q#k*)$M$N$O$]$=)n*Q$K$j$/&c&B%Z(`( _._+_o/@_#_<*_%$_%_k;&_*_=_-_;_>_,_'_)_!_~_[$Y/D$4*{_<$]_h-o;^_/_(____&F$H$X$;*:_E$l$E$(&X&d&i-8/<_[_}_#-3~|_1_b=2_j]:*[-3_4_5_6_7_8_9_0_a_b_c_5***n;v->>L=o;^_d_e_f_7%K>D$+%b%a%E$-*s$t$#$u$v$w$x$y$z$V@A$^@^@B$C$",
"i*j*f$w@Q#Q#k*)$M$N$O$]$=)n*Q$K$g_/&c&{%X&L>8/h_i_j_k_9~h{ %v-J>l_m_n_o_p_q_r_s_t_u_v_w_x_K$J)z^g{F,U*`,y_z_A_B_C_A&R)D_@]l$E$l$k$+%J$Z*&&T{ _E_F_o/G_3(4%H_A^I_J_K_&%L_M_N_O_P_Q_R_S_T_j;/=U_V_n%W_X_Y_Z_z_)&`_ :P=<%g,a%a%@%l$-*s$t$#$u$v$w$x$y$z$V@A$^@^@B$C$",
"i*j*f$w@Q#Q#k*)$M$N$O$]$=)n*Q$/$.:.:k$%&+:@:#:4-$:%:w~&:{]X&&%*:=:-:W=;:>:,:':):!:~:{:]:e,_'K&^:/:(:*&_:u';&u(::E%'%:_<:[:X$`$2>!-0=E$M)+:}:C(|:1:2:3:4:z&f%4%A&=(5:6:7:8:9:0:a:b:c:d:e:f:F&g:h:o;;=Y&4([*)&i:::}%B~@]b).%j:M%D$-*s$t$#$u$v$w$x$y$z$V@A$^@^@B$C$",
"i*j*f$w@Q#Q#k*)$M$N$O$]$=)n*Q$/$k:T;m$l:a]W^i%n{m:n:o:p:&(q:r:s:t:u:s%v:w:x:y:z:A:B:C:D:E:F:G:n^1/_:H:I:^_T%J:K:&%X$:$1-n;;*D$<*!-O=0=M)L:$(M:N:O:P:o:l/Q:K&A%I&R:1~S:T:U:V:W:X:Y:Z:`: <.<+<@<Z(`,_:I:I:[*#<$<%<F$;*:$n;;*X$Y$H$-*s$t$#$u$v$w$x$y$z$V@A$^@^@B$C$",
"i*j*f$w@Q#Q#k*)$M$N$O$]$=)n*Q$/$k:i$<$l:&<*<6=K&=<-<;<><,<u%'<r:S$ %(-)<!<~<{<]<^</<(<_<:<r!<<i%u' (v([<#<B_}<4~V$E$1-|<E$g,1<5*/&/&+%.$2<3<h!4<]-m:5<6<7<8<+)_>N{Y#7%9<0<a<b<c<d<e<f<g<h<F(i<e(j<k<v([<T%l<$<&&<%b)b)m<g,E$D$`$5$s$t$#$u$v$w$x$y$z$V@A$^@^@B$C$",
"%)j*w@&)Q#Q#k**)M$N${$l*m*n*Q$/$.:g_:$o$n<o<d&i%%(p<q<r<s<t<u<v<w<x<3-Y_y<z<A<B<C<D<E<F<$&(>G<H<k] (I<#<H:J<(:K<l$:$:$:$:$l$D$<*f*/&L<l:M<X&Z(Y&N<O<P<Q<R<S<T<U<V<5$L=9/W<X<Y<Z<`< [.[+[@[_~#[D$I%x/.*T%$[%[=%*%l$:$:$:$:$E$H$H$5$s$t$#$u$v$w$x$y$z$V@A$^@^@B$C$",
"%)j*w@&)Q#Q#k**)M$N${$l*m*n*Q$K$g_p*_$m$!!&[W=Z(*[=[3=-[;[>[,[=[$]'[Y_u')[![~[{[][^[/[([6/e*_[:[<[|*[[/_}[|[1[m;:$:$}$:$:$l$D$<*/&l%L<L<D$F$o<D/d&2[3[[*4[5[6[7[8[9[0[a[b[c[d[e[f[g[J$h[i[j[k[2~),l[m[^_n[o[h%t(:$:$}$:$:$E$H$H$5$s$t$#$u$v$w$x$y$z$V@A$^@^@B$C$",
"%)j*w@&)Q#Q#k**)M$N${$l*m*n*Q$K$:%:%!-!-l$|_p[o<q[U&r[s[t[u[v[w[x[y[z[A[B[C[D[E[F[G[H[I[J[K[L[M[N[g&O[P[`/G:Q[R[:$:$}$:$:$l$D$D$k$k$k$k$l$|_S[&[2~t!T[U[V[W[X[Y[Z[`[ }~,.}+}@}#}$}%}m-&}*}=}4>-}h&;}>},}i:'}^%J$:$:$}$:$:$E$H$H$5$s$t$#$u$v$w$x$y$z$V@A$^@^@B$C$",
"%)j*w@&)Q#Q#k**)M$N${$l*m*n*Q$K$:$:%!-g_/&l$n<)}a&&*!}k-~}{}]}^}/}(}_}:}<}[}}}|}1}2}3}4}5}6}7}8}n[9}0}`^A*a}b}c}:$:$}$:$:$l$l$D$m$l$l%/&l$o$d}l:e}>*g%i%f}g}h}i}j}k}/!l}m}n}o}p}q}r}s}t}u}v}w}x}y}z}A}B}i%C}D}E}:$:$}$:$:$E$E$J$5$s$t$#$u$v$w$x$y$z$V@A$^@^@B$C$",
"%)j*w@&)Q#Q#k**)M$N${$l*m*n*Q$K$:$:$_$!-.:l%L<!!Y$l;&_,%7/F}G}I{H}I}t%J)J}K}L}M}N}O}P}Q}r'K&W^*<R}S}2-T}d&{]^%X>l$:$:$:$:$l$l$L$|_L$l%/&_$<$a=%_B/l%U$A(U}V}G_W}i[X}Y}j$Z}`} |.|+|@|#|v($|%|&|*|m;}%y=n%n%7%A&H$m$<$<$<$<$G$G$J$5$s$t$#$u$v$w$x$y$z$V@A$^@^@B$C$",
"%)j*w@&)Q#Q#k**)M$N${$l*m*n*Q$K$:$:$_$!-g_g__$l$G$R$t*{%=|-|&%&_]&5*_%v#;|>|,|'|)|!|~|{|]|`$`*}'5$X>^|C--%4%^%s*l$:$:$:$:$:$l$L$|_L$l$k$_$:$<$<$:$E$o$/|(|_|`^G_>!:|']:!<|[|/[}|||1|2|3|4|5|U$:_W$3-F$@)z-A&}%&%m$<$<$<$<$I$G$J$5$s$t$#$u$v$w$x$y$z$V@A$^@^@B$C$",
"%)j*w@&)Q#Q#k**)M$N${$l*m*n*Q$K$:$:$_$_$p*g_k:.:n;g*5$|_X>%&|_8~g{^|n,6|7|8|-(9|0|a|b|c|u*T~d|e|1-f|g|s*h{g{h{;%l$l$:$:$:$:$l$D$L$L$o$m$:$p*g_p*h|;;i|j|k|e=e'l|m|}%n|o|p|q|r|s|t|u|v|w|7/A&x|y|$&z|R$t,P=g%A|&%m$m$<$<$<$I$G$G$5$s$t$#$u$v$w$x$y$z$V@A$^@^@B$C$",
"%)j*w@&)Q#Q#k**)M$N${$l*m*n*Q$K$:%_$:$:$<$_$.:.:1-1$p$J$c&f=x=6$;=J}`#B|C|D|I-E|F|G|H|I|J|=*K|']j$g,]_L|#%2~J}S$m$m$<$:$_$l%l$D$<*F$Z*!!o$_$.:M|<$N|%_g*L$H_A({{%-X>O|P|Q|R|S|T|U|V|W|X|M;-;Y|Z|W!t-H$'%'%K>#)H-l$l$:$:$:$E$g*g*5$s$t$`|u$v$ 1x$y$z$V@s@^@^@B$C$",
"d$e$f$w@Q#'$g$h$!$~${$]$^$W#Q$K$p*:%m$!!l:.1|$<$|<_$/&t&s:+1d=;=F%9%@18]#1$1%1&1*1=1-1;1>1,1e}l%t&#&%&%&c&c&E$-*<$|$L<m$f*t:D$D$t&s&Z(W^D/W=l%.:'1)1!1~1i|E)3~H_l$r$W!{1]1^1/1(1_1:1<1[1}$}1_>|111B-9%B~D$ %21c=_$g_/&/&/&5*.$315$A^t$`|u$4151T@61V@X@s@^@^@B$C$",
"d$e$f$w@'$'$g$h$!$~${$]$^$W#Q$K$g_p*m$!!S[n<d}%_g,71819101a1b1Z(j]m%Q$c1d1e1f1g1h1i1j1k1l1F}H-5*4*m1*,:*#[-;:_@=|$|$m$k$t&t&D$<*t:A-&&n1o1W^<*.:p1q1Y$r*.$E)r1s1|{/&t1u1v1w1x1y1z1A1B1(:C10=E%D1E1=(4*L*H-o$c)|$_$g_f*f*t&H$.$315$A^t$`|u$4151F161V@X@s@^@^@B$C$",
"d$e$f$w@'$'$g$h$!$~${$]$^$W#Q$/$.:g_k$m$L<.1.1o$G1H1m1I1J1K%C-#)K15,L1M1N1O1P1Q1R1S1T1D-U1P=$&L)*,f;V1W1j%R)D$S$L<m$f*f*o$!!<*X1Y1/&L$&[&[M<<*/&Z1g_@]`1 2{].2+2@2#2$2%2&2*2=2-2;2>2,2@)p*'2e*3:)2:|D;!2C~~2Y$a%m$l$Y1Y1k$(&.$(&5$A^t$`|u$4151F161V@X@s@^@^@B$C$",
"d$e$f$w@'$'$g$h$!$~${$]$^$W#Q$/$.:.:g_k$<$o$o$|_A'n%G}G&&-P%C-L=e={2]2^2/2(2_2:2<2[2}2|212k]22,;`^32K_42&&52F,g|L$k$Y1/&L<.1k$f*.:!-<$%_%_m$k$t&6272&&v<G/2[829202a2b2c2d2e2f2g2h2i2j2N:W1k2l2:~m2n2%*#-o2M)b&j;L$l$f*f*m$g*g*g*-*A^t$`|u$4151F161V@X@s@^@^@B$C$",
"d$e$f$w@'$'$g$h$!$~${$]$^$W#Q$/$.:d'.:g_:%:$L$&&*[u(),p2q2r2h&s2t2u2v2w2x2y2z2A2B2C2D2E2F2G2H2I2J2K2L2M2b1N2X&B~X1X1l%l$<$<$:$_$!-:%<$}'<$:$l%s&O2Q:P23>Q2R2S2T2U2V2W2X2Y2Z2`2 3.3+3@3#3$3%3&3*3=3-3;3v%f%_>6*l;c&<*k$l$<$I$I$G$-*A^t$`|u$4151F161V@X@s@^@^@B$C$",
"d$e$f$w@'$'$g$h$!$~${$]$^$W#Q$(>/&f*.:g_p*_$F$i%w/>3,3'3)3!3~3{3]3^3/3(3_3:3<3[3}3|3132333435363738393p&03!{a3A&}>t:<*m$:$:$<$<$:$:$S]S]}$:%l%e*+)b3c3d3e3f3g3h3i3j3k3l3m3n3o3p3q3r3s3t3u3v3w3x3Y=e3S%x%q&y3z3H&A-c&|_L<|$I$I$I$-*A^t$`|u$4151F161V@X@s@^@^@B$C$",
"d$e$f$w@'$'$g$h$!$~${$]$^$W#Q$j$c&l%p*p*p*_$E%K&A3B3C3D3E34:F3G3x=0(6-H3I3J3m^K3L3<:>~I>M3}~F3N3O3P3Q3R3u%S3'}_&W1A-c&k$:$:$<$|$o$|$S]}$o]p*c&6=T3U3V3W3<[X3Y3Z3`3 4.4+4J:@4#4$4%4&4*4=4-4;4>4,4'4)4P<r%!4~4{4]4^4s&!!d}|$I$E$E$-*A^t$`|u$4151F161V@X@s@^@^@B$C$",
"d$e$f$w@'$'$g$h$!$~${$]$^$W#Q$j$D$D$:%:%:%k$z&.*/4(4_4:4T,%:<4[4}4t&|4142434<^f(s(44t:54!2H&N=647484v*94a*W;04a4b4W1:*<*k$:$<$|$!!|_<$:%o]g_e*%:c4d4'3e4f43*92g4}/h4L(i4j4b)L<k4l4~-m4n4o4p4q4r4s4t4z_7(u4v4w4x4#/W1M<S[.1g*N{+%;*A^t$`|u$4151F161V@X@s@^@^@B$C$",
"d$e$f$w@'$'$g$h$!$~${$l*^$W#Q$#{L$>>C>n,|<H$x%+*y4K2z4],s4A4B4C4D4E4F4}=G4H4k|I4J4(%K4L4M4N4O4P4Q4R4S4T4-<U4V4W4b4{!H_`$5,j$`#h*X4+:Y43-p*U,Z4`4,2 5E>.5w%(-+5@5#5$5%5&57~*5=5j$m$-5S)d&;5>5,5,['5)5$*!5~58<p:{5]5E%Z*l:d};;^5$&;*A^t$`|u$4151F161V@X@s@^@^@B$C$",
"d$e$f$w@'$'$g$h$!$~${$l*^$W#Q$#{,,h*h*/5J4(5_5:5<5[5}5|5u'152535455565758595g%05~2e'a5b5c5d5e5f5g5h5i5I%j5O:k5l5x4f;A&F$E$:$3$m$0(3(:_m5p*n5y%o5p5q5r5=&s5t5B2u5v5w5x5y5z5A5B5V^'%I-t;C5D5E5F5G5H5P4I54:J5z_j_K5F3f%A'/=L5;;^5R:;*A^t$`|u$4151F161V@X@s@^@^@B$C$",
"d$e$f$w@'$'$g$h$!$~${$l*^$W#Q$#{p$i|.~M5l:^;N5O5P5Q5Z4^%R5S5T5U5V5W5X5Y5Z5`5 6.6o<+6@6#6$6%6&6*6=6-6;6A%>6,6p2N:x4;!'69%)6!6N{~6o;*&<*!--;@<v(U3{6]6`,-%^6/6(6m[_6:6<6[6}6|6}{9]{]162636465666=6=6768622~{96w~p:K_k)8%/=!6h*N{5,;*A^t$`|u$4151F161V@X@s@^@^@B$C$",
"d$e$f$w@'$'$g$h$!$~${$l*^$W#Q$#{l$g*06|-S)D(a6b6c6)*l%U$16d6e6f6g6h6i6j6k6l6r&+:M<m6n6o6p6q6r6,-s6t6u6@&v6w6,6x6y6z6A6C-05w<~!B6/*A%5*!-2>n%C6~,|'D6>%U$+$E6F6G6H6I6J6K6L6M68=9(N6i,O6P6Q6R6S6T6U6V6W6|%E/B(}5k50/X6y=+:31g*+%5,;*A^t$`|u$4151F161V@X@s@^@^@B$C$",
"d$e$f$w@'$'$g$h$!$~${$l*^$W#Q$U,0=+%`*s$Y6Z6`6 7.711p*~2+7@7#7$7%7&7*7=7-7;7>7&,,7#_'7)7!7~7{7]7^7/7(7_7:7<7[7}7|7179~o<27m$.'B64*L%l%r$R$`,374757U<6777$(879707a7b7c7d7e7f7q'g7h7i7j7k7l7m7n7o7p7q7r7/%:7s7t7Q:34u7y=(|.$m$+%+%;*A^t$`|u$4151F161V@X@s@^@^@B$C$",
"d$e$f$w@'$'$g$h$!$~${$l*^$W#Q$X#K| ;n;/=v7N)w7x7y7z7A7B7C7D7E7F7G7H7I7J7K7L7M7m!M74;N7O7P7Q7R7S7T7U7;' /X4V7`(y%W7@-G/@:]]2>f*Y1#&5*j$X7%&Y7Z7`7 8.8+8{_@8#8$8%8&8*8=8-8;8>8#=M;W^,8'8)8!8~8{8]8^8/8(8D$K*_8s7H>:8346=Z(Z*L$E$+%;*A^t$`|u$4151F161V@X@s@^@^@B$C$",
"d$e$f$w@'$'$g$h$!$~${$l*^$W#Q$Q$<8[8|{M)}8|818283848586878889808a8b8c8d8e8N]f8g8X#o4h8i8j8k8l8m8n8o8p8-;q8r8s8(*t8Q:`,;=M)D$B6-^~65,F<Y#S$u8v8w8x8y8'1b)z8A8B8C8D8E8F8G8H8I8J8K88%<~L8M8N8O8P8Q8R8S8T8+%U8V8W8G_X8@-K_r:Z*!!l$+%;*A^t$`|u$4151F161V@X@s@^@^@B$C$",
"d$e$f$w@Q#'$g$h$!$~${$l*^$W#Q$Q$*;Y8J>j-Z8`8 9.9+9f{4$@9#9$9%9&9*9=9-9;9>9,931'90=)9!9~9{9]9^9/9(9_9:9N%<9=|@&[9H:}9|96=L*+%~619l%!-E!g,_|293949+&59F<@=6979899909a9b9c9d9e9Y$j4t,f9g9h9i9j9k9l9m9n9o98>p9q9C/z&t4r9k5G(%&!!L$E$-*A^t$`|u$4151T@61V@X@s@^@^@B$C$",
"i*j*f$w@Q#Q#k*)$!$~${$]$m*n*Q$(>/&t&F$p{s9t9u9v9M=]_O]w9x9y9z9A9B9C9D9E9F9G9k)`^j%J~H9I9J9K9L9M9N9=!O9P9l$p$;*y=Q9R9S9_*T9U9:$q$V9W9E$E)X9Y9Z9`90= 0.0|-i-+0@0#0$0%0&0*0=0-0m!*|;0>0,0'0)0!0~0{0]0^0/0.'.%-*%_*<(0_0:091r$n,A^/|5$s$t$`|u$v$ 1x$y$z$V@s@^@^@B$C$",
"i*j*f$w@Q#Q#k*)$!$~${$]$m*n*Q$j$5,1=m;<0[0}0|010X1V<q820304050~)6070809000a0^46=2~b0c0d0e0f0g0h0i0j0A5x|!-3$C>3~k0l0m0n0o0p0u]c)>%W9H$0(q0r0s0t0&,w#u0v0q:w0x0y0z0A0B0C0D0E07*]]F0G0H0I0J0K0L0M0N0[@O0']=55,P03<Q0R0S0t:o*E$!!'9c=s$t$#$u$v$w$x$y$z$V@A$^@^@B$C$",
"i*j*f$w@Q#Q#k*)$!$~${$]$m*n*Q$j$+=9($)T0U0V0W0X0V^Y0Z0`0 a.a+a@a#a$a%a&a*a:-V>s,L$=a-a;a>a,a'a)a!a~a{aP9_$4$5$+:]a^a/an09='1I$c)S$1<;*W=(a_a:a<a!-_!|-[a9[}a|a1a2a3a4a5a6a7a /_&~]8a9a0aaabacadaeafaa0.'ga5,P03<haia*(ja!-;*.$m^c=s$t$#$u$v$w$x$y$z$V@A$^@^@B$C$",
"i*j*f$w@Q#Q#k*)$!$~${$]$m*n*Q$j$+=0%5$kalamanaoapaqak4rasatauavawaxayazaAaG9']+%K<BaCa^{DaEaFaGaHaIaM'P9_$2$5${{JaKaLak5Mai$I$c)v-:_E$W=NaOaPaQaf=o$c=C/RaSaTaUaVaWaXaYaZa`a8!r% b<'.b+b@b#b$b%b&b*b>8N]X#b%%_3<=b-b;bS;0=E$|_>b5$s$t$#$u$v$w$x$y$z$V@A$^@^@B$C$",
"i*j*f$w@Q#Q#k*)$!$~${$]$m*n*Q$j$=*0%C>,b'b)b!b~ba{qa%_d}3|{b]b^b/b(b_b:b<b[b}bg8'}|b1b2b3b4b5b6b7b8bt>19:$1$1{{{9b0babk5t:(>I$L<c=@=E$X&bb_acbdb{&E)m;L=ebfbgbhbibjbkblbmbnbA%obpbqbrbsbtbubvbwbxbybzb!-o*;*%_D/AbBbCb.'(>r$U$C~5$s$t$#$u$v$w$x$y$z$V@A$^@^@B$C$",
"i*j*f$w@Q#Q#k*)$!$~${$]$m*n*Q$j$c&<*G$H~DbEbFbGb#&Hb_!%_3|IbJbKbLbMbNbOb]1Pbs(QbRbSbTbUbVbWbXbYbZb`b c~6m$c).c{{+c@c#ch) //&G$L<h*1$:$e=$c%c&c*c(-e={%h{v>=c-c;c>c,c'c)c!c~cy=Q}{c]c^c/c(c_c:c<c[c}c !!-Y#C>L<}:|c1c2c.'g__$X>C~5$s$t$#$u$v$w$x$y$z$V@A$^@^@B$C$",
"i*j*f$w@Q#Q#k*)$!$~${$]$m*n*Q$j$]&#[N{3c4cN(5c6cB%%_}$<$7c8c9c0cacbcccdcecfc-5gchcicjckclcmcncocpcqc*;-;o$rc#_v6sctcucvcwcl%m$L<a=g8n$4~xcY9yczcAc@_9(H$#(BcCcDcEcFcGcHcIcJcga.1KcLcMcNcOcPcQcRcScTcW#!-Y#C>M<r4UcVcI>.'g_b%H$#)5$s$t$#$u$v$w$x$y$z$V@A$^@^@B$C$",
"i*j*f$w@Q#Q#k*)$!$~${$]$m*n*Q$j$f=5,:%N|i(WcXcYc{&g*N{E$m^C#Zc`c d.d+d@d#d$d%d&d*d=d-d;d>d,d'd)d!d~dM7a%|_&|:7v6{d]d^dH}l;2>m$o$a=g8X$^%/d(d_d:d<dl!-;N{.1[d}d|d1d2d3d4d5d6d7dn,8d9d0dadbdcdddedfdgdhd!-Z#5$0(`'id)4jdkdU,0=D$F$5$s$t$#$u$v$w$x$y$z$V@A$^@^@B$C$",
"i*j*f$w@Q#Q#k*)$!$~${$]$m*n*i$j$t&l%}$ld2<mdndod,<<*:$n,pdqdrdsdtdudvdwdxdydzdx4f;M;AdBdCdDdEdFdGdHd/$@%k|U}IdJdw(Kd6:q^*,F$R[1><^h*H$g{Q}LdMdNdI<9~R:K$OdPdQdRdSdTdUdVdWdXd.:(%o<i4YdZd`d e.e+e@e#ed'$en,Z'%e&e*e=e-eN%;eU,R$B~5$s$t$#$u$v$w$x$y$z$V@A$^@^@B$C$",
"i*j*f$w@Q#Q#k*)$!$~${$]$m*n*i$(>X1l%}',~!6i->e,e2:11<$_!D$27'e)e!e~e{e]e^e/e(e_e:e<em$[e}e|e1e2e3e4eA~j:L=<)5e6ez&7eH&{!A&#)L$q$c)(&m;g{D/8e9e0eae7%~!beS]h(cedeeefegeheieK$jekelemeneoepeqereseteueve}1u]wexeC6yezeL*Ae@%q*D$>%5$s$t$#$u$v$w$x$y$z$V@A$^@^@B$C$",
"i*j*f$w@Q#Q#k*)$!$~${$]$m*n*i$(>t:c&a=,~<$h{BeCeDeEeo$L3J>V$FeGeHeIeJeKeLeMeNeOePeQeReSen1Te`#}b3$#=:%a%UeVeWeXeYeZe>*,)A'`e fm$p$(&m;g{M<N6w'.f+ff;/$0=:$6#@f#f$f%fTeu!c=&f*f=f-f;f>f;|a=,f'f}'n;)ff,!fh*F}~f{f]f^f`$W$+%#{`$&%5$s$t$#$u$v$w$x$y$z$V@A$^@^@B$C$",
"i*j*f$w@Q#Q#k*)$!$~${$]$m*n*i$(>P9c&S[/f:%H$(f_f:f<f#)%_ =~6,([f}f~(|f1f2f3f4f5f6f7f8f9f0fZ(-*I$`*<$q*m,Y&afbfX=cf^&-;5*X&4;Y0:$q$J$m;%&m$L=dfL{efH}/$5,0=_^L(ffv0h-F&gfhfifjfkflfmfnfofb4J)n;b)g*@].:g_h*v>pfw[qfrfl$G$E$_$`$R$5$s$t$#$u$v$w$x$y$z$V@A$^@^@B$C$",
"i*j*f$w@Q#Q#k*)$!$~${$]$m*n*i$(>B6s&*<sf($I$8/tfufvfz-G$X1f*_!f8`$0=q'wfxfyfzfAfBfCfDfEfFf=*L$1{27V=#{J>y_GfHf 8If19n!D_^=W=G$r$X$H$M)L$N{(&(fJfKf0f/&g__'(>a=I4;0*&LfMfNfOfPfQfRfSfTfUfVfs4b%r^31V<.'&,.$WfXfYfZfU;m$5$:$:$;*R$5$s$t$#$u$v$w$x$y$z$V@A$^@^@B$C$",
"i*j*f$w@Q#Q#k*)$!$~${$]$m*n*i$(>19s&Y&A([$}'`f g.g+g@g<*X1O=E$:$#g$g%g&g*g=g-g;g>g,g'g)g!gb%F$X_~g.$@%{gu'J2]g^gA-=51~<:[a'9C>($_$l$(&g*A~I$/g(g_g:g8!f{<gv~E$[gS)a3M2}g|g1g2g3g4g5g6g7g8g9gb)4$&<0g/&19~g:'agbgcg.'-*p$`#n$;*J$5$s$t$#$u$v$w$x$y$z$V@A$^@^@B$C$",
"i*j*f$w@Q#Q#k*)$!$~${$]$m*n*i$j$kds&z%e'N|I/3<dgegfgggP9B>k$0=0=@%r$$&hgigjgkglgmgngogpgqgrgM%r:(|sgB/tg0*ugvgwg4,xgg_1-U]a]2$:%!-k$.$g*!-<$ygzgAgBgCgs&@[Ee4*C~&[/|:$DgEgFgGgHgIgJgKgLg38E)Mg}'NgOgPg =#_QgRgSg#/_'n,j|_!2$G$J$5$s$t$#$u$v$w$x$y$z$V@A$^@^@B$C$",
"i*j*f$w@Q#Q#k*)$!$~${$]$m*n*i$K$f{c&22g{.;I/&[TgUgVgWgXg1='%!2]&E$<$:$YgZg`g h.h+h@h#h$hi|F!%hG(o4_|9%!2&hVc*h],T~ ;=h{_&[-hi)N{!-_$g*g*!-<$;h>h,h'hQ&&-)h!h3:7%%&g*A^~h{h]h^h/h(h_h:h<hB%W_[hI$}h|he*W1_|D21h2h3h4hn,p$C><$m$X>5$s$t$#$u$v$w$x$y$z$V@A$^@^@B$C$",
"i*j*f$w@Q#Q#k*)$!$~${$]$m*n*Q$K$p*!-k$m$|$%_&[W^5h6ho[x%i:7hD1G&q$4$u]3^8h9h0hahbhchdhh|i|ehv'>*u'2/fhe3Z_gh'}hhD$_$:$<$o$|_m$l$_$_$<$<$:$m$3<o1R5ihjhY7khlh|*x%mhc&|-nhohphqhrhshthuhs^~gX>n5B>vhwhU1y%4>xhyhzh#&l%l$m$l$E$E$G$5$s$t$#$u$v$w$x$y$z$V@A$^@^@B$C$",
"i*j*f$w@Q#Q#k*)$!$~${$]$m*n*Q$K$p*p*:$:$o$|_!!*<Ahr[3[BhChS%DhD1G:1[3;Og`0EhFhGhHhIhk~=|L=Jhm1U&KhLhMh[&,}C}Nh %m$m$<$<$m$m$L$l$:$:%:$:$m$L$|_M<OhPhQhB(RaRh6hT,ShI{v=ThUhVhWhXhYhZh`h io4f;.ia4[<+i@i'3`_y}~%/%<*<*l$l$l$E$E$G$5$s$t$#$u$v$w$x$y$z$V@A$^@^@B$C$",
"i*j*f$w@Q#Q#k*)$!$~${$]$m*n*Q$K$p*p*:$:$o$|_!!W=j-N<#ixh$i%ie3&i*i=iT%-i;i>i,i'i)i!i~i{i]iK[^i/i(i_iv(:io;1[<iR[m$m$<$<$m$m$L$l$:$_$:$:$m$L$|_Z*+:o4[iO<}i|i1iDh2i3i4i5i6i7i8i9i5i0iaibicidieifigihiiiji0}1%A|'%<*<*l$l$l$E$G$G$5$s$t$#$u$v$w$x$y$z$V@A$^@^@B$C$",
"i*j*f$w@Q#Q#k*)$!$~${$]$m*n*Q$K$p*p*_$:$m$o$!!M<ki^6liY&minioipiqi6}risitiuiviviwiuixiyiziAiBiCiDiEiFiK&{]GiR[]_m$m$<$<$m$m$L$D$_$_$:$:$m$m$|_Z*x=Hij-IiJivh4($iv(P&^:KiLiMi}9NiOiPiQiRiSiTiUiWeVi-[jiWi3%GiXiF$<*<*l$l$l$E$G$G$5$s$t$#$u$v$w$x$y$z$V@A$^@^@B$C$",
"i*j*f$w@Q#Q#k*)$!$~${$]$m*n*Q$K$!-!-_$:$m$m$|_Z*.cC/o2@_3%e&YiQ&6=&(&(q%l|l|e'Z(M39~f%';<!,<w~]f(-z%Zif%r1&%Xi:_:$:$:$:$l$l$D$D$_$_$l$l$m$m$|_Z*Z*R}d=v<Ue`i j.j+j@j#j$j%j&j*j=j-j;j>j,j'j)j!j~j{j]j^jJ)4~2~Z$`$k$k$l$l$l$E$G$G$5$s$t$#$u$v$w$x$y$z$V@A$^@^@B$C$",
"i*j*f$w@Q#Q#k*)$!$~${$]$m*n*Q$K$!-!-_$_$l$m$|_|_!!E)8~g{h{h-z-,%B~R$R$D$H$;*;*E$X$a%.%9(c&$&m%V,t!Jh[%O%{%<%D_W$:$:$:$:$l$l$D$D$k$_$l$l$m$m$|_|_$)8~E)`e/jR}e=.c(jI4_j:j^[^[m4<j,(;;<(a=b=<j[j}j|j1j4~C-2~XiV$R)k$k$l$l$l$E$G$G$5$s$t$#$u$v$w$x$y$z$V@A$^@^@B$C$",
"i*j*f$w@Q#Q#k*)$!$~${$]$m*n*Q$K$!-!-_$_$l$l$m$L$e((&$)%&;%{%{%'%'%{%F$&%&%5*9(J>t*2jc&>*){1=j%j%{%z-3j%%D$E$B'n$:$:$:$:$l$l$D$D$l$l$l$l$l$l$m$m$R[R[X>T$G1#)t(R$z~.:_$|$I=4jQbx<a=g82$n$r$_$E$;*F,L|<iH-Y$5j6jb%k$k$l$l$l$E$G$G$5$s$t$#$u$v$w$x$y$z$V@A$^@^@B$C$",
"i*j*f$w@Q#Q#k*)$!$~${$]$m*n*Q$K$!-!-_$_$l$l$m$m$$)U$ %J$`$V$R)D$J$L$L$R$9(2>=*#[j;Pgc&m,5*R$D$)%Y$1<%%e};*1-z(E$:$:$:$:$l$l$D$D$l$l$l$l$l$l$m$m$q$7jq$S$S$X>Y0B><-r7=;c&]%1{.127h*$)b)=*kdpaQ,T~W$X>S$D_5j<:8j@%k$k$l$l$l$E$G$G$5$s$t$#$u$v$w$x$y$z$V@A$^@^@B$C$",
"i*j*f$w@Q#Q#k*)$M$~${$l*=)9ji$p*0=l%k$k$l$l$l$l$m$m$m$l$l$l$l$m$|$}'}'<$:$:%!-!-!-!-:%:%:$<$<$<$l$l$l$l$:$:$:$:$:$:$l$l$l$l$D$D$X$X$X$X$X$X$X$X$l$l$l$l$<$m$<$<*A-#/W1r:&&Z(W=0(X&d&E%r:j]r:j]j]l$m$:$l$l$k$k$k$k$k$l$l$l$E$G$G$5$s$t$#$u$v$w$x$y$z$V@A$^@^@B$C$",
"i*j*f$w@Q#Q#k*)$M$~${$l*=)9ji$!-!-l%k$k$l$l$l$l$m$m$l$l$l$l$l$<$}'%_}'<$:$:%_$!-!-!-:%:$<$<$}'}'<$l$l$l$:$:$:$:$:$:$l$l$l$l$D$D$l$l$l$l$l$l$l$l$l$l$:$:$<$<$<$l$#&e*j]E%E%&&&&&&&&&&E%E%E%E%E%%&m$:$:$:$k$k$k$k$k$k$l$l$l$E$G$G$5$s$t$#$u$v$w$x$y$z$V@A$^@^@B$C$",
"i*j*f$w@Q#Q#k*)$M$~${$l*=)9ji$!-!-l%k$k$k$k$k$k$l$l$l$l$l$l$l$m$|$%_o$m$l$k$<*<*<*<*l$l$m$o$%_|$<$:$:$:$:$:$:$:$l$l$l$l$l$l$D$D$l$l$l$l$k$k$k$k$k$k$k$k$:$:$:$:$:$:$:$:$:$:$:$:$:$:$<$<$<$<$<$<$<$:$:$_$k$k$l%l%<*<*l$l$m$m$G$G$5$s$t$#$u$v$w$x$y$z$V@A$^@^@B$C$",
"i*j*f$w@Q#Q#k*)$M$~${$l*=)9ji$!-j$-;k$k$k$k$k$k$l$l$l$l$l$l$l$l$o$o$m$L$D$D$<*:*:*:*D$D$L$o$o$|$:$:$:$:$:$:$:$:$l$l$l$l$l$l$D$D$X$X$X$X$a%a%a%a%k$k$k$k$:$:$:$:$<$<$}$}$}$}$}$}$<$<$}'}'<$<$<$<$:$:$_$k$k$k$l%l%<*<*l$l$m$m$G$G$5$s$t$#$u$v$w$x$y$z$V@A$^@^@B$C$",
"i*j*f$w@Q#Q#k*)$M$~${$l*=)9ji$!-j$-;l%0=0=0=+%k$k$k$<*<*<*<*D$l$:$:$:$l$k$<*<*<*<*<*l$l$l$<$<$:$:$k$k$k$k$k$k$k$k$k$k$k$k$k$k$l$E$G$E$E$+%+%0=0=l%l%k$k$l$l$l$:$<$<$<$<$<$}'}'%_a=a=%_%_}'<$:$:$_$_$k$k$l%c&c&c&5*5*H$D$m$G$I$I$5$s$t$#$u$v$w$x$y$z$V@A$^@^@B$C$",
"i*j*f$w@Q#Q#k*)$M$~${$l*=)9ji$!-j$l%0=0=5,5,+%+%+%+%5*5*5*5*H$E$+%A~0=+%+%+%5*5*5*5*+%+%E$+%N{+%+%+%+%+%+%+%+%+%+%+%+%+%+%+%+%+%-*-*;*;*b%b%5,5,0=0=+%+%E$E$E$E$I$I$I$E$E$E$I$I$g*g*g*g*I$E$+%+%+%+%+%+%=*=*=*=*m,m,H$H$G$G$I$I$5$s$t$#$u$v$w$x$y$z$V@A$^@^@B$C$",
"i*j*f$w@Q#Q#k*)$M$~${$l*=)9ji$!-!-l%0=5,$&$&5,5,#[#[m,m,m,m,&%m,5,&,&,5,5,5,m,m,m,m,b%5,b%5,X!5,b%m,m,m,m,m,m,m,m,m,m,m,b%b%b%b%-*-*;*;*b%b%#[#[#[#[#[#[m,m,`$`$-*-*;*5,+= ;C'C' ;+=5,5,b%5,5,5,b%b%b%b%#[#[>*>*L*L*`$`$-*-*C>C>5$s$t$#$u$v$w$x$y$z$V@A$^@^@B$C$",
"i*j*_#w@}@'$g$h$0jajbjcjP$dj_'g_!-0=5,$&$&$&$&5,#[#[#[#[m,m,m,#[&, ;&,&,5,5,#[#[m,#[5,5,5,5,&,&,5,#[m,#[m,#[m,#[m,#[m,#[b%5,b%b%E$E$+%+%+%0==*=*#[#[#[#[#[m,m,`$;*;*b%+= ;Y8Y8Y8Y8C' ;+=+=5,+=+=5,5,b%5,#[#[#[>*m%',',m,;*;*;*;*-*A^t$#$8$v$w$x$y$z$V@s@^@B$ejfj",
"gjhjn#P#ijjjo.kjljmjnjojpjqj*;.'R:7*7*7*7*7*7*7*7*7*7*7*$&$&$&7*7*7*7*7*7*7*7*7*$&7*7*7*7*7*7*7*7*7*$&7*$&7*$&7*$&7*$&7*$&7*$&$&$&$&$&$&$&7*7*7*7*7*7*7*7*$&$&$&$&$&$&7*7*Q,Q,Q,Q,Q,7*7*7*7*7*7*7*7*$&7*7*7*7*7*7*$&$&$&$&$&$&$&@%v-rjsjtjv$ujvjwjxjyj^@ejzjAjAj",
"BjCjDjx@ijEjFjkjGjHjIjJjKjLjMjNjB|8181818181818181818181818181818181818181818181818181818181818181818181818181818181818181818181818181818181818181818181818181818181818181818181818181818181818181818181818181818181818181818181:!M%OhOjPjQjRjSj61o@X@^@ejTjAjAj",
"UjVjDjx@ijjjg$A@WjXjYjZj~c`j k.k+k+k+k+k+k+k+k+k+k+k+k+k+k+k+k+k+k+k+k+k+k+k+k+k+k+k+k+k+k+k+k+k+k+k+k+k+k+k+k+k+k+k+k+k+k+k+k+k+k+k+k+k+k+k+k+k+k+k+k+k+k+k+k+k+k+k+k+k+k+k+k+k+k+k+k+k+k+k+k+k+k+k+k+k+k+k+k+k+k+k+k+k+k+k+k+k@k#k$k%k&k*k=kI!U@-kX@K#B$B$B$B$",
";k,$n#>k,k[#k*p#'k)k!k~k{k]k^k/k(k(k(k(k(k(k(k(k(k(k(k(k(k(k(k(k(k(k(k(k(k(k(k(k(k(k(k(k(k(k(k(k(k(k(k(k(k(k(k(k(k(k(k(k(k(k(k(k(k(k(k(k(k(k(k(k(k(k(k(k(k(k(k(k(k(k(k(k(k(k(k(k(k(k(k(k(k(k(k(k(k(k(k(k(k(k(k(k(k(k(k(k(k(k(k(k_kG5:k<k[k}k|k1k2k-k3kO+^@s@A$4k",
"5k6k>k>k}@^07k8k1,9k0kakbkckdkdkekekekekekekekekekekekekekekekekekekekekekekekekekekekekekekekekekekekekekekekekekekekekekekekekekekekekekekekekekekekekekekekekekekekekekekekekekekekekekekekekekekekekekekekekekekekekekekekfkgkhkikjkkklkmknkokpk3kO+qk4krksk",
"tkuk<#<#f$vkwk=>xkykzkAkBkCkDkEkFkFkFkFkFkFkFkFkFkFkFkFkFkFkFkFkFkFkFkFkFkFkFkFkFkFkFkFkFkFkFkFkFkFkFkFkFkFkFkFkFkFkFkFkFkFkFkFkFkFkFkFkFkFkFkFkFkFkFkFkFkFkFkFkFkFkFkFkFkFkFkFkFkFkFkFkFkFkFkFkFkFkFkFkFkFkFkFkFkFkFkFkFkFkFkGkHkIkJkKkLkMkNkOkPkQkRkO+qkA$Sksk",
"TkUkz@ #w@VkWkXkYkZk`k l.l+l@l#l$l%l%l%l%l%l%l%l%l%l%l%l%l%l%l%l%l%l%l%l%l%l%l%l%l%l%l%l%l%l%l%l%l%l%l%l%l%l%l%l%l%l%l%l%l%l%l%l%l%l%l%l%l%l%l%l%l%l%l%l%l%l%l%l%l%l%l%l%l%l%l%l%l%l%l%l%l%l%l%l%l%l%l%l%l%l%l%l%l%l%l%l%l%l%l%l%l&l*l=l-l;l>l,l'l)l!lX@r@^@~l{l",
"]l^l/l(l_l:l<l[l}l|l1l2l3l4l5l6l7l8l7l8l7l8l7l8l7l8l7l8l7l8l7l8l7l8l7l8l7l8l7l8l7l8l7l8l7l8l7l8l7l8l7l8l7l8l7l8l7l8l7l8l7l8l7l8l7l8l7l8l7l8l7l8l7l8l7l8l7l8l7l8l7l8l7l8l7l8l7l8l7l8l7l8l7l8l7l8l7l8l7l8l7l8l7l8l7l8l7l8l7l8l7l8l9l0lalblcldlelflglhliljl^@klklkl",
"llmlp+nlolplqlrlsltlulvlwlxlylzlAlBlAlBlAlBlAlBlAlBlAlBlAlBlAlBlAlBlAlBlAlBlAlBlAlBlAlBlAlBlAlBlAlBlAlBlAlBlAlBlAlBlAlBlAlBlAlBlAlBlAlBlAlBlAlBlAlBlAlBlAlBlAlBlAlBlAlBlAlBlAlBlAlBlAlBlAlBlAlBlAlBlAlBlAlBlAlBlAlBlAlBlAlBlAlzlClClDlAlElFlGlHlIlJlKlLlMlNlOlPl",
"QlW+RlSlTlUlVlWlc-XlYlZl`l m.m+m@m@mDl@mDl@mDl@mDl@mDl@mDl@mDl@mDl@mDl@mDl@mDl@mDl@mDl@mDl@mDl@mDl@mDl@mDl@mDl@mDl@mDl@mDl@mDl@mDl@mDl@mDl@mDl@mDl@mDl@mDl@mDl@mDl@mDl@mDl@mDl@mDl@mDl@mDl@mDl@mDl@mDl@mDl@mDl@mDl@mDl@mDl@mDl@m#m#m$m$m`lAl%m&m*m=m-m;m>m,mPl'm",
")mhj!m~m{m]m^m/m(m_m:m<m[m}m|m1m|m|m2m|m2m|m2m|m2m|m2m|m2m|m2m|m2m|m2m|m2m|m2m|m2m|m2m|m2m|m2m|m2m|m2m|m2m|m2m|m2m|m2m|m2m|m2m|m2m|m2m|m2m|m2m|m2m|m2m|m2m|m2m|m2m|m2m|m2m|m2m|m2m|m2m|m2m|m2m|m2m|m2m|m2m|m2m|m2m|m2m|m2m|m2m|m3m3m3m4m[m2m5m6m7m8m9m0mambmcmdm",
"emfmgmhmimjm/mkmlmmmnmompmpmomqmrmrmrmrmrmrmrmrmrmrmrmrmrmrmrmrmrmrmrmrmrmrmrmrmrmrmrmrmrmrmrmrmrmrmrmrmrmrmrmrmrmrmrmrmrmrmrmrmrmrmrmrmrmrmrmrmrmrmrmrmrmrmrmrmrmrmrmrmrmrmrmrmrmrmrmrmrmrmrmrmrmrmrmrmrmrmrmrmrmrmrmrmrmrmrmrmsmtmtmtmsmqmqmumvmwmxmymzmAmBmCm",
"DmEmFmGmHmImJmKmLmMmNmOmPmQmRmSmNmNmNmNmNmNmNmNmNmNmNmNmNmNmNmNmNmNmNmNmNmNmNmNmNmNmNmNmNmNmNmNmNmNmNmNmNmNmNmNmNmNmNmNmNmNmNmNmNmNmNmNmNmNmNmNmNmNmNmNmNmNmNmNmNmNmNmNmNmNmNmNmNmNmNmNmNmNmNmNmNmNmNmNmNmNmNmNmNmNmNmNmNmNmNmNmTmTmUmVmWmWmXmNmYmZm`m n.n+n@n#n",
"$n%n&n*n=n-n;nomWmVm>nUmUmTm,n,nTm'nXm'nXm'nXm'nXm'nXm'nXm'nXm'nXm'nXm'nXm'nXm'nXm'nXm'nXm'nXm'nXm'nXm'nXm'nXm'nXm'nXm'nXm'nXm'nXm'nXm'nXm'nXm'nXm'nXm'nXm'nXm'nXm'nXm'nXm'nXm'nXm'nXm'nXm'nXm'nXm'nXm'nXm'nXm'nXm'nXm'nXm'nXmTm)n)nUm!n~n{n>n]n^nRm/n(n_n:n+n<n",
"[n}n|n1n2n3nSm4n5n6n5n7n8n9n0nanbncndncndncndncndncndncndncndncndncndncndncndncndncndncndncndncndncndncndncndncndncndncndncndncndncndncndncndncndncndncndncndncndncndncndncndncndncndncndncndncndncndncndncndncndncndncndncndnbnenfngnhninjn5nknlnmnnnonpnqnrnsn",
"tnunvnwnxnynzn7nAnBnCnAnDnEn0nbnFnGnGnGnGnGnGnGnGnGnGnGnGnGnGnGnGnGnGnGnGnGnGnGnGnGnGnGnGnGnGnGnGnGnGnGnGnGnGnGnGnGnGnGnGnGnGnGnGnGnGnGnGnGnGnGnGnGnGnGnGnGnGnGnGnGnGnGnGnGnGnGnGnGnGnGnGnGnGnGnGnGnGnGnGnGnGnGnGnGnGnGnGnGnGnHnInJnKnLnMnNnOnPnQnRnSnTnUnVnWnXn"};
