/* XPM */
static char * wall4_xpm[] = {
"64 64 2 1",
" 	c #F698C2",
".	c #E581B7",
"              ....                            ....              ",
"              ....                            ....              ",
"              ....                            ....              ",
"              ....                            ....              ",
"              ....                            ....              ",
"              ....                            ....              ",
"              ....                            ....              ",
"              ....                            ....              ",
"            ........                        ........            ",
"            ........                        ........            ",
"            ........                        ........            ",
"            ........                        ........            ",
"        ................                ................        ",
"        ................                ................        ",
"................................................................",
"................................................................",
"................................................................",
"................................................................",
"        ................                ................        ",
"        ................                ................        ",
"            ........                        ........            ",
"            ........                        ........            ",
"            ........                        ........            ",
"            ........                        ........            ",
"              ....                            ....              ",
"              ....                            ....              ",
"              ....                            ....              ",
"              ....                            ....              ",
"              ....                            ....              ",
"              ....                            ....              ",
"              ....                            ....              ",
"              ....                            ....              ",
"              ....                            ....              ",
"              ....                            ....              ",
"              ....                            ....              ",
"              ....                            ....              ",
"              ....                            ....              ",
"              ....                            ....              ",
"              ....                            ....              ",
"              ....                            ....              ",
"            ........                        ........            ",
"            ........                        ........            ",
"            ........                        ........            ",
"            ........                        ........            ",
"        ................                ................        ",
"        ................                ................        ",
"................................................................",
"................................................................",
"................................................................",
"................................................................",
"        ................                ................        ",
"        ................                ................        ",
"            ........                        ........            ",
"            ........                        ........            ",
"            ........                        ........            ",
"            ........                        ........            ",
"              ....                            ....              ",
"              ....                            ....              ",
"              ....                            ....              ",
"              ....                            ....              ",
"              ....                            ....              ",
"              ....                            ....              ",
"              ....                            ....              ",
"              ....                            ....              "};
