/* XPM */
static char * wall5_xpm[] = {
"64 64 2 1",
" 	c #8FA5F0",
".	c #A9B7F8",
"            ......                          ......              ",
"            ......                          ......              ",
"            ......                          ......              ",
"            ......                          ......              ",
"            ......                          ......              ",
"            ......                          ......              ",
"          ........                          ........            ",
"          ........                          ........            ",
"          ........                          ........            ",
"          ........                          ........            ",
"        ........                              ........          ",
"        ........                              ........          ",
"    ............                              ............      ",
"    ............                              ............      ",
"..............        ..................        ................",
"..............        ..................        ................",
"............      ..........................      ..............",
"............      ..........................      ..............",
"........        ..............................        ..........",
"........        ..............................        ..........",
"              ............          ............                ",
"              ............          ............                ",
"              ........                  ........                ",
"              ........                  ........                ",
"            ........                      ........              ",
"            ........                      ........              ",
"            ........                      ........              ",
"            ........                      ........              ",
"            ......                          ......              ",
"            ......                          ......              ",
"            ......                          ......              ",
"            ......                          ......              ",
"            ......                          ......              ",
"            ......                          ......              ",
"            ......                          ......              ",
"            ......                          ......              ",
"            ......                          ......              ",
"            ......                          ......              ",
"            ........                      ........              ",
"            ........                      ........              ",
"            ........                      ........              ",
"            ........                      ........              ",
"              ........                  ........                ",
"              ........                  ........                ",
"              ............          ............                ",
"              ............          ............                ",
"........        ..............................        ..........",
"........        ..............................        ..........",
"............      ..........................      ..............",
"............      ..........................      ..............",
"..............        ..................        ................",
"..............        ..................        ................",
"    ............                              ............      ",
"    ............                              ............      ",
"        ........                              ........          ",
"        ........                              ........          ",
"          ........                          ........            ",
"          ........                          ........            ",
"          ........                          ........            ",
"          ........                          ........            ",
"            ......                          ......              ",
"            ......                          ......              ",
"            ......                          ......              ",
"            ......                          ......              "};
