/* XPM */
static char * wall7_xpm[] = {
"64 64 2 1",
" 	c #D8B9B7",
".	c #E3C5C6",
"                                                                ",
"                                                                ",
"                                                                ",
"                                                                ",
"......................    ............................    ......",
"......................    ............................    ......",
"......................    ............................    ......",
"......................    ............................    ......",
"......................    ............................    ......",
"......................    ............................    ......",
"......................    ............................    ......",
"......................    ............................    ......",
"......................    ............................    ......",
"......................    ............................    ......",
"......................    ............................    ......",
"......................    ............................    ......",
"                                                                ",
"                                                                ",
"                                                                ",
"                                                                ",
"........    ............................    ....................",
"........    ............................    ....................",
"........    ............................    ....................",
"........    ............................    ....................",
"........    ............................    ....................",
"........    ............................    ....................",
"........    ............................    ....................",
"........    ............................    ....................",
"........    ............................    ....................",
"........    ............................    ....................",
"........    ............................    ....................",
"........    ............................    ....................",
"                                                                ",
"                                                                ",
"                                                                ",
"                                                                ",
"......................    ............................    ......",
"......................    ............................    ......",
"......................    ............................    ......",
"......................    ............................    ......",
"......................    ............................    ......",
"......................    ............................    ......",
"......................    ............................    ......",
"......................    ............................    ......",
"......................    ............................    ......",
"......................    ............................    ......",
"......................    ............................    ......",
"......................    ............................    ......",
"                                                                ",
"                                                                ",
"                                                                ",
"                                                                ",
"........    ............................    ....................",
"........    ............................    ....................",
"........    ............................    ....................",
"........    ............................    ....................",
"........    ............................    ....................",
"........    ............................    ....................",
"........    ............................    ....................",
"........    ............................    ....................",
"........    ............................    ....................",
"........    ............................    ....................",
"........    ............................    ....................",
"........    ............................    ...................."};
