/* XPM */
static char * wall2_xpm[] = {
"64 64 2 1",
" 	c #81D885",
".	c #99DE8B",
"        ................                ................        ",
"        ................                ................        ",
"        ................                ................        ",
"        ................                ................        ",
"      ....................            ....................      ",
"      ....................            ....................      ",
"    ........................        ........................    ",
"    ........................        ........................    ",
"............        ........................        ............",
"............        ........................        ............",
"..........            ....................            ..........",
"..........            ....................            ..........",
"........                ................                ........",
"........                ................                ........",
"........                ................                ........",
"........                ................                ........",
"........                ................                ........",
"........                ................                ........",
"........                ................                ........",
"........                ................                ........",
"..........            ....................            ..........",
"..........            ....................            ..........",
"............        ........................        ............",
"............        ........................        ............",
"    ........................        ........................    ",
"    ........................        ........................    ",
"      ....................            ....................      ",
"      ....................            ....................      ",
"        ................                ................        ",
"        ................                ................        ",
"        ................                ................        ",
"        ................                ................        ",
"        ................                ................        ",
"        ................                ................        ",
"        ................                ................        ",
"        ................                ................        ",
"      ....................            ....................      ",
"      ....................            ....................      ",
"    ........................        ........................    ",
"    ........................        ........................    ",
"............        ........................        ............",
"............        ........................        ............",
"..........            ....................            ..........",
"..........            ....................            ..........",
"........                ................                ........",
"........                ................                ........",
"........                ................                ........",
"........                ................                ........",
"........                ................                ........",
"........                ................                ........",
"........                ................                ........",
"........                ................                ........",
"..........            ....................            ..........",
"..........            ....................            ..........",
"............        ........................        ............",
"............        ........................        ............",
"    ........................        ........................    ",
"    ........................        ........................    ",
"      ....................            ....................      ",
"      ....................            ....................      ",
"        ................                ................        ",
"        ................                ................        ",
"        ................                ................        ",
"        ................                ................        "};
