/* XPM */
static char * wall15_xpm[] = {
"64 64 2 1",
" 	c #B7B9D8",
".	c #C5C9E3",
"                                                                ",
"                                                                ",
"                                                                ",
"                                                                ",
"              ....                            ....              ",
"              ....                            ....              ",
"            ........                        ........            ",
"            ........                        ........            ",
"          ............                    ............          ",
"          ............                    ............          ",
"        ................                ................        ",
"        ................                ................        ",
"      ....................            ....................      ",
"      ....................            ....................      ",
"    ........................        ........................    ",
"    ........................        ........................    ",
"    ........................        ........................    ",
"    ........................        ........................    ",
"      ....................            ....................      ",
"      ....................            ....................      ",
"        ................                ................        ",
"        ................                ................        ",
"          ............                    ............          ",
"          ............                    ............          ",
"            ........                        ........            ",
"            ........                        ........            ",
"              ....                            ....              ",
"              ....                            ....              ",
"                                                                ",
"                                                                ",
"                                                                ",
"                                                                ",
"                                                                ",
"                                                                ",
"                                                                ",
"                                                                ",
"              ....                            ....              ",
"              ....                            ....              ",
"            ........                        ........            ",
"            ........                        ........            ",
"          ............                    ............          ",
"          ............                    ............          ",
"        ................                ................        ",
"        ................                ................        ",
"      ....................            ....................      ",
"      ....................            ....................      ",
"    ........................        ........................    ",
"    ........................        ........................    ",
"    ........................        ........................    ",
"    ........................        ........................    ",
"      ....................            ....................      ",
"      ....................            ....................      ",
"        ................                ................        ",
"        ................                ................        ",
"          ............                    ............          ",
"          ............                    ............          ",
"            ........                        ........            ",
"            ........                        ........            ",
"              ....                            ....              ",
"              ....                            ....              ",
"                                                                ",
"                                                                ",
"                                                                ",
"                                                                "};
