/* XPM */
static char * wall6_xpm[] = {
"256 256 32 1",
" 	c #6A80FD",
".	c #806FFE",
"+	c #8080FF",
"@	c #5660F3",
"#	c #D886DA",
"$	c #8AD8D9",
"%	c #2885DB",
"&	c #D466DA",
"*	c #BB81F0",
"=	c #9D80FB",
"-	c #67D5DA",
";	c #809AFC",
">	c #2C67DB",
",	c #892DDE",
"'	c #805EFA",
")	c #4A7FF2",
"!	c #652FDD",
"~	c #85BCEF",
"{	c #8D80FE",
"]	c #B06AF2",
"^	c #7F8CFE",
"/	c #65B8EE",
"(	c #CBA6DD",
"_	c #4D9DF0",
":	c #A64DEC",
"<	c #BDC3D6",
"[	c #3FC3D5",
"}	c #A79DF4",
"|	c #C33FD5",
"1	c #3B43D7",
"2	c #908DFD",
"3	c #2FA5D9",
"^{{{+++++++++++++++++++++++++++++++++++++++++++++++++++++++++++++++++++++++++++++++++++++++++++++++++++++++++++++++++++++++++++++++++++++++++++++++++++++++++++++++++++++++++++++++++++++++++++++++++++++++++++++++++++++++++++++++++++++++++++++++++++++++++^^+",
"^{{++++++..+........................................................................................................................................................................................................................................+.+++++++^ ^",
"+{{++.+........................................................................................................................................................................++........................................................................+++++ ^",
"+{+++.......'..'.'.'.'.'.'.'.'.'.'.'.'.'.'.'.'.'.'.'.'.'.'.'.'.'.'.'.'.'.'.'.'.'.'.'.'.'.'.'.'.'.'.'.'.'.'.'.'.'.'.'.'.'.'.'.'.'.'.'.'.'.'.'.'.'.'.'.'.'.'.'.'.'.'.'.'.'.'.'.'.....'.'.'.'.'.'.'.'.'.'.'.'.'.'.'.'.'.'.'.'.'.'.'.'.'.'.'.'.'.'.'..'.....{.+++++^",
"+{++.......'.''''''.'''.'''.'''.'''.'''.'''.'''.'''.'''.'''.'''.'''.'''.'''.'''.'''.'''.'''.'''.'''.'''.'''.'''.'''.'''.'''.'''.'''.'''.'''.'''.'''.'''.'''.'''.'''.'''.'''.'''''''''.'''.'''.'''.'''.'''.'''.'''.'''.'''.'''.'''.'''.'''.'''.'''.'.'......+++++",
"++.......'''''''''''''''''''''''''''''''''''''''''''''''''''''''''''''''''''''''''''''''''''''''''''''''''''''''''''''''''''''''''''''''''''''''''''''''''''''''''''''''''''''''''''''''''''''''''''''''''''''''''''''''''''''''''''''''''''''''''''''....{.{+++",
"+++.. ..@.''''''''''''''''''''''''''''''''''''''''''''''''''''''''''''''''''''''''''''''''''''''''''''''''''''''''''''''''''''''''''''''''''''''''''''''''''''''''''''''''''''''''''''''''''''''''''''''''''''''''''''''''''''''''''''''''''''''''''']'.].{.{+++",
"+++ ...@..''''''''''''''''''''''''''''''''''''''''''''''''''''''''''''''''''''''''''''''''''''''''''''''''''''''''''''''''''''''''''''''''''''''''''''''''''''''''''''''''''''''''''''''''''''''''''''''''''''''''''''''''''''''''''''''''''''''''''''.]..]{.{++",
"++. .  .@.@'''''''''''''''''''''''''''''''''''''''''''''''''''''''''''''''''''''''''''''''''''''''''''''''''''''''''''''''''''''''''''''''''''''''''''''''''''''''''''''''''''''''''''''''''''''''''''''''''''''''''''''''''''''''''''''''''''''''''']'.].=.{{{+",
"++.   .@....@'.''''''''''''''''''''''''''''''''''''''''''''''''''''''''''''''''''''''''''''''''''''''''''''''''''''''''''''''''''''''''''''''''''''''''''''''''''''''''''''''''''''''''''''''''''''''''''''''''''''''''''''''''''''''''''''''''''.''..].=.={={++",
"++  .    .@.......'.'.'.'.'.'.'.'.'.'.'.'.'.'.'.'.'.'.'.'.'.'.'.'.'.'.'.'.'.'.'.'.'.'.'.'.'.'.'.'.'.'.'.'.'.'.'.'.'.'.'.'.'.'.'.'.'.'.'.'.'.'.'.'.'.'.'.'.'.'.'.'.'.'.'.'.'.'.'.'.'.'.'.'.'.'.'.'.'.'.'.'.'.'.'.'.'.'.'.'.'.'.'.'.'.'.'.'.'.'.'..'..]..]=]=={{{+",
"+     @ @. .................................................................................................................^;;~;;+..................................................................................................................]==]{=.={{+",
"++        . ..............................................................................................................+2<$$$--_+..............................................................................................................=.=..==]==={{+",
"++       .  . .................................................................................................++.........}<<<~~-[[_...............................................................................................................{.==]====={{+",
"++        .  .+.+...+...+...+...+...+...+...+...+...+...+...+...+...+...+...+...+...+...+...+...+...+...+..+;;;; +...+..+}<<<;;^;_[[_++...+..++^++...+...+...+...+...+...+...+...+...+...+...+...+...+...+...+...+...+...+...+...+...+...+...+...{.{{========{{+",
"+           . +++++++++++++++++++++++++++++++++++++++++++++++++++++++++++++++++++++++++++++++++++++++++++++}~$$/) +++++{}<(<2++++ /[[_ ++++++{;~/;+++++++++++++++++++++++++++++++++++++++++++++++++++++++++++++++++++++++++++++++++++++++++++++++{{{{========{{+",
"+            + +++++++++++++++++++++++++++++++++++++++++++++++++++++++++++++++++++++++++++++++++++++++++;~$<<$/>) +++++=(<(= ..+.. _[[)+++++{=*}-[/;++++++++++++++++++++++++++++++++++++++++++++++++++++++++++++++++++++++++++++++++++++++++++++{{{{{========{{+",
"+            ++++++++++++++++++++++++++++++++++++++++++++++++++++++++++++++++++++++++++++++++++++++++^;}<$$$<^>1@+++++^((<}++++++{.^[33^+++++{]#~--[/;^++++++++++++++++++++++++++++++++++++++++++++++++++++++++++++++++++++++++++++++++++++++++++{{{{========{{+",
"+             ++++++++++++++++++++++++++++++++++++++++++++++++++++++++++++++++++++++++++++++++++++++2~<$<<<~_11>+++++{}<(} .+++++++{ 3[_ +++++]&&;[[[-/;+++++++++++++++++++++++++++++++++++++++++++++++++++++++++++++++++++++++++++++++++++++++++{{{{========{{+",
"+           ++++++++++++++++++++++++++++++++++++++++++++++++++++++++++++++++++++^;;^+++++++++++++++=}<<$~;2+@1>){++++2(<<..++++++++{._[3_+++++=&|&;/--[[/^+++++++++++++++++;;^+++++++++++++++++++++++++++++++++++++++++++++++++++++++++++++++++++{{{{========{{+",
"+            + ++++++++++++++++++++++++++++++++++++++++++++++++++++++++++++++++;}$-/^++++++++++++++=*#*]..+ >1@+++++{(((2 ++++++++++{^33_ ++++{]|&=^^/[[[_ +++++++++++++++=~-/^++++++++++++++++++++++++++++++++++++++++++++++++++++++++++++++++++{{{{========{{+",
"+            ++++++++++++++++++++++++++++++++++++++++++++++++++++++++++++++++;~<<$-_) ++++++++++++{=]:,,,,,!1>)+++++=((*.^^;^^^^^^^^2^_[3_+++++=&&,,,,!@%% ++++++++++++++;<<-[-~;++++++++++++++++++++++++++++++++++++++++++++++++++++++++++++++++{{{{========{{+",
"+             ++++++++++++++++++++++++++++++++++++++++++++++++++++++++++++^;~<<$$~%%) +++++++++++++=':,,,,,,1@ +++++*#*::'''''''''''''@%%% ++++{]|,,!!,!!@ +++++++++++++{*<<~---[/;^+++++++++++++++++++++++++++++++++++++++++++++++++++++++++++++{{{{========{{+",
"+           +++++++++++++++++++++++++++++++++++++++++++++++++++++++++++++2~$<<<<;@1>@ ++++++++++++++.'''',',, ++++++*|,,,,,,,,,,,,,,,,,!1) +++++{:,!!,','.++++++++++++++=##*}//[[--/;++++++++++++++++++++++++++++++++++++++++++++++++++++++++++++{{{{========{{+",
"+            + ++++++++++++++++++++++++++++++++++++++++++++++++++++++++;~<<<$$;.111@.+++++++++++++++++++++++.++++++++:,,,,,,,,,,,,,,,,,,!.++++++++..++++++++++++++++++++{]||:.+;/--[[/;++++++++++++++++++++++++++++++++++++++++++++++++++++++++++{{{{========{{+",
"+            ++++++++++++++++++++++++++++++++++++++++++++++++++++++++^}<$$<~}2 111@.+++++++^^++++++++++++++++++++++++.....'''.'.''.'.'.'.+++++++++++++++++++++++++++++++{.|||]^+{;_[--[;^++++++++++++++++++++++++++++++++++++++++++++++++++++++++{{{{========{{+",
"+             +++++++++++++++++++++++++++++++++++++++++++++++++++++{;$<<<~;^+.111@.+++++++~$-~;^++++++++++++++++++++++++++++++++++++++++++++++++++++++++++++++++^;;++++++{.|||{++.2;/[[[-;+++++++++++++++++++++++++++++++++++++++++++++++++++++++{{{{========{{+",
"+           +++++++++++++++++++++++++++++++++++++++++++++++++++++^;~<<$<2{+{+@11@.++++++2}<$--[//;;;^^^+++++++++++++++++++++++++++++++++++++++++++++++++++^^;;;~~$/;^++++++]||:.+++.+_--[[/;^++++++++++++++++++++++++++++++++++++++++++++++++++++{{{{========{{+",
"+            + ++++++++++++++++++++++++++++++++++++++++++++++++++}<<<<;^ +++@11@.++++++2}<<</[---$--~/;^++++++++++++++++++++++++++++++++++++++++++++++++^;~~~$$$$$-[_+++++++]||:.^+.{{2;[[--_++++++++++++++++++++++++++++++++++++++++++++++++++++{{{{========{{+",
"+            ++++++++++++++++++++++++++++++++++++++++++++++++++;~<<$~2..+{+@11>.++++++2}<<<++;~---------/;++++++++^^^^^++++++++++++++++++^^^++++++++;~~~$<$$<$$$$~[[[;++++++{:||:2++++..^/-[[/~++++++++++++++++++++++++++++++++++++++++++++++++++{{{{========{{+",
"+             +++++++++++++++++++++++++++++++++++++++++++++++^}<$<<2 +++++.111@++++++2}<<}+ ++{2^_//-----[ ++++++2~~~~~/;^^^^^^^^^^^^^^;;~~/^++++++=}$$$$$$$$}}+^+ [[[_++++++{:||]++++++{^ [--[/^++++++++++++++++++++++++++++++++++++++++++++++++{{{{========{{+",
"+           ++++++++++++++++++++++++++++++++++++++++++++++++2~<<<~^..++++ 111@{+++++2}<<(^.+++...{^;;~~/3%)+++++2<$$$$----$$$$$$$$$$$$$$$$$-/ +++++=#(<$~~~;;^+...{;[[[ +++++++:||]^+++++..2/[[[/;+++++++++++++++++++++++++++++++++++++++++++++++{{{{========{{+",
"+            + +++++++++++++++++++++++++++++++++++++++++++^~<<<~2.+++++^.@11@++++++2}<<}+.+++++++++++.+)1> ++++=}<<$-$$$$$$$$$$$$$$$$$$$$$$[[_ ++++=&&]{ ..++++++++.^[[[;++++++=|||. ++++++{. /-[[/^+++++++++++++++++++++++++++++++++++++++++++++{{{{========{{+",
"+            ++++++++++++++++++++++++++++++++++++++++++++2<<<<}^++++++{^@11@++++++{}<<(^ ++++++++++++{+>>@ ++++=(((;;;;;;~;~;~;~;~;~;~;;;;;_33)++++{]&&{ .+++++++++{{ [[3 ++++++.|||2^++++++.{2_[[[/ ++++++++++++++++++++++++++++++++++++++++++++{{{{========{{+",
"+             ++++++++++++++++++++++++++++++++++++++++++;<<<<;..+++++^{@11@++++++{}<<}+.+++++++++++++{ >>)+++++*((=........................)33)+++++]&&= ++++++++++++._[[/++++++{]||] ^+++++++..;-[[[;+++++++++++++++++++++++++++++++++++++++++++{{{{========{{+",
"+           ++++++++++++++++++++++++++++++++++++++++++^}<<<}^ ++++++{+ 111 ++++++}<<({ +++++++++++++++@>> +++++#((^.+++++++++++++++++++++++ _3%+++++=&&]+++++++++++++{+_[[_^++++++]||:^++++++++{{ /[-[_^+++++++++++++++++++++++++++++++++++++++++{{{{========{{+",
"+            + +++++++++++++++++++++++++++++++++++++++}<<<;^..+++++++.>11 ++++++=<<(^.+++++++++++++++ @>> ++++{(#* +++++++++++++++++++++++++_3% ++++{&&]{+++++++++++++.{/3[_++++++=:|&= +++++++++.{/[[[/+++++++++++++++++++++++++++++++++++++++++{{{{========{{+",
"+            +++++++++++++++++++++++++++++++++++++++;}<<<2++++++++++^@11@++++++2(<<2++++++++++++++++{ >>) +++{2(#* ++++++++++++++++++++++++{ %3 ++++{*&&=++++++++++++++{._[[_++++++.||:+^+++++++++.+^/[[_;+++++++++++++++++++++++++++++++++++++++{{{{========{{+",
"+             +++++++++++++++++++++++++++++++++++++2<<<}^ +++++++++{ 11@ +++++{(<(} +++++++++++++++{+)>1@++++{((#=+++++++++++++++++++++++++{ %3_ +++{]&&*+++++++++++++++.^3[[ ++++++*||]^+++++++++++{;_[[[;++++++++++++++++++++++++++++++++++++++{{{{========{{+",
"+           ++++++++++++++++++++++++++++++++++++++;<<<~+.+++++++++^+111.++++++}(<}.++++++++++++++++{{)>>+++++=#(}{+++++++++++++++++++++++++{ )33 ++++=&&*+++++++++++++++++ [[3 ++++++:|&. +++++++++++.+/[[[_+++++++++++++++++++++++++++++++++++++{{{{========{{+",
"+            + +++++++++++++++++++++++++++++++++^}<<<}. +++++++++{^@11)++++++}<<}^+++++++++++++++++++>>)+++++=#(}++++++++++++++++++++++++++++_33)++++{]&#+ ++++++++++++++++_3[_++++++=&|:{++++++++++++{{_[[[;^+++++++++++++++++++++++++++++++++++{{{{========{{+",
"+            ++++++++++++++++++++++++++++++++++{}<<<} .++++++++++{ >1@ +++++=(<(=+++++++++++++++++++ >>)+++++*#(2++++++++++++++++++++++++++++ 3%)+++++*&&.++++++++++++++++{+_[[ +++++{]||*+++++++++++++.=;[[[/+++++++++++++++++++++++++++++++++++{{{{========{{+",
"+             ++++++++++++++++++++++++++++++++^}<<<2.+++++++++++++11> ++++++}<(}.+++++++++++++++++++@>>)+++++((#++++++++++++++++++++++++++++{^3%)+++++*&&.+++++++++++++++++. [[3^+++++{:&|.^+++++++++++++._-[[_^+++++++++++++++++++++++++++++++++{{{{========{{+",
"+           +++++++++++++++++++++++++++++++++{}<<<2+ ++++++++++{+)11@++++++}<<(. +++++++++++++++++{ )>> ++++=(#*+ ++++++++++++++++++++++++++{{)%3 ++++=&&]{+++++++++++++++++{ 3[_ +++++=||]2 ++++++++++++{{^[[[/ ++++++++++++++++++++++++++++++++{{{{========{{+",
"+            + ++++++++++++++++++++++++++++++}<<<2+.+++++++++++^.>1@++++++2(<(+.++++++++++++++++++{ >>@ ++++*((*++++++++++++++++++++++++++++{+)%3 ++++=&&&{++++++++++++++++++._[3_+++++{]|&] +++++++++++++.. /[[/++++++++++++++++++++++++++++++++{{{{========{{+",
"+            ++++++++++++++++++++++++++++++^}<<(2+++++++++++++{^@1>)+++++{(<(= +++++++++++++++++++{ %>@ +++{*((=+++++++++++++++++++++++++++++{)33) +++{]&&=++++++++++++++++++{^33[ +++++{&|:+^++++++++++++++.^_[[_^++++++++++++++++++++++++++++++{{{{========{{+",
"+             ++++++++++++++++++++++++++++{}<<<2+.+++++++++++++ >1@ +++++*(<}.++++++++++++++++++++{)>> ++++{#(}{+++++++++++++++++++++++++++++{ %3_ +++{]&&= +++++++++++++++++++ 3[_ +++++]||*^+++++++++++++++{ /[[/ +++++++++++++++++++++++++++++{{{{========{{+",
"+           +++++++++++++++++++++++++++++^}<<<2.+++++++++++++^+@>1.+++++^(((^.++++++++++++++++++++{@>% ++++{##}+++++++++++++++++++++++++++++++ _3% ++++=&&* ++++++++++++++++++++_[3^+++++{:&&. +++++++++++++++. _[[_^++++++++++++++++++++++++++++{{{{========{{+",
"+            + +++++++++++++++++++++++++{}<<<2++++++++++++++{^)11)+++++{}<(* +++++++++++++++++++++ @>%+++++=##= +++++++++++++++++++++++++++++++_3% +++++&&* +++++++++++++++++++{ 3[3 +++++]&|:^+++++++++++++++{+;_[[_++++++++++++++++++++++++++++{{{{========{{+",
"+            +++++++++++++++++++++++++++}<<<2+.+++++++++++++{ >11 +++++2(((.++++++++++++++++++++++ >>) ++++*(#= ++++++++++++++++++++++++++++++{ %%)+++++*&&++++++++++++++++++++{._[3)+++++{]|&=+++++++++++++++++{ 3[[_+++++++++++++++++++++++++++{{{{========{{+",
"+             +++++++++++++++++++++++++2<<(2.+++++++++++++++{@1>@+++++{(<(2+++++++++++++++++++++{+)>>)++++{}(#{ ++++++++++++++++++++++++++++++{^%%)+++++*&&{++++++++++++++++++++.^333^+++++{|&] +++++++++++++++++.^[[[;++++++++++++++++++++++++{^+{{{========{{+",
"+           ++++++++++++++++++++++++++2(<<2+ +++++++++++++++ 11> +++++*(<*+ ++++++++++++++++++++{+)>> ++++=(#*{+++++++++++++++++++++++++++++++{+%%_+++++*&&=+++++++++++++++++++++{ 3[_++++++]&|.^++++++++++++++++{{ [[3 +++++++++++++++++++++++{{^{{{========{{+",
"+            + ++++++++++++++++++++++{(<<}+.++++++++++++++{{)>1@+++++^(((2.+++++++++++++++++++++{+%>> ++++=#(*++++++++++++++++++++++++++++++++{+%%_ ++++=&&*++++++++++++++++++++++._[3 +++++=&|]2++++++++++++++++++._[[/^+++++++++++++++++++++++{{^{{========{{+",
"+            +++++++++++++++++++++++^}<<}. +++++++++++++++^.>>>+++++{}<(}+++++++++++++++++++++++{+%>).++++*#(={+++++++++++++++++++++++++++++++{+)33 ++++=&&*{ ++++++++++++++++++++.;33_+++++{:|&= +++++++++++++++++{._[[_^++++++++++++++++++++++{={+{========{{+",
"+             +++++++++++++++++++++{}<<} .+++++++++++++++{^@1>)+++++=(<({ ++++++++++++++++++++++{ >>)+++++*#(2++++++++++++++++++++++++++++++++++)33)++++=]&*{ ++++++++++++++++++++{+%33 +++++=&&]+++++++++++++++++++.{_[[_+++++++++++++++++++++++{.{{========{{+",
"+           +++++++++++++++++++++++2<<<.+++++++++++++++++{ >1> +++++*((}.++++++++++++++++++++++++ >%)+++++*#(^++++++++++++++++++++++++++++++++{+ 3%)++++{]&#{ ++++++++++++++++++++{+ [3_ ++++{&&|{^++++++++++++++++++{._[[_++++++++++++++++++++++{={{========{{+",
"+            + +++++++++++++++++++=<<(+ +++++++++++++++++{ >1@+++++2(((++++++++++++++++++++++++++)>%)++++^##* ++++++++++++++++++++++++++++++++++ _%%+++++]&#{ +++++++++++++++++++++.+_33 +++++]||*^++++++++++++++++++++^3[[ +++++++++++++++++++++{{{{========{{+",
"+            ++++++++++++++++++++^(<<=.+++++++++++++++++^+@>>.++++{*<(*+ ++++++++++++++++++++++++@>> ++++2(#* +++++++++++++++++++++++++++++++++++_%%+++++=&&= ++++++++++++++++++++++{ 33_++++++]&&. ++++++++++++++++++++ [[3^++++++++++++++++++++{{{{========{{+",
"+             ++++++++++++++++++{}<(}++++++++++++++++++{+)11)+++++{((({++++++++++++++++++++++++{ >>> +++{=(#*++++++++++++++++++++++++++++++++++++_%%+++++=#&]+++++++++++++++++++++++{ _[3 +++++*&|]^++++++++++++++++++++{_3[_ +++++++++++++++++++{{{{========{{+",
"+           ++++++++++++++++++++=(<({++++++++++++++++++{+%1> +++++}((} ++++++++++++++++++++++++{)>>) +++{*##= ++++++++++++++++++++++++++++++++++{)%3 ++++=#&]{+++++++++++++++++++++++.^33_+++++{&|&{++++++++++++++++++++{+_[3_+++++++++++++++++++{{{{========{{+",
"+            + ++++++++++++++++2(<(;.+++++++++++++++++++.>>@+++++=(<#{ ++++++++++++++++++++++++{ %>) +++{*(#=+++++++++++++++++++++++++++++++++++=)%3 ++++{#&]{+++++++++++++++++++++++++_33 ++++{]|&= ++++++++++++++++++++.^3[3^++++++++++++++++++{{{{========{{+",
"+            +++++++++++++++++{}<<= +++++++++++++++++++^@1>)+++++*((}.+++++++++++++++++++++++++{)>>)++++=#(*=+++++++++++++++++++++++++++++++++++{ %%_ +++{*&&=++++++++++++++++++++++++{)33_ ++++{&&]++++++++++++++++++++++{ [[_ +++++++++++++++++{{{{========{{+",
"+             ++++++++++++++++}(<}..+++++++++++++++++++ >1> +++++(((+++++++++++++++++++++++++++{)>> ++++=#(}++++++++++++++++++++++++++++++++++++{ %%) +++{*&&=+++++++++++++++++++++++++ _33 +++++&&&.^+++++++++++++++++++++._[3_+++++++++++++++++{{{{========{{+",
"+           +++++++++++++++++2<<({ ++++++++++++++++++{{)>1@++++{2((*++++++++++++++++++++++++++{{)>>+++++=##2{+++++++++++++++++++++++++++++++++++{ %3) +++{=&&*++++++++++++++++++++++++++_33)+++++*&|]^+++++++++++++++++++++{^_[[ ++++++++++++++++{{{{========{{+",
"+            + +++++++++++++{((<2.++++++++++++++++++++{>>>+++++{(((= +++++++++++++++++++++++++{+>>)+++++*##2++++++++++++++++++++++++++++++++++++{ )3% +++{=&#*+++++++++++++++++++++++++{^%3_+++++{]|&2 ++++++++++++++++++++{+)[[_ +++++++++++++++{{{{========{{+",
"+            +++++++++++++++}((}++++++++++++++++++++++.>>)+++++=((}{++++++++++++++++++++++++++++>%%+++++=##2 +++++++++++++++++++++++++++++++++++{+)3%)++++=&&*+ +++++++++++++++++++++++{.)33)+++++]&&= +++++++++++++++++++++.{_33_+++++++++++++++{{{{========{{+",
"+             +++++++++++++{(<({ ++++++++++++++++++++^@1>)+++++*((2.+++++++++++++++++++++++++++ >>)++++{*(#+ +++++++++++++++++++++++++++++++++++++ %%)+++++&&*+++++++++++++++++++++++++++ [3)+++++{&&]+++++++++++++++++++++++{+3[[ ++++++++++++++{{{{========{{+",
"+           +++++++++++++++}((}.++++++++++++++++++++{ >1@ ++++^((#+ +++++++++++++++++++++++++++ >>)++++{*##+ +++++++++++++++++++++++++++++++++++++ 3%)+++++*##+ ++++++++++++++++++++++++++_33 ++++{*&|=+++++++++++++++++++++++. [3_++++++++++++++{{{{========{{+",
"+            + ++++++++++{2<(}^+++++++++++++++++++++{ >>@++++{=<(*+++++++++++++++++++++++++++++)>>)++++=##*++++++++++++++++++++++++++++++++++++++{+3%)+++++*&#+ +++++++++++++++++++++++++{)33_++++{]&&*++++++++++++++++++++++++^_33^+++++++++++++{{{{========{{+",
"+            ++++++++++++{((<=++++++++++++++++++++++{@>> ++++{*((=+++++++++++++++++++++++++++{ )>% ++++=(#*++++++++++++++++++++++++++++++++++++++{{%%%+++++*#&.++++++++++++++++++++++++++{ %3_ ++++=&&*++++++++++++++++++++++++{ 3[_ ++++++++++++{{{{========{{+",
"+             +++++++++++2((}+++++++++++++++++++++++ 1>) ++++2#(}++++++++++++++++++++++++++++{ )>> +++{=(#*++++++++++++++++++++++++++++++++++++++{{%%)+++++*&&=+++++++++++++++++++++++++++._33)++++.]&&+ +++++++++++++++++++++++._33_++++++++++++{{{{========{{+",
"+           ++++++++++++{(<({ ++++++++++++++++++++{+)>1) ++++}(#= +++++++++++++++++++++++++++{ %>> +++{*##=++++++++++++++++++++++++++++++++++++++{{)%3 ++++*#&=++++++++++++++++++++++++++++ 33)+++++*&&'^+++++++++++++++++++++++{^3[3^+++++++++++{{{{========{{+",
"+            + +++++++++*(<}.+++++++++++++++++++++{^)>> ++++{((#= +++++++++++++++++++++++++++{ %>@++++{*##=++++++++++++++++++++++++++++++++++++++{+)%% ++++=#&]{++++++++++++++++++++++++++{^3%_+++++=&|]2+++++++++++++++++++++++{+)[[)+++++++++++{{{{========{{+",
"+            ++++++++++^(((^.+++++++++++++++++++++{+>>@ ++++=((*{++++++++++++++++++++++++++++{ %>)++++{*#({++++++++++++++++++++++++++++++++++++++{+)%% ++++=&&*{++++++++++++++++++++++++++{{)33 ++++=]&&=++++++++++++++++++++++++++_33 ++++++++++{{{{========{{+",
"+             ++++++++{}<(= +++++++++++++++++++++++.>>)+++++*((2+++++++++++++++++++++++++++++{ %>)++++{##}{++++++++++++++++++++++++++++++++++++++{+)%3)++++=*&*= +++++++++++++++++++++++++++)33_ +++{]&&= ++++++++++++++++++++++++{_33_++++++++++{{{{========{{+",
"+           ++++++++++=(<(.+++++++++++++++++++++++ @>> +++++*#(^+++++++++++++++++++++++++++++{ %> ++++{##}+++++++++++++++++++++++++++++++++++++++++ %%) +++=*&*=++++++++++++++++++++++++++++ 33) ++++{&&* ++++++++++++++++++++++++{.%[3 +++++++++{{{{========{{+",
"+            + +++++++*((}.++++++++++++++++++++++{ >>> ++++2((* +++++++++++++++++++++++++++++{@%% ++++{##= ++++++++++++++++++++++++++++++++++++++++ %%) +++=*&#= ++++++++++++++++++++++++++++_3% +++++&&]+++++++++++++++++++++++++++_[3)+++++++++{{{{========{{+",
"+            ++++++++2((#^ ++++++++++++++++++++++{ >>@ +++{}(#* ++++++++++++++++++++++++++++++@>% ++++{##* ++++++++++++++++++++++++++++++++++++++++ %3) +++{]&#= +++++++++++++++++++++++++++{ 3%_+++++*&&.^+++++++++++++++++++++++++{_33^++++++++{{{{========{{+",
"+             +++++++*<(*.+++++++++++++++++++++++{)>1 ++++=*((=++++++++++++++++++++++++++++++ )>% ++++=##= ++++++++++++++++++++++++++++++++++++++++ _3% +++{=&#= +++++++++++++++++++++++++++{ %3_+++++*&&]^+++++++++++++++++++++++++{)3[_ +++++++{{{{========{{+",
"+           ++++++++{#((+++++++++++++++++++++++++{)>>+++++=#(}{++++++++++++++++++++++++++++++ )%%+++++*##= +++++++++++++++++++++++++++++++++++++++++)%% +++{=##=++++++++++++++++++++++++++++{+%33 ++++=&|*{ ++++++++++++++++++++++++{ _3% +++++++{{{{========{{+",
"+            + +++++2((}+++++++++++++++++++++++++.>>)+++++=#(}+++++++++++++++++++++++++++++++ )>) +++{}##= ^^^^^^^^^^^^^^^^^^^^^^^^^^^^^^^^^^^^^^^^^)%% +++{=&#= +++++++++++++++++++++++++++{+)33)+++++]&#{ ++++++++++++++++++++++++++_33 +++++++{{{{========{{+",
"+            ++++++{}(#= +++++++++++++++++++++++^ >>)+++++*(#2 ++++++++++++++++++++++++++++{^ >>) +++{*##=......................................+...)%% ++++{&&* +++++++++++++++++++++++++++++ 33)+++++=&&= +++++++++++++++++++++++++{ 33_ ++++++{{{{========{{+",
"+             +++++*(<}.+++++++++++++++++++++++{ )1>)++++{((#{ +++++++++++++++++++^^^^^^^^^^^)%>)++++=*#::!,,,,,,,,,,,,,,,,,,,,,,,,,,,,,,,,,,,,','!:@%% +++++&#* ^^^^^^++++++++++++++++++++++++_%%+++++=#&]++++++++++++++++++++++++++{+)33)++++++{{{{========{{+",
"+           +++++++*((2{+++++++++++++++++++++++{ >>> ++++=(#*+++++++++++^^^^^^^+.+.'''''''','1>>)++++{]:|,!!!,,,,,,,,,,,,,,,,,,,,,,,,,,,,,,,,,,,,,,,,>> +++++#&:''''...++^^^^^^^^+++++++++++++{_%3+++++=#&]++++++++++++++++++++++++++{+ 33)++++++{{{{========{{+",
"+            + +++{((}+++++++++++++++++++++++++{ %>@+++++*((*++++++++++++++++++@'''!,!!,,,!,,!!@ ++++{=:,,!!!',','!,','!,','!,','!,','!,',',:,,,!,,,,!@ +++++#|,,,,,,,:''.++++++++++++++++++++{)%3 ++++{&&]=++++++++++++++++++++++++++.^_3%++++++{{{{========{{+",
"+            ++++{2(#* ++++++++++++++++++++++++{ >>)++++{*((=+^^^^^^^+.''',,,,!!!,!!,!!,!!!,,,,'++++++.''''.+......+....+....+....+....+......''''''',.++++++=:,,,,,,,,,,,,,,,,'''.+;^^^^^^+++{ %3_ +++{]&&=+++++++++++++++++++++++++++{)33_+++++{{{{========{{+",
"+             +++{(((=+++++++++++++++++++++++++{@>> ++++{##}{.+...'''@!!!!!!!!,!,,!!,!''''.+++++++++++++++++++++++++++++++++++++++++++++++++++++++++++++++++++''''':,,,,,,,,,,,,,,::'.'...++++{ %3_ +++{=&&*+++++++++++++++++++++++++++{ %[_ ++++{{{{========{{+",
"+           +++++=((}{++++++++++++++++++++++++++@>% ++++{(#} .'!,!,!!!!!!!!!!,','''....+.++++++++++++++++++++++++++++++++++++++++++++++++++++++++++++++++++++++.+..'.'''',',,,,,,,,,,,,,,,'.+^^ _33)++++{&&*+ +++++++++++++++++++++++++{ _33)++++{{{{========{{+",
"+            + ++*#(2++++++++++++++++++++++++++ >>) ++++=#&:!!!!!!!!,,,,'''.^++++++++++++++++++++++++++++++++++++++++++++++++++++++++++++++++++++++++++++++++++++++++++++++++.':',,,,,,,,,,:,:,'@%%)+++++*&& ++++++++++++++++++++++++++++^33)++++{{{{========{{+",
"+            +++{((#^ +++++++++++++++++++++++{+)>>) ++++=&|,!!!!!@'''......+++++++++++++++++++++++++++++++++^^^^^^^^^^^^^^^^^^^^^^^^^^^^^^^^+++++++++++++++++++++++++++++++++++.....''::,,,,,,,,,@>)+++++*&&{+++++++++++++++++++++++++++{^%3_ +++{{{{========{{+",
"+             ++=((*+++++++++++++++++++++++^^2^)>>)+++++{',!!,'''.++++++++++++++++++++++++++++++++++++;~;~;~~~~~~~~~~~~~~~~~~~~~~~~~~~~~~~~~~~~;~;~;;^^++++++++++++++++++++++++++++++++..'',,,,|,!>)+++++*#&=^^+++++++++++++++++++++++++{+)33 +++{{{{========{{+",
"+           ++++*((=++++++++++++++++++++^+{..''1>> ++++++...++++++++++++++++++++++^^^^;;;;;;~;^++++++=}$$-$$$$$$$$$$$$$$$$$$$$$$$$$$$$$$$$$----$$$---/~^++++++^;;;^^^^++++++++++++++++++++++++.:,,@++++++=&&:. +^^++++++++++++++++++++++{+)33_ ++{{{{========{{+",
"+             ++#(({+++++++++++++++++++^^+.@,!!!1@+++++++++++++++++++++++++++++++2;~~~~~$$$$$-/ +++++*(<-$$<~~~~~~~~~~~~~~~~~~~~~~~~~~~~~~~~/-$-$$$---/_ +++++}~$-~~/;;;++++++++++++++++++++++++...++++++=&||:'{^^^+++++++++++++++++++++++ _3% ++{{{{========{{+",
"+            +++##} ++++++++++++++^^^+.',!!1!!!!'.+++++++++++++++++++++^;;;~~~~~~$$$$$$$$$$$$[3)+++++*#<~~~;;;;;;;;;;;;;;;;;;;;;;;;;;;;;;;;;;~~~~~~~~[33)++++=}<$-------/~~~~;;;;++++++++++++++++++++++++{]:|,|,:!'.+^^^+++++++++++++++++++_3% ++{{{{========{{+",
"+          +  +}(#= +++++++++++++++{.@1!!!!!!''..+++++++++++++++^^^^^;;~~~$$$$$$$$$$$~$~~~}} >%)+++++##* ++++++++++++++++++++++++++++++++++++++++++^^)%%)++++=#(}~-$--$-$-$---$-//;;^^^^++++++++++++++++++.':,,,,,,:]+. ++++++++++++++++++{ 33)++{{{{========{{+",
"+            +{}(#= ++++++++++^^^.'!!!!1!!,'..++++++++++++++++^;;~~$$$$$$$<$$<$$~~~~;;;^^^^.@>>)++++{##*.+.+++++++++++++++++++++++++++++++++.+..+..{.)%%)++++=##*;;;;~~~~------------$~~;;^+++++++++++++++++.'',,||,,,,'+^^^++++++++++++++{ %3_++{{{{========{{+",
"+            +=((*{++++++++^^{.''1!!!!!@.+++++++++++++++^;;;;~~~$$$$$$$$$~~;;;...+..++++++++)%%)++++2##* ++++++++++++++++++++++++++++++++++++++++++++)%%)+++{=&#*{+++..+.. ^;~~~--$$-----//~~;;;^^++++++++++++++{':,,,,|:''.+^^+++++++++++{+%33 +{{{{========{{+",
"+           + =#(}{++++++++^+.!!!!!1'''.+++++++++++++++2;~$$$$$$$$<~};;;;^^^^++.+.++++++++++)%% ++++=##*+++++++++++++++++++++++++++++++++++++++++++{+)3%)++++=&&*{+++++.+++++^^^;;;////--------~/;^+++++++++++++++.'':||,,,,]^^+++++++++++{+)33)+{{{{========{{+",
"+            +*#(2+++++^^^.'!11!!!''++++++++++++++++++2}<<$$$$$~~~;^+......+.+++++++++++++++)%%)++++=##* ++++++++++++++++++++++++++++++++++++++++++++ %%)++++{&&*{ ++++++++++.+.....++;~~~$$-------~;++++++++++++++++..,,,|||,''+^^+++++++++ 33)+{{{{========{{+",
"+            +*#(+++++{{.@!!!!!@'+.++++++++++^^++++++{}(<<~}2^++++++++++++++++++++++++++++++)%%)++++=##*+++++++++++++++++++++++++++++++++++++++++++++ %%)++++{*##{ ++++++++++++++++++++++++^^_/-----3 +++++++++++++++++++':,,,,|:.+ +++++++++_3%+{{{{========{{+",
"+            +(#* ++^^^'!!!1!''.++++++++++++2~~;^++++{*((}^++....++++++++++++++++++++++++++ @>> +++{2##* ++++++++++++++++++++++++++++++++++++++++++++ )%)++++{*##{ ++++++++++++++++++++.+...+{^;;~-33)++++++^^++++++++++++.':,||,,:.^^++++++{)%%+{{{{========{{+",
"+           +2(#*+^^.'@11!!@. ++++++++++^;~~<$/_ ++++=#(*{.+++++++++++++++++++++++++++++++{ )>> +++{*(#=+++++++++++++++++++++++++++++++++++++++++++++ )%%++++{*##{ +++++++++++++++++++++++++++++.{.%%_+++++{;/~;;^+++++++++++{',,||::. ^^+++{)%3 {{{{========{{+",
"+           +=(#=++.@!!!!@'.+++++++++++}~$$$$$3> ++++=##*+++++++++++++++++++++++++++++++++{ >%) +++{*##=+++++++++++++++++++++++++++++++++++++++++++++ %%)++++{*##{ +++++++++++++++++++++++++++++++.%%_ ++++=}$$--/;+++++++++++..':|,,,]+^+++{)%3_+{{{========{{+",
"+           +*((=+'!11!!'++++++++++^;~$<<<$$~/%>+++++=##}+++++++++++++++++++++++++++++++++{ %%) +++{*##=+++++++++++++++++++++++++++++++++++++++++++++ )%)++++{*##{ ++++++++++++++++++++++++++++++{ )%% ++++=#($-[-[-~;^++++++++++.',|||:' ^^{ %3_ {{{========{{+",
"+           {*((.@1!!1.+++++++++^;;~<$$$$~}2{)%%+++++=##2 +++++++++++++++++++++++++++++++++ %%) +++{*##=+++++++++++++++++++++++++++++++++++++++++++++ %%)++++{*##{ ++++++++++++++++++++++++++++++{ )%% ++++*##*//----[/;;^+++++++++{'|,,|:.++ )3% {{{========{{+",
"+           {#({!!11'.+++++++++{~~$<<<~~;^+..@>%+++++=##{ ++++++++++++++++++++++++++++++++{ %%) +++{*#*=+++++++++++++++++++++++++++++++++++++++++++++ )%) +++{*##{ ++++++++++++++++++++++++++++++{+)%%)++++=&&*{^;//[----/^++++++++++':|||,]^ _3% {{{========{{+",
"+           =#&11!!.+++++++++;~<<<$$~2{..++++>>)+++++*##{ ++++++++++++++++++++++++++++++++{ %%) +++{*##= ++++++++++++++++++++++++++++++++++++++++++{+ %%)++++{*##{ ++++++++++++++++++++++++++++++++)3%)++++=]&*{+.++;/---[[~;^+++++++++.,|||'._3% {{{========{{+",
"+           {&,!1@.+++++++++}<$$<<};^+++++++ >%%+++++*##{ ++++++++++++++++++++++++++++++++{ %>) +++{*##=++++++++++++++++++++++++++++++++++++++++++++++_3%++++{]&#{ ++++++++++++++++++++++++++++++{+ %%)++++{*##{ ++++2^;[[---/^+++++++++.:|||:^3%){{{========{{+",
"+           +',!.+++++++++~$<<<~~^...+++++++ )%)++++{*##{ +++++++++++++++++++++++++++++++++ >>) +++=*(*=+++++++++++++++++++++++++++++++++++++++++++++{_%%+++++*&#{ ++++++++++++++++++++++++++++++++ %%)++++{*##{ ++++...{~--[[-/;+++++++++',||:%%){{{========{{+",
"+            ...+++++++^;<<$$<}+++++++++++++ >>)++++{*##{ ++++++++++++++++++++++++++++++++{)%>)++++=##}{+++++++++++++++++++++++++++++++++++++++++++++{)%%+++++=##= ++++++++++++++++++++++++++++++++ %%)++++{]##+ ++++++++{. /--[[/^^+++++++{:||!%){{{========{{+",
"+            + +++++++{~<<<<;; .++++++++++{+)>>)++++{(#*{ ++++++++++++++++++++++++++++++++{)%> ++++=##*++++++++++++++++++++++++++++++++++++++++++++++{)%%+++++=##{ +++++++++++++++++++++++++++++++++3%)+++++*&#{ +++++++++.{^;/[[--;+++++++++:|,1_+{{========{{+",
"+           + +++++++;<<<$~{.+++++++++++++{+)>>)++++=(#*{+++++++++++++++++++++++++++++++++{)%%  +++=##*{+++++++++++++++++++++++++++++++++++++++++++++{)%%+++++=##= ++++++++++++++++++++++++++++++++{_%%+++++=&#{ +++++++++++..+;--[[/;+++++++{',' +{{========{{+",
"+            +++++++}<<<}}++++++++++++++++{ )%% ++++*##*++++++++++++++++++++++++++++++++++{)%%)++++=##*{+++++++++++++++++++++++++++++++++++++++++++++{)%%+++++=##{ ++++++++++++++++++++++++++++++++{)%%+++++=##{ ++++++++++++++{^_[[--_++++++{.''.+{{========{{+",
"+            + +++^~<<<~^+.+++++++++++++++{+)%%)++++=#&*++++++++++++++++++++++++++++++++++{)%% ++++=##*++++++++++++++++++++++++++++++++++++++++++++++{)%%+++++=##= ++++++++++++++++++++++++++++++++{)%%+++++=##{ +++++++++++++++.{;/[[[/^+++++++{{{{{========{{+",
"+          +  +++^(<<<}.++++++++++++++++++{ )>> ++++=##*++++++++++++++++++++++++++++++++++{)%%)++++=##*{+++++++++++++++++++++++++++++++++++++++++++++{)%%+++++=##{ ++++++++++++++++++++++++++++++++{)%%+++++*##{ ++++++++++++++++++.;[[[/;+++++++{{{{========{{+",
"+            +++{}<<<^ +++++++++++++++++++{ )>> ++++*((*++++++++++++++++++++++++++++++++++{)%% ++++=##*++++++++++++++++++++++++++++++++++++++++++++++{)%%+++++=##= ++++++++++++++++++++++++++++++++{)%%+++++=#&= ++++++++++++++++++{{^/[[[ ++++++{{{{========{{+",
"+             +^<<<}+.++++++++++++++++++++{ %>) ++++*#({++++++++++++++++++++++++++++++++++{)%%)++++=##*{+++++++++++++++++++++++++++++++++++++++++++++{)%%+++++=##{ ++++++++++++++++++++++++++++++++{)%3 ++++=#&]+++++++++++++++++++++.+/[[[;+++++{{{{========{{+",
"+           +++}<<}2++++++++++++++++++++++{ %%)+++++*#*{++++++++++++++++++++++++++++++++++{)%% ++++=##*++++++++++++++++++++++++++++++++++++++++++++++{)%%+++++=##= ++++++++++++++++++++++++++++++++{)%% ++++=#&]++++++++++++++++++++++{+_[[[ ++++{{{{========{{+",
"+            +}<<}+ ++++++++++++++++++++++{ %%) +++{*#*=++++++++++++++++++++++++++++++++++{)%%)++++=##*{+++++++++++++++++++++++++++++++++++++++++++++{)%%+++++=##{ ++++++++++++++++++++++++++++++++{)%%)++++=##*{++++++++++++++++++++++.+;[[[^+++{{{{========{{+",
"+           +^<((^++++++++++++++++++++++++{ %%) ++++*#*=++++++++++++++++++++++++++++++++++{)%% ++++=##*++++++++++++++++++++++++++++++++++++++++++++++{)%%+++++=##= ++++++++++++++++++++++++++++++++{)%%)++++=##*{+++++++++++++++++++++++++ [[3^++{{{{========{{+",
"+           {}<(= ++++++++++++++++++++++++{ %%) +++{*#*=++++++++++++++++++++++++++++++++++{)%%)++++=##*{+++++++++++++++++++++++++++++++++++++++++++++{)%%+++++=##{ ++++++++++++++++++++++++++++++++{)%%)++++=##*{+++++++++++++++++++++++++{_3[_++{{{{========{{+",
"+           2((}+.++++++++++++++++++++++++{ %%) ++++*#*=++++++++++++++++++++++++++++++++++{)%% ++++=##*++++++++++++++++++++++++++++++++++++++++++++++{)%%+++++=##= ++++++++++++++++++++++++++++++++{)%% ++++=##*++++++++++++++++++++++++++{+_[3 +{{{{========{{+",
"+          +}((2 +++++++++++++++++++++++++{ %%) +++{*#*=++++++++++++++++++++++++++++++++++{)%%)++++=#(}++++++++++++++++++++++++++++++++++++++++++++++{)%%+++++=##{ ++++++++++++++++++++++++++++++++{)%%)++++=##*{++++++++++++++++++++++++++.^[33+{{{{========{{+",
"+          {((*+ +++++++++++++++++++++++++{ %%) ++++*#*=++++++++++++++++++++++++++++++++++{)>> ++++=##2++++++++++++++++++++++++++++++++++++++++++++++{)%%+++++=##= ++++++++++++++++++++++++++++++++{)%% ++++=##*{+++++++++++++++++++++++++++{_33 +{{{========{{+",
"+          =*#*+++++++++++++++++++++++++++{ %%) +++{*#*=++++++++++++++++++++++++++++++++++{)>>+++++*##{ +++++++++++++++++++++++++++++++++++++++++++++{)%%+++++=##{ ++++++++++++++++++++++++++++++++{)%%)++++=##*{+++++++++++++++++++++++++++{ %3_+{{{========{{+",
"+          =##=+++++++++++++++++++++++++++{ %%) ++++*#*=++++++++++++++++++++++++++++++++++{)%%+++++=##{ +++++++++++++++++++++++++++++++++++++++++++++{)%%+++++=##= ++++++++++++++++++++++++++++++++{)%%  +++=##*++++++++++++++++++++++++++++{ %%) {{{========{{+",
"+          =*&*+++++++++++++++++++++++++++{ %%) +++{*#*=++++++++++++++++++++++++++++++++++{%%%+++++*##{ +++++++++++++++++++++++++++++++++++++++++++++{)%%+++++=##{ ++++++++++++++++++++++++++++++++{)%%)++++=##*{+++++++++++++++++++++++++++{ )%) {{{========{{+",
"+          {&&*+ +++++++++++++++++++++++++{ %%) ++++*#*=++++++++++++++++++++++++++++++++++{)%%+++++=##{ +++++++++++++++++++++++++++++++++++++++++++++{)%%+++++=##= ++++++++++++++++++++++++++++++++{)%% ++++=##*{+++++++++++++++++++++++++++{ %%) {{{========{{+",
"+          +]&&{ +++++++++++++++++++++++++{ %%) +++{*#*=++++++++++++++++++++++++++++++++++{)%%+++++*##{ +++++++++++++++++++++++++++++++++++++++++++++{)%%+++++=##{ ++++++++++++++++++++++++++++++++{)%%)++++=##*{+++++++++++++++++++++++++++{ )%) {{{========{{+",
"+           ]&&.^+++++++++++++++++++++++++{ %%) ++++*#*=++++++++++++++++++++++++++++++++++{)%%+++++=##{ +++++++++++++++++++++++++++++++++++++++++++++{)%%+++++=##= ++++++++++++++++++++++++++++++++{)%%  +++=##*++++++++++++++++++++++++++++{ >>) {{{========{{+",
"+           +&|:{+++++++++++++++++++++++++{ %%) +++{*#*=++++++++++++++++++++++++++++++++++{)%%+++++*##{ +++++++++++++++++++++++++++++++++++++++++++++{)%%+++++=##{ ++++++++++++++++++++++++++++++++{)%%)++++=##*{+++++++++++++++++++++++++++{ >1@+{{{========{{+",
"+           +]||]+^+++++++++++++++++++++++{ %%) ++++*#*=++++++++++++++++++++++++++++++++++{)%%+++++=##{ +++++++++++++++++++++++++++++++++++++++++++++{)%%+++++=##= ++++++++++++++++++++++++++++++++{)%% ++++=##*{++++++++++++++++++++++++++^+@>>.{{{{========{{+",
"+            .]||'^+++++++++++++++++++++++{ %%) +++{*#*=++++++++++++++++++++++++++++++++++{)%%+++++*##{ +++++++++++++++++++++++++++++++++++++++++++++{)%%+++++=##{ ++++++++++++++++++++++++++++++++{)%%)++++=##*{+++++++++++++++++++++++++{+@11)+{{{{========{{+",
"+           ++.||&=+++++++++++++++++++++++{ %%) ++++*#*=++++++++++++++++++++++++++++++++++{)%%+++++=##{ +++++++++++++++++++++++++++++++++++++++++++++{)%%+++++=##= ++++++++++++++++++++++++++++++++{)%%)++++=##*+++++++++++++++++++++++++++.>11 +{{{{========{{+",
"+            ++]||:.+^++++++++++++++++++++{ %%) +++{*#*=++++++++++++++++++++++++++++++++++{%%%+++++*##{ +++++++++++++++++++++++++++++++++++++++++++++{)%%+++++=##{ ++++++++++++++++++++++++++++++++{)%>)++++=##*{+++++++++++++++++++++++^^ 111@++{{{{========{{+",
"+            + +]|||.+++++++++++++++++++++{ %%) ++++*#*=++++++++++++++++++++++++++++++++++{)%3 ++++=##{ +++++++++++++++++++++++++++++++++++++++++++++{)%%+++++=##= ++++++++++++++++++++++++++++++++{)>> ++++=#(}+++++++++++++++++++++++{{.@11@+++{{{{========{{+",
"+             +++:|||'+^++++++++++++++++++{ %%) +++{*#*=++++++++++++++++++++++++++++++++++{)%%)++++*#&. +++++++++++++++++++++++++++++++++++++++++++++{)%%+++++=##{ ++++++++++++++++++++++++++++++++{)%>+++++=##2 +++++++++++++++++++++^+.!11@++++{{{{========{{+",
"+           ++++++]|||:. ^++++++++++++++++{ %%) ++++*#*=++++++++++++++++++++++++++++++++++{)%% ++++=&&]++++++++++++++++++++++++++++++++++++++++++++++{)%%+++++=##= ++++++++++++++++++++++++++++++++{)%%+++++=##{ ++++++++++++++++++++2+.11!1 ++++{{{{========{{+",
"+             ++++.'|||:{^++++++++++++++++{ %%_ +++{*&&=++++++++++++++++++++++++++++++++++{)%%)++++=#&*{+++++++++++++++++++++++++++++++++++++++++++++{)%%+++++=##{ ++++++++++++++++++++++++++++++++{)%%+++++*##{ +++++++++++++++++++^^@111@.+++++{{{{========{{+",
"+            +++++++.:|||''^^+++++++++++++{ )%% ++++*&&=++++++++++++++++++++++++++++++++++{)%% ++++=##*{+++++++++++++++++++++++++++++++++++++++++++++{@>%+++++*##{ ++++++++++++++++++++++++++++++++{)%%+++++=##{ ++++++++++++++++^^{.!11!@+++++++{{{{========{{+",
"+            + ++++++.:||,:]+ ++++++++++++{ )3% ++++*#&*++++++++++++++++++++++++++++++++++{)%%)++++=##*+++++++++++++++++++++++++++++++++++++++++++++++>>)+++++*##{ ++++++++++++++++++++++++++++++++{>>%+++++*##{ +++++++++++++++{{+@1!!1@++++++++{{{{========{{+",
"+           ^^^++++++++',||,:.+^^+++++++++{+)%%)++++=#&*++++++++++++++++++++++++++++++++++{)%% ++++=##*{+++++++++++++++++++++++++++++++++++++++++++++ )%%++++{*##{ +++++++++++++++++++++++++++++++++>>%+++++*##{ ++++++++++++++^^.!!11!.++++++++^2{{{========{{+",
"+          +^;//^+++++++{:|,||:'.+^^++++++{ )%%)+++{=##*++++++++++++++++++++++++++++++++++{)%%)++++=##*++++++++++++++++++++++++++++++++++++++++++++++ %%)++++{*##{ ++++++++++++++++++++++++++++++++ )%)++++{*##{ +++++++++++^^{''11!!@++++++++;~}^+{{========{{+",
"+          +=<--_++++++++.':|,,,:{++++++++{+)%% ++++=&&*{ ++++++++++++++++++++++++++++++++{)%% ++++=##*{+++++++++++++++++++++++++++++++++++++++++++++ )%)++++{*##{ ++++++++++++++++++++++++++++++++ %%)++++{*##+ ++++++++++{^+@!!!1@'++++++++=<$/@+{{========{{+",
"+          +*#~[[/^+++++++++',||||,'.^^^++++)3%)++++=*&*{+++++++++++++++++++++++++++++++++{)%%)++++=##*++++++++++++++++++++++++++++++++++++++++++++++ %%)++++{*##{ ++++++++++++++++++++++++++++++++ >%)++++{*##{ ++++++^^^+''!111!'+++++++++;<<$3){{{========{{+",
"+          +]&#[[[[;^+++++++++.:,,,|:]. ++++ 3%)++++{&&#+ ++++++++++++++++++++++++++++++++{)%% ++++=##*{+++++++++++++++++++++++++++++++++++++++++++++ )%%++++{*##{ ++++++++++++++++++++++++++++++{+)>>)++++=*#*{ +++++{{..@!!!!!@+++++++++^}<<<)%){{{========{{+",
"+           =&&{/[[-/^+++++++++.':,||,,:.^^^ %%)++++{*##{ ++++++++++++++++++++++++++++++++{)%%)++++=##*++++++++++++++++++++++++++++++++++++++++++++++ %%)++++{*##{ ++++++++++++++++++++++++++++++++)>>)++++=(#*{+++^^^ '!!!!1!''+++++++++2~<<<;>>){{{========{{+",
"+           {#&]+_-[[[/;++++++++++.:,,|,|:''@%%)++++{*&#{ ++++++++++++++++++++++++++++++++{)%% ++++=##*{+++++++++++++++++++++++++++++++++++++++++++++ )%)++++{*##{ ++++++++++++++++++++++++++++++{+)>%)++++=##*^^^+.''!1!!!!' +++++++++;~<<<$2@>>){{{========{{+",
"+           {#&]{{^/[--/;++++++++++.'':|,,,,:)%%+++++*&#{ ++++++++++++++++++++++++++++++++{)%%)++++=##*++++++++++++++++++++++++++++++++++++++++++++{+ >>)++++{*##{ ++++++++++++++++++++++++++++++{ )>> ++++*##*{ .@!!!!!!@'.++++++++++2<<<<}^ )>> {{{========{{+",
"+           {*&]{+.+;-[[[/;^++++++++++.',,|||!>%+++++=&#{ ++++++++++++++++++++++++++++++++{)%% ++++=#&]{+++++++++++++++++++++++++++++++++++++++++++{+)>>)++++=(#*{ ++++++++++++++++++++++++++++++{ %>) ++++*##],!!!!1!!''+++++++++++;~<<<$;+. )>> {{{========{{+",
"+           {]&&=++{+^_---[/;^^++++++++++.':,,! +++++=#&{ ^+++++++++++++++++++++++++++++++{)%3) +++=*&]{+++++++++++++++++++++++++++++++++++++++++++++)>>)++++=##*{+++++++++++++++++++++++++++++++{+%>) ++++*#]!!!!!!!..++++++++++^;}<<$<}+++{ >>) {{{========{{+",
"+           +]&&=+++.+{;/[[--/; +++++++++++.'''++++++=#&]+^^^^++++++++++++++++++++++++++++{ %%) +++{*&#=+++++++++++++++++++++++++++++++++++++++++++{+)%% ++++=##*{ ++++++++++++++++++++++++++++++{^%>) ++++*|,!1!'''.+++++++++++2~$<<<~; .++{ >>@+{{{========{{+",
"+           +{&&* +++++..^/--[[/~;^++++++++++++++++++=&||:,'''.+^^^^^^++++++++++++++++++++{ %%) +++{*&#=+++++++++++++++++++++++++++++++++++++++++++++)%%)+++{=##*{+++++++++++++++++++++++++^^^^^^=@>> +++++{',!'.++++++++++++;;~<<<$$;{.++++{)>> {{{{========{{+",
"+            .&&* +++++++{2^_[----/^+++++++++++++++++{]:,,,,,,:'.{++++++++++++++++++++++++{ %%) +++{*##=+++++++++++++++++++++++++++++++++++++++++++{+)%%)++++=##*+++++++++++++++++++++++++++++{+.@!1> ++++++...++++++++++++^2~<$$<<;++++++++{@>>+{{{{========{{+",
"+            +*&& ++++++++..{;~-[[[-~~;+++++++++++++++.',,,|,,,,,,,,''..^^^^^^^^++++++++++{ %%) +++{*##= ++++++++++++++++++++++++++++++++++++++++++++)>>)+++{=##*++++++++++++++++^^^^^^;+.''',,!!!!1) +++++++++++++++++++;~$<<<<~;++.++++++++>>)+{{{{========{{+",
"+           + *&&.^++++++++++{.+;/----[/;;^+++++++++++++++.':,,,,,,,,,:::'''....+++^^^^+++{ %%) +++{*#*=+++++++++++++++++++++++++++++++++++++++++++{+)>> ++++*#(*+++++++++^^^^+++....'''@!!!!!!!,!!@.+++++++++++++++^^;;~<<$$$~2+++++++++++^ >>)+{{{{========{{+",
"+            +=&&]^+++++++++++.++;;//[----/;++++++++++++++++..'''::,,,,,,,,,,,,''.{^^^^^^^^ %%) +++{*##=+++++++++++++++++++++++++++++++++++++++++++{ %>) ++++*##={++++^^^^^^^^ .''!,!,,!!!!!!!!,'''.++++++++++++++++}~$$$<<<~;^+.+++++++++{+)>>)+{{{{========{{+",
"+            +=&&]2++++++++++++++..+^;----[-/~~^++++++++++++++++++.'':,,,,,,,,,,,,,,,',''''@%%) +++{*&*=^^^^^^^^^+++++++++++++++++++++++++++++++^^^2^%%) ++++*#(2{....'''',',!!!!!!!!!!!,,,''.+++++++++++++++++^;~~~<<<$$~;+..++++++++++++{^)>> +{{{{========{{+",
"+            ++]&&= +++++++++++++++++{^^_/-----/;+++++++++++++++++++.+...''::,,,,,,,,,,,,,,,@%% +++{]&&* .+++++++++++++++++++++++++++++++++++++++++{ %%) +++{*#*{@!''!!!,!,!,,,!,!!!!'''.+..+++++++++++++++^^^;~<$$$$$~}^^++++++++++++++++{ >>@++{{{{========{{+",
"+           + +]&&= ++++++++++++++++++..+^;~--[[3 +++++++++++++++++++++++++..''',',,,,,,,,,,!1) ++++=&||!,'',',''...............................'','!>>) ++++*&|,!!,!!!,!!!!!,,,'''...++++++++++++++++++++^~~$$<<<<~~;^+..++++++++++++++++{ >>)++{{{{========{{+",
"+             +{&&]++++++++++++++++++++++++..^/[3)++++++^;;;^^++++++++++++++++++++++{.'':',,,!@+++++{]|,,,,,,,,,,:,,,,,,,,,,,,,,,,,,,,,,,,,,,,,!!!,,,!>)+++++=,,,!,,,,,!'''.+++++++++++++++++++++++++++++{}<<$$$~;{+.++++++++++++++++++++++@>> ++{{{{========{{+",
"+            +++*&]{+++++++++++++++++++++++.+{2%%)+++++{}$-~/;^++++++++++++++++++++++++.....'..++++++.',,,,,,!,,,,,,,,,,,,,,,,,,,,,,,,,,,,,,,,,!!!,,,!@. +++++.''''''.....+++++++++++++++++++++++++++++++=(<<~;;;^++.+++++++++++++++++++++ @>> ++{{{{========{{+",
"+          +  +{*|&=+++++++++++++++++++++++++{.%%_+++++=(<------~~~;;^++++++++++++++++++++++++++++++++...''''''',,!,!,,!,,!,,!,,!,,!,,!,,!,,!,,,,'''''.++++++++++++++++++++++++++++++++++++^;;~~~~;++++++*#(;....++++++++++++++++++++++++^)>1) ++{{{{========{{+",
"+            +++=|&*+++++++++++++++++++++++++{+)%3 ++++*&*}----$----///;^^^^^^+++++++++++++++++++++++++++++.+.+.++++++++++++++++++++++++++++++++++.+.++++++++++++++++++++++++++++++^^^^^;;~~$$$$$-3 +++++*##^ ++++++++++++++++++++++++++{{)>1 +++{{{{========{{+",
"+             ++{]&&{ +++++++++++++++++++++++{+)%3)++++=&&*};~~-/--------$~~~;;;^+++++++++++++++++++++++++++++++++++++++++++++++++++++++++++++++++++++++++++++++++++++++++++++++^;;;~~$$$$$<$<$$/3%)++++{(#*++++++++++++++++++++++++++++{+>>>++++{{{{========{{+",
"+           +++++*&&.++++++++++++++++++++++++{+)3%)++++{]&&= ...+;/~-$-$-------~//~~;;;;;;^^^^++++++++++++++++++++++++++++++++++++++++++++++++++++++++++++++++++++++^+^;;;;;;~~~~~$$$$$$$$$$~~;;@>> +++{2(#*+ ++++++++++++++++++++++++++^.>>)++++{{{{========{{+",
"+            + ++=&&]++++++++++++++++++++++++++ _3) ++++]&&= +.+++^^^;;;////------$-$-$-~~~;;;^+++++++++++++++++++++++++++++++++++++++++++++++++++++++++++++++++++^;;;~~~~$$$$$$$$$$$<~~~;;;^^^ >>@ +++{*(#*++++++++++++++++++++++++++++^@1>)++++{{{{========{{+",
"+            ++++=&|&2+++++++++++++++++++++++++ _3% ++++=&#] +++++.+.....+^;;~~~$$----------$-_+++++++;~~;;;;;;;^^^^^^^^^^^^^^^^^^^^^^^^^^^^^^^^^;;;;;^++++++;~$$$$$$$$$$$$$$$$$$~~~~;^+......{ %>@ +++{*((=+++++++++++++++++++++++++++{ >1@ ++++{{{{========{{+",
"+             ++++]|&= +++++++++++++++++++++++++_3% ++++{&&]+++++++++++++++++++++++^;/~/~$-$--3)+++++=($-$-$$$$-/~~~~~~~~~~~~~~~~~~~~~~~~~~~~~~~~~$$-/ +++++2(<$$$$$$$$~$~~~}2++++++++++++++++{)>> ++++{#(}{+++++++++++++++++++++++++++=)>>@+++++{{{{========{{+",
"+           ++++++.&&&+++++++++++++++++++++++++{ %3 ++++{*&&{++++++++++++++++...+...+^^;;;;~~33)+++++*(<--$$$-----$$$$$$$$$$$$$$$$$$$$$$$$$$$$$$$$$$/_) +++{}((</~~~~~;;;;++++.....+.+++++++++{@>>+++++=#(}++++++++++++++++++++++++++++{@>> +++++{{{{========{{+",
"+            + ++++*&|.^+++++++++++++++++++++++{ %3_++++{*&&=+++++++++++++++++++++++++++.+...%%% ++++*#*}~~~~~~~-$$$-$-$-$-$-$-$-$-$-$-$-$-$-$-$$~~/3%) +++{*##=......+..+++++++++++++++++++++ >>)+++++=##2 ++++++++++++++++++++++++++^ 11)++++++{{{{========{{+",
"+            ++++++=&|]2+++++++++++++++++++++++{ %3_ ++++=&&]{ ++++++++++++++++++++++++++++{+)%% ++++*##2^^^^^^^2^;^;^;^;^;^;^;^;^;^;^;^;^;^;^;^;^^)%%) +++=*##=.+++++++++++++++++++++++++++{+)>>)+++++}(#{ +++++++++++++++++++++++++{^)11)++++++{{{{========{{+",
"+             +++++=]|&{ ++++++++++++++++++++++{ )33 ++++.&&#{ ++++++++++++++++++++++++++++{+%%) ++++*&&]+...+....................................+ >>) +++=*#*= +++++++++++++++++++++++++++++)>> ++++{((#{ +++++++++++++++++++++++++{ >>@+++++++{{{{========{{+",
"+           ++++++++]&&] ++++++++++++++++++++++{+ 33)+++++]&#+ ++++++++++++++++++++++++++++{+)%3 ++++=&&]^+++++++++++++++++++++++++++++++++++++++{+)>>)++++=##*{++++++++++++++++++++++++++++{+%>@ ++++=((*{+++++++++++++++++++++++++++@>>)+++++++{{{{========{{+",
"+            + +++++{&|:{^+++++++++++++++++++++++^3%)+++++*&&.+++++++++++++++++++++++++++++{+)%%)++++=#&*{++++++++++++++++++++++++++++++++++++++++{)%> ++++=#(*{++++++++++++++++++++++++++++{ >>)+++++*((=+++++++++++++++++++++++++++ @1> +++++++{{{{========{{+",
"+            +++++++{]|&*++++++++++++++++++++++++{)%3+++++=&&:{++++++++++++++++++++++++++++{+)%%)++++=*&*{+++++++++++++++++++++++++++++++++++++++{+)%> ++++=##={++++++++++++++++++++++++++++{@>>)+++++*#({++++++++++++++++++++++++++{)>1@ +++++++{{{{========{{+",
"+             +++++++{|&*++++++++++++++++++++++++{)33 ++++=]|&=++++++++++++++++++++++++++++{+)%%)++++=*&*{+++++++++++++++++++++++++++++++++++++++{{%>> ++++*##=+++++++++++++++++++++++++++++ @>> ++++{(#}++++++++++++++++++++++++++{{>>>.++++++++{{{{========{{+",
"+           ++++++++++]&&'^++++++++++++++++++++++{)%3_ +++{]&&=^+++++++++++++++++++++++++++{+)%3)++++{*&#= ++++++++++++++++++++++++++++++++++++++{{%%)+++++*##2+++++++++++++++++++++++++++++ >1> ++++2(#* +++++++++++++++++++++++++^.1>>+++++++++{{{{========{{+",
"+            + +++++++=&|:{++++++++++++++++++++++{ _3% ++++.&&* +++++++++++++++++++++++++++++ _3) +++{]&#= ++++++++++++++++++++++++++++++++++++++{{>%)+++++*#(^+++++++++++++++++++++++++++{{)>>@++++{}(#= ++++++++++++++++++++++++{ @1> +++++++++{{{{========{{+",
"+            +++++++++{]|&=+++++++++++++++++++++++ _3% +++++&&&.^++++++++++++++++++++++++++++ )%% +++{]##= ++++++++++++++++++++++++++++++++++++++{.>%)+++++*##+ ++++++++++++++++++++++++++{+)>>.++++=((({+++++++++++++++++++++++++{ >1@ +++++++++{{{{========{{+",
"+             +++++++++.|&:+^++++++++++++++++++++++;33)+++++*&|]^++++++++++++++++++++++++++++ )%) ++++*&#= +++++++++++++++++++++++++++++++++++++++ >>)+++++*##+++++++++++++++++++++++++++++.>>)+++++=#(}+++++++++++++++++++++++++^+@1> ++++++++++{{{{========{{+",
"+           ++++++++++++*||]^+++++++++++++++++++++{+%3_+++++=&&]2+++++++++++++++++++++++++++++_3% ++++=&#= +++++++++++++++++++++++++++++++++++++++ >%)++++{(#*+ +++++++++++++++++++++++++{^@1>)+++++*((2++++++++++++++++++++++++{^)11).++++++++++{{{{========{{+",
"+            + +++++++++{&|&{ ++++++++++++++++++++{+)33 ++++{]&&2 +++++++++++++++++++++++++++=_%% ++++{&&= +++++++++++++++++++++++++++++++++++++++)>>)++++{##*+++++++++++++++++++++++++++{ >1> ++++{(##+ +++++++++++++++++++++++{+>>1++++++++++++{{{{========{{+",
"+            ++++++++++++]&&:^++++++++++++++++++++{+)33) ++++]&&= +++++++++++++++++++++++++++{ %% ++++{#&]++++++++++++++++++++++++++++++++++++++{ )>> +++{=##*+++++++++++++++++++++++++++{ >>@+++++=((*+++++++++++++++++++++++++^@1>)++++++++++++{{{{========{{+",
"+             +++++++++++.&||=^+++++++++++++++++++++ _3%+++++{&&:++++++++++++++++++++++++++++{)%3 ++++{##]++++++++++++++++++++++++++++++++++++++{ %>) +++{=(#*++++++++++++++++++++++++++++@>> ++++{*((=+++++++++++++++++++++++++^111 ++++++++++++{{{{========{{+",
"+           ++++++++++++++=|&]+ ++++++++++++++++++++{_3%^++++{*||=^++++++++++++++++++++++++++{ %%)++++{*&]{+++++++++++++++++++++++++++++++++++++{ %>) +++{*##=+++++++++++++++++++++++++++ @>>+++++{#((++++++++++++++++++++++++^{@>1.+++++++++++++{{{{========{{+",
"+            + ++++++++++++]&|'^++++++++++++++++++++{ %3_++++{=|&*+++++++++++++++++++++++++++{ %%)++++{*&&=+++++++++++++++++++++++++++++++++++++{ >>) +++{*((=+++++++++++++++++++++++++{+)11)+++++=((}+++++++++++++++++++++++{^@11)++++++++++++++{{{{========{{+",
"+            ++++++++++++++=||&2++++++++++++++++++++{ %[_ ++++{&&&+++++++++++++++++++++++++++{ %3_ +++{*&*=+++++++++++++++++++++++++++++++++++++{ %>@++++{##*{+++++++++++++++++++++++++{^)>> ++++{}(#= ++++++++++++++++++++++{ >11 ++++++++++++++{{{{========{{+",
"+             ++++++++++++++]|&] ^++++++++++++++++++{._33)+++++]&&.^+++++++++++++++++++++++++{ )3% ++++*&&*+++++++++++++++++++++++++++++++++++++{)%> ++++{##}{+++++++++++++++++++++++++{.>>@+++++=((*{ +++++++++++++++++++++^{@1>@+++++++++++++++{{{{========{{+",
"+           +++++++++++++++++]||=^+++++++++++++++++++.^33)+++++=&|]{+++++++++++++++++++++++++{ )%% +++{=&&*+++++++++++++++++++++++++++++++++++++{)>> ++++=##}++++++++++++++++++++++++++^@1>)+++++*(<2.+++++++++++++++++++++{^ 11>.+++++++++++++++{{{{========{{+",
"+            + ++++++++++++++=||&{ +++++++++++++++++++2%33^++++=]|&= ++++++++++++++++++++++++{ )%%)++++=&&*+++++++++++++++++++++++++++++++++++++{)>%+++++=##2 +++++++++++++++++++++++++ >1@ +++++(#(+++++++++++++++++++++++{.>11 ++++++++++++++++{{{{========{{+",
"+            +++++++++++++++++]&|:^++++++++++++++++++{{)3[_+++++]|&] ++++++++++++++++++++++++{+)3%)++++{]&#+ ++++++++++++++++++++++++++++++++++++@>%+++++=##= +++++++++++++++++++++++{{)>1)++++{2((* +++++++++++++++++++++{^@11).++++++++++++++++{{{{========{{+",
"+             ++++++++++++++++{]||=^++++++++++++++++++. 3[% +++++&&&.^+++++++++++++++++++++++++ 3%)++++{*&#{ +++++++++++++++++++++++++++++++++++ >>)+++++}##{ ++++++++++++++++++++++++.>>>.++++{(<(=+++++++++++++++++++++++ 11@ +++++++++++++++++{{{{========{{+",
"+           +++++++++++++++++++.|&:+^+++++++++++++++++++_33 +++++*&|]^++++++++++++++++++++++++++_%%+++++*&#+ +++++++++++++++++++++++++++++++++{+)>>)++++{*(#{ +++++++++++++++++++++++^@11)+++++=((}{+++++++++++++++++++++^+111 ++++++++++++++++++{{{{========{{+",
"+            + +++++++++++++++++]||:^ +++++++++++++++++{^%3_+++++=:|&2 ++++++++++++++++++++++++{%%)+++++*&&.++++++++++++++++++++++++++++++++++{+)>>)++++=#(*{ ++++++++++++++++++++++{^>11 +++++*((2+++++++++++++++++++++{^@11@+++++++++++++++++++{{{{========{{+",
"+            +++++++++++++++++++{:||] ^++++++++++++++++{+%33 +++++]&&] +++++++++++++++++++++++{{)%%+++++=#&]++++++++++++++++++++++++++++++++++{+)>> ++++=(#*{+++++++++++++++++++++++{@>>@+++++{((#+++++++++++++++++++++^2@11@++++++++++++++++++++{{{{========{{+",
"+             +++++++++++++++++++{&||=^++++++++++++++++{+)[3)+++++=&|:+^+++++++++++++++++++++++{)%3 ++++=#&]{+++++++++++++++++++++++++++++++++++%>> ++++*#(*+++++++++++++++++++++++^+11> +++++*<(*++++++++++++++++++++{{ 11> ++++++++++++++++++++{{{{========{{+",
"+           ++++++++++++++++++++++]||&.+++++++++++++++++++_33 ++++{]|&=^+++++++++++++++++++++++{)%3)++++=&&]{+++++++++++++++++++++++++++++++++{^%>)+++++*#(=++++++++++++++++++++++{^)11)+++++{#((+++++++++++++++++++++^.111.+++++++++++++++++++++{{{{========{{+",
"+            + ++++++++++++++++++++]||:++++++++++++++++++{_33_+++++{|&&+ ++++++++++++++++++++++{)%3) +++=*&&=+++++++++++++++++++++++++++++++++{.%>)+++++*#({++++++++++++++++++++++{+>>1++++++2((} +++++++++++++++++++{ @11@++++++++++++++++++++++{{{{========{{+",
"+            ++++++++++++++++++++++{:||]+++++++++++++++++{ _[3 +++++]&|'2++++++++++++++++++++++{ %%) +++{]&&=+++++++++++++++++++++++++++++++++{@>>)+++++##(+++++++++++++++++++++++^@1>)+++++{(<#{ +++++++++++++++++++{@11@ ++++++++++++++++++++++{{{{========{{+",
"+             ++++++++++++++++++++++.:||]^++++++++++++++++._33)+++++=&|&2+++++++++++++++++++++++ )3% ++++]&&* +++++++++++++++++++++++++++++++++@>% ++++{##* +++++++++++++++++++++{ @1> +++++*(<}.+++++++++++++++++++^.111.+++++++++++++++++++++++{{{{========{{+",
"+           +++++++++++++++++++++++++=|||. ++++++++++++++++^_33^++++{]|&] ++++++++++++++++++++++ _3% ++++{&&* ++++++++++++++++++++++++++++++++ >>> ++++2(#* +++++++++++++++++++++{@>1@++++++(((^.++++++++++++++++++{.111 ++++++++++++++++++++++++{{{{========{{+",
"+            + +++++++++++++++++++++++.|||{^+++++++++++++++{)3[_+++++.&&:{^++++++++++++++++++++++_3% +++++&#]+++++++++++++++++++++++++++++++++ >>) +++{}(#= ++++++++++++++++++++^ 1>@++++++}<(* ++++++++++++++++++{ 111.+++++++++++++++++++++++++{{{{========{{+",
"+            +++++++++++++++++++++++++{.|||{^+++++++++++++++ _[% +++++=||]^+++++++++++++++++++++{^%%)+++++*&&++++++++++++++++++++++++++++++++{)>>) +++=*(#=++++++++++++++++++++{^@11)+++++=(<(.++++++++++++++++++^.111@++++++++++++++++++++++++++{{{{========{{+",
"+             ++++++++++++++++++++++++++]||:{ ++++++++++++++{_33_+++++=]|&. ++++++++++++++++++++{+%3)+++++*&&=+++++++++++++++++++++++++++++++{)>>@++++=#(*{++++++++++++++++++++{ >1@ +++++}((}.+++++++++++++++++{+111@+++++++++++++++++++++++++++{{{{========{{+",
"+           ++++++++++++++++++++++++++++{]||:+^+++++++++++++{+%[3 +++++.&|:2^+++++++++++++++++++{+%%_ ++++*&&]++++++++++++++++++++++++++++++{{)>>+++++=#(}{+++++++++++++++++++^^11>.+++++=(((+ ++++++++++++++++^+111@++++++++++++++++++++++++++++{{{{========{{+",
"+            + ++++++++++++++++++++++++++{:||:+ ^+++++++++++++ [3_+++++{]||] +++++++++++++++++++++)%3 ++++=&&*{+++++++++++++++++++++++++++++{+>>)+++++*#(2+++++++++++++++++++{{)11)++++++}<(=.++++++++++++++++2+@11@+++++++++++++++++++++++++++++{{{{========{{+",
"+            +++++++++++++++++++++++++++++.:||:{^++++++++++++++_33^+++++.:&|.^++++++++++++++++++{+)33)++++{]&&2 +++++++++++++++++++++++++++++.>>)+++++*##^ ++++++++++++++++++^.11@.+++++2(((+++++++++++++++++{^@11@.+++++++++++++++++++++++++++++{{{{========{{+",
"+             +++++++++++++++++++++++++++++{:||:.^++++++++++++{ 3[_ ++++{=||]2++++++++++++++++++{+)33)++++{]&#2 ++++++++++++++++++++++++++++^@>>)++++^*##+ +++++++++++++++++{ 11>)+++++{(<(= +++++++++++++++2{111@ ++++++++++++++++++++++++++++++{{{{========{{+",
"+           ++++++++++++++++++++++++++++++++.:||:{ +++++++++++{._[3)+++++{]|&] +++++++++++++++++++ _%%+++++=&&= +++++++++++++++++++++++++++{ )>>)++++2((*++++++++++++++++++^{@>1@++++++*(<}.+++++++++++++++{+1!11.+++++++++++++++++++++++++++++++{{{{========{{+",
"+            + ++++++++++++++++++++++++++++++{:||:.^+++++++++++.^333^+++++.&||{^+++++++++++++++++++_3% ++++=#&] +++++++++++++++++++++++++++{ >>@ +++{=((*+++++++++++++++++{^ 11@.+++++^(((^.++++++++++++++^+111@.++++++++++++++++++++++++++++++++{{{{========{{+",
"+            +++++++++++++++++++++++++++++++++{:|||. ^+++++++++{+)3[_++++++=||]+ +++++++++++++++++{_%% ++++{*&:{+++++++++++++++++++++++++++{ >>@++++{*((=+++++++++++++++++{+>11 +++++{}<(*+ +++++++++++++2.111@.+++++++++++++++++++++++++++++++++{{{{========{{+",
"+             +++++++++++++++++++++++++++++++++.:|||=++++++++++++ _[3 ++++++]||:++++++++++++++++++=)%3 ++++{]&&=+++++++++++++++++++++++++++{)>> ++++{#(({++++++++++++++++++@11@++++++=(<}.++++++++++++++{ 111@.++++++++++++++++++++++++++++++++++{{{{========{{+",
"+           +++++++++++++++++++++++++++++++++++++'|||'+++++++++++{^3[3++++++{&||=+++++++++++++++++{ %3_ +++{*&&*++++++++++++++++++++++++++++@>% ++++{##}++++++++++++++++++)11@ +++++{(<(2 ++++++++++++^^'111@++++++++++++++++++++++++++++++++++++{{{{========{{+",
"+            + +++++++++++++++++++++++++++++++++++]|||].++++++++++._[[_+++++{.||:.^+++++++++++++++{ %3_ ++++.&&*+++++++++++++++++++++++++++ >>)+++++=(#2 ++++++++++++++++.111.++++++}<<}.++++++++++++{{@1!1@+++++++++++++++++++++++++++++++++++++{{{{========{{+",
"+            ++++++++++++++++++++++++++++++++++++++'|||:{^++++++++.{_33; +++++]||]2+++++++++++++++{._33)++++{]&&+ +++++++++++++++++++++++{+)>>) +++{}(#= +++++++++++++++ 111)++++++}<(}+.+++++++++++^ @!11'++++++++++++++++++++++++++++++++++++++{{{{========{{+",
"+             ++++++++++++++++++++++++++++++++++++++.:||:.+^++++++++ 3[_ +++++{]||: ^+++++++++++++++^3%)+++++*&&.++++++++++++++++++++++++{+)>1 ++++=((#{ +++++++++++++^+@11@++++++2(<(=+++++++++++^{.1111 +++++++++++++++++++++++++++++++++++++++{{{{========{{+",
"+           +++++++++++++++++++++++++++++++++++++++++.:|||'^ ++++++{._[3_^+++++.]||]+++++++++++++++{^3%%+++++=&&]++++++++++++++++++++++++{+>>@ ++++=((*{+++++++++++++{+@11@++++++2((<}.++++++++++{^@1!1!.++++++++++++++++++++++++++++++++++++++++{{{{========{{+",
"+            + +++++++++++++++++++++++++++++++++++++++.:|||:+^++++++{^_[[ +++++++|||'^^++++++++++++{+)%3^++++=&&]2^^^^^^^^^^^^^^^^^^^^^^^2 >>)+++++*((=+++++++++++++++@11@++++++{}<<}++++++++++^^+'!11@.+++++++++++++++++++++++++++++++++++++++++{{{{========{{+",
"+            +++++++++++++++++++++++++++++++++++++++++++'|||:. +++++{. [[3^++++++=|||= ^+++++++++++{{)33_++++{]|&]...'''.'''.'''.'''......@1> +++++*((^++++++++++++^{@111 ++++++}(<({.++++++++{{.@1!1@+++++++++++++++++++++++++++++++++++++++++++{{{{========{{+",
"+             +++++++++++++++++++++++++++++++++++++++++++':|||'{^+++++{^3[[ ++++++.|||.^++++++++++^^+ 33) ++++]&|:!,!,,,,,,,,,,,,,,,,,,,,!11> ++++2(#} +++++++++++{^ 111.++++++=<<(2 ++++++++^+@!!11'++++++++++++++++++++++++++++++++++++++++++++{{{{========{{+",
"+           ++++++++++++++++++++++++++++++++++++++++++++++{:,||:' ^+++{._[[_^+++++{]|||. ^+^^^^++.'''!@>% +++++]|,,!!,,,,,,,,,,,,,,,,,,,,!!1@++++{*##:''++^^^^^++^2.111 ++++++^(<<2.+++++++^2.!111@++++++++++++++++++++++++++++++++++++++++++++++{{{{========{{+",
"+            + ++++++++++++++++++++++++++++++++++++++++++++..||,|]+++++++_[[_+++++++]|||=++{+..'@!!!,!!1@ +++++{:,!!'!''',''',''',''::,,,,!@.++++{=]|,,,:'..+++++^.111@++++++2}<<}++++++++{+ 1!!!@.++++++++++++++++++++++++++++++++++++++++++++++{{{{========{{+",
"+            ++++++++++++++++++++++++++++++++++++++++++++++++.,|||,.^^++{+_[[_+++++++'|||''',!!!!!!!!!!'.+++++++.'''.................'''''.+++++++{::,,|,,,,,,''{'111@{++++++}<<}+++++++^^.!!11!.++++++++++++++++++++++++++++++++++++++++++++++++{{{{========{{+",
"+             +++++++++++++++++++++++++++++++++++++++++++++++++.|,|::. ^++^_[[_+++++++]||,!!!!!!,!!'''.++++++++++++++++++++++++++++++++++++++++++++.'':,,,,,,,,:,111@++++++^}<<}+++++^+{.@11!!@++++++++++++++++++++++++++++++++++++++++++++++++++{{{{========{{+",
"+           ++++++++++++++++++++++++++++++++++++++++++++++++++++.:||,:'{^++^[33^+++++++::,,!!!''''..+.+++++++++++++++++++++++++++++++++++++++++++++++...'''::,|,,!1'++++++{}<<(2++++{^+.!!!1!.+++++++++++++++++++++++++++++++++++++++++++++++++++{{{{========{{+",
"+            + +++++++++++++++++++++++++++++++++++++++++++++++++++',|||:'++{_3[[^+++++++':!'.+++++++++++++++++++++++++++++++++++++++++++++++++++++++++++++++.'',,!.+++++++}<<<2+++^^{.!111!'+++++++++++++++++++++++++++++++++++++++++++++++++++++{{{{========{{+",
"+            ++++++++++++++++++++++++++++++++++++++++++++++++++++++.:|,,|:.+._[[[^+++++++.++++++++++++++++++++++++++^^^^^^^^^^^^^^^^^^^+++++++++++++++++++++++..+++++++++2<((2+ +{{.@!!!1@.++++++++++++++++++++++++++++++++++++++++++++++++++++++{{{{========{{+",
"+             +++++++++++++++++++++++++++++++++++++++++++++++++++++++':|||,:.2/[[_ ++++++++++++++++++++++++++++++++;~~$~~$~~$~~$~~$~~~~;++++++++++++++++++++++++++++++++{(<<2 +^^.!!!11!'++++++++++++++++++++++++++++++++++++++++++++++++++++++++{{{{========{{+",
"+           +++++++++++++++++++++++++++++++++++++++++++++++++++++++++++.:,|||:')3%)++++++++++++++^^;;;;~~~~;++++++=(<$$$$$$$$$$$$$$----_ ++++++^;;~;;;^^^+++++++++++++++*((}++{''11!!!'++++++++++++++++++++++++++++++++++++++++++++++++++++++++++{{{{========{{+",
"+            + +++++++++++++++++++++++++++++++++++++++++++++++++++++++++.':|,,,,1>)+++++++++++++{2;~$$$$$$-/ +++++=*#}~/~~~~~~~~~~~/-/[%)+++++{}$$$--/~;;^++++++++++++++*&|'+ @!!!!1'.+++++++++++++++++++++++++++++++++++++++++++++++++++++++++++{{{{========{{+",
"+            +++++++++++++++++++++++++++++++++++++++++++++++++++++++++++++.',|,,!@ +++++++++++++{=}<$$$$$-[3_+++++=&&*};^;^^;^^;^^^;~_>>)+++++=(<$-----/   +++++++++++++{:||:!11!!'++++++++++++++++++++++++++++++++++++++++++++++++++++++++++++++{{{{========{{+",
"+             +++++++++++++++++++++++++++++++++++++++++++++++++++++++++++++++':,@.++++++++++++++{]]#(};;2^333^+++++]|&= +++++++++++{ >1> +++++*(<;;;//_%) ++++++++++++++{.||,!!1.++++++++++++++++++++++++++++++++++++++++++++++++++++++++++++++++{{{{========{{+",
"+           ++++++++++++++++++++++++++++++++++++++++++++++++++++++++++++++++++....+++++++++++++++=]||,:.{+)3[) ++++.&&|++++++++++++{@>1@+++++2((#^^.'!1>@ ++++++++++++++++.:!!'.+++++++++++++++++++++++++++++++++++++++++++++++++++++++++++++++++{{{{========{{+",
"+            + ++++++++++++++++++++++++++++++++++++++++++++++++++++++++++++++++++++++++++++++++++{':,,|::'.333 +++++*||]^+++++++++^ 11>+++++{}<(]'!11!!@.+++++++^^;^+++++++..++++++++++++++++++++++++++++++++++++++++++++++++++++++++++++++++++++{{{{========{{+",
"+            ++++++++++++++++++++++++++++++++++++++++++++++++++++++++++++++++++++++++++++++++++++++.':|,,,:^33_+++++{:|&.++++++++{+>11 +++++=(<}!!!!!1'.+++++++{2;~ +++++++++++++++++++++++++++++++++++++++++++++++++++++++++++++++++++++++++++++{{{{========{{+",
"+             +++++++++++++++++++++++++++++++++++++++++++++++++++++++++++++++++++++++++++++++++++++++.',|||,13_ +++++=||:2^+++++^{@11@++++++*#&!!1!!'++++++++++{== ) ++++++++++++++++++++++++++++++++++++++++++++++++++++++++++++++++++++++++++++{{{{========{{+",
"+           +++++++++++++++++++++++++++++++++++++++++++++++++++++++++++++++++++++++++++++++++++++++++++{':,,,@%)++++++]||] ^+++{{@11@ +++++{}],!!@'++++++++++++{.''. ++++++++++++++++++++++++++++++++++++++++++++++++++++++++++++++++++++++++++++{{{{========{{+",
"+            + ++++++++++++++++++++++++++++++++++++++++++++++++++++++++++++++++++++++++++++++++++++++++++'',|:@)+++++++]||:^^^^^@111.++++++{{'!!'.+++++++++++++++.'++++++++++++++++++++++++++++++++++++++++++++++++++++++++++++++++++++++++++++++{{{{========{{+",
"+            +++++++++++++++++++++++++++++++++++++++++++++++++++++++++++++++++++++++++++++++++++++++++++++++.''++++++++{:||:'''!111+++++++++.'++++++++++++++++++++++++++++++++++++++++++++++++++++++++++++++++++++++++++++++++++++++++++++++++++{{{{{========{{+",
"+             +++++++++++++++++++++++++++++++++++++++++++++++++++++++++++++++++++++++++++++++++++++++++++++++.+++++++++{.:|,,,!!1@+++++++++++++++++++++++++++++++++++++++++++++++++++++++++++++++++++++++++++++++++++++++++++++++++++++++++++++++{{{{{======={{+",
"+           ^^++^^^^^^^^^^^^^^^^^^^^^^^^^^^^^^^^^^^^^^^^^^^^^^^^^^^^^^^^^^^^^^^^^^^^^^^^^^^^^^^^^^^^^^^^^^^^^^^^^^^^^^^^^+:,,,!!'.+^^^^^^^^^^^^^^^^^^^^^^^^^^^^^^^^^^^^^^^^^^^^^^^^^^^^^^^^^^^^^^^^^^^^^^^^^^^^^^^^^^^^^^^^^^^^^^^^^^^^^^^^^^^+^^^2{{========{{+",
"++          ^ ^^^^^^^^^^^^^^^^^^^^^^^^^^^^^^^^^^^^^^^^^^^^^^^^^^^^^^^^^^^^^^^^^^^^^^^^^^^^^^^^^^^^^^^^^^^^^^^^^^^^^^^^^^^^^{.'.++^^^^^^^^^^^^^^^^^^^^^^^^^^^^^^^^^^^^^^^^^^^^^^^^^^^^^^^^^^^^^^^^^^^^^^^^^^^^^^^^^^^^^^^^^^^^^^^^^^^^^^^^^^^^^^^{^2222======={{+",
"+         ^^ ^^^^^^^^^^^^^^^^^^^^^^^^^^^^^^^^^^^^^^^^^^^^^^^^^^^^^^^^^^^^^^^^^^^^^^^^^^^^^^^^^^^^^^^^^^^^^^^^^^^^^^^^^^^^^^^^+^^^^^^^^^^^^^^^^^^^^^^^^^^^^^^^^^^^^^^^^^^^^^^^^^^^^^^^^^^^^^^^^^^^^^^^^^^^^^^^^^^^^^^^^^^^^^^^^^^^^^^^^^^^^^^^^^^^^22222======{{+",
"++       ^ ^^^^^^^^^^^^^^^^^^^^^^^^^^^^^^^^^^^^^^^^^^^^^^^^^^^^^^^^^^^^^^^^^^^^^^^^^^^^^^^^^^^^^^^^^^^^^^^^^^^^^^^^^^^^^^^^^^^^^^^^^^^^^^^^^^^^^^^^^^^^^^^^^^^^^^^^^^^^^^^^^^^^^^^^^^^^^^^^^^^^^^^^^^^^^^^^^^^^^^^^^^^^^^^^^^^^^^^^^^^^^^^^^^^^^^22222222=={={{+",
"++     ; ; ; ;^;^;;^;^;^;^;^;^;^;^;^;^;^;^;^;^;^;^;^;^;^;^;^;^;^;^;^;^;^;^;^;^;^;^;^;^;^;^;^;^;^;^;^;^;^;^;^;^;^;^;^;^;^;^;^;^;^;^;^;^;^;^;^;^;^;^;^;^;^;^;^;^;^;^;^;^;^;^;^;^;^;^;^;^;^;^;^;^;^;^;^;^;^;^;^;^;^;^;^;^;^;^;^;^;^;^;^;^;^;^;^;^;;;;222222===={{{+",
"+++  ^  _ ;^;;;;;;;;;;;;;;;;;;;;;;;;;;;;;;;;;;;;;;;;;;;;;;;;;;;;;;;;;;;;;;;;;;;;;;;;;;;;;;;;;;;;;;;;;;;;;;;;;;;;;;;;;;;;;;;;;;;;;;;;;;;;;;;;;;;;;;;;;;;;;;;;;;;;;;;;;;;;;;;;;;;;;;;;;;;;;;;;;;;;;;;;;;;;;;;;;;;;;;;;;;;;;;;;;;;;;;;;;;;;;;;;;;;;;;2;2222222={{{+",
"++    ^;^;;;;;;;;;;;;;;;;;;;;;;;;;;;;;;;;;;;;;;;;;;;;;;;;;;;;;;;;;;;;;;;;;;;;;;;;;;;;;;;;;;;;;;;;;;;;;;;;;;;;;;;;;;;;;;;;;;;;;;;;;;;;;;;;;;;;;;;;;;;;;;;;;;;;;;;;;;;;;;;;;;;;;;;;;;;;;;;;;;;;;;;;;;;;;;;;;;;;;;;;;;;;;;;;;;;;;;;;;;;;;;;;;;;;;;;;;;2;22222=2{{{+",
"+++ ^ ^_^;_;;;;;;;;;;;;;;;;;;;;;;;;;;;;;;;;;;;;;;;;;;;;;;;;;;;;;;;;;;;;;;;;;;;;;;;;;;;;;;;;;;;;;;;;;;;;;;;;;;;;;;;;;;;;;;;;;;;;;;;;;;;;;;;;;;;;;;;;;;;;;;;;;;;;;;;;;;;;;;;;;;;;;;;;;;;;;;;;;;;;;;;;;;;;;;;;;;;;;;;;;;;;;;;;;;;;;;;;;;;;;;;;;;;;;;;;;2;222222{{++",
"++++^^^^^;;;;;;;;;;;;;;;;;;;;;;;;;;;;;;;;;;;;;;;;;;;;;;;;;;;;;;;;;;;;;;;;;;;;;;;;;;;;;;;;;;;;;;;;;;;;;;;;;;;;;;;;;;;;;;;;;;;;;;;;;;;;;;;;;;;;;;;;;;;;;;;;;;;;;;;;;;;;;;;;;;;;;;;;;;;;;;;;;;;;;;;;;;;;;;;;;;;;;;;;;;;;;;;;;;;;;;;;;;;;;;;;;;;;;;;;;;;;222222{{{++",
"++++^ ^ ;^;;;;;;;;;;;;;;;;;;;;;;;;;;;;;;;;;;;;;;;;;;;;;;;;;;;;;;;;;;;;;;;;;;;;;;;;;;;;;;;;;;;;;;;;;;;;;;;;;;;;;;;;;;;;;;;;;;;;;;;;;;;;;;;;;;;;;;;;;;;;;;;;;;;;;;;;;;;;;;;;;;;;;;;;;;;;;;;;;;;;;;;;;;;;;;;;;;;;;;;;;;;;;;;;;;;;;;;;;;;;;;;;;;;;;;;;;;2;;2222{{{++",
"+++++^ ^;^;;;;;;;;;;;;;;;;;;;;;;;;;;;;;;;;;;;;;;;;;;;;;;;;;;;;;;;;;;;;;;;;;;;;;;;;;;;;;;;;;;;;;;;;;;;;;;;;;;;;;;;;;;;;;;;;;;;;;;;;;;;;;;;;;;;;;;;;;;;;;;;;;;;;;;;;;;;;;;;;;;;;;;;;;;;;;;;;;;;;;;;;;;;;;;;;;;;;;;;;;;;;;;;;;;;;;;;;;;;;;;;;;;;;;;;;;;222222{{++++",
"++++++^^^^^^;^;^;;;;;;;;;;;;;;;;;;;;;;;;;;;;;;;;;;;;;;;;;;;;;;;;;;;;;;;;;;;;;;;;;;;;;;;;;;;;;;;;;;;;;;;;;;;;;;;;;;;;;;;;;;;;;;;;;;;;;;;;;;;;;;;;;;;;;;;;;;;;;;;;;;;;;;;;;;;;;;;;;;;;;;;;;;;;;;;;;;;;;;;;;;;;;;;;;;;;;;;;;;;;;;;;;;;;;;;;;;;;;;;;;;^;;^^^2{{{++.+",
"+.+++++^^^^^^^^^^^^^^^^^^^^^^^^^^^^^^^^^^^^^^^^^^^^^^^^^^^^^^^^^^^^^^^^^^^^^^^^^^^^^^^^^^^^^^^^^^^^^^^^^^^^^^^^^^^^^^^^^^^^^^^^^^^^^^^^^^^^^^^^^^^^^^^^^^^^^^^^^^^^^^^^^^^^^^^^^^^^^^^^^^^^^^^^^^^^^^^^^^^^^^^^^^^^^^^^^^^^^^^^^^^^^^^^^^^^^^^^^^^^^^^2^^+{+++..",
"..{++++++^^^^^^^^^^^^^^^^^^^^^^^^^^^^^^^^^^^^^^^^^^^^^^^^^^^^^^^^^^^^^^^^^^^^^^^^^^^^^^^^^^^^^^^^^^^^^^^^^^^^^^^^^^^^^^^^^^^^^^^^^^^^^^^^^^^^^^^^^^^^^^^^^^^^^^^^^^^^^^^^^^^^^^^^^^^^^^^^^^^^^^^^^^^^^^^^^^^^^^^^^^^^^^^^^^^^^^^^^^^^^^^^^^^^^^^^^^^^^+++++.+...",
"{{{+++++++++++++++++++++++++++++++++++++++++++++++++++++++++++++++++++++++++++++++++++++++++++++++++++++++++++++++++++++++++++++++++++++++++++++++++++++++++++++++++++++++++++++++++++++++++++++++++++++++++++++++++++++++++++++++++++++++++++++++++++++++++++ +"};
